P3
400 225
255
217 233 255
217 233 255
217 233 255
217 233 255
217 233 255
217 233 255
217 233 255
217 233 255
217 233 255
217 233 255
217 233 255
217 233 255
217 233 255
217 233 255
217 233 255
217 233 255
217 233 255
217 233 255
217 233 255
217 233 255
217 233 255
217 233 255
217 233 255
217 233 255
217 233 255
217 233 255
217 233 255
217 233 255
217 233 255
217 233 255
217 233 255
217 233 255
217 233 255
217 233 255
217 233 255
217 233 255
217 233 255
217 233 255
217 233 255
217 233 255
217 233 255
217 233 255
217 233 255
217 233 255
217 233 255
217 233 255
217 233 255
217 233 255
217 233 255
217 233 255
217 233 255
217 233 255
217 233 255
217 233 255
217 233 255
217 233 255
217 233 255
217 233 255
217 233 255
217 233 255
217 233 255
217 233 255
216 233 255
216 233 255
216 233 255
216 233 255
216 233 255
216 233 255
216 233 255
216 233 255
216 233 255
216 233 255
216 233 255
216 233 255
216 233 255
216 233 255
216 233 255
216 233 255
216 233 255
216 233 255
216 233 255
216 233 255
216 233 255
216 233 255
216 233 255
216 233 255
216 233 255
216 233 255
216 233 255
216 233 255
216 233 255
216 233 255
216 233 255
216 233 255
216 233 255
216 233 255
216 233 255
216 233 255
216 233 255
216 233 255
216 233 255
216 233 255
216 233 255
216 233 255
216 233 255
216 233 255
216 233 255
216 232 255
216 232 255
216 232 255
216 232 255
216 232 255
216 232 255
216 232 255
216 232 255
216 232 255
216 232 255
216 232 255
216 232 255
216 232 255
216 232 255
216 232 255
216 232 255
216 232 255
216 232 255
216 232 255
216 232 255
216 232 255
216 232 255
215 232 255
215 232 255
215 232 255
215 232 255
215 232 255
215 232 255
215 232 255
215 232 255
215 232 255
215 232 255
215 232 255
215 232 255
215 232 255
215 232 255
215 232 255
215 232 255
215 232 255
215 232 255
215 232 255
215 232 255
215 232 255
215 232 255
215 232 255
215 232 255
215 232 255
215 232 255
215 232 255
215 232 255
215 232 255
215 232 255
215 232 255
215 232 255
215 232 255
215 232 255
215 232 255
215 232 255
215 232 255
215 232 255
215 232 255
215 232 255
215 232 255
215 232 255
215 232 255
215 232 255
215 232 255
215 232 255
215 232 255
215 232 255
215 232 255
215 232 255
215 232 255
215 232 255
215 232 255
215 232 255
215 232 255
215 232 255
215 232 255
215 232 255
215 232 255
215 232 255
215 232 255
215 232 255
215 232 255
215 232 255
215 232 255
215 232 255
215 232 255
215 232 255
215 232 255
215 232 255
215 232 255
215 232 255
215 232 255
215 232 255
215 232 255
215 232 255
215 232 255
215 232 255
215 232 255
215 232 255
215 232 255
215 232 255
215 232 255
215 232 255
215 232 255
215 232 255
215 232 255
215 232 255
215 232 255
215 232 255
215 232 255
215 232 255
215 232 255
215 232 255
215 232 255
215 232 255
215 232 255
215 232 255
215 232 255
215 232 255
215 232 255
215 232 255
215 232 255
215 232 255
215 232 255
215 232 255
215 232 255
215 232 255
215 232 255
215 232 255
215 232 255
215 232 255
215 232 255
215 232 255
215 232 255
215 232 255
215 232 255
215 232 255
215 232 255
215 232 255
215 232 255
215 232 255
215 232 255
215 232 255
215 232 255
215 232 255
215 232 255
215 232 255
215 232 255
215 232 255
215 232 255
215 232 255
215 232 255
215 232 255
215 232 255
215 232 255
215 232 255
215 232 255
215 232 255
215 232 255
215 232 255
215 232 255
216 232 255
216 232 255
216 232 255
216 232 255
216 232 255
216 232 255
216 232 255
216 232 255
216 232 255
216 232 255
216 232 255
216 232 255
216 232 255
216 232 255
216 232 255
216 232 255
216 232 255
216 232 255
216 232 255
216 232 255
216 232 255
216 233 255
216 233 255
216 233 255
216 233 255
216 233 255
216 233 255
216 233 255
216 233 255
216 233 255
216 233 255
216 233 255
216 233 255
216 233 255
216 233 255
216 233 255
216 233 255
216 233 255
216 233 255
216 233 255
216 233 255
216 233 255
216 233 255
216 233 255
216 233 255
216 233 255
216 233 255
216 233 255
216 233 255
216 233 255
216 233 255
216 233 255
216 233 255
216 233 255
216 233 255
216 233 255
216 233 255
216 233 255
216 233 255
216 233 255
216 233 255
216 233 255
216 233 255
216 233 255
216 233 255
216 233 255
216 233 255
216 233 255
217 233 255
217 233 255
217 233 255
217 233 255
217 233 255
217 233 255
217 233 255
217 233 255
217 233 255
217 233 255
217 233 255
217 233 255
217 233 255
217 233 255
217 233 255
217 233 255
217 233 255
217 233 255
217 233 255
217 233 255
217 233 255
217 233 255
217 233 255
217 233 255
217 233 255
217 233 255
217 233 255
217 233 255
217 233 255
217 233 255
217 233 255
217 233 255
217 233 255
217 233 255
217 233 255
217 233 255
217 233 255
217 233 255
217 233 255
217 233 255
217 233 255
217 233 255
217 233 255
217 233 255
217 233 255
217 233 255
217 233 255
217 233 255
217 233 255
217 233 255
217 233 255
217 233 255
217 233 255
217 233 255
217 233 255
217 233 255
217 233 255
217 233 255
217 233 255
217 233 255
217 233 255
217 233 255
217 233 255
217 233 255
217 233 255
217 233 255
217 233 255
217 233 255
217 233 255
217 233 255
217 233 255
217 233 255
217 233 255
217 233 255
217 233 255
217 233 255
217 233 255
217 233 255
217 233 255
217 233 255
217 233 255
217 233 255
217 233 255
217 233 255
217 233 255
217 233 255
217 233 255
217 233 255
217 233 255
217 233 255
217 233 255
217 233 255
217 233 255
217 233 255
217 233 255
217 233 255
217 233 255
217 233 255
217 233 255
217 233 255
217 233 255
217 233 255
217 233 255
217 233 255
217 233 255
217 233 255
217 233 255
217 233 255
217 233 255
217 233 255
217 233 255
217 233 255
217 233 255
217 233 255
217 233 255
217 233 255
217 233 255
217 233 255
217 233 255
217 233 255
217 233 255
217 233 255
217 233 255
217 233 255
217 233 255
217 233 255
217 233 255
217 233 255
217 233 255
217 233 255
217 233 255
217 233 255
216 233 255
216 233 255
216 233 255
216 233 255
216 233 255
216 233 255
216 233 255
216 233 255
216 233 255
216 233 255
216 233 255
216 233 255
216 233 255
216 233 255
216 233 255
216 233 255
216 233 255
216 233 255
216 233 255
216 233 255
216 233 255
216 233 255
216 233 255
216 233 255
216 233 255
216 233 255
216 233 255
216 233 255
216 233 255
216 233 255
216 233 255
216 233 255
216 233 255
216 233 255
216 233 255
216 233 255
216 233 255
216 233 255
216 233 255
216 233 255
216 233 255
216 233 255
216 233 255
216 233 255
216 233 255
216 233 255
216 232 255
216 232 255
216 232 255
216 232 255
216 232 255
216 232 255
216 232 255
216 232 255
216 232 255
216 232 255
216 232 255
216 232 255
216 232 255
216 232 255
216 232 255
216 232 255
216 232 255
216 232 255
216 232 255
216 232 255
216 232 255
216 232 255
216 232 255
216 232 255
216 232 255
215 232 255
215 232 255
215 232 255
215 232 255
215 232 255
215 232 255
215 232 255
215 232 255
215 232 255
215 232 255
215 232 255
215 232 255
215 232 255
215 232 255
215 232 255
215 232 255
215 232 255
215 232 255
215 232 255
215 232 255
215 232 255
215 232 255
215 232 255
215 232 255
215 232 255
215 232 255
215 232 255
215 232 255
215 232 255
215 232 255
215 232 255
215 232 255
215 232 255
215 232 255
215 232 255
215 232 255
215 232 255
215 232 255
215 232 255
215 232 255
215 232 255
215 232 255
215 232 255
215 232 255
215 232 255
215 232 255
215 232 255
215 232 255
215 232 255
215 232 255
215 232 255
215 232 255
215 232 255
215 232 255
215 232 255
215 232 255
215 232 255
215 232 255
215 232 255
215 232 255
215 232 255
215 232 255
215 232 255
215 232 255
215 232 255
215 232 255
215 232 255
215 232 255
215 232 255
215 232 255
215 232 255
215 232 255
215 232 255
215 232 255
215 232 255
215 232 255
215 232 255
215 232 255
215 232 255
215 232 255
215 232 255
215 232 255
215 232 255
215 232 255
215 232 255
215 232 255
215 232 255
215 232 255
215 232 255
215 232 255
215 232 255
215 232 255
215 232 255
215 232 255
215 232 255
215 232 255
215 232 255
215 232 255
215 232 255
215 232 255
215 232 255
215 232 255
215 232 255
215 232 255
215 232 255
215 232 255
215 232 255
215 232 255
215 232 255
215 232 255
215 232 255
215 232 255
215 232 255
215 232 255
215 232 255
215 232 255
215 232 255
216 232 255
216 232 255
216 232 255
216 232 255
216 232 255
216 232 255
216 232 255
216 232 255
216 232 255
216 232 255
216 232 255
216 232 255
216 232 255
216 232 255
216 232 255
216 232 255
216 232 255
216 232 255
216 232 255
216 232 255
216 232 255
216 232 255
216 232 255
216 232 255
216 233 255
216 233 255
216 233 255
216 233 255
216 233 255
216 233 255
216 233 255
216 233 255
216 233 255
216 233 255
216 233 255
216 233 255
216 233 255
216 233 255
216 233 255
216 233 255
216 233 255
216 233 255
216 233 255
216 233 255
216 233 255
216 233 255
216 233 255
216 233 255
216 233 255
216 233 255
216 233 255
216 233 255
216 233 255
216 233 255
216 233 255
216 233 255
216 233 255
216 233 255
216 233 255
216 233 255
216 233 255
216 233 255
216 233 255
216 233 255
216 233 255
216 233 255
216 233 255
216 233 255
216 233 255
216 233 255
217 233 255
217 233 255
217 233 255
217 233 255
217 233 255
217 233 255
217 233 255
217 233 255
217 233 255
217 233 255
217 233 255
217 233 255
217 233 255
217 233 255
217 233 255
217 233 255
217 233 255
217 233 255
217 233 255
217 233 255
217 233 255
217 233 255
217 233 255
217 233 255
217 233 255
217 233 255
217 233 255
217 233 255
217 233 255
217 233 255
217 233 255
217 233 255
217 233 255
217 233 255
217 233 255
217 233 255
217 233 255
217 233 255
217 233 255
217 233 255
217 233 255
217 233 255
217 233 255
217 233 255
217 233 255
217 233 255
217 233 255
217 233 255
217 233 255
217 233 255
217 233 255
217 233 255
217 233 255
217 233 255
217 233 255
217 233 255
217 233 255
217 233 255
217 233 255
217 233 255
217 233 255
217 233 255
217 233 255
217 233 255
217 233 255
217 233 255
217 233 255
217 233 255
217 233 255
217 233 255
217 233 255
218 233 255
218 233 255
218 233 255
218 233 255
218 233 255
217 233 255
217 233 255
217 233 255
217 233 255
217 233 255
217 233 255
217 233 255
217 233 255
217 233 255
217 233 255
217 233 255
217 233 255
217 233 255
217 233 255
217 233 255
217 233 255
217 233 255
217 233 255
217 233 255
217 233 255
217 233 255
217 233 255
217 233 255
217 233 255
217 233 255
217 233 255
217 233 255
217 233 255
217 233 255
217 233 255
217 233 255
217 233 255
217 233 255
217 233 255
217 233 255
217 233 255
217 233 255
217 233 255
217 233 255
217 233 255
217 233 255
217 233 255
217 233 255
217 233 255
217 233 255
217 233 255
217 233 255
217 233 255
217 233 255
217 233 255
217 233 255
217 233 255
217 233 255
217 233 255
217 233 255
217 233 255
217 233 255
217 233 255
217 233 255
217 233 255
217 233 255
217 233 255
217 233 255
217 233 255
217 233 255
217 233 255
217 233 255
217 233 255
217 233 255
217 233 255
217 233 255
217 233 255
217 233 255
217 233 255
217 233 255
217 233 255
216 233 255
216 233 255
216 233 255
216 233 255
216 233 255
216 233 255
216 233 255
216 233 255
216 233 255
216 233 255
216 233 255
216 233 255
216 233 255
216 233 255
216 233 255
216 233 255
216 233 255
216 233 255
216 233 255
216 233 255
216 233 255
216 233 255
216 233 255
216 233 255
216 233 255
216 233 255
216 233 255
216 233 255
216 233 255
216 233 255
216 233 255
216 233 255
216 233 255
216 233 255
216 233 255
216 233 255
216 233 255
216 233 255
216 233 255
216 233 255
216 233 255
216 233 255
216 233 255
216 233 255
216 233 255
216 233 255
216 233 255
216 233 255
216 232 255
216 232 255
216 232 255
216 232 255
216 232 255
216 232 255
216 232 255
216 232 255
216 232 255
216 232 255
216 232 255
216 232 255
216 232 255
216 232 255
216 232 255
216 232 255
216 232 255
216 232 255
216 232 255
216 232 255
216 232 255
216 232 255
216 232 255
216 232 255
216 232 255
216 232 255
216 232 255
216 232 255
216 232 255
215 232 255
215 232 255
215 232 255
215 232 255
215 232 255
215 232 255
215 232 255
215 232 255
215 232 255
215 232 255
215 232 255
215 232 255
215 232 255
215 232 255
215 232 255
215 232 255
215 232 255
215 232 255
215 232 255
215 232 255
215 232 255
215 232 255
215 232 255
215 232 255
215 232 255
215 232 255
215 232 255
215 232 255
215 232 255
215 232 255
215 232 255
215 232 255
215 232 255
215 232 255
215 232 255
215 232 255
215 232 255
215 232 255
215 232 255
215 232 255
215 232 255
215 232 255
215 232 255
215 232 255
215 232 255
215 232 255
215 232 255
215 232 255
215 232 255
215 232 255
215 232 255
215 232 255
215 232 255
215 232 255
215 232 255
215 232 255
215 232 255
215 232 255
215 232 255
215 232 255
215 232 255
215 232 255
215 232 255
215 232 255
215 232 255
215 232 255
215 232 255
215 232 255
215 232 255
215 232 255
215 232 255
215 232 255
215 232 255
215 232 255
215 232 255
215 232 255
215 232 255
215 232 255
215 232 255
215 232 255
215 232 255
215 232 255
215 232 255
215 232 255
215 232 255
215 232 255
216 232 255
216 232 255
216 232 255
216 232 255
216 232 255
216 232 255
216 232 255
216 232 255
216 232 255
216 232 255
216 232 255
216 232 255
216 232 255
216 232 255
216 232 255
216 232 255
216 232 255
216 232 255
216 232 255
216 232 255
216 232 255
216 232 255
216 232 255
216 232 255
216 232 255
216 232 255
216 232 255
216 233 255
216 233 255
216 233 255
216 233 255
216 233 255
216 233 255
216 233 255
216 233 255
216 233 255
216 233 255
216 233 255
216 233 255
216 233 255
216 233 255
216 233 255
216 233 255
216 233 255
216 233 255
216 233 255
216 233 255
216 233 255
216 233 255
216 233 255
216 233 255
216 233 255
216 233 255
216 233 255
216 233 255
216 233 255
216 233 255
216 233 255
216 233 255
216 233 255
216 233 255
216 233 255
216 233 255
216 233 255
216 233 255
216 233 255
216 233 255
216 233 255
216 233 255
216 233 255
216 233 255
216 233 255
216 233 255
216 233 255
216 233 255
217 233 255
217 233 255
217 233 255
217 233 255
217 233 255
217 233 255
217 233 255
217 233 255
217 233 255
217 233 255
217 233 255
217 233 255
217 233 255
217 233 255
217 233 255
217 233 255
217 233 255
217 233 255
217 233 255
217 233 255
217 233 255
217 233 255
217 233 255
217 233 255
217 233 255
217 233 255
217 233 255
217 233 255
217 233 255
217 233 255
217 233 255
217 233 255
217 233 255
217 233 255
217 233 255
217 233 255
217 233 255
217 233 255
217 233 255
217 233 255
217 233 255
217 233 255
217 233 255
217 233 255
217 233 255
217 233 255
217 233 255
217 233 255
217 233 255
217 233 255
217 233 255
217 233 255
217 233 255
217 233 255
217 233 255
217 233 255
217 233 255
217 233 255
217 233 255
217 233 255
217 233 255
217 233 255
217 233 255
217 233 255
217 233 255
217 233 255
217 233 255
217 233 255
217 233 255
217 233 255
217 233 255
217 233 255
217 233 255
217 233 255
217 233 255
217 233 255
218 233 255
218 233 255
218 233 255
218 233 255
218 233 255
218 234 255
218 234 255
218 234 255
218 234 255
218 234 255
218 234 255
218 233 255
218 233 255
218 233 255
218 233 255
218 233 255
218 233 255
218 233 255
218 233 255
218 233 255
218 233 255
217 233 255
217 233 255
217 233 255
217 233 255
217 233 255
217 233 255
217 233 255
217 233 255
217 233 255
217 233 255
217 233 255
217 233 255
217 233 255
217 233 255
217 233 255
217 233 255
217 233 255
217 233 255
217 233 255
217 233 255
217 233 255
217 233 255
217 233 255
217 233 255
217 233 255
217 233 255
217 233 255
217 233 255
217 233 255
217 233 255
217 233 255
217 233 255
217 233 255
217 233 255
217 233 255
217 233 255
217 233 255
217 233 255
217 233 255
217 233 255
217 233 255
217 233 255
217 233 255
217 233 255
217 233 255
217 233 255
217 233 255
217 233 255
217 233 255
217 233 255
217 233 255
217 233 255
217 233 255
217 233 255
217 233 255
217 233 255
217 233 255
217 233 255
217 233 255
217 233 255
217 233 255
217 233 255
217 233 255
217 233 255
217 233 255
217 233 255
217 233 255
217 233 255
217 233 255
217 233 255
217 233 255
217 233 255
217 233 255
217 233 255
217 233 255
216 233 255
216 233 255
216 233 255
216 233 255
216 233 255
216 233 255
216 233 255
216 233 255
216 233 255
216 233 255
216 233 255
216 233 255
216 233 255
216 233 255
216 233 255
216 233 255
216 233 255
216 233 255
216 233 255
216 233 255
216 233 255
216 233 255
216 233 255
216 233 255
216 233 255
216 233 255
216 233 255
216 233 255
216 233 255
216 233 255
216 233 255
216 233 255
216 233 255
216 233 255
216 233 255
216 233 255
216 233 255
216 233 255
216 233 255
216 233 255
216 233 255
216 233 255
216 233 255
216 233 255
216 233 255
216 233 255
216 233 255
216 233 255
216 233 255
216 233 255
216 233 255
216 232 255
216 232 255
216 232 255
216 232 255
216 232 255
216 232 255
216 232 255
216 232 255
216 232 255
216 232 255
216 232 255
216 232 255
216 232 255
216 232 255
216 232 255
216 232 255
216 232 255
216 232 255
216 232 255
216 232 255
216 232 255
216 232 255
216 232 255
216 232 255
216 232 255
216 232 255
216 232 255
216 232 255
216 232 255
216 232 255
216 232 255
216 232 255
216 232 255
216 232 255
216 232 255
216 232 255
216 232 255
216 232 255
215 232 255
215 232 255
215 232 255
215 232 255
215 232 255
215 232 255
215 232 255
215 232 255
215 232 255
215 232 255
215 232 255
215 232 255
215 232 255
215 232 255
215 232 255
215 232 255
215 232 255
215 232 255
215 232 255
215 232 255
215 232 255
215 232 255
215 232 255
215 232 255
215 232 255
215 232 255
215 232 255
215 232 255
215 232 255
215 232 255
215 232 255
215 232 255
215 232 255
215 232 255
215 232 255
215 232 255
215 232 255
215 232 255
216 232 255
216 232 255
216 232 255
216 232 255
216 232 255
216 232 255
216 232 255
216 232 255
216 232 255
216 232 255
216 232 255
216 232 255
216 232 255
216 232 255
216 232 255
216 232 255
216 232 255
216 232 255
216 232 255
216 232 255
216 232 255
216 232 255
216 232 255
216 232 255
216 232 255
216 232 255
216 232 255
216 232 255
216 232 255
216 232 255
216 232 255
216 232 255
216 232 255
216 232 255
216 232 255
216 232 255
216 232 255
216 232 255
216 232 255
216 233 255
216 233 255
216 233 255
216 233 255
216 233 255
216 233 255
216 233 255
216 233 255
216 233 255
216 233 255
216 233 255
216 233 255
216 233 255
216 233 255
216 233 255
216 233 255
216 233 255
216 233 255
216 233 255
216 233 255
216 233 255
216 233 255
216 233 255
216 233 255
216 233 255
216 233 255
216 233 255
216 233 255
216 233 255
216 233 255
216 233 255
216 233 255
216 233 255
216 233 255
216 233 255
216 233 255
216 233 255
216 233 255
216 233 255
216 233 255
216 233 255
216 233 255
216 233 255
216 233 255
216 233 255
216 233 255
216 233 255
216 233 255
216 233 255
216 233 255
216 233 255
216 233 255
217 233 255
217 233 255
217 233 255
217 233 255
217 233 255
217 233 255
217 233 255
217 233 255
217 233 255
217 233 255
217 233 255
217 233 255
217 233 255
217 233 255
217 233 255
217 233 255
217 233 255
217 233 255
217 233 255
217 233 255
217 233 255
217 233 255
217 233 255
217 233 255
217 233 255
217 233 255
217 233 255
217 233 255
217 233 255
217 233 255
217 233 255
217 233 255
217 233 255
217 233 255
217 233 255
217 233 255
217 233 255
217 233 255
217 233 255
217 233 255
217 233 255
217 233 255
217 233 255
217 233 255
217 233 255
217 233 255
217 233 255
217 233 255
217 233 255
217 233 255
217 233 255
217 233 255
217 233 255
217 233 255
217 233 255
217 233 255
217 233 255
217 233 255
217 233 255
217 233 255
217 233 255
217 233 255
217 233 255
217 233 255
217 233 255
217 233 255
217 233 255
217 233 255
217 233 255
217 233 255
217 233 255
217 233 255
217 233 255
217 233 255
217 233 255
217 233 255
218 233 255
218 233 255
218 233 255
218 233 255
218 233 255
218 233 255
218 233 255
218 233 255
218 234 255
218 234 255
218 234 255
218 234 255
218 234 255
218 234 255
218 234 255
218 234 255
218 234 255
218 234 255
218 234 255
218 234 255
218 234 255
218 234 255
218 234 255
218 234 255
218 234 255
218 234 255
218 234 255
218 234 255
218 234 255
218 234 255
218 234 255
218 234 255
218 233 255
218 233 255
218 233 255
218 233 255
218 233 255
218 233 255
218 233 255
218 233 255
217 233 255
217 233 255
217 233 255
217 233 255
217 233 255
217 233 255
217 233 255
217 233 255
217 233 255
217 233 255
217 233 255
217 233 255
217 233 255
217 233 255
217 233 255
217 233 255
217 233 255
217 233 255
217 233 255
217 233 255
217 233 255
217 233 255
217 233 255
217 233 255
217 233 255
217 233 255
217 233 255
217 233 255
217 233 255
217 233 255
217 233 255
217 233 255
217 233 255
217 233 255
217 233 255
217 233 255
217 233 255
217 233 255
217 233 255
217 233 255
217 233 255
217 233 255
217 233 255
217 233 255
217 233 255
217 233 255
217 233 255
217 233 255
217 233 255
217 233 255
217 233 255
217 233 255
217 233 255
217 233 255
217 233 255
217 233 255
217 233 255
217 233 255
217 233 255
217 233 255
217 233 255
217 233 255
217 233 255
217 233 255
217 233 255
217 233 255
217 233 255
217 233 255
217 233 255
217 233 255
217 233 255
217 233 255
217 233 255
217 233 255
217 233 255
217 233 255
216 233 255
216 233 255
216 233 255
216 233 255
216 233 255
216 233 255
216 233 255
216 233 255
216 233 255
216 233 255
216 233 255
216 233 255
216 233 255
216 233 255
216 233 255
216 233 255
216 233 255
216 233 255
216 233 255
216 233 255
216 233 255
216 233 255
216 233 255
216 233 255
216 233 255
216 233 255
216 233 255
216 233 255
216 233 255
216 233 255
216 233 255
216 233 255
216 233 255
216 233 255
216 233 255
216 233 255
216 233 255
216 233 255
216 233 255
216 233 255
216 233 255
216 233 255
216 233 255
216 233 255
216 233 255
216 233 255
216 233 255
216 233 255
216 233 255
216 233 255
216 233 255
216 233 255
216 233 255
216 233 255
216 233 255
216 233 255
216 233 255
216 233 255
216 232 255
216 232 255
216 232 255
216 232 255
216 232 255
216 232 255
216 232 255
216 232 255
216 232 255
216 232 255
216 232 255
216 232 255
216 232 255
216 232 255
216 232 255
216 232 255
216 232 255
216 232 255
216 232 255
216 232 255
216 232 255
216 232 255
216 232 255
216 232 255
216 232 255
216 232 255
216 232 255
216 232 255
216 232 255
216 232 255
216 232 255
216 232 255
216 232 255
216 232 255
216 232 255
216 232 255
216 232 255
216 232 255
216 232 255
216 232 255
216 232 255
216 232 255
216 232 255
216 232 255
216 232 255
216 232 255
216 232 255
216 232 255
216 232 255
216 232 255
216 232 255
216 232 255
216 232 255
216 232 255
216 232 255
216 232 255
216 232 255
216 232 255
216 232 255
216 232 255
216 232 255
216 232 255
216 232 255
216 232 255
216 232 255
216 232 255
216 232 255
216 232 255
216 232 255
216 232 255
216 232 255
216 232 255
216 232 255
216 232 255
216 232 255
216 232 255
216 232 255
216 232 255
216 232 255
216 232 255
216 232 255
216 233 255
216 233 255
216 233 255
216 233 255
216 233 255
216 233 255
216 233 255
216 233 255
216 233 255
216 233 255
216 233 255
216 233 255
216 233 255
216 233 255
216 233 255
216 233 255
216 233 255
216 233 255
216 233 255
216 233 255
216 233 255
216 233 255
216 233 255
216 233 255
216 233 255
216 233 255
216 233 255
216 233 255
216 233 255
216 233 255
216 233 255
216 233 255
216 233 255
216 233 255
216 233 255
216 233 255
216 233 255
216 233 255
216 233 255
216 233 255
216 233 255
216 233 255
216 233 255
216 233 255
216 233 255
216 233 255
216 233 255
216 233 255
216 233 255
216 233 255
216 233 255
216 233 255
216 233 255
216 233 255
216 233 255
216 233 255
216 233 255
216 233 255
217 233 255
217 233 255
217 233 255
217 233 255
217 233 255
217 233 255
217 233 255
217 233 255
217 233 255
217 233 255
217 233 255
217 233 255
217 233 255
217 233 255
217 233 255
217 233 255
217 233 255
217 233 255
217 233 255
217 233 255
217 233 255
217 233 255
217 233 255
217 233 255
217 233 255
217 233 255
217 233 255
217 233 255
217 233 255
217 233 255
217 233 255
217 233 255
217 233 255
217 233 255
217 233 255
217 233 255
217 233 255
217 233 255
217 233 255
217 233 255
217 233 255
217 233 255
217 233 255
217 233 255
217 233 255
217 233 255
217 233 255
217 233 255
217 233 255
217 233 255
217 233 255
217 233 255
217 233 255
217 233 255
217 233 255
217 233 255
217 233 255
217 233 255
217 233 255
217 233 255
217 233 255
217 233 255
217 233 255
217 233 255
217 233 255
217 233 255
217 233 255
217 233 255
217 233 255
217 233 255
217 233 255
217 233 255
217 233 255
217 233 255
217 233 255
217 233 255
218 233 255
218 233 255
218 233 255
218 233 255
218 233 255
218 233 255
218 233 255
218 233 255
218 233 255
218 234 255
218 234 255
218 234 255
218 234 255
218 234 255
218 234 255
218 234 255
218 234 255
218 234 255
218 234 255
218 234 255
218 234 255
218 234 255
218 234 255
218 234 255
218 234 255
218 234 255
218 234 255
218 234 255
218 234 255
218 234 255
218 234 255
218 234 255
218 234 255
218 234 255
218 234 255
218 234 255
218 234 255
218 234 255
218 234 255
218 234 255
218 234 255
218 234 255
218 234 255
218 234 255
218 234 255
218 234 255
218 234 255
218 234 255
218 234 255
218 234 255
218 234 255
218 234 255
218 234 255
218 233 255
218 233 255
218 233 255
218 233 255
218 233 255
218 233 255
218 233 255
218 233 255
218 233 255
218 233 255
217 233 255
217 233 255
217 233 255
217 233 255
217 233 255
217 233 255
217 233 255
217 233 255
217 233 255
217 233 255
217 233 255
217 233 255
217 233 255
217 233 255
217 233 255
217 233 255
217 233 255
217 233 255
217 233 255
217 233 255
217 233 255
217 233 255
217 233 255
217 233 255
217 233 255
217 233 255
217 233 255
217 233 255
217 233 255
217 233 255
217 233 255
217 233 255
217 233 255
217 233 255
217 233 255
217 233 255
217 233 255
217 233 255
217 233 255
217 233 255
217 233 255
217 233 255
217 233 255
217 233 255
217 233 255
217 233 255
217 233 255
217 233 255
217 233 255
217 233 255
217 233 255
217 233 255
217 233 255
217 233 255
217 233 255
217 233 255
217 233 255
217 233 255
217 233 255
217 233 255
217 233 255
217 233 255
217 233 255
217 233 255
217 233 255
217 233 255
217 233 255
217 233 255
217 233 255
217 233 255
217 233 255
217 233 255
217 233 255
217 233 255
217 233 255
217 233 255
216 233 255
216 233 255
216 233 255
216 233 255
216 233 255
216 233 255
216 233 255
216 233 255
216 233 255
216 233 255
216 233 255
216 233 255
216 233 255
216 233 255
216 233 255
216 233 255
216 233 255
216 233 255
216 233 255
216 233 255
216 233 255
216 233 255
216 233 255
216 233 255
216 233 255
216 233 255
216 233 255
216 233 255
216 233 255
216 233 255
216 233 255
216 233 255
216 233 255
216 233 255
216 233 255
216 233 255
216 233 255
216 233 255
216 233 255
216 233 255
216 233 255
216 233 255
216 233 255
216 233 255
216 233 255
216 233 255
216 233 255
216 233 255
216 233 255
216 233 255
216 233 255
216 233 255
216 233 255
216 233 255
216 233 255
216 233 255
216 233 255
216 233 255
216 233 255
216 233 255
216 233 255
216 233 255
216 233 255
216 233 255
216 233 255
216 233 255
216 233 255
216 233 255
216 233 255
216 233 255
216 233 255
216 233 255
216 233 255
216 233 255
216 233 255
216 233 255
216 233 255
216 233 255
216 233 255
216 233 255
216 232 255
216 232 255
216 233 255
216 232 255
216 232 255
216 232 255
216 232 255
216 232 255
216 232 255
216 232 255
216 232 255
216 232 255
216 232 255
216 233 255
216 232 255
216 233 255
216 233 255
216 232 255
216 233 255
216 233 255
216 233 255
216 233 255
216 233 255
216 233 255
216 233 255
216 233 255
216 233 255
216 233 255
216 233 255
216 233 255
216 233 255
216 233 255
216 233 255
216 233 255
216 233 255
216 233 255
216 233 255
216 233 255
216 233 255
216 233 255
216 233 255
216 233 255
216 233 255
216 233 255
216 233 255
216 233 255
216 233 255
216 233 255
216 233 255
216 233 255
216 233 255
216 233 255
216 233 255
216 233 255
216 233 255
216 233 255
216 233 255
216 233 255
216 233 255
216 233 255
216 233 255
216 233 255
216 233 255
216 233 255
216 233 255
216 233 255
216 233 255
216 233 255
216 233 255
216 233 255
216 233 255
216 233 255
216 233 255
216 233 255
216 233 255
216 233 255
216 233 255
216 233 255
216 233 255
216 233 255
216 233 255
216 233 255
216 233 255
216 233 255
216 233 255
216 233 255
216 233 255
216 233 255
216 233 255
216 233 255
216 233 255
216 233 255
216 233 255
216 233 255
217 233 255
217 233 255
217 233 255
217 233 255
217 233 255
217 233 255
217 233 255
217 233 255
217 233 255
217 233 255
217 233 255
217 233 255
217 233 255
217 233 255
217 233 255
217 233 255
217 233 255
217 233 255
217 233 255
217 233 255
217 233 255
217 233 255
217 233 255
217 233 255
217 233 255
217 233 255
217 233 255
217 233 255
217 233 255
217 233 255
217 233 255
217 233 255
217 233 255
217 233 255
217 233 255
217 233 255
217 233 255
217 233 255
217 233 255
217 233 255
217 233 255
217 233 255
217 233 255
217 233 255
217 233 255
217 233 255
217 233 255
217 233 255
217 233 255
217 233 255
217 233 255
217 233 255
217 233 255
217 233 255
217 233 255
217 233 255
217 233 255
217 233 255
217 233 255
217 233 255
217 233 255
217 233 255
217 233 255
217 233 255
217 233 255
217 233 255
217 233 255
217 233 255
217 233 255
217 233 255
217 233 255
217 233 255
217 233 255
217 233 255
217 233 255
217 233 255
217 233 255
218 233 255
218 233 255
218 233 255
218 233 255
218 233 255
218 233 255
218 233 255
218 233 255
218 233 255
218 234 255
218 234 255
218 234 255
218 234 255
218 234 255
218 234 255
218 234 255
218 234 255
218 234 255
218 234 255
218 234 255
218 234 255
218 234 255
218 234 255
218 234 255
218 234 255
218 234 255
218 234 255
218 234 255
218 234 255
218 234 255
218 234 255
218 234 255
218 234 255
218 234 255
218 234 255
218 234 255
218 234 255
218 234 255
218 234 255
218 234 255
218 234 255
218 234 255
218 234 255
218 234 255
218 234 255
218 234 255
218 234 255
218 234 255
218 234 255
218 234 255
218 234 255
218 234 255
218 234 255
218 234 255
218 234 255
218 234 255
218 234 255
218 234 255
218 234 255
218 234 255
218 234 255
218 234 255
218 234 255
218 234 255
218 234 255
218 234 255
218 234 255
218 234 255
218 234 255
218 234 255
218 234 255
218 234 255
218 234 255
218 234 255
218 233 255
218 233 255
218 233 255
218 233 255
218 233 255
218 233 255
218 233 255
218 233 255
218 233 255
217 233 255
217 233 255
217 233 255
217 233 255
217 233 255
217 233 255
217 233 255
217 233 255
217 233 255
217 233 255
217 233 255
217 233 255
217 233 255
217 233 255
217 233 255
217 233 255
217 233 255
217 233 255
217 233 255
217 233 255
217 233 255
217 233 255
217 233 255
217 233 255
217 233 255
217 233 255
217 233 255
217 233 255
217 233 255
217 233 255
217 233 255
217 233 255
217 233 255
217 233 255
217 233 255
217 233 255
217 233 255
217 233 255
217 233 255
217 233 255
217 233 255
217 233 255
217 233 255
217 233 255
217 233 255
217 233 255
217 233 255
217 233 255
217 233 255
217 233 255
217 233 255
217 233 255
217 233 255
217 233 255
217 233 255
217 233 255
217 233 255
217 233 255
217 233 255
217 233 255
217 233 255
217 233 255
217 233 255
217 233 255
217 233 255
217 233 255
217 233 255
217 233 255
217 233 255
217 233 255
217 233 255
217 233 255
217 233 255
217 233 255
217 233 255
217 233 255
217 233 255
217 233 255
217 233 255
216 233 255
216 233 255
216 233 255
216 233 255
216 233 255
216 233 255
216 233 255
216 233 255
216 233 255
216 233 255
216 233 255
216 233 255
216 233 255
216 233 255
216 233 255
216 233 255
216 233 255
216 233 255
216 233 255
216 233 255
216 233 255
216 233 255
216 233 255
216 233 255
216 233 255
216 233 255
216 233 255
216 233 255
216 233 255
216 233 255
216 233 255
216 233 255
216 233 255
216 233 255
216 233 255
216 233 255
216 233 255
216 233 255
216 233 255
216 233 255
216 233 255
216 233 255
216 233 255
216 233 255
216 233 255
216 233 255
216 233 255
216 233 255
216 233 255
216 233 255
216 233 255
216 233 255
216 233 255
216 233 255
216 233 255
216 233 255
216 233 255
216 233 255
216 233 255
216 233 255
216 233 255
216 233 255
216 233 255
216 233 255
216 233 255
216 233 255
216 233 255
216 233 255
216 233 255
216 233 255
216 233 255
216 233 255
216 233 255
216 233 255
216 233 255
216 233 255
216 233 255
216 233 255
216 233 255
216 233 255
216 233 255
216 233 255
216 233 255
216 233 255
216 233 255
216 233 255
216 233 255
216 233 255
216 233 255
216 233 255
216 233 255
216 233 255
216 233 255
216 233 255
216 233 255
216 233 255
216 233 255
216 233 255
216 233 255
216 233 255
216 233 255
216 233 255
216 233 255
216 233 255
216 233 255
216 233 255
216 233 255
216 233 255
216 233 255
216 233 255
216 233 255
216 233 255
216 233 255
216 233 255
216 233 255
216 233 255
216 233 255
216 233 255
216 233 255
216 233 255
216 233 255
216 233 255
216 233 255
216 233 255
216 233 255
216 233 255
216 233 255
216 233 255
216 233 255
216 233 255
216 233 255
216 233 255
216 233 255
216 233 255
216 233 255
216 233 255
216 233 255
216 233 255
216 233 255
216 233 255
216 233 255
216 233 255
216 233 255
216 233 255
216 233 255
216 233 255
216 233 255
216 233 255
217 233 255
217 233 255
217 233 255
217 233 255
217 233 255
217 233 255
217 233 255
217 233 255
217 233 255
217 233 255
217 233 255
217 233 255
217 233 255
217 233 255
217 233 255
217 233 255
217 233 255
217 233 255
217 233 255
217 233 255
217 233 255
217 233 255
217 233 255
217 233 255
217 233 255
217 233 255
217 233 255
217 233 255
217 233 255
217 233 255
217 233 255
217 233 255
217 233 255
217 233 255
217 233 255
217 233 255
217 233 255
217 233 255
217 233 255
217 233 255
217 233 255
217 233 255
217 233 255
217 233 255
217 233 255
217 233 255
217 233 255
217 233 255
217 233 255
217 233 255
217 233 255
217 233 255
217 233 255
217 233 255
217 233 255
217 233 255
217 233 255
217 233 255
217 233 255
217 233 255
217 233 255
217 233 255
217 233 255
217 233 255
217 233 255
217 233 255
217 233 255
217 233 255
217 233 255
217 233 255
217 233 255
217 233 255
217 233 255
217 233 255
217 233 255
217 233 255
217 233 255
217 233 255
217 233 255
218 233 255
218 233 255
218 233 255
218 233 255
218 233 255
218 233 255
218 233 255
218 233 255
218 234 255
218 234 255
218 234 255
218 234 255
218 234 255
218 234 255
218 234 255
218 234 255
218 234 255
218 234 255
218 234 255
218 234 255
218 234 255
218 234 255
218 234 255
218 234 255
218 234 255
218 234 255
218 234 255
218 234 255
218 234 255
218 234 255
218 234 255
218 234 255
218 234 255
218 234 255
218 234 255
218 234 255
218 234 255
218 234 255
218 234 255
218 234 255
218 234 255
218 234 255
218 234 255
218 234 255
218 234 255
218 234 255
218 234 255
218 234 255
218 234 255
218 234 255
218 234 255
218 234 255
218 234 255
218 234 255
218 234 255
218 234 255
218 234 255
218 234 255
218 234 255
218 234 255
218 234 255
218 234 255
218 234 255
218 234 255
218 234 255
218 234 255
218 234 255
218 234 255
218 234 255
218 234 255
218 234 255
218 234 255
218 234 255
218 234 255
218 234 255
218 234 255
218 234 255
218 234 255
218 234 255
218 234 255
218 234 255
218 234 255
218 234 255
218 234 255
218 234 255
218 234 255
218 234 255
218 234 255
218 234 255
218 234 255
218 234 255
218 234 255
218 234 255
218 234 255
218 234 255
218 234 255
218 234 255
218 233 255
218 233 255
218 233 255
218 233 255
218 233 255
218 233 255
218 233 255
218 233 255
217 233 255
217 233 255
217 233 255
217 233 255
217 233 255
217 233 255
217 233 255
217 233 255
217 233 255
217 233 255
217 233 255
217 233 255
217 233 255
217 233 255
217 233 255
217 233 255
217 233 255
217 233 255
217 233 255
217 233 255
217 233 255
217 233 255
217 233 255
217 233 255
217 233 255
217 233 255
217 233 255
217 233 255
217 233 255
217 233 255
217 233 255
217 233 255
217 233 255
217 233 255
217 233 255
217 233 255
217 233 255
217 233 255
217 233 255
217 233 255
217 233 255
217 233 255
217 233 255
217 233 255
217 233 255
217 233 255
217 233 255
217 233 255
217 233 255
217 233 255
217 233 255
217 233 255
217 233 255
217 233 255
217 233 255
217 233 255
217 233 255
217 233 255
217 233 255
217 233 255
217 233 255
217 233 255
217 233 255
217 233 255
217 233 255
217 233 255
217 233 255
217 233 255
217 233 255
217 233 255
217 233 255
217 233 255
217 233 255
217 233 255
217 233 255
217 233 255
217 233 255
217 233 255
217 233 255
217 233 255
217 233 255
217 233 255
217 233 255
216 233 255
216 233 255
216 233 255
216 233 255
216 233 255
216 233 255
216 233 255
216 233 255
216 233 255
216 233 255
216 233 255
216 233 255
216 233 255
216 233 255
216 233 255
216 233 255
216 233 255
216 233 255
216 233 255
216 233 255
216 233 255
216 233 255
216 233 255
216 233 255
216 233 255
216 233 255
216 233 255
216 233 255
216 233 255
216 233 255
216 233 255
216 233 255
216 233 255
216 233 255
216 233 255
216 233 255
216 233 255
216 233 255
216 233 255
216 233 255
216 233 255
216 233 255
216 233 255
216 233 255
216 233 255
216 233 255
216 233 255
216 233 255
216 233 255
216 233 255
216 233 255
216 233 255
216 233 255
216 233 255
216 233 255
216 233 255
216 233 255
216 233 255
216 233 255
216 233 255
216 233 255
216 233 255
216 233 255
216 233 255
216 233 255
216 233 255
216 233 255
216 233 255
216 233 255
216 233 255
216 233 255
216 233 255
216 233 255
216 233 255
216 233 255
216 233 255
216 233 255
216 233 255
216 233 255
216 233 255
216 233 255
216 233 255
216 233 255
216 233 255
216 233 255
216 233 255
216 233 255
216 233 255
216 233 255
216 233 255
216 233 255
216 233 255
216 233 255
216 233 255
216 233 255
216 233 255
216 233 255
216 233 255
216 233 255
216 233 255
216 233 255
216 233 255
216 233 255
216 233 255
216 233 255
216 233 255
216 233 255
216 233 255
216 233 255
216 233 255
216 233 255
216 233 255
216 233 255
216 233 255
216 233 255
216 233 255
216 233 255
216 233 255
216 233 255
217 233 255
217 233 255
217 233 255
217 233 255
217 233 255
217 233 255
217 233 255
217 233 255
217 233 255
217 233 255
217 233 255
217 233 255
217 233 255
217 233 255
217 233 255
217 233 255
217 233 255
217 233 255
217 233 255
217 233 255
217 233 255
217 233 255
217 233 255
217 233 255
217 233 255
217 233 255
217 233 255
217 233 255
217 233 255
217 233 255
217 233 255
217 233 255
217 233 255
217 233 255
217 233 255
217 233 255
217 233 255
217 233 255
217 233 255
217 233 255
217 233 255
217 233 255
217 233 255
217 233 255
217 233 255
217 233 255
217 233 255
217 233 255
217 233 255
217 233 255
217 233 255
217 233 255
217 233 255
217 233 255
217 233 255
217 233 255
217 233 255
217 233 255
217 233 255
217 233 255
217 233 255
217 233 255
217 233 255
217 233 255
217 233 255
217 233 255
217 233 255
217 233 255
217 233 255
217 233 255
217 233 255
217 233 255
217 233 255
217 233 255
217 233 255
217 233 255
217 233 255
217 233 255
217 233 255
217 233 255
217 233 255
218 233 255
218 233 255
218 233 255
218 233 255
218 233 255
218 233 255
218 233 255
218 233 255
218 233 255
218 233 255
218 234 255
218 234 255
218 234 255
218 234 255
218 234 255
218 234 255
218 234 255
218 234 255
218 234 255
218 234 255
218 234 255
218 234 255
218 234 255
218 234 255
218 234 255
218 234 255
218 234 255
218 234 255
218 234 255
218 234 255
218 234 255
218 234 255
218 234 255
218 234 255
218 234 255
218 234 255
218 234 255
218 234 255
218 234 255
218 234 255
218 234 255
218 234 255
218 234 255
218 234 255
218 234 255
218 234 255
218 234 255
218 234 255
218 234 255
218 234 255
218 234 255
218 234 255
218 234 255
218 234 255
218 234 255
218 234 255
218 234 255
218 234 255
218 234 255
218 234 255
218 234 255
218 234 255
218 234 255
218 234 255
218 234 255
218 234 255
218 234 255
218 234 255
218 234 255
218 234 255
218 234 255
218 234 255
218 234 255
218 234 255
218 234 255
218 234 255
218 234 255
218 234 255
218 234 255
218 234 255
218 234 255
218 234 255
218 234 255
218 234 255
218 234 255
218 234 255
218 234 255
218 234 255
218 234 255
218 234 255
218 234 255
218 234 255
218 234 255
218 234 255
218 234 255
218 234 255
218 234 255
218 234 255
218 234 255
218 234 255
218 234 255
218 234 255
218 234 255
218 234 255
218 234 255
218 234 255
218 234 255
218 234 255
218 234 255
218 234 255
218 234 255
218 234 255
218 234 255
218 234 255
218 234 255
218 234 255
218 234 255
218 234 255
218 234 255
218 234 255
218 233 255
218 233 255
218 233 255
218 233 255
218 233 255
218 233 255
218 233 255
218 233 255
218 233 255
217 233 255
217 233 255
217 233 255
217 233 255
217 233 255
217 233 255
217 233 255
217 233 255
217 233 255
217 233 255
217 233 255
217 233 255
217 233 255
217 233 255
217 233 255
217 233 255
217 233 255
217 233 255
217 233 255
217 233 255
217 233 255
217 233 255
217 233 255
217 233 255
217 233 255
217 233 255
217 233 255
217 233 255
217 233 255
217 233 255
217 233 255
217 233 255
217 233 255
217 233 255
217 233 255
217 233 255
217 233 255
217 233 255
217 233 255
217 233 255
217 233 255
217 233 255
217 233 255
217 233 255
217 233 255
217 233 255
217 233 255
217 233 255
217 233 255
217 233 255
217 233 255
217 233 255
217 233 255
217 233 255
217 233 255
217 233 255
217 233 255
217 233 255
217 233 255
217 233 255
217 233 255
217 233 255
217 233 255
217 233 255
217 233 255
217 233 255
217 233 255
217 233 255
217 233 255
217 233 255
217 233 255
217 233 255
217 233 255
217 233 255
217 233 255
217 233 255
217 233 255
217 233 255
217 233 255
217 233 255
217 233 255
217 233 255
217 233 255
217 233 255
217 233 255
217 233 255
217 233 255
217 233 255
217 233 255
216 233 255
216 233 255
216 233 255
216 233 255
216 233 255
216 233 255
216 233 255
216 233 255
216 233 255
216 233 255
216 233 255
216 233 255
216 233 255
216 233 255
216 233 255
216 233 255
216 233 255
216 233 255
216 233 255
216 233 255
216 233 255
216 233 255
216 233 255
216 233 255
216 233 255
216 233 255
216 233 255
216 233 255
216 233 255
216 233 255
216 233 255
216 233 255
216 233 255
216 233 255
216 233 255
216 233 255
216 233 255
216 233 255
216 233 255
216 233 255
216 233 255
216 233 255
216 233 255
216 233 255
216 233 255
216 233 255
216 233 255
216 233 255
216 233 255
216 233 255
216 233 255
216 233 255
216 233 255
216 233 255
216 233 255
216 233 255
216 233 255
216 233 255
216 233 255
216 233 255
216 233 255
216 233 255
216 233 255
216 233 255
216 233 255
216 233 255
216 233 255
216 233 255
216 233 255
216 233 255
216 233 255
216 233 255
216 233 255
216 233 255
216 233 255
216 233 255
216 233 255
216 233 255
216 233 255
216 233 255
216 233 255
216 233 255
217 233 255
217 233 255
217 233 255
217 233 255
217 233 255
217 233 255
217 233 255
217 233 255
217 233 255
217 233 255
217 233 255
217 233 255
217 233 255
217 233 255
217 233 255
217 233 255
217 233 255
217 233 255
217 233 255
217 233 255
217 233 255
217 233 255
217 233 255
217 233 255
217 233 255
217 233 255
217 233 255
217 233 255
217 233 255
217 233 255
217 233 255
217 233 255
217 233 255
217 233 255
217 233 255
217 233 255
217 233 255
217 233 255
217 233 255
217 233 255
217 233 255
217 233 255
217 233 255
217 233 255
217 233 255
217 233 255
217 233 255
217 233 255
217 233 255
217 233 255
217 233 255
217 233 255
217 233 255
217 233 255
217 233 255
217 233 255
217 233 255
217 233 255
217 233 255
217 233 255
217 233 255
217 233 255
217 233 255
217 233 255
217 233 255
217 233 255
217 233 255
217 233 255
217 233 255
217 233 255
217 233 255
217 233 255
217 233 255
217 233 255
217 233 255
217 233 255
217 233 255
217 233 255
217 233 255
217 233 255
217 233 255
217 233 255
217 233 255
217 233 255
217 233 255
217 233 255
217 233 255
217 233 255
217 233 255
218 233 255
218 233 255
218 233 255
218 233 255
218 233 255
218 233 255
218 233 255
218 233 255
218 234 255
218 234 255
218 234 255
218 234 255
218 234 255
218 234 255
218 234 255
218 234 255
218 234 255
218 234 255
218 234 255
218 234 255
218 234 255
218 234 255
218 234 255
218 234 255
218 234 255
218 234 255
218 234 255
218 234 255
218 234 255
218 234 255
218 234 255
218 234 255
218 234 255
218 234 255
218 234 255
218 234 255
218 234 255
218 234 255
218 234 255
218 234 255
218 234 255
218 234 255
218 234 255
218 234 255
218 234 255
218 234 255
218 234 255
218 234 255
218 234 255
218 234 255
218 234 255
218 234 255
218 234 255
218 234 255
218 234 255
218 234 255
218 234 255
218 234 255
218 234 255
218 234 255
218 234 255
218 234 255
218 234 255
218 234 255
218 234 255
218 234 255
218 234 255
218 234 255
218 234 255
218 234 255
218 234 255
218 234 255
218 234 255
218 234 255
218 234 255
218 234 255
218 234 255
218 234 255
218 234 255
218 234 255
218 234 255
218 234 255
218 234 255
218 234 255
218 234 255
218 234 255
218 234 255
218 234 255
218 234 255
218 234 255
218 234 255
218 234 255
218 234 255
218 234 255
218 234 255
218 234 255
218 234 255
218 234 255
218 234 255
218 234 255
218 234 255
218 234 255
218 234 255
218 234 255
218 234 255
218 234 255
218 234 255
218 234 255
218 234 255
218 234 255
218 234 255
218 234 255
218 234 255
218 234 255
218 234 255
218 234 255
218 234 255
218 234 255
218 234 255
218 234 255
218 234 255
218 234 255
218 234 255
218 234 255
218 234 255
218 234 255
218 234 255
218 234 255
218 234 255
218 234 255
218 234 255
218 234 255
218 234 255
218 234 255
218 234 255
218 234 255
218 234 255
218 234 255
218 234 255
218 234 255
218 234 255
218 234 255
218 234 255
218 233 255
218 233 255
218 233 255
218 233 255
218 233 255
218 233 255
218 233 255
218 233 255
218 233 255
217 233 255
217 233 255
217 233 255
217 233 255
217 233 255
217 233 255
217 233 255
217 233 255
217 233 255
217 233 255
217 233 255
217 233 255
217 233 255
217 233 255
217 233 255
217 233 255
217 233 255
217 233 255
217 233 255
217 233 255
217 233 255
217 233 255
217 233 255
217 233 255
217 233 255
217 233 255
217 233 255
217 233 255
217 233 255
217 233 255
217 233 255
217 233 255
217 233 255
217 233 255
217 233 255
217 233 255
217 233 255
217 233 255
217 233 255
217 233 255
217 233 255
217 233 255
217 233 255
217 233 255
217 233 255
217 233 255
217 233 255
217 233 255
217 233 255
217 233 255
217 233 255
217 233 255
217 233 255
217 233 255
217 233 255
217 233 255
217 233 255
217 233 255
217 233 255
217 233 255
217 233 255
217 233 255
217 233 255
217 233 255
217 233 255
217 233 255
217 233 255
217 233 255
217 233 255
217 233 255
217 233 255
217 233 255
217 233 255
217 233 255
217 233 255
217 233 255
217 233 255
217 233 255
217 233 255
217 233 255
217 233 255
217 233 255
217 233 255
217 233 255
217 233 255
217 233 255
217 233 255
217 233 255
217 233 255
217 233 255
217 233 255
217 233 255
217 233 255
217 233 255
217 233 255
217 233 255
217 233 255
217 233 255
217 233 255
217 233 255
217 233 255
217 233 255
217 233 255
217 233 255
217 233 255
217 233 255
217 233 255
217 233 255
217 233 255
217 233 255
217 233 255
217 233 255
217 233 255
217 233 255
217 233 255
217 233 255
217 233 255
217 233 255
217 233 255
217 233 255
217 233 255
217 233 255
217 233 255
217 233 255
217 233 255
217 233 255
217 233 255
217 233 255
217 233 255
217 233 255
217 233 255
217 233 255
217 233 255
217 233 255
217 233 255
217 233 255
217 233 255
217 233 255
217 233 255
217 233 255
217 233 255
217 233 255
217 233 255
217 233 255
217 233 255
217 233 255
217 233 255
217 233 255
217 233 255
217 233 255
217 233 255
217 233 255
217 233 255
217 233 255
217 233 255
217 233 255
217 233 255
217 233 255
217 233 255
217 233 255
217 233 255
217 233 255
217 233 255
217 233 255
217 233 255
217 233 255
217 233 255
217 233 255
217 233 255
217 233 255
217 233 255
217 233 255
217 233 255
217 233 255
217 233 255
217 233 255
217 233 255
217 233 255
217 233 255
217 233 255
217 233 255
217 233 255
217 233 255
217 233 255
217 233 255
217 233 255
217 233 255
217 233 255
217 233 255
217 233 255
217 233 255
217 233 255
217 233 255
217 233 255
217 233 255
217 233 255
217 233 255
217 233 255
217 233 255
217 233 255
217 233 255
217 233 255
217 233 255
217 233 255
217 233 255
217 233 255
217 233 255
217 233 255
217 233 255
217 233 255
217 233 255
217 233 255
217 233 255
217 233 255
217 233 255
217 233 255
217 233 255
217 233 255
217 233 255
217 233 255
217 233 255
217 233 255
217 233 255
217 233 255
217 233 255
217 233 255
217 233 255
217 233 255
217 233 255
217 233 255
217 233 255
217 233 255
217 233 255
217 233 255
217 233 255
217 233 255
218 233 255
218 233 255
218 233 255
218 233 255
218 233 255
218 233 255
218 233 255
218 233 255
218 233 255
218 234 255
218 234 255
218 234 255
218 234 255
218 234 255
218 234 255
218 234 255
218 234 255
218 234 255
218 234 255
218 234 255
218 234 255
218 234 255
218 234 255
218 234 255
218 234 255
218 234 255
218 234 255
218 234 255
218 234 255
218 234 255
218 234 255
218 234 255
218 234 255
218 234 255
218 234 255
218 234 255
218 234 255
218 234 255
218 234 255
218 234 255
218 234 255
218 234 255
218 234 255
218 234 255
218 234 255
218 234 255
218 234 255
218 234 255
218 234 255
218 234 255
218 234 255
218 234 255
218 234 255
218 234 255
218 234 255
218 234 255
218 234 255
218 234 255
218 234 255
218 234 255
218 234 255
218 234 255
218 234 255
218 234 255
218 234 255
218 234 255
218 234 255
218 234 255
218 234 255
218 234 255
218 234 255
218 234 255
218 234 255
218 234 255
218 234 255
218 234 255
218 234 255
218 234 255
218 234 255
218 234 255
218 234 255
218 234 255
218 234 255
218 234 255
218 234 255
218 234 255
218 234 255
218 234 255
218 234 255
218 234 255
218 234 255
218 234 255
218 234 255
218 234 255
218 234 255
218 234 255
218 234 255
218 234 255
218 234 255
218 234 255
218 234 255
218 234 255
218 234 255
218 234 255
218 234 255
218 234 255
218 234 255
218 234 255
218 234 255
218 234 255
218 234 255
218 234 255
218 234 255
218 234 255
218 234 255
218 234 255
218 234 255
218 234 255
218 234 255
218 234 255
218 234 255
218 234 255
218 234 255
218 234 255
218 234 255
218 234 255
218 234 255
218 234 255
218 234 255
218 234 255
218 234 255
218 234 255
218 234 255
218 234 255
218 234 255
218 234 255
218 234 255
218 234 255
218 234 255
218 234 255
218 234 255
218 234 255
218 234 255
218 234 255
218 234 255
218 234 255
218 234 255
218 234 255
218 234 255
218 234 255
218 234 255
218 234 255
218 234 255
218 234 255
218 234 255
218 234 255
218 234 255
218 234 255
218 234 255
218 234 255
218 234 255
218 234 255
218 234 255
218 234 255
218 234 255
218 234 255
218 234 255
218 234 255
218 233 255
218 233 255
218 233 255
218 233 255
218 233 255
218 233 255
218 233 255
218 233 255
218 233 255
218 233 255
217 233 255
217 233 255
217 233 255
217 233 255
217 233 255
217 233 255
217 233 255
217 233 255
217 233 255
217 233 255
217 233 255
217 233 255
217 233 255
217 233 255
217 233 255
217 233 255
217 233 255
217 233 255
217 233 255
217 233 255
217 233 255
217 233 255
217 233 255
217 233 255
217 233 255
217 233 255
217 233 255
217 233 255
217 233 255
217 233 255
217 233 255
217 233 255
217 233 255
217 233 255
217 233 255
217 233 255
217 233 255
217 233 255
217 233 255
217 233 255
217 233 255
217 233 255
217 233 255
217 233 255
217 233 255
217 233 255
217 233 255
217 233 255
217 233 255
217 233 255
217 233 255
217 233 255
217 233 255
217 233 255
217 233 255
217 233 255
217 233 255
217 233 255
217 233 255
217 233 255
217 233 255
217 233 255
217 233 255
217 233 255
217 233 255
217 233 255
217 233 255
217 233 255
217 233 255
217 233 255
217 233 255
217 233 255
217 233 255
217 233 255
217 233 255
217 233 255
217 233 255
217 233 255
217 233 255
217 233 255
217 233 255
217 233 255
217 233 255
217 233 255
217 233 255
217 233 255
217 233 255
217 233 255
217 233 255
217 233 255
217 233 255
217 233 255
217 233 255
217 233 255
217 233 255
217 233 255
217 233 255
217 233 255
217 233 255
217 233 255
217 233 255
217 233 255
217 233 255
217 233 255
217 233 255
217 233 255
217 233 255
217 233 255
217 233 255
217 233 255
217 233 255
217 233 255
217 233 255
217 233 255
217 233 255
217 233 255
217 233 255
217 233 255
217 233 255
217 233 255
217 233 255
217 233 255
217 233 255
217 233 255
217 233 255
217 233 255
217 233 255
217 233 255
217 233 255
217 233 255
217 233 255
217 233 255
217 233 255
217 233 255
217 233 255
217 233 255
217 233 255
217 233 255
217 233 255
217 233 255
217 233 255
217 233 255
217 233 255
217 233 255
217 233 255
217 233 255
217 233 255
217 233 255
217 233 255
217 233 255
217 233 255
217 233 255
217 233 255
217 233 255
217 233 255
217 233 255
217 233 255
217 233 255
217 233 255
217 233 255
217 233 255
217 233 255
217 233 255
217 233 255
217 233 255
217 233 255
217 233 255
217 233 255
217 233 255
217 233 255
217 233 255
217 233 255
217 233 255
217 233 255
217 233 255
217 233 255
217 233 255
217 233 255
217 233 255
217 233 255
217 233 255
217 233 255
217 233 255
217 233 255
217 233 255
217 233 255
217 233 255
217 233 255
217 233 255
217 233 255
217 233 255
217 233 255
217 233 255
217 233 255
217 233 255
217 233 255
217 233 255
217 233 255
217 233 255
217 233 255
217 233 255
217 233 255
217 233 255
217 233 255
217 233 255
217 233 255
217 233 255
217 233 255
217 233 255
218 233 255
218 233 255
218 233 255
218 233 255
218 233 255
218 233 255
218 233 255
218 233 255
218 233 255
218 234 255
218 234 255
218 234 255
218 234 255
218 234 255
218 234 255
218 234 255
218 234 255
218 234 255
218 234 255
218 234 255
218 234 255
218 234 255
218 234 255
218 234 255
218 234 255
218 234 255
218 234 255
218 234 255
218 234 255
218 234 255
218 234 255
218 234 255
218 234 255
218 234 255
218 234 255
218 234 255
218 234 255
218 234 255
218 234 255
218 234 255
218 234 255
218 234 255
218 234 255
218 234 255
218 234 255
218 234 255
218 234 255
218 234 255
218 234 255
218 234 255
218 234 255
218 234 255
218 234 255
218 234 255
218 234 255
218 234 255
218 234 255
218 234 255
218 234 255
218 234 255
218 234 255
218 234 255
218 234 255
218 234 255
218 234 255
218 234 255
218 234 255
218 234 255
218 234 255
218 234 255
218 234 255
218 234 255
218 234 255
218 234 255
218 234 255
218 234 255
218 234 255
218 234 255
218 234 255
218 234 255
218 234 255
218 234 255
218 234 255
218 234 255
218 234 255
218 234 255
218 234 255
218 234 255
218 234 255
218 234 255
218 234 255
218 234 255
218 234 255
218 234 255
218 234 255
219 234 255
219 234 255
219 234 255
219 234 255
219 234 255
219 234 255
219 234 255
219 234 255
219 234 255
219 234 255
219 234 255
219 234 255
219 234 255
218 234 255
218 234 255
218 234 255
218 234 255
218 234 255
218 234 255
218 234 255
218 234 255
218 234 255
218 234 255
218 234 255
218 234 255
218 234 255
218 234 255
218 234 255
218 234 255
218 234 255
218 234 255
218 234 255
218 234 255
218 234 255
218 234 255
218 234 255
218 234 255
218 234 255
218 234 255
218 234 255
218 234 255
218 234 255
218 234 255
218 234 255
218 234 255
218 234 255
218 234 255
218 234 255
218 234 255
218 234 255
218 234 255
218 234 255
218 234 255
218 234 255
218 234 255
218 234 255
218 234 255
218 234 255
218 234 255
218 234 255
218 234 255
218 234 255
218 234 255
218 234 255
218 234 255
218 234 255
218 234 255
218 234 255
218 234 255
218 234 255
218 234 255
218 234 255
218 234 255
218 234 255
218 234 255
218 234 255
218 234 255
218 234 255
218 234 255
218 234 255
218 234 255
218 234 255
218 234 255
218 234 255
218 234 255
218 234 255
218 234 255
218 234 255
218 234 255
218 234 255
218 234 255
218 234 255
218 234 255
218 234 255
218 234 255
218 234 255
218 234 255
218 234 255
218 234 255
218 234 255
218 233 255
218 233 255
218 233 255
218 233 255
218 233 255
218 233 255
218 233 255
218 233 255
218 233 255
218 233 255
217 233 255
217 233 255
217 233 255
217 233 255
217 233 255
217 233 255
217 233 255
217 233 255
217 233 255
217 233 255
217 233 255
217 233 255
217 233 255
217 233 255
217 233 255
217 233 255
217 233 255
217 233 255
217 233 255
217 233 255
217 233 255
217 233 255
217 233 255
217 233 255
217 233 255
217 233 255
217 233 255
217 233 255
217 233 255
217 233 255
217 233 255
217 233 255
217 233 255
217 233 255
217 233 255
217 233 255
217 233 255
217 233 255
217 233 255
217 233 255
217 233 255
217 233 255
217 233 255
217 233 255
217 233 255
217 233 255
217 233 255
217 233 255
217 233 255
217 233 255
217 233 255
217 233 255
217 233 255
217 233 255
217 233 255
217 233 255
217 233 255
217 233 255
217 233 255
217 233 255
217 233 255
217 233 255
217 233 255
217 233 255
217 233 255
217 233 255
217 233 255
217 233 255
217 233 255
217 233 255
217 233 255
217 233 255
217 233 255
217 233 255
217 233 255
217 233 255
217 233 255
217 233 255
217 233 255
217 233 255
217 233 255
217 233 255
217 233 255
217 233 255
217 233 255
217 233 255
217 233 255
217 233 255
217 233 255
217 233 255
217 233 255
217 233 255
217 233 255
217 233 255
217 233 255
217 233 255
217 233 255
217 233 255
217 233 255
217 233 255
217 233 255
217 233 255
217 233 255
217 233 255
217 233 255
217 233 255
217 233 255
217 233 255
217 233 255
217 233 255
217 233 255
217 233 255
217 233 255
217 233 255
217 233 255
217 233 255
217 233 255
217 233 255
217 233 255
217 233 255
217 233 255
217 233 255
217 233 255
217 233 255
217 233 255
217 233 255
217 233 255
217 233 255
217 233 255
217 233 255
217 233 255
217 233 255
217 233 255
217 233 255
217 233 255
217 233 255
217 233 255
217 233 255
217 233 255
217 233 255
217 233 255
217 233 255
217 233 255
217 233 255
217 233 255
217 233 255
217 233 255
217 233 255
217 233 255
217 233 255
217 233 255
217 233 255
217 233 255
217 233 255
217 233 255
217 233 255
217 233 255
217 233 255
217 233 255
217 233 255
217 233 255
217 233 255
217 233 255
217 233 255
217 233 255
217 233 255
217 233 255
217 233 255
217 233 255
217 233 255
217 233 255
217 233 255
217 233 255
217 233 255
217 233 255
217 233 255
217 233 255
217 233 255
217 233 255
217 233 255
217 233 255
218 233 255
218 233 255
218 233 255
218 233 255
218 233 255
218 233 255
218 233 255
218 233 255
218 233 255
218 233 255
218 234 255
218 234 255
218 234 255
218 234 255
218 234 255
218 234 255
218 234 255
218 234 255
218 234 255
218 234 255
218 234 255
218 234 255
218 234 255
218 234 255
218 234 255
218 234 255
218 234 255
218 234 255
218 234 255
218 234 255
218 234 255
218 234 255
218 234 255
218 234 255
218 234 255
218 234 255
218 234 255
218 234 255
218 234 255
218 234 255
218 234 255
218 234 255
218 234 255
218 234 255
218 234 255
218 234 255
218 234 255
218 234 255
218 234 255
218 234 255
218 234 255
218 234 255
218 234 255
218 234 255
218 234 255
218 234 255
218 234 255
218 234 255
218 234 255
218 234 255
218 234 255
218 234 255
218 234 255
218 234 255
218 234 255
218 234 255
218 234 255
218 234 255
218 234 255
218 234 255
218 234 255
218 234 255
218 234 255
218 234 255
218 234 255
218 234 255
218 234 255
218 234 255
218 234 255
218 234 255
218 234 255
218 234 255
218 234 255
218 234 255
218 234 255
218 234 255
218 234 255
218 234 255
218 234 255
218 234 255
218 234 255
218 234 255
218 234 255
218 234 255
218 234 255
218 234 255
219 234 255
219 234 255
219 234 255
219 234 255
219 234 255
219 234 255
219 234 255
219 234 255
219 234 255
219 234 255
219 234 255
219 234 255
219 234 255
219 234 255
219 234 255
219 234 255
219 234 255
219 234 255
219 234 255
219 234 255
219 234 255
219 234 255
219 234 255
219 234 255
219 234 255
219 234 255
219 234 255
219 234 255
219 234 255
219 234 255
219 234 255
219 234 255
219 234 255
219 234 255
219 234 255
219 234 255
219 234 255
219 234 255
219 234 255
218 234 255
218 234 255
218 234 255
218 234 255
218 234 255
218 234 255
218 234 255
218 234 255
218 234 255
218 234 255
218 234 255
218 234 255
218 234 255
218 234 255
218 234 255
218 234 255
218 234 255
218 234 255
218 234 255
218 234 255
218 234 255
218 234 255
218 234 255
218 234 255
218 234 255
218 234 255
218 234 255
218 234 255
218 234 255
218 234 255
218 234 255
218 234 255
218 234 255
218 234 255
218 234 255
218 234 255
218 234 255
218 234 255
218 234 255
218 234 255
218 234 255
218 234 255
218 234 255
218 234 255
218 234 255
218 234 255
218 234 255
218 234 255
218 234 255
218 234 255
218 234 255
218 234 255
218 234 255
218 234 255
218 234 255
218 234 255
218 234 255
218 234 255
218 234 255
218 234 255
218 234 255
218 234 255
218 234 255
218 234 255
218 234 255
218 234 255
218 234 255
218 234 255
218 234 255
218 234 255
218 234 255
218 234 255
218 234 255
218 234 255
218 234 255
218 234 255
218 234 255
218 234 255
218 234 255
218 234 255
218 234 255
218 234 255
218 234 255
218 234 255
218 234 255
218 234 255
218 234 255
218 234 255
218 234 255
218 234 255
218 233 255
218 233 255
218 233 255
218 233 255
218 233 255
218 233 255
218 233 255
218 233 255
218 233 255
217 233 255
217 233 255
217 233 255
217 233 255
217 233 255
217 233 255
217 233 255
217 233 255
217 233 255
217 233 255
217 233 255
217 233 255
217 233 255
217 233 255
217 233 255
217 233 255
217 233 255
217 233 255
217 233 255
217 233 255
217 233 255
217 233 255
217 233 255
217 233 255
217 233 255
217 233 255
217 233 255
217 233 255
217 233 255
217 233 255
217 233 255
217 233 255
217 233 255
217 233 255
217 233 255
217 233 255
217 233 255
217 233 255
217 233 255
217 233 255
217 233 255
217 233 255
217 233 255
217 233 255
217 233 255
217 233 255
217 233 255
217 233 255
217 233 255
217 233 255
217 233 255
217 233 255
217 233 255
217 233 255
217 233 255
217 233 255
217 233 255
217 233 255
217 233 255
217 233 255
217 233 255
217 233 255
217 233 255
217 233 255
217 233 255
217 233 255
217 233 255
217 233 255
217 233 255
217 233 255
217 233 255
217 233 255
217 233 255
217 233 255
217 233 255
217 233 255
217 233 255
217 233 255
217 233 255
217 233 255
217 233 255
217 233 255
217 233 255
217 233 255
217 233 255
217 233 255
217 233 255
217 233 255
217 233 255
217 233 255
217 233 255
217 233 255
217 233 255
217 233 255
217 233 255
217 233 255
217 233 255
217 233 255
217 233 255
217 233 255
217 233 255
217 233 255
217 233 255
217 233 255
217 233 255
217 233 255
217 233 255
217 233 255
217 233 255
217 233 255
217 233 255
217 233 255
217 233 255
217 233 255
217 233 255
217 233 255
217 233 255
217 233 255
217 233 255
217 233 255
217 233 255
217 233 255
217 233 255
217 233 255
217 233 255
217 233 255
217 233 255
217 233 255
217 233 255
217 233 255
217 233 255
217 233 255
217 233 255
217 233 255
217 233 255
217 233 255
217 233 255
217 233 255
217 233 255
217 233 255
217 233 255
217 233 255
217 233 255
217 233 255
217 233 255
217 233 255
217 233 255
217 233 255
217 233 255
218 233 255
218 233 255
218 233 255
218 233 255
218 233 255
218 233 255
218 233 255
218 233 255
218 233 255
218 233 255
218 233 255
218 234 255
218 234 255
218 234 255
218 234 255
218 234 255
218 234 255
218 234 255
218 234 255
218 234 255
218 234 255
218 234 255
218 234 255
218 234 255
218 234 255
218 234 255
218 234 255
218 234 255
218 234 255
218 234 255
218 234 255
218 234 255
218 234 255
218 234 255
218 234 255
218 234 255
218 234 255
218 234 255
218 234 255
218 234 255
218 234 255
218 234 255
218 234 255
218 234 255
218 234 255
218 234 255
218 234 255
218 234 255
218 234 255
218 234 255
218 234 255
218 234 255
218 234 255
218 234 255
218 234 255
218 234 255
218 234 255
218 234 255
218 234 255
218 234 255
218 234 255
218 234 255
218 234 255
218 234 255
218 234 255
218 234 255
218 234 255
218 234 255
218 234 255
218 234 255
218 234 255
218 234 255
218 234 255
218 234 255
218 234 255
218 234 255
218 234 255
218 234 255
218 234 255
218 234 255
218 234 255
218 234 255
218 234 255
218 234 255
218 234 255
218 234 255
218 234 255
218 234 255
218 234 255
218 234 255
218 234 255
218 234 255
218 234 255
218 234 255
218 234 255
218 234 255
218 234 255
218 234 255
219 234 255
219 234 255
219 234 255
219 234 255
219 234 255
219 234 255
219 234 255
219 234 255
219 234 255
219 234 255
219 234 255
219 234 255
219 234 255
219 234 255
219 234 255
219 234 255
219 234 255
219 234 255
219 234 255
219 234 255
219 234 255
219 234 255
219 234 255
219 234 255
219 234 255
219 234 255
219 234 255
219 234 255
219 234 255
219 234 255
219 234 255
219 234 255
219 234 255
219 234 255
219 234 255
219 234 255
219 234 255
219 234 255
219 234 255
219 234 255
219 234 255
219 234 255
219 234 255
219 234 255
219 234 255
219 234 255
219 234 255
219 234 255
219 234 255
219 234 255
219 234 255
219 234 255
219 234 255
219 234 255
219 234 255
219 234 255
219 234 255
219 234 255
219 234 255
219 234 255
219 234 255
219 234 255
219 234 255
219 234 255
219 234 255
219 234 255
219 234 255
219 234 255
218 234 255
219 234 255
218 234 255
218 234 255
218 234 255
218 234 255
218 234 255
218 234 255
218 234 255
218 234 255
218 234 255
218 234 255
218 234 255
218 234 255
218 234 255
218 234 255
218 234 255
218 234 255
218 234 255
218 234 255
218 234 255
218 234 255
218 234 255
218 234 255
218 234 255
218 234 255
218 234 255
218 234 255
218 234 255
218 234 255
218 234 255
218 234 255
218 234 255
218 234 255
218 234 255
218 234 255
218 234 255
218 234 255
218 234 255
218 234 255
218 234 255
218 234 255
218 234 255
218 234 255
218 234 255
218 234 255
218 234 255
218 234 255
218 234 255
218 234 255
218 234 255
218 234 255
218 234 255
218 234 255
218 234 255
218 234 255
218 234 255
218 234 255
218 234 255
218 234 255
218 234 255
218 234 255
218 234 255
218 234 255
218 234 255
218 234 255
218 234 255
218 234 255
218 234 255
218 234 255
218 234 255
218 234 255
218 234 255
218 234 255
218 234 255
218 234 255
218 234 255
218 234 255
218 234 255
218 234 255
218 234 255
218 234 255
218 234 255
218 234 255
218 234 255
218 234 255
218 234 255
218 234 255
218 234 255
218 234 255
218 234 255
218 234 255
218 233 255
218 233 255
218 233 255
218 233 255
218 233 255
218 233 255
218 233 255
218 233 255
218 233 255
218 233 255
218 233 255
218 233 255
218 233 255
217 233 255
217 233 255
217 233 255
217 233 255
217 233 255
217 233 255
217 233 255
217 233 255
217 233 255
217 233 255
217 233 255
217 233 255
217 233 255
217 233 255
217 233 255
217 233 255
217 233 255
217 233 255
217 233 255
217 233 255
217 233 255
217 233 255
217 233 255
217 233 255
217 233 255
217 233 255
217 233 255
217 233 255
217 233 255
217 233 255
217 233 255
217 233 255
217 233 255
217 233 255
217 233 255
217 233 255
217 233 255
217 233 255
217 233 255
217 233 255
217 233 255
217 233 255
217 233 255
217 233 255
217 233 255
217 233 255
217 233 255
217 233 255
217 233 255
217 233 255
217 233 255
217 233 255
217 233 255
217 233 255
217 233 255
217 233 255
217 233 255
217 233 255
217 233 255
217 233 255
217 233 255
217 233 255
217 233 255
217 233 255
217 233 255
217 233 255
217 233 255
217 233 255
217 233 255
217 233 255
217 233 255
217 233 255
217 233 255
217 233 255
217 233 255
217 233 255
217 233 255
217 233 255
217 233 255
217 233 255
217 233 255
217 233 255
217 233 255
217 233 255
217 233 255
217 233 255
217 233 255
217 233 255
217 233 255
217 233 255
217 233 255
217 233 255
217 233 255
217 233 255
217 233 255
217 233 255
217 233 255
217 233 255
217 233 255
217 233 255
217 233 255
217 233 255
217 233 255
217 233 255
217 233 255
217 233 255
217 233 255
217 233 255
217 233 255
217 233 255
218 233 255
218 233 255
218 233 255
218 233 255
218 233 255
218 233 255
218 233 255
218 233 255
218 233 255
218 233 255
218 233 255
218 233 255
218 234 255
218 234 255
218 234 255
218 234 255
218 234 255
218 234 255
218 234 255
218 234 255
218 234 255
218 234 255
218 234 255
218 234 255
218 234 255
218 234 255
218 234 255
218 234 255
218 234 255
218 234 255
218 234 255
218 234 255
218 234 255
218 234 255
218 234 255
218 234 255
218 234 255
218 234 255
218 234 255
218 234 255
218 234 255
218 234 255
218 234 255
218 234 255
218 234 255
218 234 255
218 234 255
218 234 255
218 234 255
218 234 255
218 234 255
218 234 255
218 234 255
218 234 255
218 234 255
218 234 255
218 234 255
218 234 255
218 234 255
218 234 255
218 234 255
218 234 255
218 234 255
218 234 255
218 234 255
218 234 255
218 234 255
218 234 255
218 234 255
218 234 255
218 234 255
218 234 255
218 234 255
218 234 255
218 234 255
218 234 255
218 234 255
218 234 255
218 234 255
218 234 255
218 234 255
218 234 255
218 234 255
218 234 255
218 234 255
218 234 255
218 234 255
218 234 255
218 234 255
218 234 255
218 234 255
218 234 255
218 234 255
218 234 255
218 234 255
218 234 255
218 234 255
218 234 255
218 234 255
218 234 255
218 234 255
218 234 255
218 234 255
218 234 255
219 234 255
219 234 255
219 234 255
219 234 255
219 234 255
219 234 255
219 234 255
219 234 255
219 234 255
219 234 255
219 234 255
219 234 255
219 234 255
219 234 255
219 234 255
219 234 255
219 234 255
219 234 255
219 234 255
219 234 255
219 234 255
219 234 255
219 234 255
219 234 255
219 234 255
219 234 255
219 234 255
219 234 255
219 234 255
219 234 255
219 234 255
219 234 255
219 234 255
219 234 255
219 234 255
219 234 255
219 234 255
219 234 255
219 234 255
219 234 255
219 234 255
219 234 255
219 234 255
219 234 255
219 234 255
219 234 255
219 234 255
219 234 255
219 234 255
219 234 255
219 234 255
219 234 255
219 234 255
219 234 255
219 234 255
219 234 255
219 234 255
219 234 255
219 234 255
219 234 255
219 234 255
219 234 255
219 234 255
219 234 255
219 234 255
219 234 255
219 234 255
219 234 255
219 234 255
219 234 255
219 234 255
219 234 255
219 234 255
219 234 255
219 234 255
219 234 255
219 234 255
219 234 255
219 234 255
219 234 255
219 234 255
219 234 255
219 234 255
219 234 255
219 234 255
219 234 255
219 234 255
219 234 255
219 234 255
219 234 255
219 234 255
219 234 255
219 234 255
219 234 255
219 234 255
219 234 255
219 234 255
218 234 255
218 234 255
218 234 255
218 234 255
218 234 255
218 234 255
218 234 255
218 234 255
218 234 255
218 234 255
218 234 255
218 234 255
218 234 255
218 234 255
218 234 255
218 234 255
218 234 255
218 234 255
218 234 255
218 234 255
218 234 255
218 234 255
218 234 255
218 234 255
218 234 255
218 234 255
218 234 255
218 234 255
218 234 255
218 234 255
218 234 255
218 234 255
218 234 255
218 234 255
218 234 255
218 234 255
218 234 255
218 234 255
218 234 255
218 234 255
218 234 255
218 234 255
218 234 255
218 234 255
218 234 255
218 234 255
218 234 255
218 234 255
218 234 255
218 234 255
218 234 255
218 234 255
218 234 255
218 234 255
218 234 255
218 234 255
218 234 255
218 234 255
218 234 255
218 234 255
218 234 255
218 234 255
218 234 255
218 234 255
218 234 255
218 234 255
218 234 255
218 234 255
218 234 255
218 234 255
218 234 255
218 234 255
218 234 255
218 234 255
218 234 255
218 234 255
218 234 255
218 234 255
218 234 255
218 234 255
218 234 255
218 234 255
218 234 255
218 234 255
218 234 255
218 234 255
218 234 255
218 234 255
218 234 255
218 234 255
218 234 255
218 234 255
218 234 255
218 234 255
218 234 255
218 234 255
218 234 255
218 234 255
218 234 255
218 233 255
218 233 255
218 233 255
218 233 255
218 233 255
218 233 255
218 233 255
218 233 255
218 233 255
218 233 255
218 233 255
218 233 255
218 233 255
218 233 255
218 233 255
218 233 255
217 233 255
218 233 255
217 233 255
217 233 255
217 233 255
217 233 255
217 233 255
217 233 255
217 233 255
217 233 255
217 233 255
217 233 255
217 233 255
217 233 255
217 233 255
217 233 255
217 233 255
217 233 255
217 233 255
217 233 255
217 233 255
217 233 255
217 233 255
217 233 255
217 233 255
217 233 255
217 233 255
217 233 255
217 233 255
217 233 255
217 233 255
217 233 255
217 233 255
217 233 255
217 233 255
217 233 255
217 233 255
217 233 255
217 233 255
217 233 255
217 233 255
217 233 255
217 233 255
217 233 255
217 233 255
217 233 255
217 233 255
217 233 255
217 233 255
217 233 255
217 233 255
217 233 255
217 233 255
217 233 255
217 233 255
217 233 255
218 233 255
218 233 255
218 233 255
218 233 255
218 233 255
218 233 255
218 233 255
218 233 255
218 233 255
218 233 255
218 233 255
218 233 255
218 233 255
218 233 255
218 233 255
218 233 255
218 233 255
218 233 255
218 234 255
218 234 255
218 234 255
218 234 255
218 234 255
218 234 255
218 234 255
218 234 255
218 234 255
218 234 255
218 234 255
218 234 255
218 234 255
218 234 255
218 234 255
218 234 255
218 234 255
218 234 255
218 234 255
218 234 255
218 234 255
218 234 255
218 234 255
218 234 255
218 234 255
218 234 255
218 234 255
218 234 255
218 234 255
218 234 255
218 234 255
218 234 255
218 234 255
218 234 255
218 234 255
218 234 255
218 234 255
218 234 255
218 234 255
218 234 255
218 234 255
218 234 255
218 234 255
218 234 255
218 234 255
218 234 255
218 234 255
218 234 255
218 234 255
218 234 255
218 234 255
218 234 255
218 234 255
218 234 255
218 234 255
218 234 255
218 234 255
218 234 255
218 234 255
218 234 255
218 234 255
218 234 255
218 234 255
218 234 255
218 234 255
218 234 255
218 234 255
218 234 255
218 234 255
218 234 255
218 234 255
218 234 255
218 234 255
218 234 255
218 234 255
218 234 255
218 234 255
218 234 255
218 234 255
218 234 255
218 234 255
218 234 255
218 234 255
218 234 255
218 234 255
218 234 255
218 234 255
218 234 255
218 234 255
218 234 255
218 234 255
218 234 255
218 234 255
218 234 255
218 234 255
218 234 255
218 234 255
218 234 255
219 234 255
219 234 255
219 234 255
219 234 255
219 234 255
219 234 255
219 234 255
219 234 255
219 234 255
219 234 255
219 234 255
219 234 255
219 234 255
219 234 255
219 234 255
219 234 255
219 234 255
219 234 255
219 234 255
219 234 255
219 234 255
219 234 255
219 234 255
219 234 255
219 234 255
219 234 255
219 234 255
219 234 255
219 234 255
219 234 255
219 234 255
219 234 255
219 234 255
219 234 255
219 234 255
219 234 255
219 234 255
219 234 255
219 234 255
219 234 255
219 234 255
219 234 255
219 234 255
219 234 255
219 234 255
219 234 255
219 234 255
219 234 255
219 234 255
219 234 255
219 234 255
219 234 255
219 234 255
219 234 255
219 234 255
219 234 255
219 234 255
219 234 255
219 234 255
219 234 255
219 234 255
219 234 255
219 234 255
219 234 255
219 234 255
219 234 255
219 234 255
219 234 255
219 234 255
219 234 255
219 234 255
219 234 255
219 234 255
219 234 255
219 234 255
219 234 255
219 234 255
219 234 255
219 234 255
219 234 255
219 234 255
219 234 255
219 234 255
219 234 255
219 234 255
219 234 255
219 234 255
219 234 255
219 234 255
219 234 255
219 234 255
219 234 255
219 234 255
219 234 255
219 234 255
219 234 255
219 234 255
219 234 255
219 234 255
219 234 255
219 234 255
219 234 255
219 234 255
219 234 255
219 234 255
219 234 255
219 234 255
219 234 255
219 234 255
219 234 255
219 234 255
219 234 255
219 234 255
219 234 255
219 234 255
219 234 255
219 234 255
219 234 255
219 234 255
219 234 255
219 234 255
219 234 255
219 234 255
219 234 255
219 234 255
219 234 255
219 234 255
219 234 255
219 234 255
218 234 255
218 234 255
218 234 255
218 234 255
218 234 255
218 234 255
218 234 255
218 234 255
218 234 255
218 234 255
218 234 255
218 234 255
218 234 255
218 234 255
218 234 255
218 234 255
218 234 255
218 234 255
218 234 255
218 234 255
218 234 255
218 234 255
218 234 255
218 234 255
218 234 255
218 234 255
218 234 255
218 234 255
218 234 255
218 234 255
218 234 255
218 234 255
218 234 255
218 234 255
218 234 255
218 234 255
218 234 255
218 234 255
218 234 255
218 234 255
218 234 255
218 234 255
218 234 255
218 234 255
218 234 255
218 234 255
218 234 255
218 234 255
218 234 255
218 234 255
218 234 255
218 234 255
218 234 255
218 234 255
218 234 255
218 234 255
218 234 255
218 234 255
218 234 255
218 234 255
218 234 255
218 234 255
218 234 255
218 234 255
218 234 255
218 234 255
218 234 255
218 234 255
218 234 255
218 234 255
218 234 255
218 234 255
218 234 255
218 234 255
218 234 255
218 234 255
218 234 255
218 234 255
218 234 255
218 234 255
218 234 255
218 234 255
218 234 255
218 234 255
218 234 255
218 234 255
218 234 255
218 234 255
218 234 255
218 234 255
218 234 255
218 234 255
218 234 255
218 234 255
218 234 255
218 234 255
218 234 255
218 234 255
218 234 255
218 234 255
218 234 255
218 234 255
218 234 255
218 234 255
218 234 255
218 234 255
218 234 255
218 234 255
218 234 255
218 234 255
218 234 255
218 234 255
218 234 255
218 234 255
218 234 255
218 234 255
218 234 255
218 234 255
218 234 255
218 234 255
218 234 255
218 234 255
218 234 255
218 234 255
218 234 255
218 234 255
218 234 255
218 234 255
218 234 255
218 234 255
218 234 255
218 234 255
218 234 255
218 234 255
218 234 255
218 234 255
218 234 255
218 234 255
218 234 255
218 234 255
218 234 255
218 234 255
218 234 255
218 234 255
218 234 255
218 234 255
218 234 255
218 234 255
218 234 255
218 234 255
218 234 255
218 234 255
218 234 255
218 234 255
218 234 255
218 234 255
218 234 255
218 234 255
218 234 255
218 234 255
218 234 255
218 234 255
218 234 255
218 234 255
218 234 255
218 234 255
218 234 255
218 234 255
218 234 255
218 234 255
218 234 255
218 234 255
218 234 255
218 234 255
218 234 255
218 234 255
218 234 255
218 234 255
218 234 255
218 234 255
218 234 255
218 234 255
218 234 255
218 234 255
218 234 255
218 234 255
218 234 255
218 234 255
218 234 255
218 234 255
218 234 255
218 234 255
218 234 255
218 234 255
218 234 255
218 234 255
218 234 255
218 234 255
218 234 255
218 234 255
218 234 255
218 234 255
218 234 255
218 234 255
218 234 255
218 234 255
218 234 255
218 234 255
218 234 255
218 234 255
218 234 255
218 234 255
218 234 255
218 234 255
218 234 255
218 234 255
218 234 255
218 234 255
218 234 255
218 234 255
218 234 255
218 234 255
218 234 255
218 234 255
218 234 255
218 234 255
218 234 255
218 234 255
218 234 255
218 234 255
218 234 255
218 234 255
218 234 255
218 234 255
218 234 255
218 234 255
218 234 255
218 234 255
218 234 255
218 234 255
218 234 255
218 234 255
218 234 255
218 234 255
218 234 255
218 234 255
218 234 255
218 234 255
218 234 255
218 234 255
218 234 255
218 234 255
218 234 255
218 234 255
218 234 255
218 234 255
219 234 255
219 234 255
219 234 255
219 234 255
219 234 255
219 234 255
219 234 255
219 234 255
219 234 255
219 234 255
219 234 255
219 234 255
219 234 255
219 234 255
219 234 255
219 234 255
219 234 255
219 234 255
219 234 255
219 234 255
219 234 255
219 234 255
219 234 255
219 234 255
219 234 255
219 234 255
219 234 255
219 234 255
219 234 255
219 234 255
219 234 255
219 234 255
219 234 255
219 234 255
219 234 255
219 234 255
219 234 255
219 234 255
219 234 255
219 234 255
219 234 255
219 234 255
219 234 255
219 234 255
219 234 255
219 234 255
219 234 255
219 234 255
219 234 255
219 234 255
219 234 255
219 234 255
219 234 255
219 234 255
219 234 255
219 234 255
219 234 255
219 234 255
219 234 255
219 234 255
219 234 255
219 234 255
219 234 255
219 234 255
219 234 255
219 234 255
219 234 255
219 234 255
219 234 255
219 234 255
219 234 255
219 234 255
219 234 255
219 234 255
219 234 255
219 234 255
219 234 255
219 234 255
219 234 255
219 234 255
219 234 255
219 234 255
219 234 255
219 234 255
219 234 255
219 234 255
219 234 255
219 234 255
219 234 255
219 234 255
219 234 255
219 234 255
219 234 255
219 234 255
219 234 255
219 234 255
219 234 255
219 234 255
219 234 255
219 234 255
219 234 255
219 234 255
219 234 255
219 234 255
219 234 255
219 234 255
219 234 255
219 234 255
219 234 255
219 234 255
219 234 255
219 234 255
219 234 255
219 234 255
219 234 255
219 234 255
219 234 255
219 234 255
219 234 255
219 234 255
219 234 255
219 234 255
219 234 255
219 234 255
219 234 255
219 234 255
219 234 255
219 234 255
219 234 255
219 234 255
219 234 255
219 234 255
219 234 255
219 234 255
219 234 255
219 234 255
219 234 255
219 234 255
219 234 255
219 234 255
219 234 255
219 234 255
219 234 255
219 234 255
219 234 255
219 234 255
219 234 255
219 234 255
219 234 255
219 234 255
219 234 255
219 234 255
219 234 255
219 234 255
219 234 255
219 234 255
219 234 255
219 234 255
219 234 255
219 234 255
219 234 255
218 234 255
218 234 255
218 234 255
218 234 255
218 234 255
218 234 255
218 234 255
218 234 255
218 234 255
218 234 255
218 234 255
218 234 255
218 234 255
218 234 255
218 234 255
218 234 255
218 234 255
218 234 255
218 234 255
218 234 255
218 234 255
218 234 255
218 234 255
218 234 255
218 234 255
218 234 255
218 234 255
218 234 255
218 234 255
218 234 255
218 234 255
218 234 255
218 234 255
218 234 255
218 234 255
218 234 255
218 234 255
218 234 255
218 234 255
218 234 255
218 234 255
218 234 255
218 234 255
218 234 255
218 234 255
218 234 255
218 234 255
218 234 255
218 234 255
218 234 255
218 234 255
218 234 255
218 234 255
218 234 255
218 234 255
218 234 255
218 234 255
218 234 255
218 234 255
218 234 255
218 234 255
218 234 255
218 234 255
218 234 255
218 234 255
218 234 255
218 234 255
218 234 255
218 234 255
218 234 255
218 234 255
218 234 255
218 234 255
218 234 255
218 234 255
218 234 255
218 234 255
218 234 255
218 234 255
218 234 255
218 234 255
218 234 255
218 234 255
218 234 255
218 234 255
218 234 255
218 234 255
218 234 255
218 234 255
218 234 255
218 234 255
218 234 255
218 234 255
218 234 255
218 234 255
218 234 255
218 234 255
218 234 255
218 234 255
218 234 255
218 234 255
218 234 255
218 234 255
218 234 255
218 234 255
218 234 255
218 234 255
218 234 255
218 234 255
218 234 255
218 234 255
218 234 255
218 234 255
218 234 255
218 234 255
218 234 255
218 234 255
218 234 255
218 234 255
218 234 255
218 234 255
218 234 255
218 234 255
218 234 255
218 234 255
218 234 255
218 234 255
218 234 255
218 234 255
218 234 255
218 234 255
218 234 255
218 234 255
218 234 255
218 234 255
218 234 255
218 234 255
218 234 255
218 234 255
218 234 255
218 234 255
218 234 255
218 234 255
218 234 255
218 234 255
218 234 255
218 234 255
218 234 255
218 234 255
218 234 255
218 234 255
218 234 255
218 234 255
218 234 255
218 234 255
218 234 255
218 234 255
218 234 255
218 234 255
218 234 255
218 234 255
218 234 255
218 234 255
218 234 255
218 234 255
218 234 255
218 234 255
218 234 255
218 234 255
218 234 255
218 234 255
218 234 255
218 234 255
218 234 255
218 234 255
218 234 255
218 234 255
218 234 255
218 234 255
218 234 255
218 234 255
218 234 255
218 234 255
218 234 255
218 234 255
218 234 255
218 234 255
218 234 255
218 234 255
218 234 255
218 234 255
218 234 255
218 234 255
218 234 255
218 234 255
218 234 255
218 234 255
218 234 255
218 234 255
218 234 255
218 234 255
218 234 255
218 234 255
218 234 255
218 234 255
218 234 255
218 234 255
218 234 255
218 234 255
218 234 255
218 234 255
218 234 255
218 234 255
218 234 255
218 234 255
218 234 255
218 234 255
218 234 255
218 234 255
218 234 255
218 234 255
218 234 255
218 234 255
219 234 255
219 234 255
219 234 255
219 234 255
219 234 255
219 234 255
219 234 255
219 234 255
219 234 255
219 234 255
219 234 255
219 234 255
219 234 255
219 234 255
219 234 255
219 234 255
219 234 255
219 234 255
219 234 255
219 234 255
219 234 255
219 234 255
219 234 255
219 234 255
219 234 255
219 234 255
219 234 255
219 234 255
219 234 255
219 234 255
219 234 255
219 234 255
219 234 255
219 234 255
219 234 255
219 234 255
219 234 255
219 234 255
219 234 255
219 234 255
219 234 255
219 234 255
219 234 255
219 234 255
219 234 255
219 234 255
219 234 255
219 234 255
219 234 255
219 234 255
219 234 255
219 234 255
219 234 255
219 234 255
219 234 255
219 234 255
219 234 255
219 234 255
219 234 255
219 234 255
219 234 255
219 234 255
219 234 255
219 234 255
219 234 255
219 234 255
219 234 255
219 234 255
219 234 255
219 234 255
219 234 255
219 234 255
219 234 255
219 234 255
219 234 255
219 234 255
219 234 255
219 234 255
219 234 255
219 234 255
219 234 255
219 234 255
219 234 255
219 234 255
219 234 255
219 234 255
219 234 255
219 234 255
219 234 255
219 234 255
219 234 255
219 234 255
219 234 255
219 234 255
219 234 255
219 234 255
219 234 255
219 234 255
219 234 255
219 234 255
219 234 255
219 234 255
219 234 255
219 234 255
219 234 255
219 234 255
219 234 255
219 234 255
219 234 255
219 234 255
219 234 255
219 234 255
219 234 255
219 234 255
219 234 255
219 234 255
219 234 255
219 234 255
219 234 255
219 234 255
219 234 255
219 234 255
219 234 255
219 234 255
219 234 255
219 234 255
219 234 255
219 234 255
219 234 255
219 234 255
219 234 255
219 234 255
219 234 255
219 234 255
219 234 255
219 234 255
219 234 255
219 234 255
219 234 255
219 234 255
219 234 255
219 234 255
219 234 255
219 234 255
219 234 255
219 234 255
219 234 255
219 234 255
219 234 255
219 234 255
219 234 255
219 234 255
219 234 255
219 234 255
219 234 255
219 234 255
219 234 255
219 234 255
219 234 255
219 234 255
219 234 255
219 234 255
219 234 255
219 234 255
219 234 255
219 234 255
219 234 255
219 234 255
219 234 255
219 234 255
219 234 255
219 234 255
219 234 255
219 234 255
219 234 255
219 234 255
219 234 255
219 234 255
219 234 255
219 234 255
219 234 255
219 234 255
219 234 255
219 234 255
219 234 255
219 234 255
219 234 255
219 234 255
219 234 255
219 234 255
219 234 255
219 234 255
219 234 255
219 234 255
219 234 255
219 234 255
218 234 255
218 234 255
218 234 255
218 234 255
218 234 255
218 234 255
218 234 255
218 234 255
218 234 255
218 234 255
218 234 255
218 234 255
218 234 255
218 234 255
218 234 255
218 234 255
218 234 255
218 234 255
218 234 255
218 234 255
218 234 255
218 234 255
218 234 255
218 234 255
218 234 255
218 234 255
218 234 255
218 234 255
218 234 255
218 234 255
218 234 255
218 234 255
218 234 255
218 234 255
218 234 255
218 234 255
218 234 255
218 234 255
218 234 255
218 234 255
218 234 255
218 234 255
218 234 255
218 234 255
218 234 255
218 234 255
218 234 255
218 234 255
218 234 255
218 234 255
218 234 255
218 234 255
218 234 255
218 234 255
218 234 255
218 234 255
218 234 255
218 234 255
218 234 255
218 234 255
218 234 255
218 234 255
218 234 255
218 234 255
218 234 255
218 234 255
218 234 255
218 234 255
218 234 255
218 234 255
218 234 255
218 234 255
218 234 255
218 234 255
218 234 255
218 234 255
218 234 255
218 234 255
218 234 255
218 234 255
218 234 255
218 234 255
218 234 255
218 234 255
218 234 255
218 234 255
218 234 255
218 234 255
218 234 255
218 234 255
218 234 255
218 234 255
218 234 255
218 234 255
218 234 255
218 234 255
218 234 255
218 234 255
218 234 255
218 234 255
218 234 255
218 234 255
218 234 255
218 234 255
218 234 255
218 234 255
218 234 255
218 234 255
218 234 255
218 234 255
218 234 255
218 234 255
218 234 255
218 234 255
218 234 255
218 234 255
218 234 255
218 234 255
218 234 255
218 234 255
218 234 255
218 234 255
218 234 255
218 234 255
218 234 255
218 234 255
218 234 255
218 234 255
218 234 255
218 234 255
218 234 255
218 234 255
218 234 255
218 234 255
218 234 255
218 234 255
218 234 255
218 234 255
218 234 255
218 234 255
218 234 255
218 234 255
218 234 255
218 234 255
218 234 255
218 234 255
218 234 255
218 234 255
218 234 255
218 234 255
218 234 255
218 234 255
218 234 255
218 234 255
218 234 255
218 234 255
218 234 255
218 234 255
218 234 255
218 234 255
218 234 255
218 234 255
218 234 255
218 234 255
218 234 255
218 234 255
218 234 255
218 234 255
218 234 255
218 234 255
218 234 255
218 234 255
218 234 255
218 234 255
218 234 255
218 234 255
218 234 255
218 234 255
218 234 255
218 234 255
218 234 255
218 234 255
218 234 255
218 234 255
219 234 255
219 234 255
219 234 255
219 234 255
219 234 255
219 234 255
219 234 255
219 234 255
219 234 255
219 234 255
219 234 255
219 234 255
219 234 255
219 234 255
219 234 255
219 234 255
219 234 255
219 234 255
219 234 255
219 234 255
219 234 255
219 234 255
219 234 255
219 234 255
219 234 255
219 234 255
219 234 255
219 234 255
219 234 255
219 234 255
219 234 255
219 234 255
219 234 255
219 234 255
219 234 255
219 234 255
219 234 255
219 234 255
219 234 255
219 234 255
219 234 255
219 234 255
219 234 255
219 234 255
219 234 255
219 234 255
219 234 255
219 234 255
219 234 255
219 234 255
219 234 255
219 234 255
219 234 255
219 234 255
219 234 255
219 234 255
219 234 255
219 234 255
219 234 255
219 234 255
219 234 255
219 234 255
219 234 255
219 234 255
219 234 255
219 234 255
219 234 255
219 234 255
219 234 255
219 234 255
219 234 255
219 234 255
219 234 255
219 234 255
219 234 255
219 234 255
219 234 255
219 234 255
219 234 255
219 234 255
219 234 255
219 234 255
219 234 255
219 234 255
219 234 255
219 234 255
219 234 255
219 234 255
219 234 255
219 234 255
219 234 255
219 234 255
219 234 255
219 234 255
219 234 255
219 234 255
219 234 255
219 234 255
219 234 255
219 234 255
219 234 255
219 234 255
219 234 255
219 234 255
219 234 255
219 234 255
219 234 255
219 234 255
219 235 255
219 235 255
219 235 255
219 235 255
219 235 255
219 235 255
219 235 255
219 235 255
219 234 255
219 234 255
219 234 255
219 234 255
219 234 255
219 234 255
219 234 255
219 234 255
219 234 255
219 234 255
219 234 255
219 234 255
219 234 255
219 234 255
219 234 255
219 234 255
219 234 255
219 234 255
219 234 255
219 234 255
219 234 255
219 234 255
219 234 255
219 234 255
219 234 255
219 234 255
219 234 255
219 234 255
219 234 255
219 234 255
219 234 255
219 234 255
219 234 255
219 234 255
219 234 255
219 234 255
219 234 255
219 234 255
219 234 255
219 234 255
219 234 255
219 234 255
219 234 255
219 234 255
219 234 255
219 234 255
219 234 255
219 234 255
219 234 255
219 234 255
219 234 255
219 234 255
219 234 255
219 234 255
219 234 255
219 234 255
219 234 255
219 234 255
219 234 255
219 234 255
219 234 255
219 234 255
219 234 255
219 234 255
219 234 255
219 234 255
219 234 255
219 234 255
219 234 255
219 234 255
219 234 255
219 234 255
219 234 255
219 234 255
219 234 255
219 234 255
219 234 255
219 234 255
219 234 255
219 234 255
219 234 255
219 234 255
219 234 255
219 234 255
219 234 255
219 234 255
219 234 255
219 234 255
219 234 255
219 234 255
219 234 255
219 234 255
219 234 255
219 234 255
219 234 255
219 234 255
219 234 255
219 234 255
219 234 255
219 234 255
219 234 255
219 234 255
219 234 255
219 234 255
219 234 255
219 234 255
219 234 255
219 234 255
219 234 255
219 234 255
219 234 255
219 234 255
219 234 255
219 234 255
219 234 255
219 234 255
219 234 255
219 234 255
219 234 255
219 234 255
219 234 255
219 234 255
218 234 255
218 234 255
218 234 255
218 234 255
218 234 255
218 234 255
218 234 255
218 234 255
218 234 255
218 234 255
218 234 255
218 234 255
218 234 255
218 234 255
218 234 255
218 234 255
218 234 255
218 234 255
218 234 255
218 234 255
218 234 255
218 234 255
218 234 255
218 234 255
218 234 255
218 234 255
218 234 255
218 234 255
218 234 255
218 234 255
218 234 255
218 234 255
218 234 255
218 234 255
218 234 255
218 234 255
218 234 255
218 234 255
218 234 255
218 234 255
218 234 255
218 234 255
218 234 255
218 234 255
218 234 255
218 234 255
218 234 255
218 234 255
218 234 255
218 234 255
218 234 255
218 234 255
218 234 255
218 234 255
218 234 255
218 234 255
218 234 255
218 234 255
218 234 255
218 234 255
218 234 255
218 234 255
218 234 255
218 234 255
218 234 255
218 234 255
218 234 255
218 234 255
218 234 255
218 234 255
218 234 255
218 234 255
218 234 255
218 234 255
218 234 255
218 234 255
218 234 255
218 234 255
218 234 255
218 234 255
218 234 255
218 234 255
218 234 255
218 234 255
218 234 255
218 234 255
218 234 255
218 234 255
218 234 255
218 234 255
218 234 255
218 234 255
218 234 255
218 234 255
218 234 255
218 234 255
218 234 255
218 234 255
218 234 255
218 234 255
218 234 255
218 234 255
218 234 255
218 234 255
218 234 255
218 234 255
218 234 255
218 234 255
218 234 255
218 234 255
218 234 255
218 234 255
218 234 255
218 234 255
218 234 255
218 234 255
218 234 255
218 234 255
218 234 255
218 234 255
218 234 255
218 234 255
218 234 255
218 234 255
218 234 255
218 234 255
218 234 255
218 234 255
218 234 255
218 234 255
218 234 255
218 234 255
218 234 255
218 234 255
218 234 255
218 234 255
218 234 255
218 234 255
218 234 255
219 234 255
219 234 255
219 234 255
219 234 255
219 234 255
219 234 255
219 234 255
219 234 255
219 234 255
219 234 255
219 234 255
219 234 255
219 234 255
219 234 255
219 234 255
219 234 255
219 234 255
219 234 255
219 234 255
219 234 255
219 234 255
219 234 255
219 234 255
219 234 255
219 234 255
219 234 255
219 234 255
219 234 255
219 234 255
219 234 255
219 234 255
219 234 255
219 234 255
219 234 255
219 234 255
219 234 255
219 234 255
219 234 255
219 234 255
219 234 255
219 234 255
219 234 255
219 234 255
219 234 255
219 234 255
219 234 255
219 234 255
219 234 255
219 234 255
219 234 255
219 234 255
219 234 255
219 234 255
219 234 255
219 234 255
219 234 255
219 234 255
219 234 255
219 234 255
219 234 255
219 234 255
219 234 255
219 234 255
219 234 255
219 234 255
219 234 255
219 234 255
219 234 255
219 234 255
219 234 255
219 234 255
219 234 255
219 234 255
219 234 255
219 234 255
219 234 255
219 234 255
219 234 255
219 234 255
219 234 255
219 234 255
219 234 255
219 234 255
219 234 255
219 234 255
219 234 255
219 234 255
219 234 255
219 234 255
219 234 255
219 234 255
219 234 255
219 234 255
219 234 255
219 234 255
219 234 255
219 234 255
219 234 255
219 234 255
219 234 255
219 234 255
219 234 255
219 234 255
219 234 255
219 234 255
219 234 255
219 234 255
219 234 255
219 234 255
219 234 255
219 234 255
219 234 255
219 234 255
219 234 255
219 234 255
219 234 255
219 234 255
219 234 255
219 234 255
219 234 255
219 234 255
219 234 255
219 234 255
219 235 255
219 235 255
219 235 255
219 235 255
219 235 255
219 235 255
219 235 255
219 235 255
220 235 255
220 235 255
220 235 255
220 235 255
220 235 255
220 235 255
220 235 255
220 235 255
220 235 255
220 235 255
219 235 255
219 235 255
219 235 255
219 235 255
219 235 255
219 235 255
219 235 255
219 235 255
219 235 255
219 235 255
219 235 255
219 235 255
219 235 255
219 235 255
219 235 255
219 235 255
219 235 255
219 235 255
219 235 255
219 235 255
219 234 255
219 234 255
219 234 255
219 234 255
219 234 255
219 234 255
219 234 255
219 234 255
219 234 255
219 234 255
219 234 255
219 234 255
219 234 255
219 234 255
219 234 255
219 234 255
219 234 255
219 234 255
219 234 255
219 234 255
219 234 255
219 234 255
219 234 255
219 234 255
219 234 255
219 234 255
219 234 255
219 234 255
219 234 255
219 234 255
219 234 255
219 234 255
219 234 255
219 234 255
219 234 255
219 234 255
219 234 255
219 234 255
219 234 255
219 234 255
219 234 255
219 234 255
219 234 255
219 234 255
219 234 255
219 234 255
219 234 255
219 234 255
219 234 255
219 234 255
219 234 255
219 234 255
219 234 255
219 234 255
219 234 255
219 234 255
219 234 255
219 234 255
219 234 255
219 234 255
219 234 255
219 234 255
219 234 255
219 234 255
219 234 255
219 234 255
219 234 255
219 234 255
219 234 255
219 234 255
219 234 255
219 234 255
219 234 255
219 234 255
219 234 255
219 234 255
219 234 255
219 234 255
219 234 255
219 234 255
219 234 255
219 234 255
219 234 255
219 234 255
219 234 255
219 234 255
219 234 255
219 234 255
219 234 255
219 234 255
219 234 255
219 234 255
219 234 255
219 234 255
219 234 255
219 234 255
219 234 255
219 234 255
219 234 255
219 234 255
219 234 255
219 234 255
219 234 255
219 234 255
219 234 255
219 234 255
219 234 255
219 234 255
219 234 255
219 234 255
219 234 255
219 234 255
219 234 255
219 234 255
219 234 255
219 234 255
219 234 255
219 234 255
219 234 255
219 234 255
219 234 255
219 234 255
219 234 255
219 234 255
219 234 255
219 234 255
219 234 255
219 234 255
219 234 255
218 234 255
218 234 255
218 234 255
218 234 255
218 234 255
218 234 255
218 234 255
218 234 255
218 234 255
218 234 255
218 234 255
218 234 255
218 234 255
218 234 255
218 234 255
218 234 255
218 234 255
218 234 255
218 234 255
218 234 255
218 234 255
218 234 255
218 234 255
218 234 255
218 234 255
218 234 255
218 234 255
218 234 255
218 234 255
218 234 255
218 234 255
218 234 255
218 234 255
218 234 255
218 234 255
218 234 255
218 234 255
218 234 255
218 234 255
218 234 255
218 234 255
218 234 255
218 234 255
218 234 255
218 234 255
218 234 255
218 234 255
218 234 255
218 234 255
218 234 255
218 234 255
218 234 255
218 234 255
218 234 255
218 234 255
218 234 255
218 234 255
218 234 255
218 234 255
218 234 255
218 234 255
218 234 255
218 234 255
218 234 255
218 234 255
218 234 255
218 234 255
218 234 255
218 234 255
218 234 255
218 234 255
218 234 255
218 234 255
218 234 255
218 234 255
218 234 255
218 234 255
218 234 255
218 234 255
218 234 255
219 234 255
219 234 255
219 234 255
219 234 255
219 234 255
219 234 255
219 234 255
219 234 255
219 234 255
219 234 255
219 234 255
219 234 255
219 234 255
219 234 255
219 234 255
219 234 255
219 234 255
219 234 255
219 234 255
219 234 255
219 234 255
219 234 255
219 234 255
219 234 255
219 234 255
219 234 255
219 234 255
219 234 255
219 234 255
219 234 255
219 234 255
219 234 255
219 234 255
219 234 255
219 234 255
219 234 255
219 234 255
219 234 255
219 234 255
219 234 255
219 234 255
219 234 255
219 234 255
219 234 255
219 234 255
219 234 255
219 234 255
219 234 255
219 234 255
219 234 255
219 234 255
219 234 255
219 234 255
219 234 255
219 234 255
219 234 255
219 234 255
219 234 255
219 234 255
219 234 255
219 234 255
219 234 255
219 234 255
219 234 255
219 234 255
219 234 255
219 234 255
219 234 255
219 234 255
219 234 255
219 234 255
219 234 255
219 234 255
219 234 255
219 234 255
219 234 255
219 234 255
219 234 255
219 234 255
219 234 255
219 234 255
219 234 255
219 234 255
219 234 255
219 234 255
219 234 255
219 234 255
219 234 255
219 234 255
219 234 255
219 234 255
219 234 255
219 234 255
219 234 255
219 234 255
219 234 255
219 234 255
219 234 255
219 234 255
219 234 255
219 234 255
219 234 255
219 234 255
219 234 255
219 234 255
219 234 255
219 234 255
219 234 255
219 234 255
219 234 255
219 234 255
219 234 255
219 234 255
219 234 255
219 234 255
219 234 255
219 234 255
219 234 255
219 234 255
219 234 255
219 234 255
219 234 255
219 234 255
219 234 255
219 234 255
219 234 255
219 234 255
219 234 255
219 234 255
219 234 255
219 234 255
219 234 255
219 235 255
219 235 255
219 235 255
219 235 255
219 235 255
219 235 255
219 235 255
219 235 255
219 235 255
219 235 255
219 235 255
219 235 255
219 235 255
219 235 255
219 235 255
219 235 255
219 235 255
219 235 255
219 235 255
220 235 255
220 235 255
220 235 255
220 235 255
220 235 255
220 235 255
220 235 255
220 235 255
220 235 255
220 235 255
220 235 255
220 235 255
220 235 255
220 235 255
220 235 255
220 235 255
220 235 255
220 235 255
220 235 255
220 235 255
220 235 255
220 235 255
220 235 255
220 235 255
220 235 255
220 235 255
220 235 255
220 235 255
220 235 255
220 235 255
220 235 255
220 235 255
220 235 255
220 235 255
220 235 255
220 235 255
220 235 255
220 235 255
220 235 255
220 235 255
220 235 255
220 235 255
220 235 255
219 235 255
219 235 255
219 235 255
219 235 255
219 235 255
219 235 255
219 235 255
219 235 255
219 235 255
219 235 255
219 235 255
219 235 255
219 235 255
219 235 255
219 235 255
219 235 255
219 235 255
219 235 255
219 234 255
219 234 255
219 234 255
219 234 255
219 234 255
219 234 255
219 234 255
219 234 255
219 234 255
219 234 255
219 234 255
219 234 255
219 234 255
219 234 255
219 234 255
219 234 255
219 234 255
219 234 255
219 234 255
219 234 255
219 234 255
219 234 255
219 234 255
219 234 255
219 234 255
219 234 255
219 234 255
219 234 255
219 234 255
219 234 255
219 234 255
219 234 255
219 234 255
219 234 255
219 234 255
219 234 255
219 234 255
219 234 255
219 234 255
219 234 255
219 234 255
219 234 255
219 234 255
219 234 255
219 234 255
219 234 255
219 234 255
219 234 255
219 234 255
219 234 255
219 234 255
219 234 255
219 234 255
219 234 255
219 234 255
219 234 255
219 234 255
219 234 255
219 234 255
219 234 255
219 234 255
219 234 255
219 234 255
219 234 255
219 234 255
219 234 255
219 234 255
219 234 255
219 234 255
219 234 255
219 234 255
219 234 255
219 234 255
219 234 255
219 234 255
219 234 255
219 234 255
219 234 255
219 234 255
219 234 255
219 234 255
219 234 255
219 234 255
219 234 255
219 234 255
219 234 255
219 234 255
219 234 255
219 234 255
219 234 255
219 234 255
219 234 255
219 234 255
219 234 255
219 234 255
219 234 255
219 234 255
219 234 255
219 234 255
219 234 255
219 234 255
219 234 255
219 234 255
219 234 255
219 234 255
219 234 255
219 234 255
219 234 255
219 234 255
219 234 255
219 234 255
219 234 255
219 234 255
219 234 255
219 234 255
219 234 255
219 234 255
219 234 255
219 234 255
219 234 255
219 234 255
219 234 255
219 234 255
219 234 255
219 234 255
219 234 255
219 234 255
219 234 255
219 234 255
219 234 255
219 234 255
219 234 255
219 234 255
219 234 255
219 234 255
219 234 255
219 234 255
219 234 255
219 234 255
219 234 255
219 234 255
219 234 255
219 234 255
219 234 255
219 234 255
219 234 255
219 234 255
219 234 255
219 234 255
219 234 255
219 234 255
219 234 255
219 234 255
219 234 255
219 234 255
219 234 255
219 234 255
219 234 255
219 234 255
219 234 255
219 234 255
219 234 255
219 234 255
219 234 255
219 234 255
219 234 255
219 234 255
219 234 255
219 234 255
219 234 255
219 234 255
219 234 255
219 234 255
219 234 255
219 234 255
219 234 255
219 234 255
219 234 255
219 234 255
219 234 255
219 234 255
219 234 255
219 234 255
219 234 255
219 234 255
219 234 255
219 234 255
219 234 255
219 234 255
219 234 255
219 234 255
219 234 255
219 234 255
219 234 255
219 234 255
219 234 255
219 234 255
219 234 255
219 234 255
219 234 255
219 234 255
219 234 255
219 234 255
219 234 255
219 234 255
219 234 255
219 234 255
219 234 255
219 234 255
219 234 255
219 234 255
219 234 255
219 234 255
219 234 255
219 234 255
219 234 255
219 234 255
219 234 255
219 234 255
219 234 255
219 234 255
219 234 255
219 234 255
219 234 255
219 234 255
219 234 255
219 234 255
219 234 255
219 234 255
219 234 255
219 234 255
219 234 255
219 234 255
219 234 255
219 234 255
219 234 255
219 234 255
219 234 255
219 234 255
219 234 255
219 234 255
219 234 255
219 234 255
219 234 255
219 234 255
219 234 255
219 234 255
219 234 255
219 234 255
219 234 255
219 234 255
219 234 255
219 234 255
219 234 255
219 234 255
219 234 255
219 234 255
219 234 255
219 234 255
219 234 255
219 234 255
219 234 255
219 234 255
219 234 255
219 234 255
219 234 255
219 234 255
219 234 255
219 234 255
219 234 255
219 234 255
219 234 255
219 234 255
219 234 255
219 234 255
219 234 255
219 234 255
219 234 255
219 234 255
219 234 255
219 234 255
219 234 255
219 234 255
219 234 255
219 234 255
219 234 255
219 234 255
219 234 255
219 234 255
219 234 255
219 234 255
219 234 255
219 234 255
219 234 255
219 234 255
219 234 255
219 234 255
219 234 255
219 235 255
219 235 255
219 235 255
219 235 255
219 235 255
219 235 255
219 235 255
219 235 255
219 235 255
219 235 255
219 235 255
219 235 255
219 235 255
219 235 255
219 235 255
219 235 255
219 235 255
219 235 255
220 235 255
220 235 255
220 235 255
220 235 255
220 235 255
220 235 255
220 235 255
220 235 255
220 235 255
220 235 255
220 235 255
220 235 255
220 235 255
220 235 255
220 235 255
220 235 255
220 235 255
220 235 255
220 235 255
220 235 255
220 235 255
220 235 255
220 235 255
220 235 255
220 235 255
220 235 255
220 235 255
220 235 255
220 235 255
220 235 255
220 235 255
220 235 255
220 235 255
220 235 255
220 235 255
220 235 255
220 235 255
220 235 255
220 235 255
220 235 255
220 235 255
220 235 255
220 235 255
220 235 255
220 235 255
220 235 255
220 235 255
220 235 255
220 235 255
220 235 255
220 235 255
220 235 255
220 235 255
220 235 255
220 235 255
220 235 255
220 235 255
220 235 255
220 235 255
220 235 255
220 235 255
220 235 255
220 235 255
220 235 255
220 235 255
220 235 255
220 235 255
220 235 255
220 235 255
220 235 255
220 235 255
220 235 255
220 235 255
220 235 255
220 235 255
220 235 255
220 235 255
220 235 255
220 235 255
220 235 255
220 235 255
220 235 255
220 235 255
220 235 255
220 235 255
220 235 255
220 235 255
220 235 255
220 235 255
219 235 255
219 235 255
219 235 255
219 235 255
219 235 255
219 235 255
219 235 255
219 235 255
219 235 255
219 235 255
219 235 255
219 235 255
219 235 255
219 235 255
219 235 255
219 235 255
219 235 255
219 235 255
219 235 255
219 235 255
219 234 255
219 234 255
219 234 255
219 234 255
219 234 255
219 234 255
219 234 255
219 234 255
219 234 255
219 234 255
219 234 255
219 234 255
219 234 255
219 234 255
219 234 255
219 234 255
219 234 255
219 234 255
219 234 255
219 234 255
219 234 255
219 234 255
219 234 255
219 234 255
219 234 255
219 234 255
219 234 255
219 234 255
219 234 255
219 234 255
219 234 255
219 234 255
219 234 255
219 234 255
219 234 255
219 234 255
219 234 255
219 234 255
219 234 255
219 234 255
219 234 255
219 234 255
219 234 255
219 234 255
219 234 255
219 234 255
219 234 255
219 234 255
219 234 255
219 234 255
219 234 255
219 234 255
219 234 255
219 234 255
219 234 255
219 234 255
219 234 255
219 234 255
219 234 255
219 234 255
219 234 255
219 234 255
219 234 255
219 234 255
219 234 255
219 234 255
219 234 255
219 234 255
219 234 255
219 234 255
219 234 255
219 234 255
219 234 255
219 234 255
219 234 255
219 234 255
219 234 255
219 234 255
219 234 255
219 234 255
219 234 255
219 234 255
219 234 255
219 234 255
219 234 255
219 234 255
219 234 255
219 234 255
219 234 255
219 234 255
219 234 255
219 234 255
219 234 255
219 234 255
219 234 255
219 234 255
219 234 255
219 234 255
219 234 255
219 234 255
219 234 255
219 234 255
219 234 255
219 234 255
219 234 255
219 234 255
219 234 255
219 234 255
219 234 255
219 234 255
219 234 255
219 234 255
219 234 255
219 234 255
219 234 255
219 234 255
219 234 255
219 234 255
219 234 255
219 234 255
219 234 255
219 234 255
219 234 255
219 234 255
219 234 255
219 234 255
219 234 255
219 234 255
219 234 255
219 234 255
219 234 255
219 234 255
219 234 255
219 234 255
219 234 255
219 234 255
219 234 255
219 234 255
219 234 255
219 234 255
219 234 255
219 234 255
219 234 255
219 234 255
219 234 255
219 234 255
219 234 255
219 234 255
219 234 255
219 234 255
219 234 255
219 234 255
219 234 255
219 234 255
219 234 255
219 234 255
219 234 255
219 234 255
219 234 255
219 234 255
219 234 255
219 234 255
219 234 255
219 234 255
219 234 255
219 234 255
219 234 255
219 234 255
219 234 255
219 234 255
219 234 255
219 234 255
219 234 255
219 234 255
219 234 255
219 234 255
219 234 255
219 234 255
219 234 255
219 234 255
219 234 255
219 234 255
219 234 255
219 234 255
219 234 255
219 234 255
219 234 255
219 234 255
219 234 255
219 234 255
219 234 255
219 234 255
219 234 255
219 234 255
219 234 255
219 234 255
219 234 255
219 234 255
219 234 255
219 234 255
219 234 255
219 234 255
219 234 255
219 234 255
219 234 255
219 234 255
219 234 255
219 234 255
219 234 255
219 234 255
219 234 255
219 234 255
219 234 255
219 234 255
219 234 255
219 234 255
219 234 255
219 234 255
219 234 255
219 234 255
219 234 255
219 234 255
219 234 255
219 234 255
219 234 255
219 234 255
219 234 255
219 234 255
219 234 255
219 234 255
219 234 255
219 234 255
219 234 255
219 234 255
219 234 255
219 234 255
219 234 255
219 234 255
219 234 255
219 234 255
219 234 255
219 234 255
219 234 255
219 234 255
219 234 255
219 234 255
219 234 255
219 234 255
219 234 255
219 235 255
219 235 255
219 235 255
219 235 255
219 235 255
219 235 255
219 235 255
219 235 255
219 235 255
219 235 255
219 235 255
219 235 255
219 235 255
219 235 255
219 235 255
219 235 255
219 235 255
219 235 255
220 235 255
220 235 255
220 235 255
220 235 255
220 235 255
220 235 255
220 235 255
220 235 255
220 235 255
220 235 255
220 235 255
220 235 255
220 235 255
220 235 255
220 235 255
220 235 255
220 235 255
220 235 255
220 235 255
220 235 255
220 235 255
220 235 255
220 235 255
220 235 255
220 235 255
220 235 255
220 235 255
220 235 255
220 235 255
220 235 255
220 235 255
220 235 255
220 235 255
220 235 255
220 235 255
220 235 255
220 235 255
220 235 255
220 235 255
220 235 255
220 235 255
220 235 255
220 235 255
220 235 255
220 235 255
220 235 255
220 235 255
220 235 255
220 235 255
220 235 255
220 235 255
220 235 255
220 235 255
220 235 255
220 235 255
220 235 255
220 235 255
220 235 255
220 235 255
220 235 255
220 235 255
220 235 255
220 235 255
220 235 255
220 235 255
220 235 255
220 235 255
220 235 255
220 235 255
220 235 255
220 235 255
220 235 255
220 235 255
220 235 255
220 235 255
220 235 255
220 235 255
220 235 255
220 235 255
220 235 255
220 235 255
220 235 255
220 235 255
220 235 255
220 235 255
220 235 255
220 235 255
220 235 255
220 235 255
220 235 255
220 235 255
220 235 255
220 235 255
220 235 255
220 235 255
220 235 255
220 235 255
220 235 255
220 235 255
220 235 255
220 235 255
220 235 255
220 235 255
220 235 255
220 235 255
220 235 255
220 235 255
220 235 255
220 235 255
220 235 255
220 235 255
220 235 255
220 235 255
220 235 255
220 235 255
220 235 255
220 235 255
220 235 255
220 235 255
220 235 255
220 235 255
220 235 255
220 235 255
220 235 255
220 235 255
220 235 255
220 235 255
220 235 255
220 235 255
220 235 255
220 235 255
220 235 255
220 235 255
220 235 255
220 235 255
220 235 255
220 235 255
220 235 255
220 235 255
220 235 255
220 235 255
219 235 255
219 235 255
219 235 255
219 235 255
219 235 255
219 235 255
219 235 255
219 235 255
219 235 255
219 235 255
219 235 255
219 235 255
219 235 255
219 235 255
219 235 255
219 235 255
219 235 255
219 235 255
219 235 255
219 234 255
219 234 255
219 234 255
219 234 255
219 234 255
219 234 255
219 234 255
219 234 255
219 234 255
219 234 255
219 234 255
219 234 255
219 234 255
219 234 255
219 234 255
219 234 255
219 234 255
219 234 255
219 234 255
219 234 255
219 234 255
219 234 255
219 234 255
219 234 255
219 234 255
219 234 255
219 234 255
219 234 255
219 234 255
219 234 255
219 234 255
219 234 255
219 234 255
219 234 255
219 234 255
219 234 255
219 234 255
219 234 255
219 234 255
219 234 255
219 234 255
219 234 255
219 234 255
219 234 255
219 234 255
219 234 255
219 234 255
219 234 255
219 234 255
219 234 255
219 234 255
219 234 255
219 234 255
219 234 255
219 234 255
219 234 255
219 234 255
219 234 255
219 234 255
219 234 255
219 234 255
219 234 255
219 234 255
219 234 255
219 234 255
219 234 255
219 234 255
219 234 255
219 234 255
219 234 255
219 234 255
219 234 255
219 234 255
219 234 255
219 234 255
219 234 255
219 234 255
219 234 255
219 234 255
219 234 255
219 234 255
219 234 255
219 234 255
219 234 255
219 234 255
219 234 255
219 234 255
219 234 255
219 234 255
219 234 255
219 234 255
219 234 255
219 234 255
219 234 255
219 234 255
219 234 255
219 234 255
219 234 255
219 234 255
219 234 255
219 234 255
219 234 255
219 234 255
219 234 255
219 234 255
219 234 255
219 234 255
219 234 255
219 234 255
219 234 255
219 234 255
219 234 255
219 234 255
219 234 255
219 234 255
219 234 255
219 234 255
219 234 255
219 234 255
219 234 255
219 234 255
219 234 255
219 234 255
219 234 255
219 234 255
219 234 255
219 234 255
219 234 255
219 234 255
219 234 255
219 234 255
219 234 255
219 234 255
219 234 255
219 234 255
219 234 255
219 234 255
219 234 255
219 234 255
219 234 255
219 234 255
219 234 255
219 234 255
219 234 255
219 234 255
219 234 255
219 234 255
219 234 255
219 234 255
219 234 255
219 234 255
219 234 255
219 234 255
219 234 255
219 234 255
219 234 255
219 234 255
219 234 255
219 234 255
219 234 255
219 234 255
219 234 255
219 234 255
219 234 255
219 234 255
219 234 255
219 234 255
219 234 255
219 234 255
219 234 255
219 234 255
219 234 255
219 234 255
219 234 255
219 234 255
219 234 255
219 234 255
219 234 255
219 234 255
219 234 255
219 234 255
219 234 255
219 234 255
219 234 255
219 234 255
219 234 255
219 234 255
219 234 255
219 234 255
219 234 255
219 234 255
219 234 255
219 234 255
219 234 255
219 234 255
219 235 255
219 235 255
219 235 255
219 235 255
219 235 255
219 235 255
219 235 255
219 235 255
219 235 255
219 235 255
219 235 255
219 235 255
219 235 255
219 235 255
219 235 255
219 235 255
219 235 255
219 235 255
219 235 255
219 235 255
220 235 255
220 235 255
220 235 255
220 235 255
220 235 255
220 235 255
220 235 255
220 235 255
220 235 255
220 235 255
220 235 255
220 235 255
220 235 255
220 235 255
220 235 255
220 235 255
220 235 255
220 235 255
220 235 255
220 235 255
220 235 255
220 235 255
220 235 255
220 235 255
220 235 255
220 235 255
220 235 255
220 235 255
220 235 255
220 235 255
220 235 255
220 235 255
220 235 255
220 235 255
220 235 255
220 235 255
220 235 255
220 235 255
220 235 255
220 235 255
220 235 255
220 235 255
220 235 255
220 235 255
220 235 255
220 235 255
220 235 255
220 235 255
220 235 255
220 235 255
220 235 255
220 235 255
220 235 255
220 235 255
220 235 255
220 235 255
220 235 255
220 235 255
220 235 255
220 235 255
220 235 255
220 235 255
220 235 255
220 235 255
220 235 255
220 235 255
220 235 255
220 235 255
220 235 255
220 235 255
220 235 255
220 235 255
220 235 255
220 235 255
220 235 255
220 235 255
220 235 255
220 235 255
220 235 255
220 235 255
220 235 255
220 235 255
220 235 255
220 235 255
220 235 255
220 235 255
220 235 255
220 235 255
220 235 255
220 235 255
220 235 255
220 235 255
220 235 255
220 235 255
220 235 255
220 235 255
220 235 255
220 235 255
220 235 255
220 235 255
220 235 255
220 235 255
220 235 255
220 235 255
220 235 255
220 235 255
220 235 255
220 235 255
220 235 255
220 235 255
220 235 255
220 235 255
220 235 255
220 235 255
220 235 255
220 235 255
220 235 255
220 235 255
220 235 255
220 235 255
220 235 255
220 235 255
220 235 255
220 235 255
220 235 255
220 235 255
220 235 255
220 235 255
220 235 255
220 235 255
220 235 255
220 235 255
220 235 255
220 235 255
220 235 255
220 235 255
220 235 255
220 235 255
220 235 255
220 235 255
220 235 255
220 235 255
220 235 255
220 235 255
220 235 255
220 235 255
220 235 255
220 235 255
220 235 255
220 235 255
220 235 255
220 235 255
220 235 255
220 235 255
220 235 255
220 235 255
220 235 255
220 235 255
220 235 255
220 235 255
220 235 255
220 235 255
220 235 255
220 235 255
220 235 255
220 235 255
220 235 255
220 235 255
220 235 255
220 235 255
220 235 255
220 235 255
220 235 255
220 235 255
220 235 255
220 235 255
220 235 255
220 235 255
220 235 255
220 235 255
220 235 255
220 235 255
220 235 255
220 235 255
220 235 255
220 235 255
220 235 255
220 235 255
220 235 255
220 235 255
220 235 255
220 235 255
220 235 255
220 235 255
219 235 255
219 235 255
219 235 255
219 235 255
219 235 255
219 235 255
219 235 255
219 235 255
219 235 255
219 235 255
219 235 255
219 235 255
219 235 255
219 235 255
219 235 255
219 235 255
219 235 255
219 235 255
219 235 255
219 235 255
219 235 255
219 235 255
219 234 255
219 234 255
219 234 255
219 234 255
219 234 255
219 234 255
219 234 255
219 234 255
219 234 255
219 234 255
219 234 255
219 234 255
219 234 255
219 234 255
219 234 255
219 234 255
219 234 255
219 234 255
219 234 255
219 234 255
219 234 255
219 234 255
219 234 255
219 234 255
219 234 255
219 234 255
219 234 255
219 234 255
219 234 255
219 234 255
219 234 255
219 234 255
219 234 255
219 234 255
219 234 255
219 234 255
219 234 255
219 234 255
219 234 255
219 234 255
219 234 255
219 234 255
219 234 255
219 234 255
219 234 255
219 234 255
219 234 255
219 234 255
219 234 255
219 234 255
219 234 255
219 234 255
219 234 255
219 234 255
219 234 255
219 234 255
219 234 255
219 234 255
219 234 255
219 234 255
219 234 255
219 234 255
219 234 255
219 234 255
219 234 255
219 234 255
219 234 255
219 234 255
219 234 255
219 234 255
219 234 255
219 234 255
219 234 255
219 234 255
219 234 255
219 234 255
219 234 255
219 234 255
219 234 255
219 234 255
219 234 255
219 234 255
219 234 255
219 234 255
219 234 255
219 234 255
219 234 255
219 234 255
219 234 255
219 234 255
219 234 255
219 234 255
219 234 255
219 234 255
219 234 255
219 234 255
219 234 255
219 234 255
219 234 255
219 234 255
219 234 255
219 234 255
219 234 255
219 234 255
219 234 255
219 234 255
219 234 255
219 234 255
219 234 255
219 234 255
219 234 255
219 234 255
219 234 255
219 234 255
219 234 255
219 234 255
219 234 255
219 234 255
219 234 255
219 234 255
219 234 255
219 234 255
219 234 255
219 234 255
219 234 255
219 234 255
219 234 255
219 234 255
219 234 255
219 234 255
219 234 255
219 234 255
219 234 255
219 235 255
219 235 255
219 235 255
219 235 255
219 235 255
219 235 255
219 235 255
219 235 255
219 235 255
219 235 255
219 235 255
219 235 255
219 235 255
219 235 255
219 235 255
219 235 255
219 235 255
219 235 255
219 235 255
219 235 255
220 235 255
220 235 255
220 235 255
220 235 255
220 235 255
220 235 255
220 235 255
220 235 255
220 235 255
220 235 255
220 235 255
220 235 255
220 235 255
220 235 255
220 235 255
220 235 255
220 235 255
220 235 255
220 235 255
220 235 255
220 235 255
220 235 255
220 235 255
220 235 255
220 235 255
220 235 255
220 235 255
220 235 255
220 235 255
220 235 255
220 235 255
220 235 255
220 235 255
220 235 255
220 235 255
220 235 255
220 235 255
220 235 255
220 235 255
220 235 255
220 235 255
220 235 255
220 235 255
220 235 255
220 235 255
220 235 255
220 235 255
220 235 255
220 235 255
220 235 255
220 235 255
220 235 255
220 235 255
220 235 255
220 235 255
220 235 255
220 235 255
220 235 255
220 235 255
220 235 255
220 235 255
220 235 255
220 235 255
220 235 255
220 235 255
220 235 255
220 235 255
220 235 255
220 235 255
220 235 255
220 235 255
220 235 255
220 235 255
220 235 255
220 235 255
220 235 255
220 235 255
220 235 255
220 235 255
220 235 255
220 235 255
220 235 255
220 235 255
220 235 255
220 235 255
220 235 255
220 235 255
220 235 255
220 235 255
220 235 255
220 235 255
220 235 255
220 235 255
220 235 255
220 235 255
220 235 255
220 235 255
220 235 255
220 235 255
220 235 255
220 235 255
220 235 255
220 235 255
220 235 255
220 235 255
220 235 255
220 235 255
220 235 255
220 235 255
220 235 255
220 235 255
220 235 255
220 235 255
220 235 255
220 235 255
220 235 255
220 235 255
220 235 255
220 235 255
220 235 255
220 235 255
220 235 255
220 235 255
220 235 255
220 235 255
220 235 255
220 235 255
220 235 255
220 235 255
220 235 255
220 235 255
220 235 255
220 235 255
220 235 255
220 235 255
220 235 255
220 235 255
220 235 255
220 235 255
220 235 255
220 235 255
220 235 255
220 235 255
220 235 255
220 235 255
220 235 255
220 235 255
220 235 255
220 235 255
220 235 255
220 235 255
220 235 255
220 235 255
220 235 255
220 235 255
220 235 255
220 235 255
220 235 255
220 235 255
220 235 255
220 235 255
220 235 255
220 235 255
220 235 255
220 235 255
220 235 255
220 235 255
220 235 255
220 235 255
220 235 255
220 235 255
220 235 255
220 235 255
220 235 255
220 235 255
220 235 255
220 235 255
220 235 255
220 235 255
220 235 255
220 235 255
220 235 255
220 235 255
220 235 255
220 235 255
220 235 255
220 235 255
220 235 255
220 235 255
220 235 255
220 235 255
220 235 255
220 235 255
220 235 255
220 235 255
220 235 255
220 235 255
220 235 255
220 235 255
220 235 255
220 235 255
220 235 255
220 235 255
220 235 255
220 235 255
220 235 255
220 235 255
220 235 255
220 235 255
220 235 255
220 235 255
220 235 255
220 235 255
220 235 255
220 235 255
220 235 255
220 235 255
220 235 255
220 235 255
220 235 255
220 235 255
220 235 255
220 235 255
220 235 255
220 235 255
220 235 255
220 235 255
220 235 255
220 235 255
220 235 255
220 235 255
220 235 255
220 235 255
220 235 255
220 235 255
220 235 255
220 235 255
220 235 255
220 235 255
220 235 255
220 235 255
220 235 255
220 235 255
220 235 255
220 235 255
220 235 255
220 235 255
220 235 255
220 235 255
220 235 255
220 235 255
220 235 255
220 235 255
220 235 255
220 235 255
220 235 255
220 235 255
220 235 255
220 235 255
220 235 255
220 235 255
220 235 255
220 235 255
220 235 255
220 235 255
219 235 255
220 235 255
220 235 255
219 235 255
219 235 255
219 235 255
219 235 255
219 235 255
219 235 255
219 235 255
219 235 255
219 235 255
219 235 255
219 235 255
219 235 255
219 235 255
219 235 255
219 235 255
219 235 255
219 235 255
219 235 255
219 235 255
219 235 255
219 235 255
219 235 255
219 235 255
219 235 255
219 235 255
219 235 255
219 235 255
219 235 255
219 235 255
219 235 255
219 235 255
219 235 255
219 235 255
219 235 255
219 235 255
219 235 255
219 235 255
219 235 255
219 235 255
219 235 255
219 235 255
219 235 255
219 235 255
219 235 255
219 235 255
219 235 255
219 235 255
219 235 255
219 235 255
219 235 255
219 235 255
219 235 255
219 235 255
219 235 255
219 235 255
219 235 255
219 235 255
219 235 255
219 235 255
219 235 255
219 235 255
219 235 255
219 235 255
219 235 255
219 235 255
219 235 255
219 235 255
219 235 255
219 235 255
219 235 255
219 235 255
219 235 255
219 235 255
219 235 255
219 235 255
219 235 255
219 235 255
219 235 255
219 235 255
219 235 255
219 235 255
219 235 255
219 235 255
219 235 255
219 235 255
219 235 255
219 235 255
219 235 255
219 235 255
219 235 255
219 235 255
219 235 255
220 235 255
220 235 255
220 235 255
220 235 255
220 235 255
220 235 255
220 235 255
220 235 255
220 235 255
220 235 255
220 235 255
220 235 255
220 235 255
220 235 255
220 235 255
220 235 255
220 235 255
220 235 255
220 235 255
220 235 255
220 235 255
220 235 255
220 235 255
220 235 255
220 235 255
220 235 255
220 235 255
220 235 255
220 235 255
220 235 255
220 235 255
220 235 255
220 235 255
220 235 255
220 235 255
220 235 255
220 235 255
220 235 255
220 235 255
220 235 255
220 235 255
220 235 255
220 235 255
220 235 255
220 235 255
220 235 255
220 235 255
220 235 255
220 235 255
220 235 255
220 235 255
220 235 255
220 235 255
220 235 255
220 235 255
220 235 255
220 235 255
220 235 255
220 235 255
220 235 255
220 235 255
220 235 255
220 235 255
220 235 255
220 235 255
220 235 255
220 235 255
220 235 255
220 235 255
220 235 255
220 235 255
220 235 255
220 235 255
220 235 255
220 235 255
220 235 255
220 235 255
220 235 255
220 235 255
220 235 255
220 235 255
220 235 255
220 235 255
220 235 255
220 235 255
220 235 255
220 235 255
220 235 255
220 235 255
220 235 255
220 235 255
220 235 255
220 235 255
220 235 255
220 235 255
220 235 255
220 235 255
220 235 255
220 235 255
220 235 255
220 235 255
220 235 255
220 235 255
220 235 255
220 235 255
220 235 255
220 235 255
220 235 255
220 235 255
220 235 255
220 235 255
220 235 255
220 235 255
220 235 255
220 235 255
220 235 255
220 235 255
220 235 255
220 235 255
220 235 255
220 235 255
220 235 255
220 235 255
220 235 255
220 235 255
220 235 255
220 235 255
220 235 255
220 235 255
220 235 255
220 235 255
220 235 255
220 235 255
220 235 255
220 235 255
220 235 255
220 235 255
220 235 255
220 235 255
220 235 255
220 235 255
220 235 255
220 235 255
220 235 255
220 235 255
220 235 255
220 235 255
220 235 255
220 235 255
220 235 255
220 235 255
220 235 255
220 235 255
220 235 255
220 235 255
220 235 255
220 235 255
220 235 255
220 235 255
220 235 255
220 235 255
220 235 255
220 235 255
220 235 255
220 235 255
220 235 255
220 235 255
220 235 255
220 235 255
220 235 255
220 235 255
220 235 255
220 235 255
220 235 255
220 235 255
220 235 255
220 235 255
220 235 255
220 235 255
220 235 255
220 235 255
220 235 255
220 235 255
220 235 255
220 235 255
220 235 255
220 235 255
220 235 255
220 235 255
220 235 255
220 235 255
220 235 255
220 235 255
220 235 255
220 235 255
220 235 255
220 235 255
220 235 255
220 235 255
220 235 255
220 235 255
220 235 255
220 235 255
220 235 255
220 235 255
220 235 255
220 235 255
220 235 255
220 235 255
220 235 255
220 235 255
220 235 255
220 235 255
220 235 255
220 235 255
220 235 255
220 235 255
220 235 255
220 235 255
220 235 255
220 235 255
220 235 255
220 235 255
220 235 255
220 235 255
220 235 255
220 235 255
220 235 255
220 235 255
220 235 255
220 235 255
220 235 255
220 235 255
220 235 255
220 235 255
220 235 255
220 235 255
220 235 255
220 235 255
220 235 255
220 235 255
220 235 255
220 235 255
220 235 255
220 235 255
220 235 255
220 235 255
220 235 255
220 235 255
220 235 255
220 235 255
220 235 255
220 235 255
220 235 255
220 235 255
220 235 255
220 235 255
220 235 255
220 235 255
220 235 255
220 235 255
220 235 255
220 235 255
220 235 255
220 235 255
220 235 255
220 235 255
220 235 255
220 235 255
220 235 255
220 235 255
220 235 255
220 235 255
220 235 255
220 235 255
220 235 255
220 235 255
220 235 255
220 235 255
220 235 255
220 235 255
220 235 255
220 235 255
220 235 255
220 235 255
220 235 255
220 235 255
220 235 255
220 235 255
220 235 255
220 235 255
220 235 255
220 235 255
220 235 255
220 235 255
220 235 255
220 235 255
220 235 255
220 235 255
220 235 255
220 235 255
220 235 255
220 235 255
220 235 255
220 235 255
220 235 255
220 235 255
220 235 255
220 235 255
220 235 255
220 235 255
220 235 255
220 235 255
220 235 255
220 235 255
220 235 255
220 235 255
220 235 255
220 235 255
220 235 255
220 235 255
220 235 255
220 235 255
220 235 255
220 235 255
220 235 255
220 235 255
220 235 255
220 235 255
220 235 255
220 235 255
220 235 255
220 235 255
220 235 255
220 235 255
220 235 255
220 235 255
220 235 255
220 235 255
220 235 255
220 235 255
220 235 255
220 235 255
220 235 255
220 235 255
220 235 255
220 235 255
220 235 255
220 235 255
220 235 255
220 235 255
220 235 255
220 235 255
220 235 255
220 235 255
220 235 255
220 235 255
220 235 255
220 235 255
220 235 255
220 235 255
220 235 255
220 235 255
220 235 255
220 235 255
220 235 255
220 235 255
220 235 255
220 235 255
220 235 255
220 235 255
220 235 255
220 235 255
220 235 255
220 235 255
220 235 255
220 235 255
220 235 255
220 235 255
220 235 255
220 235 255
220 235 255
220 235 255
220 235 255
220 235 255
220 235 255
220 235 255
220 235 255
220 235 255
220 235 255
220 235 255
220 235 255
220 235 255
220 235 255
220 235 255
220 235 255
220 235 255
220 235 255
220 235 255
220 235 255
220 235 255
220 235 255
220 235 255
220 235 255
220 235 255
220 235 255
220 235 255
220 235 255
220 235 255
220 235 255
220 235 255
220 235 255
220 235 255
220 235 255
220 235 255
220 235 255
220 235 255
220 235 255
220 235 255
220 235 255
220 235 255
220 235 255
220 235 255
220 235 255
220 235 255
220 235 255
220 235 255
220 235 255
220 235 255
220 235 255
220 235 255
220 235 255
220 235 255
220 235 255
220 235 255
220 235 255
220 235 255
220 235 255
220 235 255
220 235 255
220 235 255
220 235 255
220 235 255
220 235 255
220 235 255
220 235 255
220 235 255
220 235 255
220 235 255
220 235 255
220 235 255
220 235 255
220 235 255
220 235 255
220 235 255
220 235 255
220 235 255
220 235 255
220 235 255
220 235 255
220 235 255
220 235 255
220 235 255
220 235 255
220 235 255
220 235 255
220 235 255
220 235 255
220 235 255
220 235 255
220 235 255
220 235 255
220 235 255
220 235 255
220 235 255
220 235 255
220 235 255
220 235 255
220 235 255
220 235 255
220 235 255
220 235 255
220 235 255
220 235 255
220 235 255
220 235 255
220 235 255
220 235 255
220 235 255
220 235 255
220 235 255
220 235 255
220 235 255
220 235 255
220 235 255
220 235 255
220 235 255
220 235 255
220 235 255
220 235 255
220 235 255
220 235 255
220 235 255
220 235 255
220 235 255
220 235 255
220 235 255
220 235 255
220 235 255
220 235 255
220 235 255
220 235 255
220 235 255
220 235 255
220 235 255
220 235 255
220 235 255
220 235 255
220 235 255
220 235 255
220 235 255
220 235 255
220 235 255
220 235 255
220 235 255
220 235 255
220 235 255
220 235 255
220 235 255
220 235 255
220 235 255
220 235 255
220 235 255
220 235 255
220 235 255
220 235 255
220 235 255
220 235 255
220 235 255
220 235 255
220 235 255
220 235 255
220 235 255
220 235 255
220 235 255
220 235 255
220 235 255
220 235 255
220 235 255
220 235 255
220 235 255
220 235 255
220 235 255
220 235 255
220 235 255
220 235 255
220 235 255
220 235 255
220 235 255
220 235 255
220 235 255
220 235 255
220 235 255
220 235 255
220 235 255
220 235 255
220 235 255
220 235 255
220 235 255
220 235 255
220 235 255
220 235 255
220 235 255
220 235 255
220 235 255
220 235 255
220 235 255
220 235 255
220 235 255
220 235 255
220 235 255
220 235 255
220 235 255
220 235 255
220 235 255
220 235 255
220 235 255
220 235 255
220 235 255
220 235 255
220 235 255
220 235 255
220 235 255
220 235 255
220 235 255
220 235 255
220 235 255
220 235 255
220 235 255
220 235 255
220 235 255
220 235 255
220 235 255
220 235 255
220 235 255
220 235 255
220 235 255
220 235 255
220 235 255
220 235 255
220 235 255
220 235 255
220 235 255
220 235 255
220 235 255
220 235 255
220 235 255
220 235 255
220 235 255
220 235 255
220 235 255
220 235 255
220 235 255
220 235 255
220 235 255
220 235 255
220 235 255
220 235 255
220 235 255
220 235 255
220 235 255
220 235 255
220 235 255
220 235 255
220 235 255
220 235 255
220 235 255
220 235 255
220 235 255
220 235 255
220 235 255
220 235 255
220 235 255
220 235 255
220 235 255
220 235 255
220 235 255
220 235 255
220 235 255
220 235 255
220 235 255
220 235 255
220 235 255
220 235 255
220 235 255
220 235 255
220 235 255
220 235 255
220 235 255
220 235 255
220 235 255
220 235 255
220 235 255
220 235 255
220 235 255
220 235 255
220 235 255
220 235 255
220 235 255
220 235 255
220 235 255
220 235 255
220 235 255
220 235 255
220 235 255
220 235 255
220 235 255
220 235 255
220 235 255
220 235 255
220 235 255
220 235 255
220 235 255
220 235 255
220 235 255
220 235 255
220 235 255
220 235 255
220 235 255
220 235 255
220 235 255
220 235 255
220 235 255
220 235 255
220 235 255
220 235 255
220 235 255
220 235 255
220 235 255
220 235 255
220 235 255
220 235 255
220 235 255
220 235 255
220 235 255
220 235 255
220 235 255
220 235 255
220 235 255
220 235 255
220 235 255
220 235 255
220 235 255
220 235 255
220 235 255
220 235 255
220 235 255
220 235 255
220 235 255
220 235 255
220 235 255
220 235 255
220 235 255
220 235 255
220 235 255
220 235 255
220 235 255
220 235 255
220 235 255
220 235 255
220 235 255
220 235 255
220 235 255
220 235 255
220 235 255
220 235 255
220 235 255
220 235 255
220 235 255
220 235 255
220 235 255
220 235 255
220 235 255
220 235 255
220 235 255
220 235 255
220 235 255
220 235 255
220 235 255
220 235 255
220 235 255
220 235 255
220 235 255
220 235 255
220 235 255
220 235 255
220 235 255
220 235 255
220 235 255
220 235 255
220 235 255
220 235 255
220 235 255
220 235 255
220 235 255
220 235 255
220 235 255
220 235 255
220 235 255
220 235 255
220 235 255
220 235 255
220 235 255
220 235 255
220 235 255
220 235 255
220 235 255
220 235 255
220 235 255
220 235 255
220 235 255
220 235 255
220 235 255
220 235 255
220 235 255
220 235 255
220 235 255
220 235 255
220 235 255
220 235 255
220 235 255
220 235 255
220 235 255
220 235 255
220 235 255
220 235 255
220 235 255
220 235 255
220 235 255
220 235 255
220 235 255
220 235 255
220 235 255
220 235 255
220 235 255
220 235 255
220 235 255
220 235 255
220 235 255
220 235 255
220 235 255
220 235 255
220 235 255
220 235 255
220 235 255
220 235 255
220 235 255
220 235 255
220 235 255
220 235 255
220 235 255
220 235 255
220 235 255
220 235 255
220 235 255
220 235 255
220 235 255
220 235 255
220 235 255
220 235 255
220 235 255
220 235 255
220 235 255
220 235 255
220 235 255
220 235 255
220 235 255
220 235 255
220 235 255
220 235 255
220 235 255
220 235 255
220 235 255
220 235 255
220 235 255
220 235 255
220 235 255
220 235 255
220 235 255
220 235 255
220 235 255
220 235 255
220 235 255
220 235 255
220 235 255
220 235 255
220 235 255
220 235 255
220 235 255
220 235 255
220 235 255
220 235 255
220 235 255
220 235 255
220 235 255
220 235 255
220 235 255
220 235 255
220 235 255
220 235 255
220 235 255
220 235 255
220 235 255
220 235 255
220 235 255
220 235 255
220 235 255
220 235 255
220 235 255
220 235 255
220 235 255
220 235 255
220 235 255
220 235 255
220 235 255
220 235 255
220 235 255
220 235 255
220 235 255
220 235 255
220 235 255
220 235 255
220 235 255
220 235 255
220 235 255
220 235 255
220 235 255
220 235 255
220 235 255
220 235 255
220 235 255
220 235 255
220 235 255
220 235 255
220 235 255
220 235 255
220 235 255
220 235 255
220 235 255
220 235 255
220 235 255
220 235 255
220 235 255
220 235 255
220 235 255
220 235 255
220 235 255
220 235 255
220 235 255
220 235 255
220 235 255
220 235 255
220 235 255
220 235 255
220 235 255
220 235 255
220 235 255
220 235 255
220 235 255
220 235 255
220 235 255
220 235 255
220 235 255
220 235 255
220 235 255
220 235 255
220 235 255
220 235 255
220 235 255
220 235 255
220 235 255
220 235 255
220 235 255
220 235 255
220 235 255
220 235 255
220 235 255
220 235 255
220 235 255
220 235 255
220 235 255
220 235 255
220 235 255
221 235 255
221 235 255
221 235 255
221 235 255
221 235 255
221 235 255
221 235 255
221 235 255
221 235 255
221 235 255
221 235 255
221 235 255
221 235 255
220 235 255
220 235 255
220 235 255
220 235 255
220 235 255
220 235 255
220 235 255
220 235 255
220 235 255
220 235 255
220 235 255
220 235 255
220 235 255
220 235 255
220 235 255
220 235 255
220 235 255
220 235 255
220 235 255
220 235 255
220 235 255
220 235 255
220 235 255
220 235 255
220 235 255
220 235 255
220 235 255
220 235 255
220 235 255
220 235 255
220 235 255
220 235 255
220 235 255
220 235 255
220 235 255
220 235 255
220 235 255
220 235 255
220 235 255
220 235 255
220 235 255
220 235 255
220 235 255
220 235 255
220 235 255
220 235 255
220 235 255
220 235 255
220 235 255
220 235 255
220 235 255
220 235 255
220 235 255
220 235 255
220 235 255
220 235 255
220 235 255
220 235 255
220 235 255
220 235 255
220 235 255
220 235 255
220 235 255
220 235 255
220 235 255
220 235 255
220 235 255
220 235 255
220 235 255
220 235 255
220 235 255
220 235 255
220 235 255
220 235 255
220 235 255
220 235 255
220 235 255
220 235 255
220 235 255
220 235 255
220 235 255
220 235 255
220 235 255
220 235 255
220 235 255
220 235 255
220 235 255
220 235 255
220 235 255
220 235 255
220 235 255
220 235 255
220 235 255
220 235 255
220 235 255
220 235 255
220 235 255
220 235 255
220 235 255
220 235 255
220 235 255
220 235 255
220 235 255
220 235 255
220 235 255
220 235 255
220 235 255
220 235 255
220 235 255
220 235 255
220 235 255
220 235 255
220 235 255
220 235 255
220 235 255
220 235 255
220 235 255
220 235 255
220 235 255
220 235 255
220 235 255
220 235 255
220 235 255
220 235 255
220 235 255
220 235 255
220 235 255
220 235 255
220 235 255
220 235 255
220 235 255
220 235 255
220 235 255
220 235 255
220 235 255
220 235 255
220 235 255
220 235 255
220 235 255
220 235 255
220 235 255
220 235 255
220 235 255
220 235 255
220 235 255
220 235 255
220 235 255
220 235 255
220 235 255
220 235 255
220 235 255
220 235 255
220 235 255
220 235 255
220 235 255
220 235 255
220 235 255
220 235 255
220 235 255
220 235 255
220 235 255
220 235 255
220 235 255
220 235 255
220 235 255
220 235 255
220 235 255
220 235 255
220 235 255
220 235 255
220 235 255
220 235 255
220 235 255
220 235 255
220 235 255
220 235 255
220 235 255
220 235 255
220 235 255
220 235 255
220 235 255
220 235 255
220 235 255
220 235 255
220 235 255
220 235 255
220 235 255
220 235 255
220 235 255
220 235 255
220 235 255
220 235 255
220 235 255
220 235 255
220 235 255
220 235 255
220 235 255
220 235 255
220 235 255
220 235 255
220 235 255
220 235 255
220 235 255
220 235 255
220 235 255
220 235 255
220 235 255
220 235 255
220 235 255
220 235 255
220 235 255
220 235 255
220 235 255
220 235 255
220 235 255
220 235 255
220 235 255
220 235 255
220 235 255
220 235 255
220 235 255
220 235 255
220 235 255
220 235 255
220 235 255
220 235 255
220 235 255
220 235 255
220 235 255
220 235 255
220 235 255
220 235 255
220 235 255
220 235 255
220 235 255
220 235 255
220 235 255
220 235 255
220 235 255
220 235 255
220 235 255
220 235 255
220 235 255
220 235 255
220 235 255
220 235 255
220 235 255
220 235 255
220 235 255
220 235 255
220 235 255
220 235 255
220 235 255
220 235 255
220 235 255
220 235 255
220 235 255
220 235 255
220 235 255
220 235 255
220 235 255
220 235 255
220 235 255
220 235 255
220 235 255
220 235 255
220 235 255
220 235 255
220 235 255
220 235 255
220 235 255
220 235 255
220 235 255
220 235 255
220 235 255
220 235 255
220 235 255
220 235 255
220 235 255
220 235 255
220 235 255
220 235 255
220 235 255
220 235 255
220 235 255
220 235 255
220 235 255
220 235 255
220 235 255
220 235 255
220 235 255
220 235 255
220 235 255
220 235 255
220 235 255
220 235 255
220 235 255
220 235 255
220 235 255
220 235 255
220 235 255
220 235 255
220 235 255
220 235 255
220 235 255
220 235 255
220 235 255
220 235 255
220 235 255
220 235 255
220 235 255
220 235 255
220 235 255
220 235 255
220 235 255
220 235 255
220 235 255
220 235 255
220 235 255
220 235 255
220 235 255
220 235 255
220 235 255
220 235 255
220 235 255
220 235 255
220 235 255
220 235 255
220 235 255
220 235 255
220 235 255
220 235 255
220 235 255
220 235 255
220 235 255
220 235 255
220 235 255
220 235 255
220 235 255
220 235 255
220 235 255
220 235 255
220 235 255
220 235 255
220 235 255
220 235 255
220 235 255
220 235 255
220 235 255
220 235 255
220 235 255
220 235 255
220 235 255
220 235 255
220 235 255
220 235 255
220 235 255
220 235 255
220 235 255
220 235 255
220 235 255
220 235 255
220 235 255
220 235 255
220 235 255
220 235 255
220 235 255
220 235 255
220 235 255
220 235 255
220 235 255
220 235 255
220 235 255
220 235 255
221 235 255
221 235 255
221 235 255
221 235 255
221 235 255
221 235 255
221 235 255
221 235 255
221 235 255
221 235 255
221 235 255
221 235 255
221 235 255
221 235 255
221 235 255
221 235 255
221 235 255
221 235 255
221 235 255
221 235 255
221 235 255
221 235 255
221 235 255
221 235 255
221 235 255
221 235 255
221 235 255
221 235 255
221 235 255
221 235 255
221 235 255
221 235 255
221 235 255
221 235 255
221 235 255
221 235 255
221 235 255
221 235 255
221 235 255
221 235 255
221 235 255
221 235 255
221 235 255
221 235 255
221 235 255
221 235 255
221 235 255
221 235 255
221 235 255
221 235 255
221 235 255
221 235 255
221 235 255
221 235 255
221 235 255
221 235 255
221 235 255
221 235 255
221 235 255
221 235 255
221 235 255
221 235 255
221 235 255
221 235 255
221 235 255
221 235 255
221 235 255
221 235 255
221 235 255
221 235 255
221 235 255
221 235 255
221 235 255
221 235 255
221 235 255
221 235 255
221 235 255
221 235 255
221 235 255
221 235 255
220 235 255
221 235 255
220 235 255
220 235 255
220 235 255
220 235 255
220 235 255
220 235 255
220 235 255
220 235 255
220 235 255
220 235 255
220 235 255
220 235 255
220 235 255
220 235 255
220 235 255
220 235 255
220 235 255
220 235 255
220 235 255
220 235 255
220 235 255
220 235 255
220 235 255
220 235 255
220 235 255
220 235 255
220 235 255
220 235 255
220 235 255
220 235 255
220 235 255
220 235 255
220 235 255
220 235 255
220 235 255
220 235 255
220 235 255
220 235 255
220 235 255
220 235 255
220 235 255
220 235 255
220 235 255
220 235 255
220 235 255
220 235 255
220 235 255
220 235 255
220 235 255
220 235 255
220 235 255
220 235 255
220 235 255
220 235 255
220 235 255
220 235 255
220 235 255
220 235 255
220 235 255
220 235 255
220 235 255
220 235 255
220 235 255
220 235 255
220 235 255
220 235 255
220 235 255
220 235 255
220 235 255
220 235 255
220 235 255
220 235 255
220 235 255
220 235 255
220 235 255
220 235 255
220 235 255
220 235 255
220 235 255
220 235 255
220 235 255
220 235 255
220 235 255
220 235 255
220 235 255
220 235 255
220 235 255
220 235 255
220 235 255
220 235 255
220 235 255
220 235 255
220 235 255
220 235 255
220 235 255
220 235 255
220 235 255
220 235 255
220 235 255
220 235 255
220 235 255
220 235 255
220 235 255
220 235 255
220 235 255
220 235 255
220 235 255
220 235 255
220 235 255
220 235 255
220 235 255
220 235 255
220 235 255
220 235 255
220 235 255
220 235 255
220 235 255
220 235 255
220 235 255
220 235 255
220 235 255
220 235 255
220 235 255
220 235 255
220 235 255
220 235 255
220 235 255
220 235 255
220 235 255
220 235 255
220 235 255
220 235 255
220 235 255
220 235 255
220 235 255
220 235 255
220 235 255
220 235 255
220 235 255
220 235 255
220 235 255
220 235 255
220 235 255
220 235 255
220 235 255
220 235 255
220 235 255
220 235 255
220 235 255
220 235 255
220 235 255
220 235 255
220 235 255
220 235 255
220 235 255
220 235 255
220 235 255
220 235 255
220 235 255
220 235 255
220 235 255
220 235 255
220 235 255
220 235 255
220 235 255
220 235 255
220 235 255
220 235 255
220 235 255
220 235 255
220 235 255
220 235 255
220 235 255
220 235 255
220 235 255
220 235 255
220 235 255
220 235 255
220 235 255
220 235 255
220 235 255
220 235 255
220 235 255
220 235 255
220 235 255
220 235 255
220 235 255
220 235 255
220 235 255
220 235 255
220 235 255
220 235 255
220 235 255
220 235 255
220 235 255
220 235 255
220 235 255
220 235 255
220 235 255
220 235 255
220 235 255
220 235 255
220 235 255
220 235 255
220 235 255
220 235 255
220 235 255
220 235 255
220 235 255
220 235 255
220 235 255
220 235 255
220 235 255
220 235 255
220 235 255
220 235 255
220 235 255
220 235 255
220 235 255
220 235 255
220 235 255
220 235 255
220 235 255
220 235 255
220 235 255
220 235 255
220 235 255
220 235 255
220 235 255
220 235 255
220 235 255
220 235 255
220 235 255
220 235 255
220 235 255
220 235 255
220 235 255
220 235 255
220 235 255
220 235 255
220 235 255
220 235 255
220 235 255
220 235 255
220 235 255
220 235 255
220 235 255
220 235 255
220 235 255
220 235 255
220 235 255
220 235 255
220 235 255
220 235 255
220 235 255
220 235 255
220 235 255
220 235 255
220 235 255
221 235 255
220 235 255
220 235 255
221 235 255
221 235 255
221 235 255
221 235 255
221 235 255
221 235 255
221 235 255
221 235 255
221 235 255
221 235 255
221 235 255
221 235 255
221 235 255
221 235 255
221 235 255
221 235 255
221 235 255
221 235 255
221 235 255
221 235 255
221 235 255
221 235 255
221 235 255
221 235 255
221 235 255
221 235 255
221 235 255
221 235 255
221 235 255
221 235 255
221 235 255
221 235 255
221 235 255
221 235 255
221 235 255
221 235 255
221 235 255
221 235 255
221 235 255
221 235 255
221 235 255
221 235 255
221 235 255
221 235 255
221 235 255
221 235 255
221 235 255
221 235 255
221 235 255
221 235 255
221 235 255
221 235 255
221 235 255
221 235 255
221 235 255
221 235 255
221 235 255
221 235 255
221 235 255
221 235 255
221 235 255
221 235 255
221 235 255
221 235 255
221 235 255
221 235 255
221 235 255
221 235 255
221 235 255
221 235 255
221 235 255
221 235 255
221 235 255
221 235 255
221 235 255
221 235 255
221 235 255
221 235 255
221 235 255
221 235 255
221 235 255
221 235 255
221 235 255
221 235 255
221 235 255
221 235 255
221 235 255
221 235 255
221 235 255
221 235 255
221 235 255
221 235 255
221 235 255
221 235 255
221 235 255
221 235 255
221 235 255
221 235 255
221 235 255
221 235 255
221 235 255
221 235 255
221 235 255
221 235 255
221 235 255
221 235 255
221 235 255
221 235 255
221 235 255
221 235 255
221 235 255
221 235 255
221 235 255
221 235 255
221 235 255
221 235 255
221 235 255
221 235 255
221 235 255
221 235 255
221 235 255
221 235 255
221 235 255
221 235 255
221 235 255
221 235 255
221 235 255
221 235 255
221 235 255
221 235 255
221 235 255
221 235 255
221 235 255
221 235 255
221 235 255
221 235 255
221 235 255
221 235 255
221 235 255
221 235 255
221 235 255
221 235 255
221 235 255
221 235 255
221 235 255
221 235 255
221 235 255
221 235 255
221 235 255
221 235 255
221 235 255
221 235 255
221 235 255
221 235 255
221 235 255
221 235 255
221 235 255
221 235 255
221 235 255
221 235 255
221 235 255
221 235 255
221 235 255
221 235 255
221 235 255
221 235 255
221 235 255
221 235 255
221 235 255
221 235 255
221 235 255
221 235 255
221 235 255
221 235 255
221 235 255
221 235 255
221 235 255
221 235 255
221 235 255
221 235 255
221 235 255
221 235 255
221 235 255
221 235 255
221 235 255
221 235 255
221 235 255
221 235 255
221 235 255
221 235 255
221 235 255
221 235 255
221 235 255
221 235 255
221 235 255
221 235 255
221 235 255
221 235 255
221 235 255
221 235 255
221 235 255
221 235 255
221 235 255
221 235 255
221 235 255
221 235 255
221 235 255
221 235 255
221 235 255
221 235 255
221 235 255
221 235 255
221 235 255
220 235 255
221 235 255
221 235 255
221 235 255
221 235 255
221 235 255
220 235 255
221 235 255
220 235 255
221 235 255
220 235 255
220 235 255
220 235 255
221 235 255
220 235 255
220 235 255
220 235 255
220 235 255
220 235 255
220 235 255
220 235 255
220 235 255
220 235 255
220 235 255
220 235 255
220 235 255
220 235 255
220 235 255
220 235 255
220 235 255
220 235 255
220 235 255
220 235 255
220 235 255
220 235 255
220 235 255
220 235 255
220 235 255
220 235 255
220 235 255
220 235 255
220 235 255
220 235 255
220 235 255
220 235 255
220 235 255
220 235 255
220 235 255
220 235 255
220 235 255
220 235 255
220 235 255
220 235 255
220 235 255
220 235 255
220 235 255
220 235 255
220 235 255
220 235 255
220 235 255
220 235 255
220 235 255
220 235 255
220 235 255
220 235 255
220 235 255
220 235 255
220 235 255
220 235 255
220 235 255
220 235 255
220 235 255
220 235 255
220 235 255
220 235 255
220 235 255
220 235 255
220 235 255
220 235 255
220 235 255
220 235 255
220 235 255
220 235 255
220 235 255
220 235 255
220 235 255
220 235 255
220 235 255
220 235 255
220 235 255
220 235 255
220 235 255
220 235 255
220 235 255
220 235 255
220 235 255
220 235 255
220 235 255
220 235 255
220 235 255
220 235 255
220 235 255
220 235 255
221 235 255
220 235 255
221 235 255
221 235 255
221 235 255
221 235 255
220 235 255
221 235 255
221 235 255
221 235 255
221 235 255
221 235 255
221 235 255
221 235 255
221 235 255
221 235 255
221 235 255
221 235 255
221 235 255
221 235 255
221 235 255
221 235 255
221 235 255
221 235 255
221 235 255
221 235 255
221 235 255
221 235 255
221 235 255
221 235 255
221 235 255
221 235 255
221 235 255
221 235 255
221 235 255
221 235 255
221 235 255
221 235 255
221 235 255
221 235 255
221 235 255
221 235 255
221 235 255
221 235 255
221 235 255
221 235 255
221 235 255
221 235 255
221 235 255
221 235 255
221 235 255
221 235 255
221 235 255
221 235 255
221 235 255
221 235 255
221 235 255
221 235 255
221 235 255
221 235 255
221 235 255
221 235 255
221 235 255
221 235 255
221 235 255
221 235 255
221 235 255
221 235 255
221 235 255
221 235 255
221 235 255
221 235 255
221 235 255
221 235 255
221 235 255
221 235 255
221 235 255
221 235 255
221 235 255
221 235 255
221 235 255
221 235 255
221 235 255
221 235 255
221 235 255
221 235 255
221 235 255
221 235 255
221 235 255
221 235 255
221 235 255
221 235 255
221 235 255
221 235 255
221 235 255
221 235 255
221 235 255
221 235 255
221 235 255
221 235 255
221 235 255
221 235 255
221 235 255
221 235 255
221 235 255
221 235 255
221 235 255
221 235 255
221 235 255
221 235 255
221 235 255
221 235 255
221 235 255
221 235 255
221 235 255
221 235 255
221 235 255
221 235 255
221 235 255
221 235 255
221 235 255
221 235 255
221 235 255
221 235 255
221 235 255
221 235 255
221 235 255
221 235 255
221 235 255
221 235 255
221 235 255
221 235 255
221 235 255
221 235 255
221 235 255
221 235 255
221 235 255
221 235 255
221 235 255
221 235 255
221 235 255
221 235 255
221 235 255
221 235 255
221 235 255
221 235 255
221 235 255
221 235 255
221 235 255
221 235 255
221 235 255
221 235 255
221 235 255
221 235 255
221 235 255
221 235 255
221 235 255
221 235 255
221 235 255
221 235 255
221 235 255
221 235 255
221 235 255
221 235 255
221 235 255
221 235 255
221 235 255
221 235 255
221 235 255
221 235 255
221 235 255
221 235 255
221 235 255
221 235 255
221 235 255
221 235 255
221 235 255
221 235 255
221 235 255
221 235 255
221 235 255
221 235 255
221 235 255
221 235 255
221 235 255
221 235 255
221 235 255
221 235 255
221 235 255
221 235 255
221 235 255
221 235 255
221 235 255
221 235 255
221 235 255
221 235 255
221 235 255
221 235 255
221 235 255
221 235 255
221 235 255
221 235 255
221 235 255
221 235 255
221 235 255
221 235 255
221 235 255
221 235 255
221 235 255
221 235 255
221 235 255
221 235 255
221 235 255
221 235 255
221 235 255
221 235 255
221 235 255
221 235 255
221 235 255
221 235 255
221 235 255
221 235 255
221 235 255
221 235 255
221 235 255
221 235 255
221 235 255
221 235 255
221 235 255
221 235 255
221 235 255
221 235 255
221 235 255
221 235 255
221 235 255
221 235 255
221 235 255
221 235 255
221 235 255
221 235 255
221 235 255
221 235 255
221 235 255
221 235 255
221 235 255
221 235 255
221 235 255
221 235 255
221 235 255
221 235 255
221 235 255
221 235 255
221 235 255
221 235 255
221 235 255
221 235 255
221 235 255
221 235 255
221 235 255
221 235 255
221 235 255
221 235 255
221 235 255
221 235 255
221 235 255
221 235 255
221 235 255
221 235 255
221 235 255
221 235 255
221 235 255
221 235 255
221 235 255
221 235 255
221 235 255
221 235 255
221 235 255
221 235 255
221 235 255
221 235 255
221 235 255
221 235 255
221 235 255
221 235 255
221 235 255
221 235 255
221 235 255
221 235 255
221 235 255
221 235 255
221 235 255
221 235 255
221 235 255
221 235 255
221 235 255
221 235 255
221 235 255
221 235 255
221 235 255
221 235 255
221 235 255
221 235 255
221 235 255
221 235 255
221 235 255
221 235 255
221 235 255
221 235 255
221 235 255
221 235 255
221 235 255
221 235 255
221 235 255
221 235 255
221 235 255
221 235 255
221 235 255
221 235 255
221 235 255
221 235 255
221 235 255
221 235 255
221 235 255
221 235 255
221 235 255
221 235 255
221 235 255
221 235 255
221 235 255
221 235 255
221 235 255
221 235 255
221 235 255
221 235 255
221 235 255
221 235 255
221 235 255
221 235 255
221 235 255
221 235 255
221 235 255
221 235 255
221 235 255
221 235 255
221 235 255
221 235 255
221 235 255
221 235 255
221 235 255
221 235 255
221 235 255
221 235 255
221 235 255
221 235 255
221 235 255
221 235 255
221 235 255
221 235 255
221 235 255
221 235 255
221 235 255
221 235 255
221 235 255
221 235 255
221 235 255
221 235 255
221 235 255
221 235 255
221 235 255
221 235 255
221 235 255
221 235 255
221 235 255
221 235 255
221 235 255
221 235 255
221 235 255
221 235 255
221 235 255
221 235 255
221 235 255
221 235 255
221 235 255
221 235 255
221 235 255
221 235 255
221 235 255
221 235 255
221 235 255
221 235 255
221 235 255
221 235 255
221 235 255
221 235 255
221 235 255
221 235 255
221 235 255
221 235 255
221 235 255
221 235 255
221 235 255
221 235 255
221 235 255
221 235 255
221 235 255
221 235 255
221 235 255
221 235 255
221 235 255
221 235 255
221 235 255
221 235 255
221 235 255
221 235 255
221 235 255
221 235 255
221 235 255
221 235 255
221 235 255
221 235 255
221 235 255
221 235 255
221 235 255
221 235 255
221 235 255
221 235 255
221 235 255
221 235 255
221 235 255
221 235 255
221 235 255
221 235 255
221 235 255
221 235 255
221 235 255
221 235 255
221 235 255
221 235 255
221 235 255
221 235 255
221 235 255
221 235 255
221 235 255
221 235 255
221 235 255
221 235 255
221 235 255
221 235 255
221 235 255
221 235 255
221 235 255
221 235 255
221 235 255
221 235 255
221 235 255
221 235 255
221 235 255
221 235 255
221 235 255
221 235 255
221 235 255
221 235 255
221 235 255
221 235 255
221 235 255
221 235 255
221 235 255
221 235 255
221 235 255
221 235 255
221 235 255
221 235 255
221 235 255
221 235 255
221 235 255
221 235 255
221 235 255
221 235 255
221 235 255
221 235 255
221 235 255
221 235 255
221 235 255
221 235 255
221 235 255
221 235 255
221 235 255
221 235 255
221 235 255
221 235 255
221 235 255
221 235 255
221 235 255
221 235 255
221 235 255
221 235 255
221 235 255
221 235 255
221 235 255
221 235 255
221 235 255
221 235 255
221 235 255
221 235 255
221 235 255
221 235 255
221 235 255
221 235 255
221 235 255
221 235 255
221 235 255
221 235 255
221 235 255
221 235 255
221 235 255
221 235 255
221 235 255
221 235 255
221 235 255
221 235 255
221 235 255
221 235 255
221 235 255
221 235 255
221 235 255
221 235 255
221 235 255
221 235 255
221 235 255
221 235 255
221 235 255
221 235 255
221 235 255
221 235 255
221 235 255
221 235 255
221 235 255
221 235 255
221 235 255
221 235 255
221 235 255
221 235 255
221 235 255
221 235 255
221 235 255
221 235 255
221 235 255
221 235 255
221 235 255
221 235 255
221 235 255
221 235 255
221 235 255
221 235 255
221 235 255
221 235 255
221 235 255
221 235 255
221 235 255
221 235 255
221 235 255
221 235 255
221 235 255
221 235 255
221 235 255
221 235 255
221 235 255
221 235 255
221 235 255
221 235 255
221 235 255
221 235 255
221 235 255
221 235 255
221 235 255
221 235 255
221 235 255
221 235 255
221 235 255
221 235 255
221 235 255
221 235 255
221 235 255
221 235 255
221 235 255
221 235 255
221 235 255
221 235 255
221 235 255
221 235 255
221 235 255
221 235 255
221 235 255
221 235 255
221 235 255
221 235 255
221 235 255
221 235 255
221 235 255
221 235 255
221 235 255
221 235 255
221 235 255
221 235 255
221 235 255
221 235 255
221 235 255
221 235 255
221 235 255
221 235 255
221 235 255
221 235 255
221 235 255
221 235 255
221 235 255
221 235 255
221 235 255
221 235 255
221 235 255
221 235 255
221 235 255
221 235 255
221 235 255
221 235 255
221 235 255
221 235 255
221 235 255
221 235 255
221 235 255
221 235 255
221 235 255
221 235 255
221 235 255
221 235 255
221 235 255
221 235 255
221 235 255
221 235 255
221 235 255
221 235 255
221 235 255
221 235 255
221 235 255
221 235 255
221 235 255
221 235 255
221 235 255
221 235 255
221 235 255
221 235 255
221 235 255
221 235 255
221 235 255
221 235 255
221 235 255
221 235 255
221 235 255
221 235 255
221 235 255
221 235 255
221 235 255
221 235 255
221 235 255
221 235 255
221 235 255
221 235 255
221 235 255
221 235 255
221 235 255
221 235 255
221 235 255
221 235 255
221 235 255
221 235 255
221 235 255
221 235 255
221 235 255
221 235 255
221 235 255
221 235 255
221 235 255
221 235 255
221 235 255
221 235 255
221 235 255
221 235 255
221 235 255
221 235 255
221 235 255
221 235 255
221 235 255
221 235 255
221 235 255
221 235 255
221 235 255
221 235 255
221 235 255
221 235 255
221 235 255
221 235 255
221 235 255
221 235 255
221 235 255
221 235 255
221 235 255
221 235 255
221 235 255
221 235 255
221 235 255
221 235 255
221 235 255
221 235 255
221 235 255
221 235 255
221 235 255
221 235 255
221 235 255
221 235 255
221 235 255
221 235 255
221 235 255
221 235 255
221 235 255
221 235 255
221 235 255
221 235 255
221 235 255
221 235 255
221 235 255
221 235 255
221 235 255
221 235 255
221 235 255
221 235 255
221 235 255
221 235 255
221 235 255
221 235 255
221 235 255
221 235 255
221 235 255
221 235 255
221 235 255
221 235 255
221 235 255
221 235 255
221 235 255
221 235 255
221 235 255
221 235 255
221 235 255
221 235 255
221 235 255
221 235 255
221 235 255
221 235 255
221 235 255
221 235 255
221 235 255
221 235 255
221 235 255
221 235 255
221 235 255
221 235 255
221 235 255
221 235 255
221 235 255
221 235 255
221 235 255
221 235 255
221 235 255
221 235 255
221 235 255
221 235 255
221 235 255
221 235 255
221 235 255
221 235 255
221 235 255
221 235 255
221 235 255
221 235 255
221 235 255
221 235 255
221 235 255
221 235 255
221 235 255
221 235 255
221 235 255
221 235 255
221 235 255
221 235 255
221 235 255
221 235 255
221 235 255
221 235 255
221 235 255
221 235 255
221 235 255
221 235 255
221 235 255
221 235 255
221 235 255
221 235 255
221 235 255
221 235 255
221 235 255
221 235 255
221 235 255
221 235 255
221 235 255
221 235 255
221 235 255
221 235 255
221 235 255
221 235 255
221 235 255
221 235 255
221 235 255
221 235 255
221 235 255
221 235 255
221 235 255
221 235 255
221 235 255
221 235 255
221 235 255
221 235 255
221 235 255
221 235 255
221 235 255
221 235 255
221 235 255
221 235 255
221 235 255
221 235 255
221 235 255
221 235 255
221 235 255
221 235 255
221 235 255
221 235 255
221 235 255
221 235 255
221 235 255
221 235 255
221 235 255
221 235 255
221 235 255
221 235 255
221 235 255
221 235 255
221 235 255
221 235 255
221 235 255
221 235 255
221 235 255
221 235 255
221 235 255
221 235 255
221 235 255
221 235 255
221 235 255
221 235 255
221 235 255
221 235 255
221 235 255
221 235 255
221 235 255
221 235 255
221 235 255
221 235 255
221 235 255
221 235 255
221 235 255
221 235 255
221 235 255
221 235 255
221 235 255
221 235 255
221 235 255
221 235 255
221 235 255
221 235 255
221 235 255
221 235 255
221 235 255
221 235 255
221 235 255
221 235 255
221 235 255
221 235 255
221 235 255
221 235 255
221 235 255
221 235 255
221 235 255
221 235 255
221 235 255
221 235 255
221 235 255
221 235 255
221 235 255
221 235 255
221 235 255
221 235 255
221 235 255
221 235 255
221 235 255
221 235 255
221 235 255
221 235 255
221 235 255
221 235 255
221 235 255
221 235 255
221 235 255
221 235 255
221 235 255
221 235 255
221 235 255
221 235 255
221 235 255
221 235 255
221 235 255
221 235 255
221 235 255
221 235 255
221 235 255
221 235 255
221 235 255
221 235 255
221 235 255
221 235 255
221 235 255
221 235 255
221 235 255
221 235 255
221 235 255
221 235 255
221 235 255
221 235 255
221 235 255
221 235 255
221 235 255
221 235 255
221 235 255
221 235 255
221 235 255
221 235 255
221 235 255
221 235 255
221 235 255
221 235 255
221 235 255
221 235 255
221 235 255
221 235 255
221 235 255
221 235 255
221 235 255
221 235 255
221 235 255
221 235 255
221 235 255
221 235 255
221 235 255
221 235 255
221 235 255
221 235 255
221 235 255
221 235 255
221 235 255
221 235 255
221 235 255
221 235 255
221 235 255
221 235 255
221 235 255
221 235 255
221 235 255
221 235 255
221 235 255
221 235 255
221 235 255
221 235 255
221 235 255
221 235 255
221 235 255
221 235 255
221 235 255
221 235 255
221 235 255
221 235 255
221 235 255
221 235 255
221 235 255
221 235 255
221 235 255
221 235 255
221 235 255
221 235 255
221 235 255
221 235 255
221 235 255
221 235 255
221 235 255
221 235 255
221 235 255
221 235 255
221 235 255
221 235 255
221 235 255
221 235 255
221 235 255
221 235 255
221 235 255
221 235 255
221 235 255
221 235 255
221 235 255
221 235 255
221 235 255
221 235 255
221 235 255
221 235 255
221 235 255
221 235 255
221 235 255
221 235 255
221 235 255
221 235 255
221 235 255
221 235 255
221 235 255
221 235 255
221 235 255
221 235 255
221 235 255
221 235 255
221 235 255
221 235 255
221 235 255
221 235 255
221 235 255
221 235 255
221 235 255
221 235 255
221 235 255
221 235 255
221 235 255
221 235 255
221 235 255
221 235 255
221 235 255
221 235 255
221 235 255
221 235 255
221 235 255
221 235 255
221 235 255
221 235 255
221 235 255
221 235 255
221 235 255
221 235 255
221 235 255
221 235 255
221 235 255
221 235 255
221 235 255
221 235 255
221 235 255
221 235 255
221 235 255
221 235 255
221 235 255
221 235 255
221 235 255
221 235 255
221 235 255
221 235 255
221 235 255
221 235 255
221 235 255
221 235 255
221 235 255
221 235 255
221 235 255
221 235 255
221 235 255
221 235 255
221 235 255
221 235 255
221 235 255
221 235 255
221 235 255
221 235 255
221 235 255
221 235 255
221 235 255
221 235 255
221 235 255
221 235 255
221 235 255
221 235 255
221 235 255
221 235 255
221 235 255
221 235 255
221 235 255
221 235 255
221 235 255
221 235 255
221 235 255
221 235 255
221 235 255
221 235 255
221 235 255
221 235 255
221 235 255
221 235 255
221 235 255
221 235 255
221 235 255
221 235 255
221 235 255
221 235 255
221 235 255
221 235 255
221 235 255
221 235 255
221 235 255
221 235 255
221 235 255
221 235 255
221 235 255
221 235 255
221 235 255
221 235 255
221 235 255
221 235 255
221 235 255
221 235 255
221 235 255
221 235 255
221 235 255
221 235 255
221 235 255
221 235 255
221 235 255
221 235 255
221 235 255
221 235 255
221 235 255
221 235 255
221 235 255
221 235 255
221 235 255
221 235 255
221 235 255
221 235 255
221 235 255
221 235 255
221 235 255
221 235 255
221 235 255
221 235 255
221 235 255
221 235 255
221 235 255
221 235 255
221 235 255
221 235 255
221 235 255
221 235 255
221 235 255
221 235 255
221 235 255
221 235 255
221 235 255
221 235 255
221 235 255
221 235 255
221 235 255
221 235 255
221 235 255
221 235 255
221 235 255
221 235 255
221 235 255
221 235 255
221 235 255
221 235 255
221 235 255
221 235 255
221 235 255
221 235 255
221 235 255
221 235 255
221 235 255
221 235 255
221 235 255
221 235 255
221 235 255
221 235 255
221 235 255
221 235 255
221 235 255
221 235 255
221 235 255
221 235 255
221 235 255
221 235 255
221 235 255
221 235 255
221 235 255
221 235 255
221 235 255
221 235 255
221 235 255
221 235 255
221 235 255
221 235 255
221 235 255
221 235 255
221 235 255
221 235 255
221 235 255
221 235 255
221 235 255
221 235 255
221 235 255
221 235 255
221 235 255
221 235 255
221 235 255
221 235 255
221 235 255
221 235 255
221 235 255
221 235 255
221 235 255
221 235 255
221 235 255
221 235 255
221 235 255
221 235 255
221 235 255
221 235 255
221 235 255
221 235 255
221 235 255
221 235 255
221 235 255
221 235 255
221 235 255
221 235 255
221 235 255
221 235 255
221 235 255
221 235 255
221 235 255
221 235 255
221 235 255
221 235 255
221 235 255
221 235 255
221 235 255
221 235 255
221 235 255
221 235 255
221 235 255
221 235 255
221 235 255
221 235 255
221 235 255
221 235 255
221 235 255
221 235 255
221 235 255
221 235 255
221 235 255
221 235 255
221 235 255
221 235 255
221 235 255
221 235 255
221 235 255
221 235 255
221 235 255
221 235 255
221 235 255
221 235 255
221 235 255
221 235 255
221 235 255
221 235 255
221 235 255
221 235 255
221 235 255
221 235 255
221 235 255
221 235 255
221 235 255
221 235 255
221 235 255
221 235 255
221 235 255
221 235 255
221 235 255
221 235 255
221 235 255
221 235 255
221 235 255
221 235 255
221 235 255
221 235 255
221 235 255
221 235 255
221 235 255
221 235 255
221 235 255
221 235 255
221 235 255
221 235 255
221 235 255
221 235 255
221 235 255
221 235 255
221 235 255
221 235 255
221 235 255
221 235 255
221 235 255
221 235 255
221 235 255
221 235 255
221 235 255
221 235 255
221 235 255
221 235 255
221 235 255
221 235 255
221 235 255
221 235 255
221 235 255
221 235 255
221 235 255
221 235 255
221 235 255
221 235 255
221 235 255
221 236 255
221 236 255
221 236 255
221 236 255
221 236 255
221 236 255
221 236 255
221 236 255
221 236 255
221 236 255
221 236 255
221 236 255
221 236 255
221 236 255
221 236 255
221 236 255
221 236 255
221 236 255
221 236 255
221 236 255
221 236 255
221 236 255
221 236 255
221 236 255
221 236 255
221 236 255
221 236 255
221 236 255
221 236 255
221 236 255
221 236 255
221 236 255
221 236 255
221 236 255
221 236 255
221 236 255
221 236 255
221 236 255
221 236 255
221 236 255
221 236 255
221 236 255
221 236 255
221 236 255
221 236 255
221 236 255
221 236 255
221 236 255
221 236 255
221 236 255
221 236 255
221 236 255
221 236 255
221 236 255
221 236 255
221 236 255
221 236 255
221 236 255
221 236 255
221 236 255
221 236 255
221 236 255
221 236 255
221 236 255
221 236 255
221 236 255
221 236 255
221 236 255
221 236 255
221 236 255
221 236 255
221 236 255
221 236 255
221 236 255
221 236 255
221 236 255
221 236 255
221 236 255
221 236 255
221 236 255
221 236 255
221 236 255
221 236 255
221 236 255
221 236 255
221 236 255
221 236 255
221 236 255
221 236 255
221 236 255
221 236 255
221 236 255
221 236 255
221 236 255
221 236 255
221 236 255
221 236 255
221 236 255
221 236 255
221 236 255
221 236 255
221 236 255
221 236 255
221 236 255
221 236 255
221 236 255
221 236 255
221 236 255
221 236 255
221 236 255
221 236 255
221 236 255
221 236 255
221 236 255
221 236 255
221 236 255
221 236 255
221 236 255
221 236 255
221 236 255
221 236 255
221 236 255
221 236 255
221 236 255
221 236 255
221 236 255
221 236 255
221 236 255
221 236 255
221 236 255
221 236 255
221 236 255
221 236 255
221 236 255
221 236 255
221 236 255
221 236 255
221 236 255
221 236 255
221 236 255
221 236 255
221 236 255
221 236 255
221 236 255
221 236 255
221 236 255
221 236 255
221 236 255
221 236 255
221 236 255
221 236 255
221 236 255
221 236 255
221 236 255
221 236 255
221 236 255
221 236 255
221 236 255
221 236 255
221 236 255
221 236 255
221 236 255
221 236 255
221 236 255
221 236 255
221 236 255
221 236 255
221 236 255
221 236 255
221 236 255
221 236 255
221 236 255
221 236 255
221 236 255
221 236 255
221 236 255
221 236 255
221 236 255
221 236 255
221 236 255
221 236 255
221 236 255
221 236 255
221 236 255
221 236 255
221 236 255
221 236 255
221 236 255
221 236 255
221 236 255
221 236 255
221 236 255
221 236 255
221 236 255
221 236 255
221 236 255
221 236 255
221 236 255
221 236 255
221 236 255
221 236 255
221 236 255
221 236 255
221 236 255
221 236 255
221 236 255
221 236 255
221 236 255
221 236 255
221 236 255
221 236 255
221 236 255
221 236 255
221 236 255
221 236 255
221 236 255
221 236 255
221 236 255
221 236 255
221 236 255
221 236 255
221 236 255
221 236 255
221 236 255
221 236 255
221 236 255
221 236 255
221 236 255
221 236 255
221 236 255
221 236 255
221 236 255
221 236 255
221 236 255
221 236 255
221 236 255
221 236 255
221 236 255
221 236 255
221 236 255
221 236 255
221 236 255
221 236 255
221 236 255
221 236 255
221 236 255
221 236 255
221 236 255
221 236 255
221 236 255
221 236 255
221 236 255
221 236 255
221 236 255
221 236 255
221 236 255
221 236 255
221 236 255
221 236 255
221 236 255
221 236 255
221 236 255
221 236 255
221 236 255
221 236 255
221 236 255
221 236 255
221 236 255
221 236 255
221 236 255
221 236 255
221 236 255
221 236 255
221 236 255
221 236 255
221 236 255
221 236 255
221 236 255
221 236 255
221 236 255
221 236 255
221 236 255
221 236 255
221 236 255
221 236 255
221 236 255
221 236 255
221 236 255
221 236 255
221 236 255
221 236 255
221 236 255
221 236 255
221 236 255
221 236 255
221 236 255
221 236 255
221 236 255
221 236 255
221 236 255
221 236 255
221 236 255
221 236 255
221 236 255
221 236 255
221 236 255
221 236 255
221 236 255
221 236 255
221 236 255
221 236 255
221 236 255
221 236 255
221 236 255
221 236 255
221 236 255
221 236 255
221 236 255
221 236 255
221 236 255
221 236 255
221 236 255
221 236 255
221 236 255
221 236 255
221 236 255
221 236 255
221 236 255
221 236 255
221 236 255
221 236 255
221 236 255
221 236 255
221 236 255
221 236 255
221 236 255
221 236 255
221 236 255
221 236 255
221 236 255
221 236 255
221 236 255
221 236 255
221 236 255
221 236 255
221 236 255
221 236 255
221 236 255
221 236 255
221 236 255
221 236 255
221 236 255
221 236 255
221 236 255
221 236 255
221 236 255
221 236 255
221 236 255
221 236 255
221 236 255
221 236 255
221 236 255
221 236 255
221 236 255
221 236 255
221 236 255
221 236 255
221 236 255
221 236 255
221 236 255
221 236 255
221 236 255
221 236 255
221 236 255
221 236 255
221 236 255
221 236 255
221 236 255
221 236 255
221 236 255
221 236 255
221 236 255
221 236 255
221 236 255
221 236 255
221 236 255
221 236 255
221 236 255
221 236 255
221 236 255
221 236 255
221 236 255
221 236 255
221 236 255
221 236 255
221 236 255
221 236 255
221 236 255
221 236 255
221 236 255
221 236 255
221 236 255
221 236 255
221 236 255
221 236 255
221 236 255
221 236 255
221 236 255
221 236 255
221 236 255
221 236 255
221 236 255
221 236 255
221 236 255
221 236 255
221 236 255
221 236 255
221 236 255
221 236 255
221 236 255
221 236 255
221 236 255
221 236 255
221 236 255
221 236 255
221 236 255
221 236 255
221 236 255
221 236 255
221 236 255
221 236 255
221 236 255
221 236 255
221 236 255
221 236 255
221 236 255
221 236 255
221 236 255
221 236 255
221 236 255
221 236 255
221 236 255
221 236 255
221 236 255
221 236 255
221 236 255
221 236 255
221 236 255
221 236 255
221 236 255
221 236 255
221 236 255
221 236 255
221 236 255
221 236 255
221 236 255
221 236 255
221 236 255
221 236 255
221 236 255
221 236 255
221 236 255
221 236 255
221 236 255
221 236 255
221 236 255
221 236 255
221 236 255
221 236 255
221 236 255
221 236 255
221 236 255
221 236 255
221 236 255
221 236 255
221 236 255
221 236 255
221 236 255
221 236 255
221 236 255
221 236 255
221 236 255
221 236 255
221 236 255
221 236 255
221 236 255
221 236 255
221 236 255
221 236 255
221 236 255
221 236 255
221 236 255
221 236 255
221 236 255
221 236 255
221 236 255
221 236 255
221 236 255
221 236 255
221 236 255
221 236 255
221 236 255
221 236 255
221 236 255
221 236 255
221 236 255
221 236 255
221 236 255
221 236 255
221 236 255
221 236 255
221 236 255
221 236 255
221 236 255
221 236 255
221 236 255
222 236 255
222 236 255
221 236 255
222 236 255
221 236 255
222 236 255
222 236 255
222 236 255
222 236 255
221 236 255
222 236 255
221 236 255
222 236 255
222 236 255
222 236 255
222 236 255
221 236 255
222 236 255
222 236 255
222 236 255
222 236 255
222 236 255
222 236 255
222 236 255
222 236 255
222 236 255
222 236 255
222 236 255
222 236 255
222 236 255
222 236 255
222 236 255
222 236 255
222 236 255
222 236 255
222 236 255
222 236 255
222 236 255
222 236 255
222 236 255
222 236 255
222 236 255
222 236 255
222 236 255
222 236 255
222 236 255
222 236 255
222 236 255
222 236 255
222 236 255
222 236 255
222 236 255
222 236 255
222 236 255
222 236 255
222 236 255
222 236 255
222 236 255
222 236 255
222 236 255
222 236 255
222 236 255
222 236 255
222 236 255
222 236 255
222 236 255
222 236 255
222 236 255
222 236 255
222 236 255
222 236 255
222 236 255
222 236 255
222 236 255
222 236 255
222 236 255
222 236 255
222 236 255
222 236 255
222 236 255
222 236 255
222 236 255
222 236 255
222 236 255
222 236 255
222 236 255
222 236 255
222 236 255
222 236 255
222 236 255
222 236 255
222 236 255
222 236 255
222 236 255
222 236 255
222 236 255
222 236 255
222 236 255
222 236 255
222 236 255
222 236 255
222 236 255
222 236 255
222 236 255
222 236 255
222 236 255
222 236 255
222 236 255
222 236 255
222 236 255
222 236 255
222 236 255
222 236 255
222 236 255
222 236 255
222 236 255
222 236 255
222 236 255
222 236 255
222 236 255
222 236 255
222 236 255
222 236 255
222 236 255
222 236 255
222 236 255
222 236 255
222 236 255
222 236 255
222 236 255
222 236 255
222 236 255
222 236 255
222 236 255
222 236 255
222 236 255
222 236 255
222 236 255
222 236 255
222 236 255
222 236 255
222 236 255
222 236 255
222 236 255
222 236 255
222 236 255
222 236 255
222 236 255
222 236 255
222 236 255
222 236 255
222 236 255
222 236 255
222 236 255
222 236 255
222 236 255
222 236 255
222 236 255
222 236 255
222 236 255
222 236 255
221 236 255
222 236 255
221 236 255
221 236 255
221 236 255
221 236 255
221 236 255
221 236 255
221 236 255
221 236 255
221 236 255
221 236 255
221 236 255
221 236 255
221 236 255
221 236 255
221 236 255
221 236 255
221 236 255
221 236 255
221 236 255
221 236 255
221 236 255
221 236 255
221 236 255
221 236 255
221 236 255
221 236 255
221 236 255
221 236 255
221 236 255
221 236 255
221 236 255
221 236 255
221 236 255
221 236 255
221 236 255
221 236 255
221 236 255
221 236 255
221 236 255
221 236 255
221 236 255
221 236 255
221 236 255
221 236 255
221 236 255
221 236 255
221 236 255
221 236 255
221 236 255
221 236 255
221 236 255
221 236 255
221 236 255
221 236 255
221 236 255
221 236 255
221 236 255
221 236 255
221 236 255
221 236 255
221 236 255
221 236 255
221 236 255
221 236 255
221 236 255
221 236 255
221 236 255
221 236 255
221 236 255
221 236 255
221 236 255
221 236 255
221 236 255
221 236 255
221 236 255
221 236 255
221 236 255
221 236 255
221 236 255
221 236 255
221 236 255
221 236 255
221 236 255
221 236 255
221 236 255
221 236 255
221 236 255
221 236 255
221 236 255
221 236 255
221 236 255
221 236 255
221 236 255
221 236 255
221 236 255
221 236 255
221 236 255
221 236 255
221 236 255
221 236 255
221 236 255
221 236 255
221 236 255
221 236 255
221 236 255
221 236 255
221 236 255
221 236 255
221 236 255
221 236 255
221 236 255
221 236 255
221 236 255
221 236 255
221 236 255
221 236 255
221 236 255
221 236 255
221 236 255
221 236 255
221 236 255
222 236 255
222 236 255
222 236 255
222 236 255
222 236 255
222 236 255
222 236 255
222 236 255
222 236 255
222 236 255
222 236 255
222 236 255
222 236 255
222 236 255
222 236 255
222 236 255
222 236 255
222 236 255
222 236 255
222 236 255
222 236 255
222 236 255
222 236 255
222 236 255
222 236 255
222 236 255
222 236 255
222 236 255
222 236 255
222 236 255
222 236 255
222 236 255
222 236 255
222 236 255
222 236 255
222 236 255
222 236 255
222 236 255
222 236 255
222 236 255
222 236 255
222 236 255
222 236 255
222 236 255
222 236 255
222 236 255
222 236 255
222 236 255
222 236 255
222 236 255
222 236 255
222 236 255
222 236 255
222 236 255
222 236 255
222 236 255
222 236 255
222 236 255
222 236 255
222 236 255
222 236 255
222 236 255
222 236 255
222 236 255
222 236 255
222 236 255
222 236 255
222 236 255
222 236 255
222 236 255
222 236 255
222 236 255
222 236 255
222 236 255
222 236 255
222 236 255
222 236 255
222 236 255
222 236 255
222 236 255
222 236 255
222 236 255
222 236 255
222 236 255
222 236 255
222 236 255
222 236 255
222 236 255
222 236 255
222 236 255
222 236 255
222 236 255
222 236 255
222 236 255
222 236 255
222 236 255
222 236 255
222 236 255
222 236 255
222 236 255
222 236 255
222 236 255
222 236 255
222 236 255
222 236 255
222 236 255
222 236 255
222 236 255
222 236 255
222 236 255
222 236 255
222 236 255
222 236 255
222 236 255
222 236 255
222 236 255
222 236 255
222 236 255
222 236 255
222 236 255
222 236 255
222 236 255
222 236 255
222 236 255
222 236 255
222 236 255
222 236 255
222 236 255
222 236 255
222 236 255
222 236 255
222 236 255
222 236 255
222 236 255
222 236 255
222 236 255
222 236 255
222 236 255
222 236 255
222 236 255
222 236 255
222 236 255
222 236 255
222 236 255
222 236 255
222 236 255
222 236 255
222 236 255
222 236 255
222 236 255
222 236 255
222 236 255
222 236 255
222 236 255
222 236 255
222 236 255
222 236 255
222 236 255
222 236 255
222 236 255
222 236 255
222 236 255
222 236 255
222 236 255
222 236 255
222 236 255
222 236 255
222 236 255
222 236 255
222 236 255
222 236 255
222 236 255
222 236 255
222 236 255
222 236 255
222 236 255
222 236 255
222 236 255
222 236 255
222 236 255
222 236 255
222 236 255
222 236 255
222 236 255
222 236 255
222 236 255
222 236 255
222 236 255
222 236 255
222 236 255
222 236 255
222 236 255
222 236 255
222 236 255
222 236 255
222 236 255
222 236 255
222 236 255
222 236 255
222 236 255
222 236 255
222 236 255
222 236 255
222 236 255
222 236 255
222 236 255
222 236 255
222 236 255
222 236 255
222 236 255
222 236 255
222 236 255
222 236 255
222 236 255
222 236 255
222 236 255
222 236 255
222 236 255
222 236 255
222 236 255
222 236 255
222 236 255
222 236 255
222 236 255
222 236 255
222 236 255
222 236 255
222 236 255
222 236 255
222 236 255
222 236 255
222 236 255
222 236 255
222 236 255
222 236 255
222 236 255
222 236 255
222 236 255
222 236 255
222 236 255
222 236 255
222 236 255
222 236 255
222 236 255
222 236 255
222 236 255
222 236 255
222 236 255
222 236 255
222 236 255
222 236 255
222 236 255
222 236 255
222 236 255
222 236 255
222 236 255
222 236 255
222 236 255
222 236 255
222 236 255
222 236 255
222 236 255
222 236 255
222 236 255
222 236 255
222 236 255
222 236 255
222 236 255
222 236 255
222 236 255
222 236 255
222 236 255
222 236 255
222 236 255
222 236 255
222 236 255
222 236 255
222 236 255
222 236 255
222 236 255
222 236 255
222 236 255
222 236 255
222 236 255
222 236 255
222 236 255
222 236 255
222 236 255
222 236 255
222 236 255
222 236 255
222 236 255
222 236 255
222 236 255
222 236 255
222 236 255
222 236 255
222 236 255
222 236 255
222 236 255
222 236 255
222 236 255
222 236 255
222 236 255
222 236 255
222 236 255
222 236 255
222 236 255
222 236 255
222 236 255
222 236 255
222 236 255
222 236 255
222 236 255
222 236 255
222 236 255
222 236 255
222 236 255
222 236 255
222 236 255
222 236 255
222 236 255
222 236 255
222 236 255
222 236 255
222 236 255
222 236 255
222 236 255
222 236 255
222 236 255
222 236 255
222 236 255
222 236 255
222 236 255
222 236 255
222 236 255
222 236 255
222 236 255
222 236 255
222 236 255
222 236 255
222 236 255
222 236 255
222 236 255
222 236 255
222 236 255
222 236 255
222 236 255
222 236 255
222 236 255
222 236 255
222 236 255
222 236 255
222 236 255
222 236 255
222 236 255
222 236 255
222 236 255
222 236 255
222 236 255
222 236 255
222 236 255
222 236 255
222 236 255
222 236 255
222 236 255
222 236 255
222 236 255
222 236 255
222 236 255
222 236 255
222 236 255
222 236 255
222 236 255
222 236 255
222 236 255
222 236 255
222 236 255
222 236 255
222 236 255
222 236 255
222 236 255
222 236 255
222 236 255
222 236 255
222 236 255
222 236 255
222 236 255
222 236 255
222 236 255
222 236 255
222 236 255
222 236 255
222 236 255
222 236 255
222 236 255
222 236 255
222 236 255
222 236 255
222 236 255
222 236 255
222 236 255
222 236 255
222 236 255
222 236 255
222 236 255
222 236 255
222 236 255
222 236 255
222 236 255
222 236 255
222 236 255
222 236 255
222 236 255
222 236 255
222 236 255
222 236 255
222 236 255
222 236 255
222 236 255
222 236 255
222 236 255
222 236 255
222 236 255
222 236 255
222 236 255
222 236 255
222 236 255
222 236 255
222 236 255
222 236 255
222 236 255
222 236 255
222 236 255
222 236 255
222 236 255
222 236 255
222 236 255
222 236 255
222 236 255
222 236 255
222 236 255
222 236 255
222 236 255
222 236 255
222 236 255
222 236 255
222 236 255
222 236 255
222 236 255
222 236 255
222 236 255
222 236 255
222 236 255
222 236 255
222 236 255
222 236 255
222 236 255
222 236 255
222 236 255
222 236 255
222 236 255
222 236 255
222 236 255
222 236 255
222 236 255
222 236 255
222 236 255
222 236 255
222 236 255
222 236 255
222 236 255
222 236 255
222 236 255
222 236 255
222 236 255
222 236 255
222 236 255
222 236 255
222 236 255
222 236 255
222 236 255
222 236 255
222 236 255
222 236 255
222 236 255
222 236 255
222 236 255
222 236 255
222 236 255
222 236 255
222 236 255
222 236 255
222 236 255
222 236 255
222 236 255
222 236 255
222 236 255
222 236 255
222 236 255
222 236 255
222 236 255
222 236 255
222 236 255
222 236 255
222 236 255
222 236 255
222 236 255
222 236 255
222 236 255
222 236 255
222 236 255
222 236 255
222 236 255
222 236 255
222 236 255
222 236 255
222 236 255
222 236 255
222 236 255
222 236 255
222 236 255
222 236 255
222 236 255
222 236 255
222 236 255
222 236 255
222 236 255
222 236 255
222 236 255
222 236 255
222 236 255
222 236 255
222 236 255
222 236 255
222 236 255
222 236 255
222 236 255
222 236 255
222 236 255
222 236 255
222 236 255
222 236 255
222 236 255
222 236 255
222 236 255
222 236 255
222 236 255
222 236 255
222 236 255
222 236 255
222 236 255
222 236 255
222 236 255
222 236 255
222 236 255
222 236 255
222 236 255
222 236 255
222 236 255
222 236 255
222 236 255
222 236 255
222 236 255
222 236 255
222 236 255
222 236 255
222 236 255
222 236 255
222 236 255
222 236 255
222 236 255
222 236 255
222 236 255
222 236 255
222 236 255
222 236 255
222 236 255
222 236 255
222 236 255
222 236 255
222 236 255
222 236 255
222 236 255
222 236 255
222 236 255
222 236 255
222 236 255
222 236 255
222 236 255
222 236 255
222 236 255
222 236 255
222 236 255
222 236 255
222 236 255
222 236 255
222 236 255
222 236 255
222 236 255
222 236 255
222 236 255
222 236 255
222 236 255
222 236 255
222 236 255
222 236 255
222 236 255
222 236 255
222 236 255
222 236 255
222 236 255
222 236 255
222 236 255
222 236 255
222 236 255
222 236 255
222 236 255
222 236 255
222 236 255
222 236 255
222 236 255
222 236 255
222 236 255
222 236 255
222 236 255
222 236 255
222 236 255
222 236 255
222 236 255
222 236 255
222 236 255
222 236 255
222 236 255
222 236 255
222 236 255
222 236 255
222 236 255
222 236 255
222 236 255
222 236 255
222 236 255
222 236 255
222 236 255
222 236 255
222 236 255
222 236 255
222 236 255
222 236 255
222 236 255
222 236 255
222 236 255
222 236 255
222 236 255
222 236 255
222 236 255
222 236 255
222 236 255
222 236 255
222 236 255
222 236 255
222 236 255
222 236 255
222 236 255
222 236 255
222 236 255
222 236 255
222 236 255
222 236 255
222 236 255
222 236 255
222 236 255
222 236 255
222 236 255
222 236 255
222 236 255
222 236 255
222 236 255
222 236 255
222 236 255
222 236 255
222 236 255
222 236 255
222 236 255
222 236 255
222 236 255
222 236 255
222 236 255
222 236 255
222 236 255
222 236 255
222 236 255
222 236 255
222 236 255
222 236 255
222 236 255
222 236 255
222 236 255
222 236 255
222 236 255
222 236 255
222 236 255
222 236 255
222 236 255
222 236 255
222 236 255
222 236 255
222 236 255
222 236 255
222 236 255
222 236 255
222 236 255
222 236 255
222 236 255
222 236 255
222 236 255
222 236 255
222 236 255
222 236 255
222 236 255
222 236 255
222 236 255
222 236 255
222 236 255
222 236 255
222 236 255
222 236 255
222 236 255
222 236 255
222 236 255
222 236 255
222 236 255
222 236 255
222 236 255
222 236 255
222 236 255
222 236 255
222 236 255
222 236 255
222 236 255
222 236 255
222 236 255
222 236 255
222 236 255
222 236 255
222 236 255
222 236 255
222 236 255
222 236 255
222 236 255
222 236 255
222 236 255
222 236 255
222 236 255
222 236 255
222 236 255
222 236 255
222 236 255
222 236 255
222 236 255
222 236 255
222 236 255
222 236 255
222 236 255
222 236 255
222 236 255
222 236 255
222 236 255
222 236 255
222 236 255
222 236 255
222 236 255
222 236 255
222 236 255
222 236 255
222 236 255
222 236 255
222 236 255
222 236 255
222 236 255
222 236 255
222 236 255
222 236 255
222 236 255
222 236 255
222 236 255
222 236 255
222 236 255
222 236 255
222 236 255
222 236 255
222 236 255
222 236 255
222 236 255
222 236 255
222 236 255
222 236 255
222 236 255
222 236 255
222 236 255
222 236 255
222 236 255
222 236 255
222 236 255
222 236 255
222 236 255
222 236 255
222 236 255
222 236 255
222 236 255
222 236 255
222 236 255
222 236 255
222 236 255
222 236 255
222 236 255
222 236 255
222 236 255
222 236 255
222 236 255
222 236 255
222 236 255
222 236 255
222 236 255
222 236 255
222 236 255
222 236 255
222 236 255
222 236 255
222 236 255
222 236 255
222 236 255
222 236 255
222 236 255
222 236 255
222 236 255
222 236 255
222 236 255
222 236 255
222 236 255
222 236 255
222 236 255
222 236 255
222 236 255
222 236 255
222 236 255
222 236 255
222 236 255
222 236 255
222 236 255
222 236 255
222 236 255
222 236 255
222 236 255
222 236 255
222 236 255
222 236 255
222 236 255
222 236 255
222 236 255
222 236 255
222 236 255
222 236 255
222 236 255
222 236 255
222 236 255
222 236 255
222 236 255
222 236 255
222 236 255
222 236 255
222 236 255
222 236 255
222 236 255
222 236 255
222 236 255
222 236 255
222 236 255
222 236 255
222 236 255
222 236 255
222 236 255
222 236 255
222 236 255
222 236 255
222 236 255
222 236 255
222 236 255
222 236 255
222 236 255
222 236 255
222 236 255
222 236 255
222 236 255
222 236 255
222 236 255
222 236 255
222 236 255
222 236 255
222 236 255
222 236 255
222 236 255
222 236 255
222 236 255
222 236 255
222 236 255
222 236 255
222 236 255
222 236 255
222 236 255
222 236 255
222 236 255
222 236 255
222 236 255
222 236 255
222 236 255
222 236 255
222 236 255
222 236 255
222 236 255
222 236 255
222 236 255
222 236 255
222 236 255
222 236 255
222 236 255
222 236 255
222 236 255
222 236 255
222 236 255
222 236 255
222 236 255
222 236 255
222 236 255
222 236 255
222 236 255
222 236 255
222 236 255
222 236 255
222 236 255
222 236 255
222 236 255
222 236 255
222 236 255
222 236 255
222 236 255
222 236 255
222 236 255
222 236 255
222 236 255
222 236 255
222 236 255
222 236 255
222 236 255
222 236 255
222 236 255
222 236 255
222 236 255
222 236 255
222 236 255
222 236 255
222 236 255
222 236 255
222 236 255
222 236 255
222 236 255
222 236 255
222 236 255
222 236 255
222 236 255
222 236 255
222 236 255
222 236 255
222 236 255
222 236 255
222 236 255
222 236 255
222 236 255
222 236 255
222 236 255
222 236 255
222 236 255
222 236 255
222 236 255
222 236 255
222 236 255
222 236 255
222 236 255
222 236 255
222 236 255
222 236 255
222 236 255
222 236 255
222 236 255
222 236 255
222 236 255
222 236 255
222 236 255
222 236 255
222 236 255
222 236 255
222 236 255
222 236 255
222 236 255
222 236 255
222 236 255
222 236 255
222 236 255
222 236 255
222 236 255
222 236 255
222 236 255
222 236 255
222 236 255
222 236 255
222 236 255
222 236 255
222 236 255
222 236 255
222 236 255
222 236 255
222 236 255
222 236 255
222 236 255
222 236 255
222 236 255
222 236 255
222 236 255
222 236 255
222 236 255
222 236 255
222 236 255
222 236 255
222 236 255
222 236 255
222 236 255
222 236 255
222 236 255
222 236 255
222 236 255
222 236 255
222 236 255
222 236 255
222 236 255
222 236 255
222 236 255
222 236 255
222 236 255
222 236 255
222 236 255
222 236 255
222 236 255
222 236 255
222 236 255
222 236 255
222 236 255
222 236 255
222 236 255
222 236 255
222 236 255
222 236 255
222 236 255
222 236 255
222 236 255
222 236 255
222 236 255
222 236 255
222 236 255
222 236 255
222 236 255
222 236 255
222 236 255
222 236 255
222 236 255
222 236 255
222 236 255
222 236 255
222 236 255
222 236 255
222 236 255
222 236 255
222 236 255
222 236 255
222 236 255
222 236 255
222 236 255
222 236 255
222 236 255
222 236 255
222 236 255
222 236 255
222 236 255
222 236 255
222 236 255
222 236 255
222 236 255
222 236 255
222 236 255
222 236 255
222 236 255
222 236 255
222 236 255
222 236 255
222 236 255
222 236 255
222 236 255
222 236 255
222 236 255
222 236 255
222 236 255
222 236 255
222 236 255
222 236 255
222 236 255
222 236 255
222 236 255
222 236 255
222 236 255
222 236 255
222 236 255
222 236 255
222 236 255
222 236 255
222 236 255
222 236 255
222 236 255
222 236 255
222 236 255
222 236 255
222 236 255
222 236 255
222 236 255
222 236 255
222 236 255
222 236 255
222 236 255
222 236 255
222 236 255
222 236 255
222 236 255
222 236 255
222 236 255
222 236 255
222 236 255
222 236 255
222 236 255
222 236 255
222 236 255
222 236 255
222 236 255
222 236 255
222 236 255
222 236 255
222 236 255
222 236 255
222 236 255
222 236 255
222 236 255
222 236 255
222 236 255
222 236 255
222 236 255
222 236 255
222 236 255
222 236 255
222 236 255
222 236 255
222 236 255
222 236 255
222 236 255
222 236 255
222 236 255
222 236 255
222 236 255
222 236 255
222 236 255
222 236 255
222 236 255
222 236 255
222 236 255
222 236 255
222 236 255
222 236 255
222 236 255
222 236 255
222 236 255
222 236 255
222 236 255
222 236 255
222 236 255
222 236 255
222 236 255
222 236 255
222 236 255
222 236 255
222 236 255
222 236 255
222 236 255
222 236 255
222 236 255
222 236 255
222 236 255
222 236 255
222 236 255
222 236 255
222 236 255
222 236 255
222 236 255
222 236 255
222 236 255
222 236 255
222 236 255
222 236 255
222 236 255
222 236 255
222 236 255
222 236 255
222 236 255
222 236 255
222 236 255
222 236 255
222 236 255
222 236 255
222 236 255
222 236 255
222 236 255
222 236 255
222 236 255
222 236 255
222 236 255
222 236 255
222 236 255
222 236 255
222 236 255
222 236 255
222 236 255
222 236 255
222 236 255
222 236 255
222 236 255
222 236 255
222 236 255
222 236 255
222 236 255
222 236 255
222 236 255
222 236 255
222 236 255
222 236 255
222 236 255
222 236 255
222 236 255
222 236 255
222 236 255
222 236 255
222 236 255
222 236 255
222 236 255
222 236 255
222 236 255
222 236 255
222 236 255
222 236 255
222 236 255
222 236 255
222 236 255
222 236 255
222 236 255
222 236 255
222 236 255
222 236 255
222 236 255
222 236 255
222 236 255
222 236 255
222 236 255
222 236 255
222 236 255
222 236 255
222 236 255
222 236 255
222 236 255
222 236 255
222 236 255
222 236 255
222 236 255
222 236 255
222 236 255
222 236 255
222 236 255
222 236 255
222 236 255
222 236 255
222 236 255
222 236 255
222 236 255
222 236 255
222 236 255
222 236 255
222 236 255
222 236 255
222 236 255
222 236 255
222 236 255
222 236 255
222 236 255
222 236 255
222 236 255
222 236 255
222 236 255
222 236 255
222 236 255
222 236 255
222 236 255
222 236 255
222 236 255
222 236 255
222 236 255
222 236 255
222 236 255
222 236 255
222 236 255
222 236 255
222 236 255
222 236 255
222 236 255
222 236 255
222 236 255
222 236 255
222 236 255
222 236 255
222 236 255
222 236 255
222 236 255
222 236 255
222 236 255
222 236 255
222 236 255
222 236 255
222 236 255
222 236 255
222 236 255
222 236 255
222 236 255
222 236 255
222 236 255
222 236 255
222 236 255
222 236 255
222 236 255
222 236 255
222 236 255
222 236 255
222 236 255
222 236 255
222 236 255
222 236 255
222 236 255
222 236 255
222 236 255
222 236 255
222 236 255
222 236 255
222 236 255
222 236 255
222 236 255
222 236 255
222 236 255
222 236 255
222 236 255
222 236 255
222 236 255
222 236 255
222 236 255
222 236 255
222 236 255
222 236 255
222 236 255
222 236 255
222 236 255
222 236 255
222 236 255
222 236 255
222 236 255
222 236 255
222 236 255
222 236 255
222 236 255
222 236 255
222 236 255
222 236 255
222 236 255
222 236 255
222 236 255
222 236 255
222 236 255
222 236 255
222 236 255
222 236 255
222 236 255
222 236 255
222 236 255
222 236 255
222 236 255
222 236 255
222 236 255
222 236 255
222 236 255
222 236 255
222 236 255
222 236 255
222 236 255
222 236 255
222 236 255
222 236 255
222 236 255
222 236 255
222 236 255
222 236 255
222 236 255
222 236 255
222 236 255
222 236 255
222 236 255
222 236 255
222 236 255
222 236 255
222 236 255
222 236 255
222 236 255
222 236 255
222 236 255
222 236 255
222 236 255
222 236 255
222 236 255
222 236 255
222 236 255
222 236 255
222 236 255
222 236 255
222 236 255
222 236 255
222 236 255
222 236 255
222 236 255
222 236 255
222 236 255
222 236 255
222 236 255
222 236 255
222 236 255
222 236 255
222 236 255
222 236 255
222 236 255
222 236 255
222 236 255
222 236 255
222 236 255
222 236 255
222 236 255
222 236 255
222 236 255
222 236 255
222 236 255
222 236 255
222 236 255
222 236 255
222 236 255
222 236 255
222 236 255
222 236 255
222 236 255
222 236 255
222 236 255
222 236 255
222 236 255
222 236 255
222 236 255
222 236 255
222 236 255
222 236 255
222 236 255
222 236 255
222 236 255
222 236 255
222 236 255
222 236 255
222 236 255
222 236 255
222 236 255
222 236 255
222 236 255
222 236 255
222 236 255
222 236 255
222 236 255
222 236 255
222 236 255
222 236 255
222 236 255
222 236 255
222 236 255
222 236 255
222 236 255
222 236 255
222 236 255
222 236 255
222 236 255
222 236 255
222 236 255
222 236 255
222 236 255
222 236 255
222 236 255
222 236 255
222 236 255
222 236 255
222 236 255
222 236 255
222 236 255
222 236 255
222 236 255
222 236 255
222 236 255
222 236 255
222 236 255
222 236 255
222 236 255
222 236 255
222 236 255
222 236 255
222 236 255
222 236 255
222 236 255
222 236 255
222 236 255
222 236 255
222 236 255
222 236 255
222 236 255
222 236 255
222 236 255
222 236 255
222 236 255
222 236 255
222 236 255
222 236 255
222 236 255
222 236 255
222 236 255
222 236 255
222 236 255
222 236 255
222 236 255
222 236 255
222 236 255
222 236 255
222 236 255
222 236 255
222 236 255
222 236 255
222 236 255
222 236 255
222 236 255
222 236 255
222 236 255
222 236 255
222 236 255
222 236 255
222 236 255
222 236 255
222 236 255
222 236 255
222 236 255
222 236 255
222 236 255
222 236 255
222 236 255
222 236 255
222 236 255
222 236 255
222 236 255
222 236 255
222 236 255
222 236 255
222 236 255
222 236 255
222 236 255
222 236 255
222 236 255
222 236 255
222 236 255
222 236 255
222 236 255
222 236 255
222 236 255
222 236 255
222 236 255
222 236 255
222 236 255
222 236 255
222 236 255
222 236 255
222 236 255
222 236 255
222 236 255
222 236 255
222 236 255
222 236 255
222 236 255
222 236 255
222 236 255
222 236 255
222 236 255
222 236 255
222 236 255
222 236 255
222 236 255
222 236 255
222 236 255
222 236 255
222 236 255
222 236 255
222 236 255
222 236 255
222 236 255
222 236 255
222 236 255
222 236 255
222 236 255
222 236 255
222 236 255
222 236 255
222 236 255
222 236 255
222 236 255
222 236 255
222 236 255
222 236 255
222 236 255
222 236 255
222 236 255
222 236 255
222 236 255
222 236 255
222 236 255
222 236 255
222 236 255
222 236 255
222 236 255
222 236 255
222 236 255
222 236 255
222 236 255
222 236 255
222 236 255
222 236 255
222 236 255
222 236 255
222 236 255
222 236 255
222 236 255
222 236 255
222 236 255
222 236 255
222 236 255
222 236 255
222 236 255
222 236 255
222 236 255
222 236 255
222 236 255
222 236 255
222 236 255
222 236 255
222 236 255
222 236 255
222 236 255
222 236 255
222 236 255
222 236 255
222 236 255
222 236 255
222 236 255
222 236 255
222 236 255
222 236 255
222 236 255
222 236 255
222 236 255
222 236 255
222 236 255
222 236 255
222 236 255
222 236 255
222 236 255
222 236 255
222 236 255
222 236 255
222 236 255
222 236 255
222 236 255
222 236 255
222 236 255
222 236 255
222 236 255
222 236 255
222 236 255
222 236 255
222 236 255
222 236 255
222 236 255
222 236 255
222 236 255
222 236 255
222 236 255
222 236 255
222 236 255
222 236 255
222 236 255
222 236 255
222 236 255
222 236 255
222 236 255
222 236 255
222 236 255
223 236 255
223 236 255
223 236 255
223 236 255
223 236 255
223 236 255
223 236 255
223 236 255
223 236 255
223 236 255
223 236 255
223 236 255
223 236 255
223 236 255
223 236 255
223 236 255
223 236 255
223 236 255
223 236 255
223 236 255
223 236 255
223 236 255
223 236 255
223 236 255
223 236 255
223 236 255
223 236 255
223 236 255
223 236 255
223 236 255
223 236 255
223 236 255
223 236 255
223 236 255
223 236 255
223 236 255
223 236 255
223 236 255
223 236 255
223 236 255
223 236 255
223 236 255
223 236 255
223 236 255
223 236 255
223 236 255
223 236 255
223 236 255
223 236 255
223 236 255
223 236 255
223 236 255
223 236 255
223 236 255
223 236 255
223 236 255
223 236 255
223 236 255
223 236 255
223 236 255
223 236 255
223 236 255
223 236 255
223 236 255
223 236 255
223 236 255
223 236 255
223 236 255
223 236 255
223 236 255
223 236 255
223 236 255
223 236 255
223 236 255
223 236 255
223 236 255
223 236 255
223 236 255
223 236 255
223 236 255
223 236 255
223 236 255
223 236 255
223 236 255
223 236 255
223 236 255
223 236 255
223 236 255
223 236 255
223 236 255
223 236 255
223 236 255
223 236 255
223 236 255
223 236 255
223 236 255
223 236 255
223 236 255
223 236 255
223 236 255
223 236 255
223 236 255
223 236 255
223 236 255
223 236 255
223 236 255
223 236 255
223 236 255
223 236 255
223 236 255
223 236 255
223 236 255
223 236 255
223 236 255
223 236 255
223 236 255
223 236 255
223 236 255
223 236 255
223 236 255
223 236 255
223 236 255
223 236 255
223 236 255
223 236 255
223 236 255
223 236 255
223 236 255
223 236 255
223 236 255
223 236 255
223 236 255
223 236 255
223 236 255
223 236 255
223 236 255
223 236 255
223 236 255
223 236 255
223 236 255
223 236 255
223 236 255
222 236 255
223 236 255
222 236 255
222 236 255
222 236 255
222 236 255
222 236 255
222 236 255
222 236 255
222 236 255
222 236 255
222 236 255
222 236 255
222 236 255
222 236 255
222 236 255
222 236 255
222 236 255
222 236 255
222 236 255
222 236 255
222 236 255
222 236 255
222 236 255
222 236 255
222 236 255
222 236 255
222 236 255
222 236 255
222 236 255
222 236 255
222 236 255
222 236 255
222 236 255
222 236 255
222 236 255
222 236 255
222 236 255
222 236 255
222 236 255
222 236 255
222 236 255
222 236 255
222 236 255
222 236 255
222 236 255
222 236 255
222 236 255
222 236 255
222 236 255
222 236 255
222 236 255
222 236 255
222 236 255
222 236 255
222 236 255
222 236 255
222 236 255
222 236 255
222 236 255
222 236 255
222 236 255
222 236 255
222 236 255
222 236 255
222 236 255
222 236 255
222 236 255
222 236 255
222 236 255
222 236 255
222 236 255
222 236 255
222 236 255
222 236 255
222 236 255
222 236 255
222 236 255
222 236 255
222 236 255
222 236 255
222 236 255
222 236 255
222 236 255
222 236 255
222 236 255
222 236 255
222 236 255
222 236 255
222 236 255
222 236 255
222 236 255
222 236 255
222 236 255
222 236 255
222 236 255
222 236 255
222 236 255
222 236 255
222 236 255
222 236 255
222 236 255
222 236 255
222 236 255
222 236 255
222 236 255
222 236 255
222 236 255
222 236 255
222 236 255
222 236 255
222 236 255
222 236 255
222 236 255
222 236 255
222 236 255
222 236 255
222 236 255
222 236 255
222 236 255
222 236 255
222 236 255
222 236 255
222 236 255
222 236 255
222 236 255
222 236 255
222 236 255
222 236 255
222 236 255
222 236 255
222 236 255
222 236 255
222 236 255
222 236 255
222 236 255
222 236 255
222 236 255
222 236 255
222 236 255
222 236 255
222 236 255
222 236 255
222 236 255
222 236 255
222 236 255
222 236 255
222 236 255
222 236 255
222 236 255
222 236 255
222 236 255
222 236 255
222 236 255
222 236 255
222 236 255
222 236 255
222 236 255
222 236 255
222 236 255
222 236 255
222 236 255
222 236 255
222 236 255
222 236 255
222 236 255
222 236 255
222 236 255
222 236 255
222 236 255
222 236 255
222 236 255
222 236 255
222 236 255
222 236 255
222 236 255
222 236 255
222 236 255
222 236 255
222 236 255
222 236 255
222 236 255
222 236 255
222 236 255
222 236 255
222 236 255
222 236 255
222 236 255
222 236 255
222 236 255
222 236 255
222 236 255
222 236 255
222 236 255
222 236 255
222 236 255
222 236 255
222 236 255
222 236 255
222 236 255
222 236 255
222 236 255
222 236 255
222 236 255
222 236 255
222 236 255
222 236 255
222 236 255
222 236 255
222 236 255
222 236 255
222 236 255
222 236 255
222 236 255
222 236 255
222 236 255
222 236 255
222 236 255
223 236 255
223 236 255
223 236 255
223 236 255
223 236 255
223 236 255
223 236 255
223 236 255
223 236 255
223 236 255
223 236 255
223 236 255
223 236 255
223 236 255
223 236 255
223 236 255
223 236 255
223 236 255
223 236 255
223 236 255
223 236 255
223 236 255
223 236 255
223 236 255
223 236 255
223 236 255
223 236 255
223 236 255
223 236 255
223 236 255
223 236 255
223 236 255
223 236 255
223 236 255
223 236 255
223 236 255
223 236 255
223 236 255
223 236 255
223 236 255
223 236 255
223 236 255
223 236 255
223 236 255
223 236 255
223 236 255
223 236 255
223 236 255
223 236 255
223 236 255
223 236 255
223 236 255
223 236 255
223 236 255
223 236 255
223 236 255
223 236 255
223 236 255
223 236 255
223 236 255
223 236 255
223 236 255
223 236 255
223 236 255
223 236 255
223 236 255
223 236 255
223 236 255
223 236 255
223 236 255
223 236 255
223 236 255
223 236 255
223 236 255
223 236 255
223 236 255
223 236 255
223 236 255
223 236 255
223 236 255
223 236 255
223 236 255
223 236 255
223 236 255
223 236 255
223 236 255
223 236 255
223 236 255
223 236 255
223 236 255
223 236 255
223 236 255
223 236 255
223 236 255
223 236 255
223 236 255
223 236 255
223 236 255
223 236 255
223 236 255
223 236 255
223 236 255
223 236 255
223 236 255
223 236 255
223 236 255
223 236 255
223 236 255
223 236 255
223 236 255
223 236 255
223 236 255
223 236 255
223 236 255
223 236 255
223 236 255
223 236 255
223 236 255
223 236 255
223 236 255
223 236 255
223 236 255
223 236 255
223 236 255
223 236 255
223 236 255
223 236 255
223 236 255
223 236 255
223 236 255
223 236 255
223 236 255
223 236 255
223 236 255
223 236 255
223 236 255
223 236 255
223 236 255
223 236 255
223 236 255
223 236 255
223 236 255
223 236 255
223 236 255
223 236 255
223 236 255
223 236 255
223 236 255
223 236 255
223 236 255
223 236 255
223 236 255
223 236 255
223 236 255
223 236 255
223 236 255
223 236 255
223 236 255
223 236 255
223 236 255
223 236 255
223 236 255
223 236 255
223 236 255
223 236 255
223 236 255
223 236 255
223 236 255
223 236 255
223 236 255
223 236 255
223 236 255
223 236 255
223 236 255
223 236 255
223 236 255
223 236 255
223 236 255
223 236 255
223 236 255
223 236 255
223 236 255
223 236 255
223 236 255
223 236 255
223 236 255
223 236 255
223 236 255
223 236 255
223 236 255
223 236 255
223 236 255
223 236 255
223 236 255
223 236 255
223 236 255
223 236 255
223 236 255
223 236 255
223 236 255
223 236 255
223 236 255
223 236 255
223 236 255
223 236 255
223 236 255
223 236 255
223 236 255
223 236 255
223 236 255
223 236 255
223 236 255
223 236 255
223 236 255
223 236 255
223 236 255
223 236 255
223 236 255
223 236 255
223 236 255
223 236 255
223 236 255
223 236 255
223 236 255
223 236 255
222 236 255
223 236 255
222 236 255
222 236 255
222 236 255
222 236 255
222 236 255
222 236 255
222 236 255
222 236 255
222 236 255
222 236 255
222 236 255
222 236 255
222 236 255
222 236 255
222 236 255
222 236 255
222 236 255
222 236 255
222 236 255
222 236 255
222 236 255
222 236 255
222 236 255
222 236 255
222 236 255
222 236 255
222 236 255
222 236 255
222 236 255
222 236 255
222 236 255
222 236 255
222 236 255
222 236 255
222 236 255
222 236 255
222 236 255
222 236 255
222 236 255
222 236 255
222 236 255
222 236 255
222 236 255
222 236 255
222 236 255
222 236 255
222 236 255
222 236 255
222 236 255
222 236 255
222 236 255
222 236 255
222 236 255
222 236 255
222 236 255
222 236 255
222 236 255
222 236 255
222 236 255
222 236 255
222 236 255
222 236 255
222 236 255
222 236 255
222 236 255
222 236 255
222 236 255
222 236 255
222 236 255
222 236 255
222 236 255
222 236 255
222 236 255
222 236 255
222 236 255
222 236 255
222 236 255
222 236 255
222 236 255
222 236 255
222 236 255
222 236 255
222 236 255
222 236 255
222 236 255
222 236 255
222 236 255
222 236 255
222 236 255
222 236 255
222 236 255
222 236 255
222 236 255
222 236 255
222 236 255
222 236 255
222 236 255
222 236 255
222 236 255
222 236 255
222 236 255
222 236 255
222 236 255
222 236 255
222 236 255
222 236 255
222 236 255
222 236 255
222 236 255
222 236 255
222 236 255
222 236 255
222 236 255
222 236 255
222 236 255
222 236 255
222 236 255
222 236 255
222 236 255
222 236 255
222 236 255
222 236 255
222 236 255
222 236 255
222 236 255
222 236 255
222 236 255
222 236 255
222 236 255
222 236 255
222 236 255
222 236 255
222 236 255
222 236 255
222 236 255
222 236 255
222 236 255
223 236 255
223 236 255
222 236 255
223 236 255
223 236 255
223 236 255
223 236 255
223 236 255
223 236 255
223 236 255
223 236 255
223 236 255
223 236 255
223 236 255
223 236 255
223 236 255
223 236 255
223 236 255
223 236 255
223 236 255
223 236 255
223 236 255
223 236 255
223 236 255
223 236 255
223 236 255
223 236 255
223 236 255
223 236 255
223 236 255
223 236 255
223 236 255
223 236 255
223 236 255
223 236 255
223 236 255
223 236 255
223 236 255
223 236 255
223 236 255
223 236 255
223 236 255
223 236 255
223 236 255
223 236 255
223 236 255
223 236 255
223 236 255
223 236 255
223 236 255
223 236 255
223 236 255
223 236 255
223 236 255
223 236 255
223 236 255
223 236 255
223 236 255
223 236 255
223 236 255
223 236 255
223 236 255
223 236 255
223 236 255
223 236 255
223 236 255
223 236 255
223 236 255
223 236 255
223 236 255
223 236 255
223 236 255
223 236 255
223 236 255
223 236 255
223 236 255
223 236 255
223 236 255
223 236 255
223 236 255
223 236 255
223 236 255
223 237 255
223 236 255
223 236 255
223 236 255
223 237 255
223 237 255
223 237 255
223 237 255
223 237 255
223 237 255
223 237 255
223 237 255
223 237 255
223 237 255
223 237 255
223 237 255
223 237 255
223 237 255
223 237 255
223 237 255
223 237 255
223 237 255
223 237 255
223 237 255
223 237 255
223 237 255
223 237 255
223 237 255
223 237 255
223 237 255
223 237 255
223 237 255
223 237 255
223 237 255
223 237 255
223 237 255
223 237 255
223 237 255
223 237 255
223 237 255
223 237 255
223 237 255
223 237 255
223 237 255
223 237 255
223 237 255
223 237 255
223 237 255
223 237 255
223 237 255
223 237 255
223 237 255
223 237 255
223 237 255
223 237 255
223 237 255
223 237 255
223 237 255
223 237 255
223 237 255
223 237 255
223 237 255
223 237 255
223 237 255
223 237 255
223 237 255
223 237 255
223 237 255
223 237 255
223 237 255
223 237 255
223 237 255
223 237 255
223 237 255
223 237 255
223 237 255
223 237 255
223 237 255
223 237 255
223 237 255
223 237 255
223 237 255
223 237 255
223 237 255
223 237 255
223 237 255
223 237 255
223 237 255
223 237 255
223 237 255
223 237 255
223 237 255
223 237 255
223 237 255
223 237 255
223 237 255
223 237 255
223 237 255
223 237 255
223 237 255
223 237 255
223 237 255
223 237 255
223 237 255
223 237 255
223 237 255
223 237 255
223 237 255
223 237 255
223 237 255
223 237 255
223 237 255
223 237 255
223 237 255
223 237 255
223 237 255
223 237 255
223 237 255
223 237 255
223 237 255
223 237 255
223 237 255
223 237 255
223 237 255
223 237 255
223 237 255
223 237 255
223 237 255
223 237 255
223 237 255
223 237 255
223 236 255
223 236 255
223 236 255
223 236 255
223 236 255
223 236 255
223 236 255
223 236 255
223 236 255
223 236 255
223 236 255
223 236 255
223 236 255
223 236 255
223 236 255
223 236 255
223 236 255
223 236 255
223 236 255
223 236 255
223 236 255
223 236 255
223 236 255
223 236 255
223 236 255
223 236 255
223 236 255
223 236 255
223 236 255
223 236 255
223 236 255
223 236 255
223 236 255
223 236 255
223 236 255
223 236 255
223 236 255
223 236 255
223 236 255
223 236 255
223 236 255
223 236 255
223 236 255
223 236 255
223 236 255
223 236 255
223 236 255
223 236 255
223 236 255
223 236 255
223 236 255
223 236 255
223 236 255
223 236 255
223 236 255
223 236 255
223 236 255
223 236 255
223 236 255
223 236 255
223 236 255
223 236 255
223 236 255
223 236 255
223 236 255
223 236 255
223 236 255
223 236 255
223 236 255
223 236 255
223 236 255
223 236 255
223 236 255
223 236 255
223 236 255
223 236 255
223 236 255
223 236 255
223 236 255
223 236 255
223 236 255
223 236 255
222 236 255
222 236 255
222 236 255
222 236 255
222 236 255
222 236 255
222 236 255
222 236 255
222 236 255
222 236 255
222 236 255
222 236 255
222 236 255
222 236 255
222 236 255
222 236 255
222 236 255
222 236 255
222 236 255
222 236 255
222 236 255
222 236 255
222 236 255
222 236 255
222 236 255
222 236 255
222 236 255
222 236 255
222 236 255
222 236 255
222 236 255
222 236 255
222 236 255
222 236 255
222 236 255
222 236 255
222 236 255
222 236 255
222 236 255
222 236 255
222 236 255
222 236 255
222 236 255
222 236 255
222 236 255
222 236 255
222 236 255
222 236 255
222 236 255
222 236 255
222 236 255
222 236 255
222 236 255
222 236 255
222 236 255
222 236 255
222 236 255
222 236 255
222 236 255
222 236 255
222 236 255
222 236 255
222 236 255
222 236 255
222 236 255
222 236 255
222 236 255
222 236 255
222 236 255
222 236 255
222 236 255
222 236 255
222 236 255
222 236 255
222 236 255
223 236 255
223 236 255
223 236 255
223 236 255
223 236 255
223 236 255
223 236 255
223 236 255
223 236 255
223 236 255
223 236 255
223 236 255
223 236 255
223 236 255
223 236 255
223 236 255
223 236 255
223 236 255
223 236 255
223 236 255
223 236 255
223 236 255
223 236 255
223 236 255
223 236 255
223 236 255
223 236 255
223 236 255
223 236 255
223 236 255
223 236 255
223 236 255
223 236 255
223 236 255
223 236 255
223 236 255
223 236 255
223 236 255
223 236 255
223 236 255
223 236 255
223 236 255
223 236 255
223 236 255
223 236 255
223 236 255
223 236 255
223 236 255
223 236 255
223 236 255
223 236 255
223 236 255
223 236 255
223 236 255
223 236 255
223 236 255
223 236 255
223 236 255
223 236 255
223 236 255
223 236 255
223 236 255
223 236 255
223 236 255
223 236 255
223 236 255
223 236 255
223 236 255
223 236 255
223 236 255
223 236 255
223 236 255
223 236 255
223 236 255
223 236 255
223 236 255
223 236 255
223 236 255
223 236 255
223 236 255
223 237 255
223 237 255
223 237 255
223 237 255
223 237 255
223 237 255
223 237 255
223 237 255
223 237 255
223 237 255
223 237 255
223 237 255
223 237 255
223 237 255
223 237 255
223 237 255
223 237 255
223 237 255
223 237 255
223 237 255
223 237 255
223 237 255
223 237 255
223 237 255
223 237 255
223 237 255
223 237 255
223 237 255
223 237 255
223 237 255
223 237 255
223 237 255
223 237 255
223 237 255
223 237 255
223 237 255
223 237 255
223 237 255
223 237 255
223 237 255
223 237 255
223 237 255
223 237 255
223 237 255
223 237 255
223 237 255
223 237 255
223 237 255
223 237 255
223 237 255
223 237 255
223 237 255
223 237 255
223 237 255
223 237 255
223 237 255
223 237 255
223 237 255
223 237 255
223 237 255
223 237 255
223 237 255
223 237 255
223 237 255
223 237 255
223 237 255
223 237 255
223 237 255
223 237 255
223 237 255
223 237 255
223 237 255
223 237 255
223 237 255
223 237 255
223 237 255
223 237 255
223 237 255
223 237 255
223 237 255
223 237 255
223 237 255
223 237 255
223 237 255
223 237 255
223 237 255
223 237 255
223 237 255
223 237 255
223 237 255
223 237 255
223 237 255
223 237 255
223 237 255
223 237 255
223 237 255
223 237 255
223 237 255
223 237 255
223 237 255
223 237 255
223 237 255
223 237 255
223 237 255
223 237 255
223 237 255
223 237 255
223 237 255
223 237 255
223 237 255
223 237 255
223 237 255
223 237 255
223 237 255
223 237 255
223 237 255
223 237 255
223 237 255
223 237 255
223 237 255
223 237 255
223 237 255
223 237 255
223 237 255
223 237 255
223 237 255
223 237 255
223 237 255
223 237 255
223 237 255
223 237 255
223 237 255
223 237 255
223 237 255
223 237 255
223 237 255
223 237 255
223 237 255
223 237 255
223 237 255
223 237 255
223 237 255
223 237 255
223 237 255
223 237 255
223 237 255
223 237 255
223 237 255
223 237 255
223 237 255
223 237 255
223 237 255
223 237 255
223 237 255
223 237 255
223 237 255
223 237 255
223 237 255
223 237 255
223 237 255
223 237 255
223 237 255
223 237 255
223 237 255
223 237 255
223 237 255
223 237 255
223 237 255
223 237 255
223 237 255
223 237 255
223 237 255
223 237 255
223 237 255
223 237 255
223 237 255
223 237 255
223 237 255
223 237 255
223 237 255
223 237 255
223 237 255
223 237 255
223 237 255
223 237 255
223 237 255
223 237 255
223 237 255
223 237 255
223 237 255
223 237 255
223 237 255
223 237 255
223 237 255
223 237 255
223 237 255
223 237 255
223 236 255
223 236 255
223 236 255
223 236 255
223 236 255
223 236 255
223 236 255
223 236 255
223 236 255
223 236 255
223 236 255
223 236 255
223 236 255
223 236 255
223 236 255
223 236 255
223 236 255
223 236 255
223 236 255
223 236 255
223 236 255
223 236 255
223 236 255
223 236 255
223 236 255
223 236 255
223 236 255
223 236 255
223 236 255
223 236 255
223 236 255
223 236 255
223 236 255
223 236 255
223 236 255
223 236 255
223 236 255
223 236 255
223 236 255
223 236 255
223 236 255
223 236 255
223 236 255
223 236 255
223 236 255
223 236 255
223 236 255
223 236 255
223 236 255
223 236 255
223 236 255
223 236 255
223 236 255
223 236 255
223 236 255
223 236 255
223 236 255
223 236 255
223 236 255
223 236 255
223 236 255
223 236 255
223 236 255
223 236 255
223 236 255
223 236 255
223 236 255
223 236 255
223 236 255
223 236 255
223 236 255
223 236 255
223 236 255
223 236 255
223 236 255
223 236 255
223 236 255
223 236 255
222 236 255
222 236 255
222 236 255
222 236 255
222 236 255
222 236 255
222 236 255
222 236 255
222 236 255
222 236 255
222 236 255
222 236 255
222 236 255
222 236 255
222 236 255
222 236 255
222 236 255
222 236 255
222 236 255
222 236 255
222 236 255
222 236 255
222 236 255
223 236 255
223 236 255
223 236 255
223 236 255
223 236 255
223 236 255
223 236 255
223 236 255
223 236 255
223 236 255
223 236 255
223 236 255
223 236 255
223 236 255
223 236 255
223 236 255
223 236 255
223 236 255
223 236 255
223 236 255
223 236 255
223 236 255
223 236 255
223 236 255
223 236 255
223 236 255
223 236 255
223 236 255
223 236 255
223 236 255
223 236 255
223 236 255
223 236 255
223 236 255
223 236 255
223 236 255
223 236 255
223 236 255
223 236 255
223 236 255
223 236 255
223 236 255
223 236 255
223 236 255
223 236 255
223 236 255
223 236 255
223 236 255
223 236 255
223 236 255
223 236 255
223 236 255
223 236 255
223 236 255
223 236 255
223 236 255
223 236 255
223 236 255
223 236 255
223 236 255
223 236 255
223 236 255
223 236 255
223 236 255
223 236 255
223 236 255
223 236 255
223 236 255
223 236 255
223 236 255
223 236 255
223 236 255
223 236 255
223 237 255
223 236 255
223 237 255
223 237 255
223 237 255
223 237 255
223 237 255
223 237 255
223 237 255
223 237 255
223 237 255
223 237 255
223 237 255
223 237 255
223 237 255
223 237 255
223 237 255
223 237 255
223 237 255
223 237 255
223 237 255
223 237 255
223 237 255
223 237 255
223 237 255
223 237 255
223 237 255
223 237 255
223 237 255
223 237 255
223 237 255
223 237 255
223 237 255
223 237 255
223 237 255
223 237 255
223 237 255
223 237 255
223 237 255
223 237 255
223 237 255
223 237 255
223 237 255
223 237 255
223 237 255
223 237 255
223 237 255
223 237 255
223 237 255
223 237 255
223 237 255
223 237 255
223 237 255
223 237 255
223 237 255
223 237 255
223 237 255
223 237 255
223 237 255
223 237 255
223 237 255
223 237 255
223 237 255
223 237 255
223 237 255
223 237 255
223 237 255
223 237 255
223 237 255
223 237 255
223 237 255
223 237 255
223 237 255
223 237 255
223 237 255
223 237 255
223 237 255
223 237 255
223 237 255
223 237 255
223 237 255
223 237 255
223 237 255
223 237 255
223 237 255
223 237 255
223 237 255
224 237 255
224 237 255
224 237 255
224 237 255
224 237 255
224 237 255
224 237 255
224 237 255
224 237 255
224 237 255
224 237 255
224 237 255
224 237 255
224 237 255
224 237 255
224 237 255
224 237 255
224 237 255
224 237 255
224 237 255
224 237 255
224 237 255
224 237 255
224 237 255
224 237 255
224 237 255
224 237 255
224 237 255
224 237 255
224 237 255
224 237 255
224 237 255
224 237 255
224 237 255
224 237 255
224 237 255
224 237 255
224 237 255
224 237 255
224 237 255
224 237 255
224 237 255
224 237 255
224 237 255
224 237 255
224 237 255
224 237 255
224 237 255
224 237 255
224 237 255
224 237 255
224 237 255
224 237 255
224 237 255
224 237 255
224 237 255
224 237 255
224 237 255
224 237 255
224 237 255
224 237 255
224 237 255
224 237 255
224 237 255
224 237 255
224 237 255
224 237 255
224 237 255
224 237 255
224 237 255
224 237 255
224 237 255
224 237 255
224 237 255
224 237 255
224 237 255
224 237 255
224 237 255
224 237 255
224 237 255
224 237 255
223 237 255
223 237 255
223 237 255
223 237 255
223 237 255
223 237 255
223 237 255
223 237 255
223 237 255
223 237 255
223 237 255
223 237 255
223 237 255
223 237 255
223 237 255
223 237 255
223 237 255
223 237 255
223 237 255
223 237 255
223 237 255
223 237 255
223 237 255
223 237 255
223 237 255
223 237 255
223 237 255
223 237 255
223 237 255
223 237 255
223 237 255
223 237 255
223 237 255
223 237 255
223 237 255
223 237 255
223 237 255
223 237 255
223 237 255
223 237 255
223 237 255
223 237 255
223 237 255
223 237 255
223 237 255
223 237 255
223 237 255
223 237 255
223 237 255
223 237 255
223 237 255
223 237 255
223 237 255
223 237 255
223 237 255
223 237 255
223 237 255
223 237 255
223 237 255
223 237 255
223 237 255
223 237 255
223 237 255
223 237 255
223 237 255
223 237 255
223 237 255
223 237 255
223 237 255
223 237 255
223 237 255
223 237 255
223 237 255
223 237 255
223 237 255
223 237 255
223 237 255
223 237 255
223 237 255
223 237 255
223 237 255
223 237 255
223 237 255
223 237 255
223 237 255
223 237 255
223 236 255
223 236 255
223 236 255
223 236 255
223 236 255
223 236 255
223 236 255
223 236 255
223 236 255
223 236 255
223 236 255
223 236 255
223 236 255
223 236 255
223 236 255
223 236 255
223 236 255
223 236 255
223 236 255
223 236 255
223 236 255
223 236 255
223 236 255
223 236 255
223 236 255
223 236 255
223 236 255
223 236 255
223 236 255
223 236 255
223 236 255
223 236 255
223 236 255
223 236 255
223 236 255
223 236 255
223 236 255
223 236 255
223 236 255
223 236 255
223 236 255
223 236 255
223 236 255
223 236 255
223 236 255
223 236 255
223 236 255
223 236 255
223 236 255
223 236 255
223 236 255
223 236 255
223 236 255
223 236 255
223 236 255
223 236 255
223 236 255
223 236 255
223 236 255
223 236 255
223 236 255
223 236 255
223 236 255
223 236 255
223 236 255
223 236 255
223 236 255
223 236 255
223 236 255
223 236 255
223 236 255
223 236 255
223 236 255
223 236 255
223 236 255
223 236 255
223 236 255
223 236 255
223 236 255
223 236 255
223 236 255
223 236 255
223 236 255
223 236 255
223 236 255
223 236 255
223 236 255
223 236 255
223 236 255
223 236 255
223 236 255
223 236 255
223 236 255
223 236 255
223 236 255
223 236 255
223 236 255
223 236 255
223 236 255
223 236 255
223 236 255
223 236 255
223 236 255
223 236 255
223 236 255
223 236 255
223 236 255
223 236 255
223 236 255
223 236 255
223 236 255
223 236 255
223 236 255
223 236 255
223 236 255
223 236 255
223 236 255
223 236 255
223 236 255
223 236 255
223 236 255
223 236 255
223 237 255
223 237 255
223 237 255
223 237 255
223 237 255
223 237 255
223 237 255
223 237 255
223 237 255
223 237 255
223 237 255
223 237 255
223 237 255
223 237 255
223 237 255
223 237 255
223 237 255
223 237 255
223 237 255
223 237 255
223 237 255
223 237 255
223 237 255
223 237 255
223 237 255
223 237 255
223 237 255
223 237 255
223 237 255
223 237 255
223 237 255
223 237 255
223 237 255
223 237 255
223 237 255
223 237 255
223 237 255
223 237 255
223 237 255
223 237 255
223 237 255
223 237 255
223 237 255
223 237 255
223 237 255
223 237 255
223 237 255
223 237 255
223 237 255
223 237 255
223 237 255
223 237 255
223 237 255
223 237 255
223 237 255
223 237 255
223 237 255
223 237 255
223 237 255
223 237 255
223 237 255
223 237 255
223 237 255
223 237 255
223 237 255
223 237 255
223 237 255
223 237 255
223 237 255
223 237 255
223 237 255
223 237 255
223 237 255
223 237 255
223 237 255
223 237 255
224 237 255
224 237 255
224 237 255
224 237 255
224 237 255
224 237 255
224 237 255
224 237 255
224 237 255
224 237 255
224 237 255
224 237 255
224 237 255
224 237 255
224 237 255
224 237 255
224 237 255
224 237 255
224 237 255
224 237 255
224 237 255
224 237 255
224 237 255
224 237 255
224 237 255
224 237 255
224 237 255
224 237 255
224 237 255
224 237 255
224 237 255
224 237 255
224 237 255
224 237 255
224 237 255
224 237 255
224 237 255
224 237 255
224 237 255
224 237 255
224 237 255
224 237 255
224 237 255
224 237 255
224 237 255
224 237 255
224 237 255
224 237 255
224 237 255
224 237 255
224 237 255
224 237 255
224 237 255
224 237 255
224 237 255
224 237 255
224 237 255
224 237 255
224 237 255
224 237 255
224 237 255
224 237 255
224 237 255
224 237 255
224 237 255
224 237 255
224 237 255
224 237 255
224 237 255
224 237 255
224 237 255
224 237 255
224 237 255
224 237 255
224 237 255
224 237 255
224 237 255
224 237 255
224 237 255
224 237 255
224 237 255
224 237 255
224 237 255
224 237 255
224 237 255
224 237 255
224 237 255
224 237 255
224 237 255
224 237 255
224 237 255
224 237 255
224 237 255
224 237 255
224 237 255
224 237 255
224 237 255
224 237 255
224 237 255
224 237 255
224 237 255
224 237 255
224 237 255
224 237 255
224 237 255
224 237 255
224 237 255
224 237 255
224 237 255
224 237 255
224 237 255
224 237 255
224 237 255
224 237 255
224 237 255
224 237 255
224 237 255
224 237 255
224 237 255
224 237 255
224 237 255
224 237 255
224 237 255
224 237 255
224 237 255
224 237 255
224 237 255
224 237 255
224 237 255
224 237 255
224 237 255
224 237 255
224 237 255
224 237 255
224 237 255
224 237 255
224 237 255
224 237 255
224 237 255
224 237 255
224 237 255
224 237 255
224 237 255
224 237 255
224 237 255
224 237 255
224 237 255
224 237 255
224 237 255
223 237 255
223 237 255
223 237 255
223 237 255
223 237 255
223 237 255
223 237 255
223 237 255
223 237 255
223 237 255
223 237 255
223 237 255
223 237 255
223 237 255
223 237 255
223 237 255
223 237 255
223 237 255
223 237 255
223 237 255
223 237 255
223 237 255
223 237 255
223 237 255
223 237 255
223 237 255
223 237 255
223 237 255
223 237 255
223 237 255
223 237 255
223 237 255
223 237 255
223 237 255
223 237 255
223 237 255
223 237 255
223 237 255
223 237 255
223 237 255
223 237 255
223 237 255
223 237 255
223 237 255
223 237 255
223 237 255
223 237 255
223 237 255
223 237 255
223 237 255
223 237 255
223 237 255
223 237 255
223 237 255
223 237 255
223 237 255
223 237 255
223 237 255
223 237 255
223 237 255
223 237 255
223 237 255
223 237 255
223 237 255
223 237 255
223 237 255
223 237 255
223 237 255
223 237 255
223 237 255
223 237 255
223 237 255
223 237 255
223 237 255
223 237 255
223 237 255
223 237 255
223 237 255
223 236 255
223 236 255
223 236 255
223 236 255
223 236 255
223 236 255
223 236 255
223 236 255
223 236 255
223 236 255
223 236 255
223 236 255
223 236 255
223 236 255
223 236 255
223 236 255
223 236 255
223 236 255
223 236 255
223 236 255
223 236 255
223 236 255
223 236 255
223 236 255
223 236 255
223 236 255
223 236 255
223 236 255
223 236 255
223 236 255
223 236 255
223 236 255
223 236 255
223 236 255
223 236 255
223 236 255
223 236 255
223 236 255
223 236 255
223 236 255
223 236 255
223 236 255
223 236 255
223 236 255
223 236 255
223 236 255
223 236 255
223 236 255
223 236 255
223 236 255
223 236 255
223 236 255
223 236 255
223 236 255
223 236 255
223 236 255
223 236 255
223 236 255
223 236 255
223 236 255
223 236 255
223 236 255
223 236 255
223 236 255
223 236 255
223 236 255
223 236 255
223 236 255
223 236 255
223 236 255
223 236 255
223 236 255
223 236 255
223 236 255
223 237 255
223 237 255
223 237 255
223 237 255
223 237 255
223 237 255
223 237 255
223 237 255
223 237 255
223 237 255
223 237 255
223 237 255
223 237 255
223 237 255
223 237 255
223 237 255
223 237 255
223 237 255
223 237 255
223 237 255
223 237 255
223 237 255
223 237 255
223 237 255
223 237 255
223 237 255
223 237 255
223 237 255
223 237 255
223 237 255
223 237 255
223 237 255
223 237 255
223 237 255
223 237 255
223 237 255
223 237 255
223 237 255
223 237 255
223 237 255
223 237 255
223 237 255
223 237 255
223 237 255
223 237 255
223 237 255
223 237 255
223 237 255
223 237 255
223 237 255
223 237 255
223 237 255
223 237 255
223 237 255
223 237 255
223 237 255
223 237 255
223 237 255
223 237 255
223 237 255
223 237 255
223 237 255
223 237 255
223 237 255
223 237 255
223 237 255
223 237 255
223 237 255
223 237 255
223 237 255
223 237 255
223 237 255
223 237 255
223 237 255
224 237 255
224 237 255
224 237 255
224 237 255
224 237 255
224 237 255
224 237 255
224 237 255
224 237 255
224 237 255
224 237 255
224 237 255
224 237 255
224 237 255
224 237 255
224 237 255
224 237 255
224 237 255
224 237 255
224 237 255
224 237 255
224 237 255
224 237 255
224 237 255
224 237 255
224 237 255
224 237 255
224 237 255
224 237 255
224 237 255
224 237 255
224 237 255
224 237 255
224 237 255
224 237 255
224 237 255
224 237 255
224 237 255
224 237 255
224 237 255
224 237 255
224 237 255
224 237 255
224 237 255
224 237 255
224 237 255
224 237 255
224 237 255
224 237 255
224 237 255
224 237 255
224 237 255
224 237 255
224 237 255
224 237 255
224 237 255
224 237 255
224 237 255
224 237 255
224 237 255
224 237 255
224 237 255
224 237 255
224 237 255
224 237 255
224 237 255
224 237 255
224 237 255
224 237 255
224 237 255
224 237 255
224 237 255
224 237 255
224 237 255
224 237 255
224 237 255
224 237 255
224 237 255
224 237 255
224 237 255
224 237 255
224 237 255
224 237 255
224 237 255
224 237 255
224 237 255
224 237 255
224 237 255
224 237 255
224 237 255
224 237 255
224 237 255
224 237 255
224 237 255
224 237 255
224 237 255
224 237 255
224 237 255
224 237 255
224 237 255
224 237 255
224 237 255
224 237 255
224 237 255
224 237 255
224 237 255
224 237 255
224 237 255
224 237 255
224 237 255
224 237 255
224 237 255
224 237 255
224 237 255
224 237 255
224 237 255
224 237 255
224 237 255
224 237 255
224 237 255
224 237 255
224 237 255
224 237 255
224 237 255
224 237 255
224 237 255
224 237 255
224 237 255
224 237 255
224 237 255
224 237 255
224 237 255
224 237 255
224 237 255
224 237 255
224 237 255
224 237 255
224 237 255
224 237 255
224 237 255
224 237 255
224 237 255
224 237 255
224 237 255
224 237 255
224 237 255
224 237 255
224 237 255
224 237 255
224 237 255
224 237 255
224 237 255
224 237 255
224 237 255
224 237 255
224 237 255
224 237 255
224 237 255
224 237 255
224 237 255
224 237 255
224 237 255
224 237 255
224 237 255
224 237 255
224 237 255
224 237 255
224 237 255
224 237 255
224 237 255
224 237 255
224 237 255
224 237 255
224 237 255
224 237 255
224 237 255
224 237 255
224 237 255
224 237 255
224 237 255
224 237 255
224 237 255
224 237 255
224 237 255
224 237 255
224 237 255
224 237 255
224 237 255
224 237 255
224 237 255
224 237 255
224 237 255
224 237 255
224 237 255
224 237 255
224 237 255
224 237 255
224 237 255
223 237 255
223 237 255
223 237 255
223 237 255
223 237 255
223 237 255
223 237 255
223 237 255
223 237 255
223 237 255
223 237 255
223 237 255
223 237 255
223 237 255
223 237 255
223 237 255
223 237 255
223 237 255
223 237 255
223 237 255
223 237 255
223 237 255
223 237 255
223 237 255
223 237 255
223 237 255
223 237 255
223 237 255
223 237 255
223 237 255
223 237 255
223 237 255
223 237 255
223 237 255
223 237 255
223 237 255
223 237 255
223 237 255
223 237 255
223 237 255
223 237 255
223 237 255
223 237 255
223 237 255
223 237 255
223 237 255
223 237 255
223 237 255
223 237 255
223 237 255
223 237 255
223 237 255
223 237 255
223 237 255
223 237 255
223 237 255
223 237 255
223 237 255
223 237 255
223 237 255
223 237 255
223 237 255
223 237 255
223 237 255
223 237 255
223 237 255
223 237 255
223 237 255
223 237 255
223 237 255
223 237 255
223 237 255
223 237 255
223 237 255
223 237 255
223 236 255
223 236 255
223 236 255
223 236 255
223 236 255
223 236 255
223 236 255
223 236 255
223 236 255
223 236 255
223 236 255
223 236 255
223 236 255
223 236 255
223 236 255
223 236 255
223 236 255
223 236 255
223 236 255
223 236 255
223 236 255
223 236 255
223 236 255
223 236 255
223 236 255
223 236 255
223 236 255
223 236 255
223 236 255
223 236 255
223 236 255
223 236 255
223 237 255
223 237 255
223 237 255
223 237 255
223 237 255
223 237 255
223 237 255
223 237 255
223 237 255
223 237 255
223 237 255
223 237 255
223 237 255
223 237 255
223 237 255
223 237 255
223 237 255
223 237 255
223 237 255
223 237 255
223 237 255
223 237 255
223 237 255
223 237 255
223 237 255
223 237 255
223 237 255
223 237 255
223 237 255
223 237 255
223 237 255
223 237 255
223 237 255
223 237 255
223 237 255
223 237 255
223 237 255
223 237 255
223 237 255
223 237 255
223 237 255
223 237 255
223 237 255
223 237 255
223 237 255
223 237 255
223 237 255
223 237 255
223 237 255
223 237 255
223 237 255
223 237 255
223 237 255
223 237 255
223 237 255
223 237 255
223 237 255
223 237 255
223 237 255
223 237 255
223 237 255
223 237 255
223 237 255
223 237 255
223 237 255
223 237 255
223 237 255
223 237 255
223 237 255
223 237 255
223 237 255
223 237 255
223 237 255
223 237 255
223 237 255
223 237 255
224 237 255
224 237 255
224 237 255
224 237 255
224 237 255
224 237 255
224 237 255
224 237 255
224 237 255
224 237 255
224 237 255
224 237 255
224 237 255
224 237 255
224 237 255
224 237 255
224 237 255
224 237 255
224 237 255
224 237 255
224 237 255
224 237 255
224 237 255
224 237 255
224 237 255
224 237 255
224 237 255
224 237 255
224 237 255
224 237 255
224 237 255
224 237 255
224 237 255
224 237 255
224 237 255
224 237 255
224 237 255
224 237 255
224 237 255
224 237 255
224 237 255
224 237 255
224 237 255
224 237 255
224 237 255
224 237 255
224 237 255
224 237 255
224 237 255
224 237 255
224 237 255
224 237 255
224 237 255
224 237 255
224 237 255
224 237 255
224 237 255
224 237 255
224 237 255
224 237 255
224 237 255
224 237 255
224 237 255
224 237 255
224 237 255
224 237 255
224 237 255
224 237 255
224 237 255
224 237 255
224 237 255
224 237 255
224 237 255
224 237 255
224 237 255
224 237 255
224 237 255
224 237 255
224 237 255
224 237 255
224 237 255
224 237 255
224 237 255
224 237 255
224 237 255
224 237 255
224 237 255
224 237 255
224 237 255
224 237 255
224 237 255
224 237 255
224 237 255
224 237 255
224 237 255
224 237 255
224 237 255
224 237 255
224 237 255
224 237 255
224 237 255
224 237 255
224 237 255
224 237 255
224 237 255
224 237 255
224 237 255
224 237 255
224 237 255
224 237 255
224 237 255
224 237 255
224 237 255
224 237 255
224 237 255
224 237 255
224 237 255
224 237 255
224 237 255
224 237 255
224 237 255
224 237 255
224 237 255
224 237 255
224 237 255
224 237 255
224 237 255
224 237 255
224 237 255
224 237 255
224 237 255
224 237 255
224 237 255
224 237 255
224 237 255
224 237 255
224 237 255
224 237 255
224 237 255
224 237 255
224 237 255
224 237 255
224 237 255
224 237 255
224 237 255
224 237 255
224 237 255
224 237 255
224 237 255
224 237 255
224 237 255
224 237 255
224 237 255
224 237 255
224 237 255
224 237 255
224 237 255
224 237 255
224 237 255
224 237 255
224 237 255
224 237 255
224 237 255
224 237 255
224 237 255
224 237 255
224 237 255
224 237 255
224 237 255
224 237 255
224 237 255
224 237 255
224 237 255
224 237 255
224 237 255
224 237 255
224 237 255
224 237 255
224 237 255
224 237 255
224 237 255
224 237 255
224 237 255
224 237 255
224 237 255
224 237 255
224 237 255
224 237 255
224 237 255
224 237 255
224 237 255
224 237 255
224 237 255
224 237 255
224 237 255
224 237 255
224 237 255
224 237 255
224 237 255
224 237 255
224 237 255
224 237 255
224 237 255
224 237 255
224 237 255
224 237 255
224 237 255
224 237 255
224 237 255
224 237 255
224 237 255
224 237 255
224 237 255
224 237 255
224 237 255
224 237 255
224 237 255
224 237 255
224 237 255
224 237 255
224 237 255
224 237 255
224 237 255
224 237 255
224 237 255
224 237 255
224 237 255
224 237 255
224 237 255
224 237 255
224 237 255
224 237 255
224 237 255
224 237 255
224 237 255
224 237 255
224 237 255
224 237 255
223 237 255
223 237 255
223 237 255
223 237 255
223 237 255
223 237 255
223 237 255
223 237 255
223 237 255
223 237 255
223 237 255
223 237 255
223 237 255
223 237 255
223 237 255
223 237 255
223 237 255
223 237 255
223 237 255
223 237 255
223 237 255
223 237 255
223 237 255
223 237 255
223 237 255
223 237 255
223 237 255
223 237 255
223 237 255
223 237 255
223 237 255
223 237 255
223 237 255
223 237 255
223 237 255
223 237 255
223 237 255
223 237 255
223 237 255
223 237 255
223 237 255
223 237 255
223 237 255
223 237 255
223 237 255
223 237 255
223 237 255
223 237 255
223 237 255
223 237 255
223 237 255
223 237 255
223 237 255
223 237 255
223 237 255
223 237 255
223 237 255
223 237 255
223 237 255
223 237 255
223 237 255
223 237 255
223 237 255
223 237 255
223 237 255
223 237 255
223 237 255
223 237 255
223 237 255
223 237 255
223 237 255
223 237 255
223 237 255
223 237 255
223 237 255
223 237 255
223 236 255
223 236 255
223 236 255
223 236 255
223 236 255
223 237 255
223 237 255
223 237 255
223 237 255
223 237 255
223 237 255
223 237 255
223 237 255
223 237 255
223 237 255
223 237 255
223 237 255
223 237 255
223 237 255
223 237 255
223 237 255
223 237 255
223 237 255
223 237 255
223 237 255
223 237 255
223 237 255
223 237 255
223 237 255
223 237 255
223 237 255
223 237 255
223 237 255
223 237 255
223 237 255
223 237 255
223 237 255
223 237 255
223 237 255
223 237 255
223 237 255
223 237 255
223 237 255
223 237 255
223 237 255
223 237 255
223 237 255
223 237 255
223 237 255
223 237 255
223 237 255
223 237 255
223 237 255
223 237 255
223 237 255
223 237 255
223 237 255
223 237 255
223 237 255
223 237 255
223 237 255
223 237 255
223 237 255
223 237 255
223 237 255
223 237 255
223 237 255
224 237 255
224 237 255
224 237 255
224 237 255
224 237 255
224 237 255
224 237 255
224 237 255
224 237 255
224 237 255
224 237 255
224 237 255
224 237 255
224 237 255
224 237 255
224 237 255
224 237 255
224 237 255
224 237 255
224 237 255
224 237 255
224 237 255
224 237 255
224 237 255
224 237 255
224 237 255
224 237 255
224 237 255
224 237 255
224 237 255
224 237 255
224 237 255
224 237 255
224 237 255
224 237 255
224 237 255
224 237 255
224 237 255
224 237 255
224 237 255
224 237 255
224 237 255
224 237 255
224 237 255
224 237 255
224 237 255
224 237 255
224 237 255
224 237 255
224 237 255
224 237 255
224 237 255
224 237 255
224 237 255
224 237 255
224 237 255
224 237 255
224 237 255
224 237 255
224 237 255
224 237 255
224 237 255
224 237 255
224 237 255
224 237 255
224 237 255
224 237 255
224 237 255
224 237 255
224 237 255
224 237 255
224 237 255
224 237 255
224 237 255
224 237 255
224 237 255
224 237 255
224 237 255
224 237 255
224 237 255
224 237 255
224 237 255
224 237 255
224 237 255
224 237 255
224 237 255
224 237 255
224 237 255
224 237 255
224 237 255
224 237 255
224 237 255
224 237 255
224 237 255
224 237 255
224 237 255
224 237 255
224 237 255
224 237 255
224 237 255
224 237 255
224 237 255
224 237 255
224 237 255
224 237 255
224 237 255
224 237 255
224 237 255
224 237 255
224 237 255
224 237 255
224 237 255
224 237 255
224 237 255
225 237 255
225 237 255
225 237 255
225 237 255
225 237 255
225 237 255
225 237 255
225 237 255
225 237 255
225 237 255
225 237 255
225 237 255
225 237 255
225 237 255
225 237 255
225 237 255
225 237 255
225 237 255
225 237 255
225 237 255
225 237 255
225 237 255
225 237 255
225 237 255
225 237 255
225 237 255
225 237 255
225 237 255
225 237 255
225 237 255
225 237 255
225 237 255
225 237 255
225 237 255
225 237 255
225 237 255
225 237 255
225 237 255
225 237 255
225 237 255
225 237 255
225 237 255
225 237 255
225 237 255
225 237 255
225 237 255
225 237 255
225 237 255
225 237 255
224 237 255
224 237 255
224 237 255
224 237 255
224 237 255
224 237 255
224 237 255
224 237 255
224 237 255
224 237 255
224 237 255
224 237 255
224 237 255
224 237 255
224 237 255
224 237 255
224 237 255
224 237 255
224 237 255
224 237 255
224 237 255
224 237 255
224 237 255
224 237 255
224 237 255
224 237 255
224 237 255
224 237 255
224 237 255
224 237 255
224 237 255
224 237 255
224 237 255
224 237 255
224 237 255
224 237 255
224 237 255
224 237 255
224 237 255
224 237 255
224 237 255
224 237 255
224 237 255
224 237 255
224 237 255
224 237 255
224 237 255
224 237 255
224 237 255
224 237 255
224 237 255
224 237 255
224 237 255
224 237 255
224 237 255
224 237 255
224 237 255
224 237 255
224 237 255
224 237 255
224 237 255
224 237 255
224 237 255
224 237 255
224 237 255
224 237 255
224 237 255
224 237 255
224 237 255
224 237 255
224 237 255
224 237 255
224 237 255
224 237 255
224 237 255
224 237 255
224 237 255
224 237 255
224 237 255
224 237 255
224 237 255
224 237 255
224 237 255
224 237 255
224 237 255
224 237 255
224 237 255
224 237 255
224 237 255
224 237 255
224 237 255
224 237 255
224 237 255
224 237 255
224 237 255
224 237 255
224 237 255
224 237 255
224 237 255
224 237 255
224 237 255
224 237 255
224 237 255
224 237 255
224 237 255
224 237 255
224 237 255
224 237 255
224 237 255
224 237 255
224 237 255
224 237 255
224 237 255
224 237 255
223 237 255
223 237 255
223 237 255
223 237 255
223 237 255
223 237 255
223 237 255
223 237 255
223 237 255
223 237 255
223 237 255
223 237 255
223 237 255
223 237 255
223 237 255
223 237 255
223 237 255
223 237 255
223 237 255
223 237 255
223 237 255
223 237 255
223 237 255
223 237 255
223 237 255
223 237 255
223 237 255
223 237 255
223 237 255
223 237 255
223 237 255
223 237 255
223 237 255
223 237 255
223 237 255
223 237 255
223 237 255
223 237 255
223 237 255
223 237 255
223 237 255
223 237 255
223 237 255
223 237 255
223 237 255
223 237 255
223 237 255
223 237 255
223 237 255
223 237 255
223 237 255
223 237 255
223 237 255
223 237 255
223 237 255
223 237 255
223 237 255
223 237 255
223 237 255
223 237 255
223 237 255
223 237 255
223 237 255
223 237 255
223 237 255
223 237 255
223 237 255
223 237 255
223 237 255
223 237 255
223 237 255
223 237 255
223 237 255
223 237 255
223 237 255
223 237 255
223 237 255
223 237 255
223 237 255
223 237 255
223 237 255
223 237 255
223 237 255
223 237 255
223 237 255
223 237 255
223 237 255
223 237 255
223 237 255
223 237 255
223 237 255
223 237 255
223 237 255
223 237 255
223 237 255
223 237 255
223 237 255
223 237 255
223 237 255
223 237 255
223 237 255
223 237 255
223 237 255
223 237 255
223 237 255
224 237 255
224 237 255
224 237 255
224 237 255
224 237 255
224 237 255
224 237 255
224 237 255
224 237 255
224 237 255
224 237 255
224 237 255
224 237 255
224 237 255
224 237 255
224 237 255
224 237 255
224 237 255
224 237 255
224 237 255
224 237 255
224 237 255
224 237 255
224 237 255
224 237 255
224 237 255
224 237 255
224 237 255
224 237 255
224 237 255
224 237 255
224 237 255
224 237 255
224 237 255
224 237 255
224 237 255
224 237 255
224 237 255
224 237 255
224 237 255
224 237 255
224 237 255
224 237 255
224 237 255
224 237 255
224 237 255
224 237 255
224 237 255
224 237 255
224 237 255
224 237 255
224 237 255
224 237 255
224 237 255
224 237 255
224 237 255
224 237 255
224 237 255
224 237 255
224 237 255
224 237 255
224 237 255
224 237 255
224 237 255
224 237 255
224 237 255
224 237 255
224 237 255
224 237 255
224 237 255
224 237 255
224 237 255
224 237 255
224 237 255
224 237 255
224 237 255
224 237 255
224 237 255
224 237 255
224 237 255
224 237 255
224 237 255
224 237 255
224 237 255
224 237 255
224 237 255
224 237 255
224 237 255
224 237 255
224 237 255
224 237 255
224 237 255
224 237 255
224 237 255
224 237 255
224 237 255
224 237 255
224 237 255
224 237 255
224 237 255
225 237 255
225 237 255
225 237 255
225 237 255
225 237 255
225 237 255
225 237 255
225 237 255
225 237 255
225 237 255
225 237 255
225 237 255
225 237 255
225 237 255
225 237 255
225 237 255
225 237 255
225 237 255
225 237 255
225 237 255
225 237 255
225 237 255
225 237 255
225 237 255
225 238 255
225 237 255
225 238 255
225 238 255
225 238 255
225 238 255
225 238 255
225 238 255
225 238 255
225 238 255
225 238 255
225 238 255
225 238 255
225 238 255
225 238 255
225 238 255
225 238 255
225 238 255
225 238 255
225 238 255
225 238 255
225 238 255
225 238 255
225 238 255
225 238 255
225 238 255
225 238 255
225 238 255
225 238 255
225 238 255
225 238 255
225 238 255
225 238 255
225 238 255
225 238 255
225 238 255
225 238 255
225 238 255
225 238 255
225 238 255
225 238 255
225 238 255
225 238 255
225 238 255
225 238 255
225 238 255
225 238 255
225 238 255
225 238 255
225 238 255
225 238 255
225 238 255
225 238 255
225 238 255
225 238 255
225 238 255
225 238 255
225 238 255
225 238 255
225 238 255
225 238 255
225 238 255
225 237 255
225 237 255
225 237 255
225 237 255
225 237 255
225 237 255
225 237 255
225 237 255
225 237 255
225 237 255
225 237 255
225 237 255
225 237 255
225 237 255
225 237 255
225 237 255
225 237 255
225 237 255
225 237 255
225 237 255
225 237 255
225 237 255
225 237 255
225 237 255
225 237 255
225 237 255
224 237 255
224 237 255
224 237 255
224 237 255
224 237 255
224 237 255
224 237 255
224 237 255
224 237 255
224 237 255
224 237 255
224 237 255
224 237 255
224 237 255
224 237 255
224 237 255
224 237 255
224 237 255
224 237 255
224 237 255
224 237 255
224 237 255
224 237 255
224 237 255
224 237 255
224 237 255
224 237 255
224 237 255
224 237 255
224 237 255
224 237 255
224 237 255
224 237 255
224 237 255
224 237 255
224 237 255
224 237 255
224 237 255
224 237 255
224 237 255
224 237 255
224 237 255
224 237 255
224 237 255
224 237 255
224 237 255
224 237 255
224 237 255
224 237 255
224 237 255
224 237 255
224 237 255
224 237 255
224 237 255
224 237 255
224 237 255
224 237 255
224 237 255
224 237 255
224 237 255
224 237 255
224 237 255
224 237 255
224 237 255
224 237 255
224 237 255
224 237 255
224 237 255
224 237 255
224 237 255
224 237 255
224 237 255
224 237 255
224 237 255
224 237 255
224 237 255
224 237 255
224 237 255
224 237 255
224 237 255
224 237 255
224 237 255
224 237 255
224 237 255
224 237 255
224 237 255
224 237 255
224 237 255
224 237 255
224 237 255
224 237 255
224 237 255
224 237 255
224 237 255
224 237 255
224 237 255
224 237 255
224 237 255
224 237 255
224 237 255
223 237 255
224 237 255
223 237 255
223 237 255
223 237 255
223 237 255
223 237 255
223 237 255
223 237 255
223 237 255
223 237 255
223 237 255
223 237 255
223 237 255
223 237 255
223 237 255
223 237 255
223 237 255
223 237 255
223 237 255
223 237 255
223 237 255
223 237 255
223 237 255
223 237 255
223 237 255
223 237 255
223 237 255
223 237 255
223 237 255
223 237 255
223 237 255
223 237 255
223 237 255
223 237 255
223 237 255
223 237 255
223 237 255
223 237 255
223 237 255
223 237 255
223 237 255
223 237 255
223 237 255
223 237 255
223 237 255
223 237 255
223 237 255
223 237 255
223 237 255
223 237 255
223 237 255
223 237 255
223 237 255
223 237 255
223 237 255
223 237 255
223 237 255
223 237 255
223 237 255
223 237 255
223 237 255
223 237 255
223 237 255
223 237 255
223 237 255
223 237 255
223 237 255
223 237 255
223 237 255
224 237 255
224 237 255
224 237 255
224 237 255
224 237 255
224 237 255
224 237 255
224 237 255
224 237 255
224 237 255
224 237 255
224 237 255
224 237 255
224 237 255
224 237 255
224 237 255
224 237 255
224 237 255
224 237 255
224 237 255
224 237 255
224 237 255
224 237 255
224 237 255
224 237 255
224 237 255
224 237 255
224 237 255
224 237 255
224 237 255
224 237 255
224 237 255
224 237 255
224 237 255
224 237 255
224 237 255
224 237 255
224 237 255
224 237 255
224 237 255
224 237 255
224 237 255
224 237 255
224 237 255
224 237 255
224 237 255
224 237 255
224 237 255
224 237 255
224 237 255
224 237 255
224 237 255
224 237 255
224 237 255
224 237 255
224 237 255
224 237 255
224 237 255
224 237 255
224 237 255
224 237 255
224 237 255
224 237 255
224 237 255
224 237 255
224 237 255
224 237 255
224 237 255
224 237 255
224 237 255
224 237 255
224 237 255
224 237 255
224 237 255
224 237 255
224 237 255
224 237 255
224 237 255
224 237 255
224 237 255
224 237 255
224 237 255
224 237 255
224 237 255
224 237 255
224 237 255
224 237 255
224 237 255
224 237 255
224 237 255
224 237 255
224 237 255
224 237 255
224 237 255
224 237 255
224 237 255
224 237 255
225 237 255
225 237 255
225 237 255
225 237 255
225 237 255
225 237 255
225 237 255
225 237 255
225 237 255
225 237 255
225 237 255
225 237 255
225 237 255
225 237 255
225 237 255
225 237 255
225 237 255
225 237 255
225 238 255
225 238 255
225 238 255
225 238 255
225 238 255
225 238 255
225 238 255
225 238 255
225 238 255
225 238 255
225 238 255
225 238 255
225 238 255
225 238 255
225 238 255
225 238 255
225 238 255
225 238 255
225 238 255
225 238 255
225 238 255
225 238 255
225 238 255
225 238 255
225 238 255
225 238 255
225 238 255
225 238 255
225 238 255
225 238 255
225 238 255
225 238 255
225 238 255
225 238 255
225 238 255
225 238 255
225 238 255
225 238 255
225 238 255
225 238 255
225 238 255
225 238 255
225 238 255
225 238 255
225 238 255
225 238 255
225 238 255
225 238 255
225 238 255
225 238 255
225 238 255
225 238 255
225 238 255
225 238 255
225 238 255
225 238 255
225 238 255
225 238 255
225 238 255
225 238 255
225 238 255
225 238 255
225 238 255
225 238 255
225 238 255
225 238 255
225 238 255
225 238 255
225 238 255
225 238 255
225 238 255
225 238 255
225 238 255
225 238 255
225 238 255
225 238 255
225 238 255
225 238 255
225 238 255
225 238 255
225 238 255
225 238 255
225 238 255
225 238 255
225 238 255
225 238 255
225 238 255
225 238 255
225 238 255
225 238 255
225 238 255
225 238 255
225 238 255
225 238 255
225 238 255
225 238 255
225 238 255
225 238 255
225 238 255
225 238 255
225 238 255
225 238 255
225 238 255
225 238 255
225 238 255
225 238 255
225 238 255
225 238 255
225 238 255
225 238 255
225 238 255
225 238 255
225 238 255
225 238 255
225 238 255
225 238 255
225 238 255
225 238 255
225 237 255
225 237 255
225 237 255
225 237 255
225 237 255
225 237 255
225 237 255
225 237 255
225 237 255
225 237 255
225 237 255
225 237 255
225 237 255
225 237 255
225 237 255
225 237 255
225 237 255
225 237 255
224 237 255
224 237 255
224 237 255
224 237 255
224 237 255
224 237 255
224 237 255
224 237 255
224 237 255
224 237 255
224 237 255
224 237 255
224 237 255
224 237 255
224 237 255
224 237 255
224 237 255
224 237 255
224 237 255
224 237 255
224 237 255
224 237 255
224 237 255
224 237 255
224 237 255
224 237 255
224 237 255
224 237 255
224 237 255
224 237 255
224 237 255
224 237 255
224 237 255
224 237 255
224 237 255
224 237 255
224 237 255
224 237 255
224 237 255
224 237 255
224 237 255
224 237 255
224 237 255
224 237 255
224 237 255
224 237 255
224 237 255
224 237 255
224 237 255
224 237 255
224 237 255
224 237 255
224 237 255
224 237 255
224 237 255
224 237 255
224 237 255
224 237 255
224 237 255
224 237 255
224 237 255
224 237 255
224 237 255
224 237 255
224 237 255
224 237 255
224 237 255
224 237 255
224 237 255
224 237 255
224 237 255
224 237 255
224 237 255
224 237 255
224 237 255
224 237 255
224 237 255
224 237 255
224 237 255
224 237 255
224 237 255
224 237 255
224 237 255
224 237 255
224 237 255
224 237 255
224 237 255
224 237 255
224 237 255
224 237 255
224 237 255
224 237 255
224 237 255
224 237 255
224 237 255
224 237 255
224 237 255
223 237 255
223 237 255
223 237 255
223 237 255
223 237 255
223 237 255
223 237 255
223 237 255
223 237 255
223 237 255
223 237 255
223 237 255
223 237 255
223 237 255
223 237 255
223 237 255
223 237 255
223 237 255
223 237 255
223 237 255
223 237 255
223 237 255
223 237 255
223 237 255
223 237 255
223 237 255
223 237 255
223 237 255
223 237 255
223 237 255
223 237 255
223 237 255
223 237 255
223 237 255
223 237 255
223 237 255
224 237 255
224 237 255
224 237 255
224 237 255
224 237 255
224 237 255
224 237 255
224 237 255
224 237 255
224 237 255
224 237 255
224 237 255
224 237 255
224 237 255
224 237 255
224 237 255
224 237 255
224 237 255
224 237 255
224 237 255
224 237 255
224 237 255
224 237 255
224 237 255
224 237 255
224 237 255
224 237 255
224 237 255
224 237 255
224 237 255
224 237 255
224 237 255
224 237 255
224 237 255
224 237 255
224 237 255
224 237 255
224 237 255
224 237 255
224 237 255
224 237 255
224 237 255
224 237 255
224 237 255
224 237 255
224 237 255
224 237 255
224 237 255
224 237 255
224 237 255
224 237 255
224 237 255
224 237 255
224 237 255
224 237 255
224 237 255
224 237 255
224 237 255
224 237 255
224 237 255
224 237 255
224 237 255
224 237 255
224 237 255
224 237 255
224 237 255
224 237 255
224 237 255
224 237 255
224 237 255
224 237 255
224 237 255
224 237 255
224 237 255
224 237 255
224 237 255
224 237 255
224 237 255
224 237 255
224 237 255
224 237 255
224 237 255
224 237 255
224 237 255
224 237 255
224 237 255
224 237 255
224 237 255
224 237 255
224 237 255
224 237 255
224 237 255
224 237 255
224 237 255
224 237 255
225 237 255
224 237 255
225 237 255
225 237 255
225 237 255
225 237 255
225 237 255
225 237 255
225 237 255
225 237 255
225 237 255
225 237 255
225 237 255
225 237 255
225 237 255
225 237 255
225 237 255
225 238 255
225 238 255
225 238 255
225 238 255
225 238 255
225 238 255
225 238 255
225 238 255
225 238 255
225 238 255
225 238 255
225 238 255
225 238 255
225 238 255
225 238 255
225 238 255
225 238 255
225 238 255
225 238 255
225 238 255
225 238 255
225 238 255
225 238 255
225 238 255
225 238 255
225 238 255
225 238 255
225 238 255
225 238 255
225 238 255
225 238 255
225 238 255
225 238 255
225 238 255
225 238 255
225 238 255
225 238 255
225 238 255
225 238 255
225 238 255
225 238 255
225 238 255
225 238 255
225 238 255
225 238 255
225 238 255
225 238 255
225 238 255
225 238 255
225 238 255
225 238 255
225 238 255
225 238 255
225 238 255
225 238 255
225 238 255
225 238 255
225 238 255
225 238 255
225 238 255
225 238 255
225 238 255
225 238 255
225 238 255
225 238 255
225 238 255
225 238 255
225 238 255
225 238 255
225 238 255
225 238 255
225 238 255
225 238 255
225 238 255
225 238 255
225 238 255
225 238 255
225 238 255
225 238 255
225 238 255
225 238 255
225 238 255
225 238 255
225 238 255
225 238 255
225 238 255
225 238 255
225 238 255
225 238 255
225 238 255
225 238 255
225 238 255
225 238 255
225 238 255
225 238 255
225 238 255
225 238 255
225 238 255
225 238 255
225 238 255
225 238 255
225 238 255
225 238 255
225 238 255
225 238 255
225 238 255
225 238 255
225 238 255
225 238 255
225 238 255
225 238 255
225 238 255
225 238 255
225 238 255
225 238 255
225 238 255
225 238 255
225 238 255
225 238 255
225 238 255
225 238 255
225 238 255
225 238 255
225 238 255
225 238 255
225 238 255
225 238 255
225 238 255
225 238 255
225 238 255
225 238 255
225 238 255
225 238 255
225 238 255
225 238 255
225 238 255
225 238 255
225 238 255
225 238 255
225 238 255
225 238 255
225 238 255
225 238 255
225 238 255
225 238 255
225 238 255
225 238 255
225 238 255
225 238 255
225 238 255
225 238 255
225 238 255
225 238 255
225 238 255
225 238 255
225 237 255
225 237 255
225 237 255
225 237 255
225 237 255
225 237 255
225 237 255
225 237 255
225 237 255
225 237 255
225 237 255
225 237 255
225 237 255
225 237 255
225 237 255
225 237 255
225 237 255
224 237 255
224 237 255
224 237 255
224 237 255
224 237 255
224 237 255
224 237 255
224 237 255
224 237 255
224 237 255
224 237 255
224 237 255
224 237 255
224 237 255
224 237 255
224 237 255
224 237 255
224 237 255
224 237 255
224 237 255
224 237 255
224 237 255
224 237 255
224 237 255
224 237 255
224 237 255
224 237 255
224 237 255
224 237 255
224 237 255
224 237 255
224 237 255
224 237 255
224 237 255
224 237 255
224 237 255
224 237 255
224 237 255
224 237 255
224 237 255
224 237 255
224 237 255
224 237 255
224 237 255
224 237 255
224 237 255
224 237 255
224 237 255
224 237 255
224 237 255
224 237 255
224 237 255
224 237 255
224 237 255
224 237 255
224 237 255
224 237 255
224 237 255
224 237 255
224 237 255
224 237 255
224 237 255
224 237 255
224 237 255
224 237 255
224 237 255
224 237 255
224 237 255
224 237 255
224 237 255
224 237 255
224 237 255
224 237 255
224 237 255
224 237 255
224 237 255
224 237 255
224 237 255
224 237 255
224 237 255
224 237 255
224 237 255
224 237 255
224 237 255
224 237 255
224 237 255
224 237 255
224 237 255
224 237 255
224 237 255
224 237 255
224 237 255
224 237 255
224 237 255
224 237 255
224 237 255
223 237 255
223 237 255
223 237 255
223 237 255
223 237 255
223 237 255
223 237 255
223 237 255
223 237 255
223 237 255
224 237 255
224 237 255
224 237 255
224 237 255
224 237 255
224 237 255
224 237 255
224 237 255
224 237 255
224 237 255
224 237 255
224 237 255
224 237 255
224 237 255
224 237 255
224 237 255
224 237 255
224 237 255
224 237 255
224 237 255
224 237 255
224 237 255
224 237 255
224 237 255
224 237 255
224 237 255
224 237 255
224 237 255
224 237 255
224 237 255
224 237 255
224 237 255
224 237 255
224 237 255
224 237 255
224 237 255
224 237 255
224 237 255
224 237 255
224 237 255
224 237 255
224 237 255
224 237 255
224 237 255
224 237 255
224 237 255
224 237 255
224 237 255
224 237 255
224 237 255
224 237 255
224 237 255
224 237 255
224 237 255
224 237 255
224 237 255
224 237 255
224 237 255
224 237 255
224 237 255
224 237 255
224 237 255
224 237 255
224 237 255
224 237 255
224 237 255
224 237 255
224 237 255
224 237 255
224 237 255
224 237 255
224 237 255
224 237 255
224 237 255
224 237 255
224 237 255
224 237 255
224 237 255
224 237 255
224 237 255
224 237 255
224 237 255
224 237 255
224 237 255
224 237 255
224 237 255
224 237 255
224 237 255
224 237 255
224 237 255
225 237 255
225 237 255
225 237 255
225 237 255
225 237 255
225 237 255
225 237 255
225 237 255
225 237 255
225 237 255
225 237 255
225 237 255
225 237 255
225 237 255
225 237 255
225 237 255
225 237 255
225 238 255
225 238 255
225 238 255
225 238 255
225 238 255
225 238 255
225 238 255
225 238 255
225 238 255
225 238 255
225 238 255
225 238 255
225 238 255
225 238 255
225 238 255
225 238 255
225 238 255
225 238 255
225 238 255
225 238 255
225 238 255
225 238 255
225 238 255
225 238 255
225 238 255
225 238 255
225 238 255
225 238 255
225 238 255
225 238 255
225 238 255
225 238 255
225 238 255
225 238 255
225 238 255
225 238 255
225 238 255
225 238 255
225 238 255
225 238 255
225 238 255
225 238 255
225 238 255
225 238 255
225 238 255
225 238 255
225 238 255
225 238 255
225 238 255
225 238 255
225 238 255
225 238 255
225 238 255
225 238 255
225 238 255
225 238 255
225 238 255
225 238 255
225 238 255
225 238 255
225 238 255
225 238 255
225 238 255
225 238 255
225 238 255
225 238 255
225 238 255
225 238 255
225 238 255
225 238 255
225 238 255
225 238 255
225 238 255
225 238 255
225 238 255
226 238 255
226 238 255
226 238 255
225 238 255
226 238 255
226 238 255
226 238 255
226 238 255
226 238 255
226 238 255
226 238 255
226 238 255
226 238 255
226 238 255
226 238 255
226 238 255
226 238 255
226 238 255
226 238 255
226 238 255
226 238 255
226 238 255
226 238 255
226 238 255
226 238 255
226 238 255
226 238 255
226 238 255
226 238 255
226 238 255
226 238 255
226 238 255
226 238 255
226 238 255
225 238 255
226 238 255
225 238 255
225 238 255
225 238 255
225 238 255
225 238 255
225 238 255
225 238 255
225 238 255
225 238 255
225 238 255
225 238 255
225 238 255
225 238 255
225 238 255
225 238 255
225 238 255
225 238 255
225 238 255
225 238 255
225 238 255
225 238 255
225 238 255
225 238 255
225 238 255
225 238 255
225 238 255
225 238 255
225 238 255
225 238 255
225 238 255
225 238 255
225 238 255
225 238 255
225 238 255
225 238 255
225 238 255
225 238 255
225 238 255
225 238 255
225 238 255
225 238 255
225 238 255
225 238 255
225 238 255
225 238 255
225 238 255
225 238 255
225 238 255
225 238 255
225 238 255
225 238 255
225 238 255
225 238 255
225 238 255
225 238 255
225 238 255
225 238 255
225 238 255
225 238 255
225 238 255
225 238 255
225 238 255
225 238 255
225 238 255
225 238 255
225 238 255
225 238 255
225 238 255
225 238 255
225 238 255
225 238 255
225 238 255
225 238 255
225 238 255
225 238 255
225 238 255
225 237 255
225 237 255
225 237 255
225 237 255
225 237 255
225 237 255
225 237 255
225 237 255
225 237 255
225 237 255
225 237 255
225 237 255
225 237 255
225 237 255
225 237 255
224 237 255
224 237 255
224 237 255
224 237 255
224 237 255
224 237 255
224 237 255
224 237 255
224 237 255
224 237 255
224 237 255
224 237 255
224 237 255
224 237 255
224 237 255
224 237 255
224 237 255
224 237 255
224 237 255
224 237 255
224 237 255
224 237 255
224 237 255
224 237 255
224 237 255
224 237 255
224 237 255
224 237 255
224 237 255
224 237 255
224 237 255
224 237 255
224 237 255
224 237 255
224 237 255
224 237 255
224 237 255
224 237 255
224 237 255
224 237 255
224 237 255
224 237 255
224 237 255
224 237 255
224 237 255
224 237 255
224 237 255
224 237 255
224 237 255
224 237 255
224 237 255
224 237 255
224 237 255
224 237 255
224 237 255
224 237 255
224 237 255
224 237 255
224 237 255
224 237 255
224 237 255
224 237 255
224 237 255
224 237 255
224 237 255
224 237 255
224 237 255
224 237 255
224 237 255
224 237 255
224 237 255
224 237 255
224 237 255
224 237 255
224 237 255
224 237 255
224 237 255
224 237 255
224 237 255
224 237 255
224 237 255
224 237 255
224 237 255
224 237 255
224 237 255
224 237 255
224 237 255
224 237 255
224 237 255
224 237 255
224 237 255
224 237 255
224 237 255
224 237 255
224 237 255
224 237 255
224 237 255
224 237 255
224 237 255
224 237 255
224 237 255
224 237 255
224 237 255
224 237 255
224 237 255
224 237 255
224 237 255
224 237 255
224 237 255
224 237 255
224 237 255
224 237 255
224 237 255
224 237 255
224 237 255
224 237 255
224 237 255
224 237 255
224 237 255
224 237 255
224 237 255
224 237 255
224 237 255
224 237 255
224 237 255
224 237 255
224 237 255
224 237 255
224 237 255
224 237 255
224 237 255
224 237 255
224 237 255
224 237 255
224 237 255
224 237 255
224 237 255
224 237 255
224 237 255
224 237 255
224 237 255
224 237 255
224 237 255
224 237 255
224 237 255
224 237 255
224 237 255
224 237 255
224 237 255
224 237 255
224 237 255
224 237 255
224 237 255
224 237 255
224 237 255
224 237 255
224 237 255
224 237 255
224 237 255
224 237 255
224 237 255
224 237 255
224 237 255
224 237 255
224 237 255
224 237 255
224 237 255
224 237 255
225 237 255
225 237 255
225 237 255
225 237 255
225 237 255
225 237 255
225 237 255
225 237 255
225 237 255
225 237 255
225 237 255
225 237 255
225 237 255
225 237 255
225 237 255
225 238 255
225 238 255
225 238 255
225 238 255
225 238 255
225 238 255
225 238 255
225 238 255
225 238 255
225 238 255
225 238 255
225 238 255
225 238 255
225 238 255
225 238 255
225 238 255
225 238 255
225 238 255
225 238 255
225 238 255
225 238 255
225 238 255
225 238 255
225 238 255
225 238 255
225 238 255
225 238 255
225 238 255
225 238 255
225 238 255
225 238 255
225 238 255
225 238 255
225 238 255
225 238 255
225 238 255
225 238 255
225 238 255
225 238 255
225 238 255
225 238 255
225 238 255
225 238 255
225 238 255
225 238 255
225 238 255
225 238 255
225 238 255
225 238 255
225 238 255
225 238 255
225 238 255
225 238 255
225 238 255
225 238 255
225 238 255
225 238 255
225 238 255
225 238 255
225 238 255
226 238 255
225 238 255
226 238 255
226 238 255
226 238 255
226 238 255
226 238 255
226 238 255
226 238 255
226 238 255
226 238 255
226 238 255
226 238 255
226 238 255
226 238 255
226 238 255
226 238 255
226 238 255
226 238 255
226 238 255
226 238 255
226 238 255
226 238 255
226 238 255
226 238 255
226 238 255
226 238 255
226 238 255
226 238 255
226 238 255
226 238 255
226 238 255
226 238 255
226 238 255
226 238 255
226 238 255
226 238 255
226 238 255
226 238 255
226 238 255
226 238 255
226 238 255
226 238 255
226 238 255
226 238 255
226 238 255
226 238 255
226 238 255
226 238 255
226 238 255
226 238 255
226 238 255
226 238 255
226 238 255
226 238 255
226 238 255
226 238 255
226 238 255
226 238 255
226 238 255
226 238 255
226 238 255
226 238 255
226 238 255
226 238 255
226 238 255
226 238 255
226 238 255
226 238 255
226 238 255
226 238 255
226 238 255
226 238 255
226 238 255
226 238 255
226 238 255
226 238 255
226 238 255
226 238 255
226 238 255
226 238 255
226 238 255
226 238 255
226 238 255
226 238 255
226 238 255
226 238 255
226 238 255
226 238 255
226 238 255
226 238 255
226 238 255
226 238 255
226 238 255
226 238 255
226 238 255
225 238 255
225 238 255
225 238 255
225 238 255
225 238 255
225 238 255
225 238 255
225 238 255
225 238 255
225 238 255
225 238 255
225 238 255
225 238 255
225 238 255
225 238 255
225 238 255
225 238 255
225 238 255
225 238 255
225 238 255
225 238 255
225 238 255
225 238 255
225 238 255
225 238 255
225 238 255
225 238 255
225 238 255
225 238 255
225 238 255
225 238 255
225 238 255
225 238 255
225 238 255
225 238 255
225 238 255
225 238 255
225 238 255
225 238 255
225 238 255
225 238 255
225 238 255
225 238 255
225 238 255
225 238 255
225 238 255
225 238 255
225 238 255
225 238 255
225 238 255
225 238 255
225 238 255
225 238 255
225 238 255
225 238 255
225 238 255
225 238 255
225 238 255
225 238 255
225 238 255
225 238 255
225 237 255
225 237 255
225 237 255
225 237 255
225 237 255
225 237 255
225 237 255
225 237 255
225 237 255
225 237 255
225 237 255
225 237 255
225 237 255
225 237 255
225 237 255
224 237 255
224 237 255
224 237 255
224 237 255
224 237 255
224 237 255
224 237 255
224 237 255
224 237 255
224 237 255
224 237 255
224 237 255
224 237 255
224 237 255
224 237 255
224 237 255
224 237 255
224 237 255
224 237 255
224 237 255
224 237 255
224 237 255
224 237 255
224 237 255
224 237 255
224 237 255
224 237 255
224 237 255
224 237 255
224 237 255
224 237 255
224 237 255
224 237 255
224 237 255
224 237 255
224 237 255
224 237 255
224 237 255
224 237 255
224 237 255
224 237 255
224 237 255
224 237 255
224 237 255
224 237 255
224 237 255
224 237 255
224 237 255
224 237 255
224 237 255
224 237 255
224 237 255
224 237 255
224 237 255
224 237 255
224 237 255
224 237 255
224 237 255
224 237 255
224 237 255
224 237 255
224 237 255
224 237 255
224 237 255
224 237 255
224 237 255
224 237 255
224 237 255
224 237 255
224 237 255
224 237 255
224 237 255
224 237 255
224 237 255
224 237 255
224 237 255
224 237 255
224 237 255
224 237 255
224 237 255
224 237 255
224 237 255
224 237 255
224 237 255
224 237 255
224 237 255
224 237 255
224 237 255
224 237 255
224 237 255
224 237 255
224 237 255
224 237 255
224 237 255
224 237 255
224 237 255
224 237 255
224 237 255
224 237 255
224 237 255
224 237 255
224 237 255
224 237 255
224 237 255
224 237 255
224 237 255
224 237 255
224 237 255
224 237 255
224 237 255
224 237 255
224 237 255
224 237 255
224 237 255
224 237 255
224 237 255
224 237 255
224 237 255
224 237 255
224 237 255
224 237 255
224 237 255
224 237 255
224 237 255
224 237 255
224 237 255
224 237 255
224 237 255
224 237 255
224 237 255
224 237 255
224 237 255
224 237 255
224 237 255
224 237 255
224 237 255
224 237 255
224 237 255
224 237 255
225 237 255
225 237 255
225 237 255
225 237 255
225 237 255
225 237 255
225 237 255
225 237 255
225 237 255
225 237 255
225 237 255
225 237 255
225 237 255
225 237 255
225 237 255
225 238 255
225 238 255
225 238 255
225 238 255
225 238 255
225 238 255
225 238 255
225 238 255
225 238 255
225 238 255
225 238 255
225 238 255
225 238 255
225 238 255
225 238 255
225 238 255
225 238 255
225 238 255
225 238 255
225 238 255
225 238 255
225 238 255
225 238 255
225 238 255
225 238 255
225 238 255
225 238 255
225 238 255
225 238 255
225 238 255
225 238 255
225 238 255
225 238 255
225 238 255
225 238 255
225 238 255
225 238 255
225 238 255
225 238 255
225 238 255
225 238 255
225 238 255
225 238 255
225 238 255
225 238 255
225 238 255
225 238 255
225 238 255
225 238 255
225 238 255
225 238 255
225 238 255
225 238 255
225 238 255
225 238 255
225 238 255
225 238 255
226 238 255
226 238 255
226 238 255
226 238 255
226 238 255
226 238 255
226 238 255
226 238 255
226 238 255
226 238 255
226 238 255
226 238 255
226 238 255
226 238 255
226 238 255
226 238 255
226 238 255
226 238 255
226 238 255
226 238 255
226 238 255
226 238 255
226 238 255
226 238 255
226 238 255
226 238 255
226 238 255
226 238 255
226 238 255
226 238 255
226 238 255
226 238 255
226 238 255
226 238 255
226 238 255
226 238 255
226 238 255
226 238 255
226 238 255
226 238 255
226 238 255
226 238 255
226 238 255
226 238 255
226 238 255
226 238 255
226 238 255
226 238 255
226 238 255
226 238 255
226 238 255
226 238 255
226 238 255
226 238 255
226 238 255
226 238 255
226 238 255
226 238 255
226 238 255
226 238 255
226 238 255
226 238 255
226 238 255
226 238 255
226 238 255
226 238 255
226 238 255
226 238 255
226 238 255
226 238 255
226 238 255
226 238 255
226 238 255
226 238 255
226 238 255
226 238 255
226 238 255
226 238 255
226 238 255
226 238 255
226 238 255
226 238 255
226 238 255
226 238 255
226 238 255
226 238 255
226 238 255
226 238 255
226 238 255
226 238 255
226 238 255
226 238 255
226 238 255
226 238 255
226 238 255
226 238 255
226 238 255
226 238 255
226 238 255
226 238 255
226 238 255
226 238 255
226 238 255
226 238 255
226 238 255
226 238 255
226 238 255
226 238 255
226 238 255
226 238 255
226 238 255
226 238 255
226 238 255
226 238 255
226 238 255
226 238 255
226 238 255
226 238 255
226 238 255
226 238 255
226 238 255
226 238 255
226 238 255
226 238 255
226 238 255
226 238 255
226 238 255
226 238 255
226 238 255
226 238 255
226 238 255
225 238 255
225 238 255
225 238 255
225 238 255
225 238 255
225 238 255
225 238 255
225 238 255
225 238 255
225 238 255
225 238 255
225 238 255
225 238 255
225 238 255
225 238 255
225 238 255
225 238 255
225 238 255
225 238 255
225 238 255
225 238 255
225 238 255
225 238 255
225 238 255
225 238 255
225 238 255
225 238 255
225 238 255
225 238 255
225 238 255
225 238 255
225 238 255
225 238 255
225 238 255
225 238 255
225 238 255
225 238 255
225 238 255
225 238 255
225 238 255
225 238 255
225 238 255
225 238 255
225 238 255
225 238 255
225 238 255
225 238 255
225 238 255
225 238 255
225 238 255
225 238 255
225 238 255
225 238 255
225 238 255
225 238 255
225 238 255
225 237 255
225 237 255
225 237 255
225 237 255
225 237 255
225 237 255
225 237 255
225 237 255
225 237 255
225 237 255
225 237 255
225 237 255
225 237 255
225 237 255
225 237 255
224 237 255
224 237 255
224 237 255
224 237 255
224 237 255
224 237 255
224 237 255
224 237 255
224 237 255
224 237 255
224 237 255
224 237 255
224 237 255
224 237 255
224 237 255
224 237 255
224 237 255
224 237 255
224 237 255
224 237 255
224 237 255
224 237 255
224 237 255
224 237 255
224 237 255
224 237 255
224 237 255
224 237 255
224 237 255
224 237 255
224 237 255
224 237 255
224 237 255
224 237 255
224 237 255
224 237 255
224 237 255
224 237 255
224 237 255
224 237 255
224 237 255
224 237 255
224 237 255
224 237 255
224 237 255
224 237 255
224 237 255
224 237 255
224 237 255
224 237 255
224 237 255
224 237 255
224 237 255
224 237 255
224 237 255
224 237 255
224 237 255
224 237 255
224 237 255
224 237 255
224 237 255
224 237 255
224 237 255
224 237 255
224 237 255
224 237 255
224 237 255
224 237 255
224 237 255
224 237 255
224 237 255
224 237 255
224 237 255
224 237 255
224 237 255
224 237 255
224 237 255
224 237 255
224 237 255
224 237 255
224 237 255
224 237 255
224 237 255
224 237 255
224 237 255
224 237 255
224 237 255
224 237 255
224 237 255
224 237 255
224 237 255
224 237 255
224 237 255
224 237 255
224 237 255
224 237 255
224 237 255
224 237 255
224 237 255
224 237 255
224 237 255
224 237 255
224 237 255
224 237 255
224 237 255
224 237 255
224 237 255
224 237 255
224 237 255
224 237 255
224 237 255
224 237 255
224 237 255
224 237 255
225 237 255
225 237 255
225 237 255
225 237 255
225 237 255
225 237 255
225 237 255
225 237 255
225 237 255
225 237 255
225 237 255
225 237 255
225 237 255
225 237 255
225 237 255
225 237 255
225 238 255
225 238 255
225 238 255
225 238 255
225 238 255
225 238 255
225 238 255
225 238 255
225 238 255
225 238 255
225 238 255
225 238 255
225 238 255
225 238 255
225 238 255
225 238 255
225 238 255
225 238 255
225 238 255
225 238 255
225 238 255
225 238 255
225 238 255
225 238 255
225 238 255
225 238 255
225 238 255
225 238 255
225 238 255
225 238 255
225 238 255
225 238 255
225 238 255
225 238 255
225 238 255
225 238 255
225 238 255
225 238 255
225 238 255
225 238 255
225 238 255
225 238 255
225 238 255
225 238 255
225 238 255
225 238 255
225 238 255
225 238 255
225 238 255
225 238 255
225 238 255
225 238 255
225 238 255
226 238 255
226 238 255
226 238 255
226 238 255
226 238 255
226 238 255
226 238 255
226 238 255
226 238 255
226 238 255
226 238 255
226 238 255
226 238 255
226 238 255
226 238 255
226 238 255
226 238 255
226 238 255
226 238 255
226 238 255
226 238 255
226 238 255
226 238 255
226 238 255
226 238 255
226 238 255
226 238 255
226 238 255
226 238 255
226 238 255
226 238 255
226 238 255
226 238 255
226 238 255
226 238 255
226 238 255
226 238 255
226 238 255
226 238 255
226 238 255
226 238 255
226 238 255
226 238 255
226 238 255
226 238 255
226 238 255
226 238 255
226 238 255
226 238 255
226 238 255
226 238 255
226 238 255
226 238 255
226 238 255
226 238 255
226 238 255
226 238 255
226 238 255
226 238 255
226 238 255
226 238 255
226 238 255
226 238 255
226 238 255
226 238 255
226 238 255
226 238 255
226 238 255
226 238 255
226 238 255
226 238 255
226 238 255
226 238 255
226 238 255
226 238 255
226 238 255
226 238 255
226 238 255
226 238 255
226 238 255
226 238 255
226 238 255
226 238 255
226 238 255
226 238 255
226 238 255
226 238 255
226 238 255
226 238 255
226 238 255
226 238 255
226 238 255
226 238 255
226 238 255
226 238 255
226 238 255
226 238 255
226 238 255
226 238 255
226 238 255
226 238 255
226 238 255
226 238 255
226 238 255
226 238 255
226 238 255
226 238 255
226 238 255
226 238 255
226 238 255
226 238 255
226 238 255
226 238 255
226 238 255
226 238 255
226 238 255
226 238 255
226 238 255
226 238 255
226 238 255
226 238 255
226 238 255
226 238 255
226 238 255
226 238 255
226 238 255
226 238 255
226 238 255
226 238 255
226 238 255
226 238 255
226 238 255
226 238 255
226 238 255
226 238 255
226 238 255
226 238 255
226 238 255
226 238 255
226 238 255
226 238 255
226 238 255
226 238 255
226 238 255
226 238 255
226 238 255
226 238 255
226 238 255
226 238 255
226 238 255
226 238 255
226 238 255
226 238 255
226 238 255
226 238 255
226 238 255
226 238 255
226 238 255
226 238 255
226 238 255
225 238 255
225 238 255
225 238 255
225 238 255
225 238 255
225 238 255
225 238 255
225 238 255
225 238 255
225 238 255
225 238 255
225 238 255
225 238 255
225 238 255
225 238 255
225 238 255
225 238 255
225 238 255
225 238 255
225 238 255
225 238 255
225 238 255
225 238 255
225 238 255
225 238 255
225 238 255
225 238 255
225 238 255
225 238 255
225 238 255
225 238 255
225 238 255
225 238 255
225 238 255
225 238 255
225 238 255
225 238 255
225 238 255
225 238 255
225 238 255
225 238 255
225 238 255
225 238 255
225 238 255
225 238 255
225 238 255
225 238 255
225 238 255
225 238 255
225 238 255
225 238 255
225 238 255
225 238 255
225 238 255
225 237 255
225 237 255
225 237 255
225 237 255
225 237 255
225 237 255
225 237 255
225 237 255
225 237 255
225 237 255
225 237 255
225 237 255
225 237 255
225 237 255
225 237 255
224 237 255
224 237 255
224 237 255
224 237 255
224 237 255
224 237 255
224 237 255
224 237 255
224 237 255
224 237 255
224 237 255
224 237 255
224 237 255
224 237 255
224 237 255
224 237 255
224 237 255
224 237 255
224 237 255
224 237 255
224 237 255
224 237 255
224 237 255
224 237 255
224 237 255
224 237 255
224 237 255
224 237 255
224 237 255
224 237 255
224 237 255
224 237 255
224 237 255
224 237 255
224 237 255
224 237 255
224 237 255
224 237 255
224 237 255
224 237 255
224 237 255
224 237 255
224 237 255
224 237 255
224 237 255
224 237 255
224 237 255
224 237 255
224 237 255
224 237 255
224 237 255
224 237 255
224 237 255
224 237 255
224 237 255
224 237 255
224 237 255
224 237 255
224 237 255
224 237 255
224 237 255
224 237 255
224 237 255
224 237 255
224 237 255
224 237 255
224 237 255
224 237 255
224 237 255
224 237 255
224 237 255
224 237 255
224 237 255
224 237 255
224 237 255
224 237 255
224 237 255
224 237 255
224 237 255
224 237 255
224 237 255
224 237 255
224 237 255
224 237 255
224 237 255
224 237 255
224 237 255
224 237 255
224 237 255
225 237 255
225 237 255
225 237 255
225 237 255
225 237 255
225 237 255
225 237 255
225 237 255
225 237 255
225 237 255
225 237 255
225 237 255
225 237 255
225 237 255
225 237 255
225 237 255
225 238 255
225 238 255
225 238 255
225 238 255
225 238 255
225 238 255
225 238 255
225 238 255
225 238 255
225 238 255
225 238 255
225 238 255
225 238 255
225 238 255
225 238 255
225 238 255
225 238 255
225 238 255
225 238 255
225 238 255
225 238 255
225 238 255
225 238 255
225 238 255
225 238 255
225 238 255
225 238 255
225 238 255
225 238 255
225 238 255
225 238 255
225 238 255
225 238 255
225 238 255
225 238 255
225 238 255
225 238 255
225 238 255
225 238 255
225 238 255
225 238 255
225 238 255
225 238 255
225 238 255
225 238 255
225 238 255
225 238 255
225 238 255
225 238 255
225 238 255
225 238 255
225 238 255
225 238 255
226 238 255
226 238 255
226 238 255
226 238 255
226 238 255
226 238 255
226 238 255
226 238 255
226 238 255
226 238 255
226 238 255
226 238 255
226 238 255
226 238 255
226 238 255
226 238 255
226 238 255
226 238 255
226 238 255
226 238 255
226 238 255
226 238 255
226 238 255
226 238 255
226 238 255
226 238 255
226 238 255
226 238 255
226 238 255
226 238 255
226 238 255
226 238 255
226 238 255
226 238 255
226 238 255
226 238 255
226 238 255
226 238 255
226 238 255
226 238 255
226 238 255
226 238 255
226 238 255
226 238 255
226 238 255
226 238 255
226 238 255
226 238 255
226 238 255
226 238 255
226 238 255
226 238 255
226 238 255
226 238 255
226 238 255
226 238 255
226 238 255
226 238 255
226 238 255
226 238 255
226 238 255
226 238 255
226 238 255
226 238 255
226 238 255
226 238 255
226 238 255
226 238 255
226 238 255
226 238 255
226 238 255
226 238 255
226 239 255
226 239 255
226 239 255
226 239 255
226 239 255
226 239 255
227 239 255
227 239 255
227 239 255
227 239 255
227 239 255
227 239 255
227 239 255
227 239 255
227 239 255
227 239 255
227 239 255
227 239 255
227 239 255
227 239 255
227 239 255
227 239 255
227 239 255
227 239 255
227 239 255
227 239 255
227 239 255
227 239 255
227 239 255
227 239 255
227 239 255
227 239 255
227 239 255
226 239 255
227 239 255
226 239 255
226 239 255
226 239 255
226 239 255
226 239 255
226 239 255
226 239 255
226 239 255
226 238 255
226 238 255
226 238 255
226 238 255
226 238 255
226 238 255
226 238 255
226 238 255
226 238 255
226 238 255
226 238 255
226 238 255
226 238 255
226 238 255
226 238 255
226 238 255
226 238 255
226 238 255
226 238 255
226 238 255
226 238 255
226 238 255
226 238 255
226 238 255
226 238 255
226 238 255
226 238 255
226 238 255
226 238 255
226 238 255
226 238 255
226 238 255
226 238 255
226 238 255
226 238 255
226 238 255
226 238 255
226 238 255
226 238 255
226 238 255
226 238 255
226 238 255
226 238 255
226 238 255
226 238 255
226 238 255
226 238 255
226 238 255
226 238 255
226 238 255
226 238 255
226 238 255
226 238 255
226 238 255
226 238 255
226 238 255
226 238 255
226 238 255
226 238 255
226 238 255
226 238 255
226 238 255
226 238 255
226 238 255
226 238 255
226 238 255
226 238 255
226 238 255
226 238 255
226 238 255
226 238 255
225 238 255
225 238 255
225 238 255
225 238 255
225 238 255
225 238 255
225 238 255
225 238 255
225 238 255
225 238 255
225 238 255
225 238 255
225 238 255
225 238 255
225 238 255
225 238 255
225 238 255
225 238 255
225 238 255
225 238 255
225 238 255
225 238 255
225 238 255
225 238 255
225 238 255
225 238 255
225 238 255
225 238 255
225 238 255
225 238 255
225 238 255
225 238 255
225 238 255
225 238 255
225 238 255
225 238 255
225 238 255
225 238 255
225 238 255
225 238 255
225 238 255
225 238 255
225 238 255
225 238 255
225 238 255
225 238 255
225 238 255
225 238 255
225 238 255
225 238 255
225 238 255
225 238 255
225 237 255
225 237 255
225 237 255
225 237 255
225 237 255
225 237 255
225 237 255
225 237 255
225 237 255
225 237 255
225 237 255
225 237 255
225 237 255
225 237 255
225 237 255
225 237 255
224 237 255
224 237 255
224 237 255
224 237 255
224 237 255
224 237 255
224 237 255
224 237 255
224 237 255
224 237 255
224 237 255
224 237 255
224 237 255
224 237 255
224 237 255
224 237 255
224 237 255
224 237 255
224 237 255
224 237 255
224 237 255
224 237 255
224 237 255
224 237 255
224 237 255
224 237 255
224 237 255
224 237 255
224 237 255
224 237 255
224 237 255
224 237 255
224 237 255
224 237 255
224 237 255
224 237 255
224 237 255
224 237 255
224 237 255
224 237 255
224 237 255
224 237 255
224 237 255
224 237 255
224 237 255
224 237 255
224 237 255
224 237 255
224 237 255
224 237 255
224 237 255
224 237 255
224 237 255
224 237 255
224 237 255
224 237 255
224 237 255
224 237 255
224 237 255
224 237 255
224 237 255
224 237 255
224 237 255
224 237 255
224 237 255
224 237 255
225 237 255
225 237 255
225 237 255
225 237 255
225 237 255
225 237 255
225 237 255
225 237 255
225 237 255
225 237 255
225 237 255
225 237 255
225 237 255
225 237 255
225 237 255
225 238 255
225 238 255
225 238 255
225 238 255
225 238 255
225 238 255
225 238 255
225 238 255
225 238 255
225 238 255
225 238 255
225 238 255
225 238 255
225 238 255
225 238 255
225 238 255
225 238 255
225 238 255
225 238 255
225 238 255
225 238 255
225 238 255
225 238 255
225 238 255
225 238 255
225 238 255
225 238 255
225 238 255
225 238 255
225 238 255
225 238 255
225 238 255
225 238 255
225 238 255
225 238 255
225 238 255
225 238 255
225 238 255
225 238 255
225 238 255
225 238 255
225 238 255
225 238 255
225 238 255
225 238 255
225 238 255
225 238 255
225 238 255
225 238 255
225 238 255
225 238 255
225 238 255
225 238 255
226 238 255
226 238 255
226 238 255
226 238 255
226 238 255
226 238 255
226 238 255
226 238 255
226 238 255
226 238 255
226 238 255
226 238 255
226 238 255
226 238 255
226 238 255
226 238 255
226 238 255
226 238 255
226 238 255
226 238 255
226 238 255
226 238 255
226 238 255
226 238 255
226 238 255
226 238 255
226 238 255
226 238 255
226 238 255
226 238 255
226 238 255
226 238 255
226 238 255
226 238 255
226 238 255
226 238 255
226 238 255
226 238 255
226 238 255
226 238 255
226 238 255
226 238 255
226 238 255
226 238 255
226 238 255
226 238 255
226 238 255
226 238 255
226 238 255
226 238 255
226 238 255
226 238 255
226 238 255
226 238 255
226 238 255
226 238 255
226 238 255
226 238 255
226 238 255
226 238 255
226 239 255
226 239 255
226 239 255
227 239 255
227 239 255
227 239 255
227 239 255
227 239 255
227 239 255
227 239 255
227 239 255
227 239 255
227 239 255
227 239 255
227 239 255
227 239 255
227 239 255
227 239 255
227 239 255
227 239 255
227 239 255
227 239 255
227 239 255
227 239 255
227 239 255
227 239 255
227 239 255
227 239 255
227 239 255
227 239 255
227 239 255
227 239 255
227 239 255
227 239 255
227 239 255
227 239 255
227 239 255
227 239 255
227 239 255
227 239 255
227 239 255
227 239 255
227 239 255
227 239 255
227 239 255
227 239 255
227 239 255
227 239 255
227 239 255
227 239 255
227 239 255
227 239 255
227 239 255
227 239 255
227 239 255
227 239 255
227 239 255
227 239 255
227 239 255
227 239 255
227 239 255
227 239 255
227 239 255
227 239 255
227 239 255
227 239 255
227 239 255
227 239 255
227 239 255
227 239 255
227 239 255
227 239 255
227 239 255
227 239 255
227 239 255
227 239 255
227 239 255
227 239 255
227 239 255
227 239 255
227 239 255
227 239 255
227 239 255
227 239 255
227 239 255
227 239 255
227 239 255
226 239 255
226 239 255
226 239 255
226 238 255
226 238 255
226 238 255
226 238 255
226 238 255
226 238 255
226 238 255
226 238 255
226 238 255
226 238 255
226 238 255
226 238 255
226 238 255
226 238 255
226 238 255
226 238 255
226 238 255
226 238 255
226 238 255
226 238 255
226 238 255
226 238 255
226 238 255
226 238 255
226 238 255
226 238 255
226 238 255
226 238 255
226 238 255
226 238 255
226 238 255
226 238 255
226 238 255
226 238 255
226 238 255
226 238 255
226 238 255
226 238 255
226 238 255
226 238 255
226 238 255
226 238 255
226 238 255
226 238 255
226 238 255
226 238 255
226 238 255
226 238 255
226 238 255
226 238 255
226 238 255
226 238 255
226 238 255
226 238 255
226 238 255
226 238 255
226 238 255
226 238 255
226 238 255
226 238 255
225 238 255
225 238 255
225 238 255
225 238 255
225 238 255
225 238 255
225 238 255
225 238 255
225 238 255
225 238 255
225 238 255
225 238 255
225 238 255
225 238 255
225 238 255
225 238 255
225 238 255
225 238 255
225 238 255
225 238 255
225 238 255
225 238 255
225 238 255
225 238 255
225 238 255
225 238 255
225 238 255
225 238 255
225 238 255
225 238 255
225 238 255
225 238 255
225 238 255
225 238 255
225 238 255
225 238 255
225 238 255
225 238 255
225 238 255
225 238 255
225 238 255
225 238 255
225 238 255
225 238 255
225 238 255
225 238 255
225 238 255
225 238 255
225 238 255
225 238 255
225 238 255
225 238 255
225 237 255
225 237 255
225 237 255
225 237 255
225 237 255
225 237 255
225 237 255
225 237 255
225 237 255
225 237 255
225 237 255
225 237 255
225 237 255
225 237 255
225 237 255
225 237 255
224 237 255
224 237 255
224 237 255
224 237 255
224 237 255
224 237 255
224 237 255
224 237 255
224 237 255
224 237 255
224 237 255
224 237 255
224 237 255
224 237 255
224 237 255
224 237 255
224 237 255
224 237 255
224 237 255
224 237 255
224 237 255
224 237 255
224 237 255
224 237 255
224 237 255
224 237 255
224 237 255
224 237 255
224 237 255
224 237 255
224 237 255
224 237 255
224 237 255
224 237 255
224 237 255
224 237 255
224 237 255
224 237 255
224 237 255
224 237 255
224 237 255
224 237 255
224 237 255
225 237 255
225 237 255
225 237 255
225 237 255
225 237 255
225 237 255
225 237 255
225 237 255
225 237 255
225 237 255
225 237 255
225 237 255
225 237 255
225 237 255
225 237 255
225 238 255
225 238 255
225 238 255
225 238 255
225 238 255
225 238 255
225 238 255
225 238 255
225 238 255
225 238 255
225 238 255
225 238 255
225 238 255
225 238 255
225 238 255
225 238 255
225 238 255
225 238 255
225 238 255
225 238 255
225 238 255
225 238 255
225 238 255
225 238 255
225 238 255
225 238 255
225 238 255
225 238 255
225 238 255
225 238 255
225 238 255
225 238 255
225 238 255
225 238 255
225 238 255
225 238 255
225 238 255
225 238 255
225 238 255
225 238 255
225 238 255
225 238 255
225 238 255
225 238 255
225 238 255
225 238 255
225 238 255
225 238 255
225 238 255
225 238 255
225 238 255
225 238 255
225 238 255
226 238 255
226 238 255
226 238 255
226 238 255
226 238 255
226 238 255
226 238 255
226 238 255
226 238 255
226 238 255
226 238 255
226 238 255
226 238 255
226 238 255
226 238 255
226 238 255
226 238 255
226 238 255
226 238 255
226 238 255
226 238 255
226 238 255
226 238 255
226 238 255
226 238 255
226 238 255
226 238 255
226 238 255
226 238 255
226 238 255
226 238 255
226 238 255
226 238 255
226 238 255
226 238 255
226 238 255
226 238 255
226 238 255
226 238 255
226 238 255
226 238 255
226 238 255
226 238 255
226 238 255
226 238 255
226 238 255
226 238 255
226 238 255
226 238 255
226 238 255
226 238 255
226 238 255
226 238 255
226 238 255
226 238 255
226 239 255
226 239 255
226 239 255
227 239 255
227 239 255
227 239 255
227 239 255
227 239 255
227 239 255
227 239 255
227 239 255
227 239 255
227 239 255
227 239 255
227 239 255
227 239 255
227 239 255
227 239 255
227 239 255
227 239 255
227 239 255
227 239 255
227 239 255
227 239 255
227 239 255
227 239 255
227 239 255
227 239 255
227 239 255
227 239 255
227 239 255
227 239 255
227 239 255
227 239 255
227 239 255
227 239 255
227 239 255
227 239 255
227 239 255
227 239 255
227 239 255
227 239 255
227 239 255
227 239 255
227 239 255
227 239 255
227 239 255
227 239 255
227 239 255
227 239 255
227 239 255
227 239 255
227 239 255
227 239 255
227 239 255
227 239 255
227 239 255
227 239 255
227 239 255
227 239 255
227 239 255
227 239 255
227 239 255
227 239 255
227 239 255
227 239 255
227 239 255
227 239 255
227 239 255
227 239 255
227 239 255
227 239 255
227 239 255
227 239 255
227 239 255
227 239 255
227 239 255
227 239 255
227 239 255
227 239 255
227 239 255
227 239 255
227 239 255
227 239 255
227 239 255
227 239 255
227 239 255
227 239 255
227 239 255
227 239 255
227 239 255
227 239 255
227 239 255
227 239 255
227 239 255
227 239 255
227 239 255
227 239 255
227 239 255
227 239 255
227 239 255
227 239 255
227 239 255
227 239 255
227 239 255
227 239 255
227 239 255
227 239 255
227 239 255
227 239 255
227 239 255
227 239 255
227 239 255
227 239 255
227 239 255
227 239 255
227 239 255
227 239 255
227 239 255
227 239 255
226 239 255
226 239 255
226 238 255
226 238 255
226 238 255
226 238 255
226 238 255
226 238 255
226 238 255
226 238 255
226 238 255
226 238 255
226 238 255
226 238 255
226 238 255
226 238 255
226 238 255
226 238 255
226 238 255
226 238 255
226 238 255
226 238 255
226 238 255
226 238 255
226 238 255
226 238 255
226 238 255
226 238 255
226 238 255
226 238 255
226 238 255
226 238 255
226 238 255
226 238 255
226 238 255
226 238 255
226 238 255
226 238 255
226 238 255
226 238 255
226 238 255
226 238 255
226 238 255
226 238 255
226 238 255
226 238 255
226 238 255
226 238 255
226 238 255
226 238 255
226 238 255
226 238 255
226 238 255
226 238 255
226 238 255
226 238 255
226 238 255
225 238 255
225 238 255
225 238 255
225 238 255
225 238 255
225 238 255
225 238 255
225 238 255
225 238 255
225 238 255
225 238 255
225 238 255
225 238 255
225 238 255
225 238 255
225 238 255
225 238 255
225 238 255
225 238 255
225 238 255
225 238 255
225 238 255
225 238 255
225 238 255
225 238 255
225 238 255
225 238 255
225 238 255
225 238 255
225 238 255
225 238 255
225 238 255
225 238 255
225 238 255
225 238 255
225 238 255
225 238 255
225 238 255
225 238 255
225 238 255
225 238 255
225 238 255
225 238 255
225 238 255
225 238 255
225 238 255
225 238 255
225 238 255
225 238 255
225 238 255
225 238 255
225 238 255
225 237 255
225 237 255
225 237 255
225 237 255
225 237 255
225 237 255
225 237 255
225 237 255
225 237 255
225 237 255
225 237 255
225 237 255
225 237 255
225 237 255
225 237 255
225 237 255
225 237 255
224 237 255
224 237 255
224 237 255
224 237 255
224 237 255
224 237 255
224 237 255
224 237 255
224 237 255
224 237 255
224 237 255
224 237 255
224 237 255
224 237 255
224 237 255
224 237 255
224 237 255
224 237 255
224 237 255
224 237 255
225 237 255
225 237 255
225 237 255
225 237 255
225 237 255
225 237 255
225 237 255
225 237 255
225 237 255
225 237 255
225 237 255
225 237 255
225 237 255
225 237 255
225 237 255
225 237 255
225 238 255
225 238 255
225 238 255
225 238 255
225 238 255
225 238 255
225 238 255
225 238 255
225 238 255
225 238 255
225 238 255
225 238 255
225 238 255
225 238 255
225 238 255
225 238 255
225 238 255
225 238 255
225 238 255
225 238 255
225 238 255
225 238 255
225 238 255
225 238 255
225 238 255
225 238 255
225 238 255
225 238 255
225 238 255
225 238 255
225 238 255
225 238 255
225 238 255
225 238 255
225 238 255
225 238 255
225 238 255
225 238 255
225 238 255
225 238 255
225 238 255
225 238 255
225 238 255
225 238 255
225 238 255
225 238 255
225 238 255
225 238 255
225 238 255
225 238 255
225 238 255
225 238 255
225 238 255
226 238 255
226 238 255
226 238 255
226 238 255
226 238 255
226 238 255
226 238 255
226 238 255
226 238 255
226 238 255
226 238 255
226 238 255
226 238 255
226 238 255
226 238 255
226 238 255
226 238 255
226 238 255
226 238 255
226 238 255
226 238 255
226 238 255
226 238 255
226 238 255
226 238 255
226 238 255
226 238 255
226 238 255
226 238 255
226 238 255
226 238 255
226 238 255
226 238 255
226 238 255
226 238 255
226 238 255
226 238 255
226 238 255
226 238 255
226 238 255
226 238 255
226 238 255
226 238 255
226 238 255
226 238 255
226 238 255
226 238 255
226 238 255
226 238 255
226 238 255
226 238 255
226 238 255
226 238 255
226 239 255
227 239 255
227 239 255
227 239 255
227 239 255
227 239 255
227 239 255
227 239 255
227 239 255
227 239 255
227 239 255
227 239 255
227 239 255
227 239 255
227 239 255
227 239 255
227 239 255
227 239 255
227 239 255
227 239 255
227 239 255
227 239 255
227 239 255
227 239 255
227 239 255
227 239 255
227 239 255
227 239 255
227 239 255
227 239 255
227 239 255
227 239 255
227 239 255
227 239 255
227 239 255
227 239 255
227 239 255
227 239 255
227 239 255
227 239 255
227 239 255
227 239 255
227 239 255
227 239 255
227 239 255
227 239 255
227 239 255
227 239 255
227 239 255
227 239 255
227 239 255
227 239 255
227 239 255
227 239 255
227 239 255
227 239 255
227 239 255
227 239 255
227 239 255
227 239 255
227 239 255
227 239 255
227 239 255
227 239 255
227 239 255
227 239 255
227 239 255
227 239 255
227 239 255
227 239 255
227 239 255
227 239 255
227 239 255
227 239 255
227 239 255
227 239 255
227 239 255
227 239 255
227 239 255
227 239 255
227 239 255
227 239 255
227 239 255
227 239 255
227 239 255
227 239 255
227 239 255
227 239 255
227 239 255
227 239 255
227 239 255
227 239 255
227 239 255
227 239 255
227 239 255
227 239 255
227 239 255
227 239 255
227 239 255
227 239 255
227 239 255
227 239 255
227 239 255
227 239 255
227 239 255
227 239 255
227 239 255
227 239 255
227 239 255
227 239 255
227 239 255
227 239 255
227 239 255
227 239 255
227 239 255
227 239 255
227 239 255
227 239 255
227 239 255
227 239 255
227 239 255
227 239 255
227 239 255
227 239 255
227 239 255
227 239 255
227 239 255
227 239 255
227 239 255
227 239 255
227 239 255
227 239 255
227 239 255
227 239 255
227 239 255
227 239 255
227 239 255
227 239 255
227 239 255
227 239 255
227 239 255
227 239 255
227 239 255
227 239 255
227 239 255
226 239 255
226 238 255
226 238 255
226 238 255
226 238 255
226 238 255
226 238 255
226 238 255
226 238 255
226 238 255
226 238 255
226 238 255
226 238 255
226 238 255
226 238 255
226 238 255
226 238 255
226 238 255
226 238 255
226 238 255
226 238 255
226 238 255
226 238 255
226 238 255
226 238 255
226 238 255
226 238 255
226 238 255
226 238 255
226 238 255
226 238 255
226 238 255
226 238 255
226 238 255
226 238 255
226 238 255
226 238 255
226 238 255
226 238 255
226 238 255
226 238 255
226 238 255
226 238 255
226 238 255
226 238 255
226 238 255
226 238 255
226 238 255
226 238 255
226 238 255
226 238 255
226 238 255
226 238 255
226 238 255
226 238 255
225 238 255
225 238 255
225 238 255
225 238 255
225 238 255
225 238 255
225 238 255
225 238 255
225 238 255
225 238 255
225 238 255
225 238 255
225 238 255
225 238 255
225 238 255
225 238 255
225 238 255
225 238 255
225 238 255
225 238 255
225 238 255
225 238 255
225 238 255
225 238 255
225 238 255
225 238 255
225 238 255
225 238 255
225 238 255
225 238 255
225 238 255
225 238 255
225 238 255
225 238 255
225 238 255
225 238 255
225 238 255
225 238 255
225 238 255
225 238 255
225 238 255
225 238 255
225 238 255
225 238 255
225 238 255
225 238 255
225 238 255
225 238 255
225 238 255
225 238 255
225 238 255
225 238 255
225 237 255
225 237 255
225 237 255
225 237 255
225 237 255
225 237 255
225 237 255
225 237 255
225 237 255
225 237 255
225 237 255
225 237 255
225 237 255
225 237 255
225 237 255
225 237 255
225 237 255
224 237 255
224 237 255
224 237 255
224 237 255
225 237 255
225 237 255
225 237 255
225 237 255
225 237 255
225 237 255
225 237 255
225 237 255
225 237 255
225 237 255
225 238 255
225 238 255
225 238 255
225 238 255
225 238 255
225 238 255
225 238 255
225 238 255
225 238 255
225 238 255
225 238 255
225 238 255
225 238 255
225 238 255
225 238 255
225 238 255
225 238 255
225 238 255
225 238 255
225 238 255
225 238 255
225 238 255
225 238 255
225 238 255
225 238 255
225 238 255
225 238 255
225 238 255
225 238 255
225 238 255
225 238 255
225 238 255
225 238 255
225 238 255
225 238 255
225 238 255
225 238 255
225 238 255
225 238 255
225 238 255
225 238 255
225 238 255
225 238 255
225 238 255
225 238 255
225 238 255
225 238 255
225 238 255
225 238 255
225 238 255
225 238 255
225 238 255
225 238 255
226 238 255
226 238 255
226 238 255
226 238 255
226 238 255
226 238 255
226 238 255
226 238 255
226 238 255
226 238 255
226 238 255
226 238 255
226 238 255
226 238 255
226 238 255
226 238 255
226 238 255
226 238 255
226 238 255
226 238 255
226 238 255
226 238 255
226 238 255
226 238 255
226 238 255
226 238 255
226 238 255
226 238 255
226 238 255
226 238 255
226 238 255
226 238 255
226 238 255
226 238 255
226 238 255
226 238 255
226 238 255
226 238 255
226 238 255
226 238 255
226 238 255
226 238 255
226 238 255
226 238 255
226 238 255
226 238 255
226 238 255
226 238 255
226 238 255
226 238 255
226 238 255
226 238 255
226 239 255
226 239 255
227 239 255
227 239 255
227 239 255
227 239 255
227 239 255
227 239 255
227 239 255
227 239 255
227 239 255
227 239 255
227 239 255
227 239 255
227 239 255
227 239 255
227 239 255
227 239 255
227 239 255
227 239 255
227 239 255
227 239 255
227 239 255
227 239 255
227 239 255
227 239 255
227 239 255
227 239 255
227 239 255
227 239 255
227 239 255
227 239 255
227 239 255
227 239 255
227 239 255
227 239 255
227 239 255
227 239 255
227 239 255
227 239 255
227 239 255
227 239 255
227 239 255
227 239 255
227 239 255
227 239 255
227 239 255
227 239 255
227 239 255
227 239 255
227 239 255
227 239 255
227 239 255
227 239 255
227 239 255
227 239 255
227 239 255
227 239 255
227 239 255
227 239 255
227 239 255
227 239 255
227 239 255
227 239 255
227 239 255
227 239 255
227 239 255
227 239 255
227 239 255
228 239 255
228 239 255
228 239 255
228 239 255
228 239 255
228 239 255
228 239 255
228 239 255
228 239 255
228 239 255
228 239 255
228 239 255
228 239 255
228 239 255
228 239 255
228 239 255
228 239 255
228 239 255
228 239 255
228 239 255
228 239 255
228 239 255
228 239 255
228 239 255
228 239 255
228 239 255
228 239 255
228 239 255
228 239 255
228 239 255
228 239 255
228 239 255
227 239 255
228 239 255
227 239 255
227 239 255
227 239 255
227 239 255
227 239 255
227 239 255
227 239 255
227 239 255
227 239 255
227 239 255
227 239 255
227 239 255
227 239 255
227 239 255
227 239 255
227 239 255
227 239 255
227 239 255
227 239 255
227 239 255
227 239 255
227 239 255
227 239 255
227 239 255
227 239 255
227 239 255
227 239 255
227 239 255
227 239 255
227 239 255
227 239 255
227 239 255
227 239 255
227 239 255
227 239 255
227 239 255
227 239 255
227 239 255
227 239 255
227 239 255
227 239 255
227 239 255
227 239 255
227 239 255
227 239 255
227 239 255
227 239 255
227 239 255
227 239 255
227 239 255
227 239 255
227 239 255
227 239 255
227 239 255
227 239 255
227 239 255
227 239 255
227 239 255
227 239 255
227 239 255
227 239 255
227 239 255
227 239 255
227 239 255
227 239 255
226 239 255
226 239 255
226 238 255
226 238 255
226 238 255
226 238 255
226 238 255
226 238 255
226 238 255
226 238 255
226 238 255
226 238 255
226 238 255
226 238 255
226 238 255
226 238 255
226 238 255
226 238 255
226 238 255
226 238 255
226 238 255
226 238 255
226 238 255
226 238 255
226 238 255
226 238 255
226 238 255
226 238 255
226 238 255
226 238 255
226 238 255
226 238 255
226 238 255
226 238 255
226 238 255
226 238 255
226 238 255
226 238 255
226 238 255
226 238 255
226 238 255
226 238 255
226 238 255
226 238 255
226 238 255
226 238 255
226 238 255
226 238 255
226 238 255
226 238 255
226 238 255
226 238 255
226 238 255
225 238 255
225 238 255
225 238 255
225 238 255
225 238 255
225 238 255
225 238 255
225 238 255
225 238 255
225 238 255
225 238 255
225 238 255
225 238 255
225 238 255
225 238 255
225 238 255
225 238 255
225 238 255
225 238 255
225 238 255
225 238 255
225 238 255
225 238 255
225 238 255
225 238 255
225 238 255
225 238 255
225 238 255
225 238 255
225 238 255
225 238 255
225 238 255
225 238 255
225 238 255
225 238 255
225 238 255
225 238 255
225 238 255
225 238 255
225 238 255
225 238 255
225 238 255
225 238 255
225 238 255
225 238 255
225 238 255
225 238 255
225 238 255
225 238 255
225 238 255
225 238 255
225 238 255
225 238 255
225 238 255
225 237 255
225 237 255
225 237 255
225 237 255
225 237 255
225 237 255
225 237 255
225 237 255
225 237 255
225 237 255
225 238 255
225 238 255
225 238 255
225 238 255
225 238 255
225 238 255
225 238 255
225 238 255
225 238 255
225 238 255
225 238 255
225 238 255
225 238 255
225 238 255
225 238 255
225 238 255
225 238 255
225 238 255
225 238 255
225 238 255
225 238 255
225 238 255
225 238 255
225 238 255
225 238 255
225 238 255
225 238 255
225 238 255
225 238 255
225 238 255
225 238 255
225 238 255
225 238 255
225 238 255
225 238 255
225 238 255
225 238 255
225 238 255
225 238 255
225 238 255
225 238 255
225 238 255
225 238 255
225 238 255
225 238 255
225 238 255
225 238 255
225 238 255
225 238 255
225 238 255
225 238 255
225 238 255
225 238 255
225 238 255
226 238 255
226 238 255
226 238 255
226 238 255
226 238 255
226 238 255
226 238 255
226 238 255
226 238 255
226 238 255
226 238 255
226 238 255
226 238 255
226 238 255
226 238 255
226 238 255
226 238 255
226 238 255
226 238 255
226 238 255
226 238 255
226 238 255
226 238 255
226 238 255
226 238 255
226 238 255
226 238 255
226 238 255
226 238 255
226 238 255
226 238 255
226 238 255
226 238 255
226 238 255
226 238 255
226 238 255
226 238 255
226 238 255
226 238 255
226 238 255
226 238 255
226 238 255
226 238 255
226 238 255
226 238 255
226 238 255
226 238 255
226 238 255
226 238 255
226 238 255
226 238 255
226 239 255
226 239 255
227 239 255
227 239 255
227 239 255
227 239 255
227 239 255
227 239 255
227 239 255
227 239 255
227 239 255
227 239 255
227 239 255
227 239 255
227 239 255
227 239 255
227 239 255
227 239 255
227 239 255
227 239 255
227 239 255
227 239 255
227 239 255
227 239 255
227 239 255
227 239 255
227 239 255
227 239 255
227 239 255
227 239 255
227 239 255
227 239 255
227 239 255
227 239 255
227 239 255
227 239 255
227 239 255
227 239 255
227 239 255
227 239 255
227 239 255
227 239 255
227 239 255
227 239 255
227 239 255
227 239 255
227 239 255
227 239 255
227 239 255
227 239 255
227 239 255
227 239 255
227 239 255
227 239 255
227 239 255
228 239 255
228 239 255
228 239 255
228 239 255
228 239 255
228 239 255
228 239 255
228 239 255
228 239 255
228 239 255
228 239 255
228 239 255
228 239 255
228 239 255
228 239 255
228 239 255
228 239 255
228 239 255
228 239 255
228 239 255
228 239 255
228 239 255
228 239 255
228 239 255
228 239 255
228 239 255
228 239 255
228 239 255
228 239 255
228 239 255
228 239 255
228 239 255
228 239 255
228 239 255
228 239 255
228 239 255
228 239 255
228 239 255
228 239 255
228 239 255
228 239 255
228 239 255
228 239 255
228 239 255
228 239 255
228 239 255
228 239 255
228 239 255
228 239 255
228 239 255
228 239 255
228 239 255
228 239 255
228 239 255
228 239 255
228 239 255
228 239 255
228 239 255
228 239 255
228 239 255
228 239 255
228 239 255
228 239 255
228 239 255
228 239 255
228 239 255
228 239 255
228 239 255
228 239 255
228 239 255
228 239 255
228 239 255
228 239 255
228 239 255
228 239 255
228 239 255
228 239 255
228 239 255
228 239 255
227 239 255
227 239 255
227 239 255
227 239 255
227 239 255
227 239 255
227 239 255
227 239 255
227 239 255
227 239 255
227 239 255
227 239 255
227 239 255
227 239 255
227 239 255
227 239 255
227 239 255
227 239 255
227 239 255
227 239 255
227 239 255
227 239 255
227 239 255
227 239 255
227 239 255
227 239 255
227 239 255
227 239 255
227 239 255
227 239 255
227 239 255
227 239 255
227 239 255
227 239 255
227 239 255
227 239 255
227 239 255
227 239 255
227 239 255
227 239 255
227 239 255
227 239 255
227 239 255
227 239 255
227 239 255
227 239 255
227 239 255
227 239 255
227 239 255
227 239 255
227 239 255
227 239 255
227 239 255
227 239 255
227 239 255
226 239 255
226 238 255
226 238 255
226 238 255
226 238 255
226 238 255
226 238 255
226 238 255
226 238 255
226 238 255
226 238 255
226 238 255
226 238 255
226 238 255
226 238 255
226 238 255
226 238 255
226 238 255
226 238 255
226 238 255
226 238 255
226 238 255
226 238 255
226 238 255
226 238 255
226 238 255
226 238 255
226 238 255
226 238 255
226 238 255
226 238 255
226 238 255
226 238 255
226 238 255
226 238 255
226 238 255
226 238 255
226 238 255
226 238 255
226 238 255
226 238 255
226 238 255
226 238 255
226 238 255
226 238 255
226 238 255
226 238 255
226 238 255
226 238 255
226 238 255
226 238 255
226 238 255
225 238 255
225 238 255
225 238 255
225 238 255
225 238 255
225 238 255
225 238 255
225 238 255
225 238 255
225 238 255
225 238 255
225 238 255
225 238 255
225 238 255
225 238 255
225 238 255
225 238 255
225 238 255
225 238 255
225 238 255
225 238 255
225 238 255
225 238 255
225 238 255
225 238 255
225 238 255
225 238 255
225 238 255
225 238 255
225 238 255
225 238 255
225 238 255
225 238 255
225 238 255
225 238 255
225 238 255
225 238 255
225 238 255
225 238 255
225 238 255
225 238 255
225 238 255
225 238 255
225 238 255
225 238 255
225 238 255
225 238 255
225 238 255
225 238 255
225 238 255
225 238 255
225 238 255
225 238 255
225 238 255
225 238 255
225 238 255
225 238 255
225 238 255
225 238 255
225 238 255
225 238 255
225 238 255
225 238 255
225 238 255
225 238 255
225 238 255
225 238 255
225 238 255
225 238 255
225 238 255
225 238 255
225 238 255
225 238 255
225 238 255
225 238 255
225 238 255
225 238 255
225 238 255
225 238 255
225 238 255
225 238 255
225 238 255
225 238 255
225 238 255
225 238 255
225 238 255
225 238 255
225 238 255
225 238 255
225 238 255
225 238 255
225 238 255
225 238 255
225 238 255
225 238 255
225 238 255
225 238 255
225 238 255
225 238 255
226 238 255
226 238 255
226 238 255
226 238 255
226 238 255
226 238 255
226 238 255
226 238 255
226 238 255
226 238 255
226 238 255
226 238 255
226 238 255
226 238 255
226 238 255
226 238 255
226 238 255
226 238 255
226 238 255
226 238 255
226 238 255
226 238 255
226 238 255
226 238 255
226 238 255
226 238 255
226 238 255
226 238 255
226 238 255
226 238 255
226 238 255
226 238 255
226 238 255
226 238 255
226 238 255
226 238 255
226 238 255
226 238 255
226 238 255
226 238 255
226 238 255
226 238 255
226 238 255
226 238 255
226 238 255
226 238 255
226 238 255
226 238 255
226 238 255
226 238 255
226 239 255
226 239 255
227 239 255
227 239 255
227 239 255
227 239 255
227 239 255
227 239 255
227 239 255
227 239 255
227 239 255
227 239 255
227 239 255
227 239 255
227 239 255
227 239 255
227 239 255
227 239 255
227 239 255
227 239 255
227 239 255
227 239 255
227 239 255
227 239 255
227 239 255
227 239 255
227 239 255
227 239 255
227 239 255
227 239 255
227 239 255
227 239 255
227 239 255
227 239 255
227 239 255
227 239 255
227 239 255
227 239 255
227 239 255
227 239 255
227 239 255
227 239 255
227 239 255
227 239 255
227 239 255
227 239 255
227 239 255
227 239 255
227 239 255
227 239 255
227 239 255
228 239 255
228 239 255
228 239 255
228 239 255
228 239 255
228 239 255
228 239 255
228 239 255
228 239 255
228 239 255
228 239 255
228 239 255
228 239 255
228 239 255
228 239 255
228 239 255
228 239 255
228 239 255
228 239 255
228 239 255
228 239 255
228 239 255
228 239 255
228 239 255
228 239 255
228 239 255
228 239 255
228 239 255
228 239 255
228 239 255
228 239 255
228 239 255
228 239 255
228 239 255
228 239 255
228 239 255
228 239 255
228 239 255
228 239 255
228 239 255
228 239 255
228 239 255
228 239 255
228 239 255
228 239 255
228 239 255
228 239 255
228 239 255
228 239 255
228 239 255
228 239 255
228 239 255
228 239 255
228 239 255
228 239 255
228 239 255
228 239 255
228 239 255
228 239 255
228 239 255
228 239 255
228 239 255
228 239 255
228 239 255
228 239 255
228 239 255
228 239 255
228 239 255
228 239 255
228 239 255
228 239 255
228 239 255
228 239 255
228 239 255
228 239 255
228 239 255
228 239 255
228 239 255
228 239 255
228 239 255
228 239 255
228 239 255
228 239 255
228 239 255
228 239 255
228 239 255
228 239 255
228 239 255
228 239 255
228 239 255
228 239 255
228 239 255
228 239 255
228 239 255
228 239 255
228 239 255
228 239 255
228 239 255
228 239 255
228 239 255
228 239 255
228 239 255
228 239 255
228 239 255
228 239 255
228 239 255
228 239 255
228 239 255
227 239 255
227 239 255
227 239 255
227 239 255
227 239 255
227 239 255
227 239 255
227 239 255
227 239 255
227 239 255
227 239 255
227 239 255
227 239 255
227 239 255
227 239 255
227 239 255
227 239 255
227 239 255
227 239 255
227 239 255
227 239 255
227 239 255
227 239 255
227 239 255
227 239 255
227 239 255
227 239 255
227 239 255
227 239 255
227 239 255
227 239 255
227 239 255
227 239 255
227 239 255
227 239 255
227 239 255
227 239 255
227 239 255
227 239 255
227 239 255
227 239 255
227 239 255
227 239 255
227 239 255
227 239 255
227 239 255
227 239 255
227 239 255
227 239 255
226 239 255
226 238 255
226 238 255
226 238 255
226 238 255
226 238 255
226 238 255
226 238 255
226 238 255
226 238 255
226 238 255
226 238 255
226 238 255
226 238 255
226 238 255
226 238 255
226 238 255
226 238 255
226 238 255
226 238 255
226 238 255
226 238 255
226 238 255
226 238 255
226 238 255
226 238 255
226 238 255
226 238 255
226 238 255
226 238 255
226 238 255
226 238 255
226 238 255
226 238 255
226 238 255
226 238 255
226 238 255
226 238 255
226 238 255
226 238 255
226 238 255
226 238 255
226 238 255
226 238 255
226 238 255
226 238 255
226 238 255
226 238 255
226 238 255
226 238 255
226 238 255
226 238 255
226 238 255
225 238 255
225 238 255
225 238 255
225 238 255
225 238 255
225 238 255
225 238 255
225 238 255
225 238 255
225 238 255
225 238 255
225 238 255
225 238 255
225 238 255
225 238 255
225 238 255
225 238 255
225 238 255
225 238 255
225 238 255
225 238 255
225 238 255
225 238 255
225 238 255
225 238 255
225 238 255
225 238 255
225 238 255
225 238 255
225 238 255
225 238 255
225 238 255
225 238 255
225 238 255
225 238 255
225 238 255
225 238 255
225 238 255
225 238 255
225 238 255
225 238 255
225 238 255
225 238 255
225 238 255
225 238 255
225 238 255
225 238 255
225 238 255
225 238 255
225 238 255
225 238 255
225 238 255
225 238 255
225 238 255
225 238 255
225 238 255
225 238 255
225 238 255
225 238 255
225 238 255
225 238 255
225 238 255
225 238 255
225 238 255
225 238 255
225 238 255
225 238 255
225 238 255
225 238 255
225 238 255
225 238 255
225 238 255
225 238 255
225 238 255
225 238 255
225 238 255
225 238 255
225 238 255
225 238 255
225 238 255
226 238 255
226 238 255
226 238 255
226 238 255
226 238 255
226 238 255
226 238 255
226 238 255
226 238 255
226 238 255
226 238 255
226 238 255
226 238 255
226 238 255
226 238 255
226 238 255
226 238 255
226 238 255
226 238 255
226 238 255
226 238 255
226 238 255
226 238 255
226 238 255
226 238 255
226 238 255
226 238 255
226 238 255
226 238 255
226 238 255
226 238 255
226 238 255
226 238 255
226 238 255
226 238 255
226 238 255
226 238 255
226 238 255
226 238 255
226 238 255
226 238 255
226 238 255
226 238 255
226 238 255
226 238 255
226 238 255
226 238 255
226 238 255
226 238 255
226 238 255
226 239 255
226 239 255
227 239 255
227 239 255
227 239 255
227 239 255
227 239 255
227 239 255
227 239 255
227 239 255
227 239 255
227 239 255
227 239 255
227 239 255
227 239 255
227 239 255
227 239 255
227 239 255
227 239 255
227 239 255
227 239 255
227 239 255
227 239 255
227 239 255
227 239 255
227 239 255
227 239 255
227 239 255
227 239 255
227 239 255
227 239 255
227 239 255
227 239 255
227 239 255
227 239 255
227 239 255
227 239 255
227 239 255
227 239 255
227 239 255
227 239 255
227 239 255
227 239 255
227 239 255
227 239 255
227 239 255
227 239 255
227 239 255
227 239 255
228 239 255
228 239 255
228 239 255
228 239 255
228 239 255
228 239 255
228 239 255
228 239 255
228 239 255
228 239 255
228 239 255
228 239 255
228 239 255
228 239 255
228 239 255
228 239 255
228 239 255
228 239 255
228 239 255
228 239 255
228 239 255
228 239 255
228 239 255
228 239 255
228 239 255
228 239 255
228 239 255
228 239 255
228 239 255
228 239 255
228 239 255
228 239 255
228 239 255
228 239 255
228 239 255
228 239 255
228 239 255
228 239 255
226 238 249
220 233 233
224 236 245
220 233 231
220 233 233
214 228 217
213 228 214
209 224 198
206 221 188
209 224 199
206 222 189
200 218 171
208 223 198
205 221 186
196 215 157
197 215 155
199 216 167
193 212 144
191 210 133
192 211 135
190 210 137
196 214 149
196 214 157
196 214 151
188 208 120
194 212 149
187 207 117
194 213 151
188 208 117
192 211 135
190 210 130
189 209 128
189 208 120
190 210 135
188 208 128
200 217 167
197 215 157
196 215 161
198 216 161
202 218 175
200 217 167
202 219 177
198 216 163
206 222 193
207 222 189
209 224 198
211 226 204
211 226 207
213 228 214
216 230 223
218 231 227
219 232 230
222 235 238
226 238 250
228 239 255
228 239 255
228 239 255
228 239 255
228 239 255
228 239 255
228 239 255
228 239 255
228 239 255
228 239 255
228 239 255
228 239 255
228 239 255
228 239 255
228 239 255
228 239 255
228 239 255
228 239 255
228 239 255
228 239 255
228 239 255
228 239 255
228 239 255
228 239 255
228 239 255
228 239 255
228 239 255
228 239 255
228 239 255
228 239 255
228 239 255
228 239 255
228 239 255
228 239 255
228 239 255
228 239 255
228 239 255
228 239 255
228 239 255
227 239 255
227 239 255
227 239 255
227 239 255
227 239 255
227 239 255
227 239 255
227 239 255
227 239 255
227 239 255
227 239 255
227 239 255
227 239 255
227 239 255
227 239 255
227 239 255
227 239 255
227 239 255
227 239 255
227 239 255
227 239 255
227 239 255
227 239 255
227 239 255
227 239 255
227 239 255
227 239 255
227 239 255
227 239 255
227 239 255
227 239 255
227 239 255
227 239 255
227 239 255
227 239 255
227 239 255
227 239 255
227 239 255
227 239 255
227 239 255
227 239 255
227 239 255
227 239 255
227 239 255
227 239 255
227 239 255
226 239 255
226 238 255
226 238 255
226 238 255
226 238 255
226 238 255
226 238 255
226 238 255
226 238 255
226 238 255
226 238 255
226 238 255
226 238 255
226 238 255
226 238 255
226 238 255
226 238 255
226 238 255
226 238 255
226 238 255
226 238 255
226 238 255
226 238 255
226 238 255
226 238 255
226 238 255
226 238 255
226 238 255
226 238 255
226 238 255
226 238 255
226 238 255
226 238 255
226 238 255
226 238 255
226 238 255
226 238 255
226 238 255
226 238 255
226 238 255
226 238 255
226 238 255
226 238 255
226 238 255
226 238 255
226 238 255
226 238 255
226 238 255
226 238 255
226 238 255
226 238 255
226 238 255
225 238 255
225 238 255
225 238 255
225 238 255
225 238 255
225 238 255
225 238 255
225 238 255
225 238 255
225 238 255
225 238 255
225 238 255
225 238 255
225 238 255
225 238 255
225 238 255
225 238 255
225 238 255
225 238 255
225 238 255
225 238 255
225 238 255
225 238 255
225 238 255
225 238 255
225 238 255
225 238 255
225 238 255
225 238 255
225 238 255
225 238 255
225 238 255
225 238 255
225 238 255
225 238 255
225 238 255
225 238 255
225 238 255
225 238 255
225 238 255
225 238 255
225 238 255
225 238 255
225 238 255
225 238 255
225 238 255
225 238 255
225 238 255
225 238 255
225 238 255
225 238 255
225 238 255
225 238 255
225 238 255
225 238 255
225 238 255
225 238 255
225 238 255
225 238 255
225 238 255
225 238 255
225 238 255
225 238 255
226 238 255
226 238 255
226 238 255
226 238 255
226 238 255
226 238 255
226 238 255
226 238 255
226 238 255
226 238 255
226 238 255
226 238 255
226 238 255
226 238 255
226 238 255
226 238 255
226 238 255
226 238 255
226 238 255
226 238 255
226 238 255
226 238 255
226 238 255
226 238 255
226 238 255
226 238 255
226 238 255
226 238 255
226 238 255
226 238 255
226 238 255
226 238 255
226 238 255
226 238 255
226 238 255
226 238 255
226 238 255
226 238 255
226 238 255
226 238 255
226 238 255
226 238 255
226 238 255
226 238 255
226 238 255
226 238 255
226 238 255
226 238 255
226 238 255
226 238 255
226 238 255
226 239 255
227 239 255
227 239 255
227 239 255
227 239 255
227 239 255
227 239 255
227 239 255
227 239 255
227 239 255
227 239 255
227 239 255
227 239 255
227 239 255
227 239 255
227 239 255
227 239 255
227 239 255
227 239 255
227 239 255
227 239 255
227 239 255
227 239 255
227 239 255
227 239 255
227 239 255
227 239 255
227 239 255
227 239 255
227 239 255
227 239 255
227 239 255
227 239 255
227 239 255
227 239 255
227 239 255
227 239 255
227 239 255
227 239 255
227 239 255
227 239 255
227 239 255
227 239 255
227 239 255
227 239 255
227 239 255
228 239 255
228 239 255
228 239 255
228 239 255
228 239 255
228 239 255
228 239 255
228 239 255
228 239 255
228 239 255
228 239 255
228 239 255
228 239 255
228 239 255
228 239 255
228 239 255
228 239 255
228 239 255
228 239 255
228 239 255
228 239 255
228 239 255
228 239 255
228 239 255
228 239 255
228 239 255
228 239 255
228 239 255
228 239 255
228 239 255
228 239 255
228 239 255
228 239 255
228 239 255
226 237 248
220 233 233
217 230 223
213 227 211
210 225 199
209 224 198
206 222 193
198 215 161
192 211 140
187 208 125
187 207 114
183 204 95
184 205 102
180 202 67
175 198 0
176 199 0
175 198 0
177 199 0
175 198 0
174 197 0
173 197 0
175 198 0
176 199 0
175 198 0
175 198 0
174 197 0
175 198 0
175 198 0
174 198 0
175 198 0
174 197 0
175 198 0
175 198 0
175 198 0
174 198 0
173 197 0
176 198 0
175 198 0
176 199 0
175 198 0
174 198 0
175 198 0
175 198 0
176 199 0
173 197 0
175 198 0
174 198 0
175 198 0
174 198 0
175 198 0
175 198 0
175 198 0
174 198 0
175 198 0
174 198 0
175 198 0
174 198 0
173 197 0
174 198 0
175 198 0
174 198 0
174 198 0
174 198 0
175 198 0
176 199 0
174 198 0
175 198 0
176 198 0
173 197 0
174 198 0
178 200 51
182 203 84
184 205 99
196 214 155
186 207 114
194 213 149
198 216 163
201 218 175
212 227 211
210 225 203
214 228 217
219 232 230
224 236 245
225 237 246
228 239 255
228 239 255
228 239 255
228 239 255
228 239 255
228 239 255
228 239 255
228 239 255
228 239 255
228 239 255
228 239 255
228 239 255
228 239 255
228 239 255
228 239 255
228 239 255
228 239 255
228 239 255
228 239 255
228 239 255
228 239 255
228 239 255
228 239 255
228 239 255
228 239 255
228 239 255
228 239 255
228 239 255
228 239 255
228 239 255
228 239 255
228 239 255
228 239 255
228 239 255
227 239 255
227 239 255
227 239 255
227 239 255
227 239 255
227 239 255
227 239 255
227 239 255
227 239 255
227 239 255
227 239 255
227 239 255
227 239 255
227 239 255
227 239 255
227 239 255
227 239 255
227 239 255
227 239 255
227 239 255
227 239 255
227 239 255
227 239 255
227 239 255
227 239 255
227 239 255
227 239 255
227 239 255
227 239 255
227 239 255
227 239 255
227 239 255
227 239 255
227 239 255
227 239 255
227 239 255
227 239 255
227 239 255
227 239 255
227 239 255
227 239 255
227 239 255
227 239 255
227 239 255
226 239 255
226 239 255
226 238 255
226 238 255
226 238 255
226 238 255
226 238 255
226 238 255
226 238 255
226 238 255
226 238 255
226 238 255
226 238 255
226 238 255
226 238 255
226 238 255
226 238 255
226 238 255
226 238 255
226 238 255
226 238 255
226 238 255
226 238 255
226 238 255
226 238 255
226 238 255
226 238 255
226 238 255
226 238 255
226 238 255
226 238 255
226 238 255
226 238 255
226 238 255
226 238 255
226 238 255
226 238 255
226 238 255
226 238 255
226 238 255
226 238 255
226 238 255
226 238 255
226 238 255
226 238 255
226 238 255
226 238 255
226 238 255
226 238 255
226 238 255
226 238 255
226 238 255
226 238 255
226 238 255
225 238 255
225 238 255
225 238 255
225 238 255
225 238 255
225 238 255
225 238 255
225 238 255
225 238 255
225 238 255
225 238 255
225 238 255
225 238 255
225 238 255
225 238 255
225 238 255
225 238 255
225 238 255
225 238 255
225 238 255
225 238 255
225 238 255
225 238 255
225 238 255
225 238 255
225 238 255
225 238 255
225 238 255
225 238 255
225 238 255
225 238 255
225 238 255
225 238 255
225 238 255
225 238 255
225 238 255
225 238 255
225 238 255
225 238 255
225 238 255
225 238 255
225 238 255
225 238 255
225 238 255
226 238 255
226 238 255
226 238 255
226 238 255
226 238 255
226 238 255
226 238 255
226 238 255
226 238 255
226 238 255
226 238 255
226 238 255
226 238 255
226 238 255
226 238 255
226 238 255
226 238 255
226 238 255
226 238 255
226 238 255
226 238 255
226 238 255
226 238 255
226 238 255
226 238 255
226 238 255
226 238 255
226 238 255
226 238 255
226 238 255
226 238 255
226 238 255
226 238 255
226 238 255
226 238 255
226 238 255
226 238 255
226 238 255
226 238 255
226 238 255
226 238 255
226 238 255
226 238 255
226 238 255
226 238 255
226 238 255
226 238 255
226 238 255
226 238 255
226 238 255
226 238 255
226 239 255
226 239 255
226 239 255
227 239 255
227 239 255
227 239 255
227 239 255
227 239 255
227 239 255
227 239 255
227 239 255
227 239 255
227 239 255
227 239 255
227 239 255
227 239 255
227 239 255
227 239 255
227 239 255
227 239 255
227 239 255
227 239 255
227 239 255
227 239 255
227 239 255
227 239 255
227 239 255
227 239 255
227 239 255
227 239 255
227 239 255
227 239 255
227 239 255
227 239 255
227 239 255
227 239 255
227 239 255
227 239 255
227 239 255
227 239 255
227 239 255
227 239 255
227 239 255
227 239 255
227 239 255
227 239 255
228 239 255
228 239 255
228 239 255
228 239 255
228 239 255
228 239 255
228 239 255
228 239 255
228 239 255
228 239 255
228 239 255
228 239 255
228 239 255
228 239 255
228 239 255
228 239 255
228 239 255
228 239 255
228 239 255
228 239 255
228 239 255
228 239 255
228 239 255
228 239 255
228 239 255
228 239 255
228 239 255
228 239 255
228 239 255
228 239 255
228 239 255
228 240 255
227 238 252
224 236 244
216 230 223
209 224 199
210 225 206
197 214 155
194 212 147
188 208 122
186 206 111
182 204 99
179 201 51
176 199 0
173 197 0
174 198 0
174 198 0
174 197 0
173 197 0
175 198 0
174 198 0
175 198 0
175 198 0
175 198 0
175 198 0
174 198 0
174 198 0
175 198 0
174 198 0
175 198 0
173 197 0
175 198 0
174 197 0
175 198 0
173 197 0
176 199 0
173 197 0
176 199 0
173 197 0
175 198 0
175 198 0
175 198 0
174 198 0
174 197 0
175 198 0
174 198 0
173 197 0
175 198 0
175 198 0
174 197 0
176 198 0
174 198 0
173 197 0
176 199 0
175 198 0
176 199 0
173 197 0
175 198 0
173 197 0
174 197 0
175 198 0
173 197 0
174 198 0
175 198 0
175 198 0
174 197 0
175 198 0
175 198 0
175 198 0
175 198 0
174 198 0
173 197 0
173 197 0
174 198 0
176 199 0
173 197 0
175 198 0
174 198 0
175 198 0
173 197 0
175 198 0
173 197 0
174 198 0
175 198 0
175 198 0
177 199 0
175 198 0
176 198 0
173 197 0
175 198 0
174 198 0
175 198 0
174 197 0
172 197 0
175 198 0
176 199 0
175 198 0
176 199 44
180 202 84
188 208 114
194 212 142
199 216 161
202 219 179
207 223 191
212 227 211
215 229 217
221 233 234
224 236 244
228 240 255
228 239 255
228 239 255
228 239 255
228 239 255
228 239 255
228 239 255
228 239 255
228 239 255
228 239 255
228 239 255
228 239 255
228 239 255
228 239 255
228 239 255
228 239 255
228 239 255
228 239 255
228 239 255
228 239 255
228 239 255
228 239 255
228 239 255
228 239 255
228 239 255
228 239 255
228 239 255
228 239 255
228 239 255
228 239 255
228 239 255
228 239 255
227 239 255
227 239 255
227 239 255
227 239 255
227 239 255
227 239 255
227 239 255
227 239 255
227 239 255
227 239 255
227 239 255
227 239 255
227 239 255
227 239 255
227 239 255
227 239 255
227 239 255
227 239 255
227 239 255
227 239 255
227 239 255
227 239 255
227 239 255
227 239 255
227 239 255
227 239 255
227 239 255
227 239 255
227 239 255
227 239 255
227 239 255
227 239 255
227 239 255
227 239 255
227 239 255
227 239 255
227 239 255
227 239 255
227 239 255
227 239 255
227 239 255
227 239 255
227 239 255
227 239 255
226 239 255
226 238 255
226 238 255
226 238 255
226 238 255
226 238 255
226 238 255
226 238 255
226 238 255
226 238 255
226 238 255
226 238 255
226 238 255
226 238 255
226 238 255
226 238 255
226 238 255
226 238 255
226 238 255
226 238 255
226 238 255
226 238 255
226 238 255
226 238 255
226 238 255
226 238 255
226 238 255
226 238 255
226 238 255
226 238 255
226 238 255
226 238 255
226 238 255
226 238 255
226 238 255
226 238 255
226 238 255
226 238 255
226 238 255
226 238 255
226 238 255
226 238 255
226 238 255
226 238 255
226 238 255
226 238 255
226 238 255
226 238 255
226 238 255
226 238 255
226 238 255
226 238 255
226 238 255
225 238 255
225 238 255
225 238 255
225 238 255
225 238 255
225 238 255
225 238 255
225 238 255
225 238 255
225 238 255
225 238 255
225 238 255
225 238 255
225 238 255
225 238 255
225 238 255
225 238 255
225 238 255
225 238 255
225 238 255
225 238 255
225 238 255
225 238 255
225 238 255
225 238 255
225 238 255
225 238 255
225 238 255
226 238 255
226 238 255
226 238 255
226 238 255
226 238 255
226 238 255
226 238 255
226 238 255
226 238 255
226 238 255
226 238 255
226 238 255
226 238 255
226 238 255
226 238 255
226 238 255
226 238 255
226 238 255
226 238 255
226 238 255
226 238 255
226 238 255
226 238 255
226 238 255
226 238 255
226 238 255
226 238 255
226 238 255
226 238 255
226 238 255
226 238 255
226 238 255
226 238 255
226 238 255
226 238 255
226 238 255
226 238 255
226 238 255
226 238 255
226 238 255
226 238 255
226 238 255
226 238 255
226 238 255
226 238 255
226 238 255
226 238 255
226 238 255
226 238 255
226 238 255
226 238 255
226 239 255
226 239 255
226 239 255
227 239 255
227 239 255
227 239 255
227 239 255
227 239 255
227 239 255
227 239 255
227 239 255
227 239 255
227 239 255
227 239 255
227 239 255
227 239 255
227 239 255
227 239 255
227 239 255
227 239 255
227 239 255
227 239 255
227 239 255
227 239 255
227 239 255
227 239 255
227 239 255
227 239 255
227 239 255
227 239 255
227 239 255
227 239 255
227 239 255
227 239 255
227 239 255
227 239 255
227 239 255
227 239 255
227 239 255
227 239 255
227 239 255
227 239 255
227 239 255
227 239 255
227 239 255
228 239 255
228 239 255
228 239 255
228 239 255
228 239 255
228 239 255
228 239 255
228 239 255
228 239 255
228 239 255
228 239 255
228 239 255
228 239 255
228 239 255
228 239 255
228 239 255
228 239 255
228 239 255
228 239 255
228 239 255
228 239 255
228 239 255
228 239 255
228 239 255
228 239 255
228 239 255
228 239 255
228 239 255
228 239 255
228 240 255
228 240 255
228 240 255
223 235 241
216 230 221
206 222 193
210 225 203
202 218 173
195 214 153
191 210 137
185 205 105
179 201 62
173 197 0
176 199 0
175 198 0
175 198 0
174 197 0
174 197 0
175 198 0
175 198 0
174 198 0
174 198 0
175 198 0
176 199 0
173 197 0
176 198 0
176 198 0
175 198 0
173 197 0
174 198 0
175 198 0
175 198 0
175 198 0
175 198 0
175 198 0
173 197 0
174 198 0
174 198 0
174 197 0
175 198 0
175 198 0
174 198 0
175 198 0
175 198 0
176 198 0
173 197 0
176 199 0
173 197 0
174 198 0
173 197 0
174 198 0
174 198 0
173 197 0
175 198 0
175 198 0
173 197 0
175 198 0
174 198 0
174 197 0
175 198 0
176 199 0
175 198 0
175 198 0
175 198 0
174 198 0
175 198 0
176 198 0
175 198 0
175 198 0
175 198 0
173 197 0
176 199 0
175 198 0
175 198 0
173 197 0
176 199 0
175 198 0
175 198 0
174 198 0
176 198 0
175 198 0
175 198 0
174 198 0
175 198 0
177 199 0
176 199 0
175 198 0
176 198 0
174 198 0
175 198 0
173 197 0
175 198 0
173 197 0
175 198 0
173 197 0
175 198 0
175 198 0
175 198 0
175 198 0
176 199 0
176 199 0
174 198 0
174 197 0
174 198 0
175 198 0
174 197 0
174 198 0
174 198 0
177 199 0
173 197 0
173 197 0
176 199 0
173 197 0
175 198 0
175 198 0
175 198 0
174 197 0
176 198 0
177 200 44
184 205 95
187 207 120
198 215 159
199 217 163
208 223 196
215 229 218
220 233 233
221 234 236
228 240 255
228 240 255
228 239 255
228 239 255
228 239 255
228 239 255
228 239 255
228 239 255
228 239 255
228 239 255
228 239 255
228 239 255
228 239 255
228 239 255
228 239 255
228 239 255
228 239 255
228 239 255
228 239 255
228 239 255
228 239 255
228 239 255
228 239 255
228 239 255
228 239 255
228 239 255
228 239 255
228 239 255
228 239 255
228 239 255
228 239 255
228 239 255
227 239 255
227 239 255
227 239 255
227 239 255
227 239 255
227 239 255
227 239 255
227 239 255
227 239 255
227 239 255
227 239 255
227 239 255
227 239 255
227 239 255
227 239 255
227 239 255
227 239 255
227 239 255
227 239 255
227 239 255
227 239 255
227 239 255
227 239 255
227 239 255
227 239 255
227 239 255
227 239 255
227 239 255
227 239 255
227 239 255
227 239 255
227 239 255
227 239 255
227 239 255
227 239 255
227 239 255
227 239 255
227 239 255
227 239 255
227 239 255
227 239 255
227 239 255
227 239 255
226 239 255
226 239 255
226 238 255
226 238 255
226 238 255
226 238 255
226 238 255
226 238 255
226 238 255
226 238 255
226 238 255
226 238 255
226 238 255
226 238 255
226 238 255
226 238 255
226 238 255
226 238 255
226 238 255
226 238 255
226 238 255
226 238 255
226 238 255
226 238 255
226 238 255
226 238 255
226 238 255
226 238 255
226 238 255
226 238 255
226 238 255
226 238 255
226 238 255
226 238 255
226 238 255
226 238 255
226 238 255
226 238 255
226 238 255
226 238 255
226 238 255
226 238 255
226 238 255
226 238 255
226 238 255
226 238 255
226 238 255
226 238 255
226 238 255
226 238 255
226 238 255
226 238 255
226 238 255
226 238 255
225 238 255
225 238 255
225 238 255
225 238 255
225 238 255
225 238 255
225 238 255
225 238 255
225 238 255
225 238 255
226 238 255
226 238 255
226 238 255
226 238 255
226 238 255
226 238 255
226 238 255
226 238 255
226 238 255
226 238 255
226 238 255
226 238 255
226 238 255
226 238 255
226 238 255
226 238 255
226 238 255
226 238 255
226 238 255
226 238 255
226 238 255
226 238 255
226 238 255
226 238 255
226 238 255
226 238 255
226 238 255
226 238 255
226 238 255
226 238 255
226 238 255
226 238 255
226 238 255
226 238 255
226 238 255
226 238 255
226 238 255
226 238 255
226 238 255
226 238 255
226 238 255
226 238 255
226 238 255
226 238 255
226 238 255
226 238 255
226 238 255
226 238 255
226 238 255
226 238 255
226 238 255
226 238 255
226 239 255
226 239 255
226 239 255
227 239 255
227 239 255
227 239 255
227 239 255
227 239 255
227 239 255
227 239 255
227 239 255
227 239 255
227 239 255
227 239 255
227 239 255
227 239 255
227 239 255
227 239 255
227 239 255
227 239 255
227 239 255
227 239 255
227 239 255
227 239 255
227 239 255
227 239 255
227 239 255
227 239 255
227 239 255
227 239 255
227 239 255
227 239 255
227 239 255
227 239 255
227 239 255
227 239 255
227 239 255
227 239 255
227 239 255
227 239 255
227 239 255
227 239 255
227 239 255
227 239 255
227 239 255
228 239 255
228 239 255
228 239 255
228 239 255
228 239 255
228 239 255
228 239 255
228 239 255
228 239 255
228 239 255
228 239 255
228 239 255
228 239 255
228 239 255
228 239 255
228 239 255
228 239 255
228 239 255
228 239 255
228 239 255
228 239 255
228 239 255
228 239 255
228 239 255
228 239 255
228 239 255
228 239 255
228 239 255
228 240 255
228 240 255
228 240 255
227 239 253
222 234 238
214 228 217
211 226 207
203 220 182
200 217 169
191 210 135
184 205 99
178 200 57
176 198 0
174 198 0
175 198 0
176 199 0
176 199 0
174 197 0
174 197 0
175 198 0
174 197 0
175 198 0
176 198 0
174 198 0
176 198 0
173 197 0
174 197 0
174 198 0
175 198 0
174 197 0
174 198 0
173 197 0
175 198 0
174 198 0
174 197 0
174 198 0
175 198 0
175 198 0
174 198 0
174 198 0
173 197 0
174 197 0
175 198 0
173 197 0
175 198 0
174 197 0
175 198 0
175 198 0
175 198 0
174 197 0
173 197 0
175 198 0
173 197 0
173 197 0
173 197 0
175 198 0
176 199 0
175 198 0
174 197 0
174 198 0
173 197 0
173 197 0
175 198 0
176 199 0
176 198 0
174 198 0
175 198 0
173 197 0
174 197 0
176 199 0
176 198 0
175 198 0
176 199 0
173 197 0
176 198 0
175 198 0
174 198 0
175 198 0
175 198 0
176 199 0
175 198 0
173 197 0
174 198 0
175 198 0
175 198 0
174 198 0
175 198 0
173 197 0
174 198 0
176 199 0
175 198 0
175 198 0
174 198 0
175 198 0
175 198 0
175 198 0
174 198 0
173 197 0
173 197 0
173 197 0
175 198 0
174 198 0
174 198 0
175 198 0
174 197 0
175 198 0
174 198 0
174 198 0
174 197 0
175 198 0
175 198 0
173 197 0
176 199 0
174 198 0
175 198 0
174 198 0
174 198 0
174 198 0
175 198 0
174 198 0
176 199 0
174 198 0
174 198 0
173 197 0
174 198 0
174 198 0
175 198 0
174 198 0
174 198 0
175 198 0
176 198 0
176 199 0
174 197 0
175 198 0
175 198 0
175 198 0
177 199 36
182 203 88
192 211 133
197 215 159
204 220 182
208 223 196
213 227 211
221 234 237
227 238 252
228 240 255
228 240 255
228 240 255
228 239 255
228 239 255
228 239 255
228 239 255
228 239 255
228 239 255
228 239 255
228 239 255
228 239 255
228 239 255
228 239 255
228 239 255
228 239 255
228 239 255
228 239 255
228 239 255
228 239 255
228 239 255
228 239 255
228 239 255
228 239 255
228 239 255
228 239 255
228 239 255
228 239 255
228 239 255
228 239 255
228 239 255
227 239 255
227 239 255
227 239 255
227 239 255
227 239 255
227 239 255
227 239 255
227 239 255
227 239 255
227 239 255
227 239 255
227 239 255
227 239 255
227 239 255
227 239 255
227 239 255
227 239 255
227 239 255
227 239 255
227 239 255
227 239 255
227 239 255
227 239 255
227 239 255
227 239 255
227 239 255
227 239 255
227 239 255
227 239 255
227 239 255
227 239 255
227 239 255
227 239 255
227 239 255
227 239 255
227 239 255
227 239 255
227 239 255
227 239 255
227 239 255
227 239 255
227 239 255
227 239 255
226 239 255
226 238 255
226 238 255
226 238 255
226 238 255
226 238 255
226 238 255
226 238 255
226 238 255
226 238 255
226 238 255
226 238 255
226 238 255
226 238 255
226 238 255
226 238 255
226 238 255
226 238 255
226 238 255
226 238 255
226 238 255
226 238 255
226 238 255
226 238 255
226 238 255
226 238 255
226 238 255
226 238 255
226 238 255
226 238 255
226 238 255
226 238 255
226 238 255
226 238 255
226 238 255
226 238 255
226 238 255
226 238 255
226 238 255
226 238 255
226 238 255
226 238 255
226 238 255
226 238 255
226 238 255
226 238 255
226 238 255
226 238 255
226 238 255
226 238 255
226 238 255
226 238 255
226 238 255
226 238 255
225 238 255
226 238 255
226 238 255
226 238 255
226 238 255
226 238 255
226 238 255
226 238 255
226 238 255
226 238 255
226 238 255
226 238 255
226 238 255
226 238 255
226 238 255
226 238 255
226 238 255
226 238 255
226 238 255
226 238 255
226 238 255
226 238 255
226 238 255
226 238 255
226 238 255
226 238 255
226 238 255
226 238 255
226 238 255
226 238 255
226 238 255
226 238 255
226 238 255
226 238 255
226 238 255
226 238 255
226 238 255
226 238 255
226 238 255
226 238 255
226 238 255
226 238 255
226 238 255
226 238 255
226 238 255
226 238 255
226 238 255
226 239 255
226 239 255
227 239 255
227 239 255
227 239 255
227 239 255
227 239 255
227 239 255
227 239 255
227 239 255
227 239 255
227 239 255
227 239 255
227 239 255
227 239 255
227 239 255
227 239 255
227 239 255
227 239 255
227 239 255
227 239 255
227 239 255
227 239 255
227 239 255
227 239 255
227 239 255
227 239 255
227 239 255
227 239 255
227 239 255
227 239 255
227 239 255
227 239 255
227 239 255
227 239 255
227 239 255
227 239 255
227 239 255
227 239 255
227 239 255
227 239 255
227 239 255
227 239 255
227 239 255
228 239 255
228 239 255
228 239 255
228 239 255
228 239 255
228 239 255
228 239 255
228 239 255
228 239 255
228 239 255
228 239 255
228 239 255
228 239 255
228 239 255
228 239 255
228 239 255
228 239 255
228 239 255
228 239 255
228 239 255
228 239 255
228 239 255
228 239 255
228 239 255
228 239 255
228 239 255
228 239 255
228 239 255
228 240 255
228 240 255
228 240 255
228 240 255
223 235 241
218 231 227
211 226 207
204 220 181
201 218 171
189 209 122
180 202 76
176 199 36
175 198 0
175 198 0
175 198 0
176 199 0
175 198 0
174 197 0
174 198 0
175 198 0
176 198 0
174 197 0
173 197 0
175 198 0
174 198 0
176 199 0
174 198 0
174 198 0
174 198 0
173 197 0
174 198 0
175 198 0
175 198 0
176 199 0
174 198 0
176 199 0
175 198 0
174 198 0
175 198 0
173 197 0
174 198 0
176 199 0
175 198 0
175 198 0
173 197 0
176 198 0
174 198 0
174 198 0
174 198 0
174 197 0
175 198 0
173 197 0
175 198 0
176 198 0
174 198 0
175 198 0
175 198 0
175 198 0
175 198 0
175 198 0
174 198 0
174 198 0
176 198 0
175 198 0
175 198 0
176 199 0
173 197 0
175 198 0
174 198 0
176 198 0
173 197 0
173 197 0
174 198 0
175 198 0
176 198 0
174 198 0
174 198 0
173 197 0
175 198 0
174 197 0
176 199 0
175 198 0
174 198 0
175 198 0
175 198 0
175 198 0
175 198 0
174 198 0
175 198 0
174 197 0
175 198 0
175 198 0
175 198 0
173 197 0
175 198 0
175 198 0
175 198 0
174 197 0
173 197 0
173 197 0
174 198 0
175 198 0
173 197 0
174 198 0
175 198 0
175 198 0
173 197 0
174 198 0
176 198 0
175 198 0
175 198 0
174 198 0
174 198 0
175 198 0
173 197 0
174 198 0
175 198 0
174 198 0
176 198 0
174 198 0
174 197 0
174 198 0
176 199 0
173 197 0
175 198 0
174 198 0
176 199 0
174 197 0
174 198 0
175 198 0
175 198 0
175 198 0
174 198 0
174 198 0
175 198 0
173 197 0
175 198 0
173 197 0
175 198 0
175 198 0
175 198 0
173 197 0
176 199 0
174 198 0
176 198 0
175 198 0
177 199 0
175 198 0
173 197 0
176 199 0
174 198 0
174 198 0
175 198 0
179 202 72
190 209 128
195 213 151
205 221 191
216 229 220
218 232 228
225 237 248
228 240 255
228 240 255
228 240 255
228 240 255
228 239 255
228 239 255
228 239 255
228 239 255
228 239 255
228 239 255
228 239 255
228 239 255
228 239 255
228 239 255
228 239 255
228 239 255
228 239 255
228 239 255
228 239 255
228 239 255
228 239 255
228 239 255
228 239 255
228 239 255
228 239 255
228 239 255
228 239 255
228 239 255
228 239 255
228 239 255
228 239 255
227 239 255
227 239 255
227 239 255
227 239 255
227 239 255
227 239 255
227 239 255
227 239 255
227 239 255
227 239 255
227 239 255
227 239 255
227 239 255
227 239 255
227 239 255
227 239 255
227 239 255
227 239 255
227 239 255
227 239 255
227 239 255
227 239 255
227 239 255
227 239 255
227 239 255
227 239 255
227 239 255
227 239 255
227 239 255
227 239 255
227 239 255
227 239 255
227 239 255
227 239 255
227 239 255
227 239 255
227 239 255
227 239 255
227 239 255
227 239 255
227 239 255
227 239 255
227 239 255
226 239 255
226 239 255
226 238 255
226 238 255
226 238 255
226 238 255
226 238 255
226 238 255
226 238 255
226 238 255
226 238 255
226 238 255
226 238 255
226 238 255
226 238 255
226 238 255
226 238 255
226 238 255
226 238 255
226 238 255
226 238 255
226 238 255
226 238 255
226 238 255
226 238 255
226 238 255
226 238 255
226 238 255
226 238 255
226 238 255
226 238 255
226 238 255
226 238 255
226 238 255
226 238 255
226 238 255
226 238 255
226 238 255
226 238 255
226 238 255
226 238 255
226 238 255
226 238 255
226 238 255
226 238 255
226 238 255
226 238 255
226 238 255
226 238 255
226 238 255
226 238 255
226 238 255
226 238 255
226 238 255
226 238 255
226 238 255
226 238 255
226 238 255
226 238 255
226 238 255
226 238 255
226 238 255
226 238 255
226 238 255
226 238 255
226 238 255
226 238 255
226 238 255
226 238 255
226 238 255
226 238 255
226 238 255
226 238 255
226 238 255
226 238 255
226 238 255
226 238 255
226 238 255
226 238 255
226 238 255
226 238 255
226 238 255
226 238 255
226 238 255
226 238 255
226 238 255
226 238 255
226 239 255
226 239 255
227 239 255
227 239 255
227 239 255
227 239 255
227 239 255
227 239 255
227 239 255
227 239 255
227 239 255
227 239 255
227 239 255
227 239 255
227 239 255
227 239 255
227 239 255
227 239 255
227 239 255
227 239 255
227 239 255
227 239 255
227 239 255
227 239 255
227 239 255
227 239 255
227 239 255
227 239 255
227 239 255
227 239 255
227 239 255
227 239 255
227 239 255
227 239 255
227 239 255
227 239 255
227 239 255
227 239 255
227 239 255
227 239 255
227 239 255
227 239 255
227 239 255
227 239 255
228 239 255
228 239 255
228 239 255
228 239 255
228 239 255
228 239 255
228 239 255
228 239 255
228 239 255
228 239 255
228 239 255
228 239 255
228 239 255
228 239 255
228 239 255
228 239 255
228 239 255
228 239 255
228 239 255
228 239 255
228 239 255
228 239 255
228 239 255
228 239 255
228 239 255
228 239 255
228 239 255
228 240 255
228 240 255
228 240 255
228 240 255
228 239 254
225 237 246
212 227 209
206 222 189
204 220 179
196 214 155
183 204 92
177 200 57
175 198 0
176 199 0
175 198 0
175 198 0
174 198 0
175 198 0
176 199 0
176 199 0
174 198 0
175 198 0
176 199 0
175 198 0
175 198 0
175 198 0
176 198 0
174 198 0
175 198 0
175 198 0
176 199 0
173 197 0
176 199 0
174 198 0
176 199 0
174 198 0
176 199 0
175 198 0
174 198 0
176 198 0
173 197 0
174 198 0
175 198 0
175 198 0
175 198 0
174 197 0
175 198 0
176 199 0
175 198 0
174 198 0
175 198 0
175 198 0
174 197 0
174 198 0
173 197 0
176 199 0
172 197 0
175 198 0
176 198 0
175 198 0
175 198 0
174 198 0
175 198 0
174 198 0
175 198 0
175 198 0
175 198 0
174 198 0
174 197 0
176 199 0
176 199 0
176 198 0
174 198 0
175 198 0
174 198 0
174 197 0
173 197 0
173 197 0
174 198 0
174 198 0
175 198 0
175 198 0
174 198 0
174 198 0
176 199 0
174 198 0
174 198 0
175 198 0
174 198 0
175 198 0
176 199 0
173 197 0
175 198 0
174 198 0
175 198 0
175 198 0
174 198 0
174 198 0
174 198 0
175 198 0
175 198 0
177 199 0
175 198 0
172 197 0
176 199 0
175 198 0
174 198 0
176 199 0
176 198 0
175 198 0
174 198 0
176 199 0
174 198 0
176 198 0
173 197 0
175 198 0
175 198 0
174 197 0
173 197 0
175 198 0
175 198 0
174 198 0
174 198 0
174 198 0
174 197 0
175 198 0
174 198 0
175 198 0
175 198 0
174 198 0
174 198 0
175 198 0
174 197 0
174 198 0
175 198 0
174 198 0
177 199 0
175 198 0
174 197 0
174 198 0
176 198 0
175 198 0
174 198 0
175 198 0
174 198 0
174 198 0
174 198 0
174 198 0
175 198 0
177 199 0
175 198 0
175 198 0
175 198 0
173 197 0
174 197 0
174 197 0
174 198 0
174 197 0
174 198 0
175 198 0
173 197 0
174 198 0
175 198 0
176 199 0
174 198 0
173 197 0
175 198 0
174 198 0
177 200 62
187 208 117
196 214 151
200 217 169
213 227 211
215 229 217
222 234 237
228 240 255
228 240 255
228 240 255
228 240 255
228 240 255
228 239 255
228 239 255
228 239 255
228 239 255
228 239 255
228 239 255
228 239 255
228 239 255
228 239 255
228 239 255
228 239 255
228 239 255
228 239 255
228 239 255
228 239 255
228 239 255
228 239 255
228 239 255
228 239 255
228 239 255
228 239 255
228 239 255
228 239 255
228 239 255
228 239 255
228 239 255
227 239 255
227 239 255
227 239 255
227 239 255
227 239 255
227 239 255
227 239 255
227 239 255
227 239 255
227 239 255
227 239 255
227 239 255
227 239 255
227 239 255
227 239 255
227 239 255
227 239 255
227 239 255
227 239 255
227 239 255
227 239 255
227 239 255
227 239 255
227 239 255
227 239 255
227 239 255
227 239 255
227 239 255
227 239 255
227 239 255
227 239 255
227 239 255
227 239 255
227 239 255
227 239 255
227 239 255
227 239 255
227 239 255
227 239 255
227 239 255
227 239 255
227 239 255
227 239 255
227 239 255
226 239 255
226 239 255
226 238 255
226 238 255
226 238 255
226 238 255
226 238 255
226 238 255
226 238 255
226 238 255
226 238 255
226 238 255
226 238 255
226 238 255
226 238 255
226 238 255
226 238 255
226 238 255
226 238 255
226 238 255
226 238 255
226 238 255
226 238 255
226 238 255
226 238 255
226 238 255
226 238 255
226 238 255
226 238 255
226 238 255
226 238 255
226 238 255
226 238 255
226 238 255
226 238 255
226 238 255
226 238 255
226 238 255
226 238 255
226 238 255
226 238 255
226 238 255
226 238 255
226 238 255
226 238 255
226 238 255
226 238 255
226 238 255
226 238 255
226 238 255
226 238 255
226 238 255
226 238 255
226 238 255
226 238 255
226 238 255
226 238 255
226 238 255
226 238 255
226 238 255
226 238 255
226 238 255
226 238 255
226 238 255
226 238 255
226 238 255
226 238 255
226 238 255
226 238 255
226 238 255
226 238 255
226 239 255
226 239 255
227 239 255
227 239 255
227 239 255
227 239 255
227 239 255
227 239 255
227 239 255
227 239 255
227 239 255
227 239 255
227 239 255
227 239 255
227 239 255
227 239 255
227 239 255
227 239 255
227 239 255
227 239 255
227 239 255
227 239 255
227 239 255
227 239 255
227 239 255
227 239 255
227 239 255
227 239 255
227 239 255
227 239 255
227 239 255
227 239 255
227 239 255
227 239 255
227 239 255
227 239 255
227 239 255
227 239 255
227 239 255
227 239 255
227 239 255
227 239 255
227 239 255
227 239 255
227 239 255
228 239 255
228 239 255
228 239 255
228 239 255
228 239 255
228 239 255
228 239 255
228 239 255
228 239 255
228 239 255
228 239 255
228 239 255
228 239 255
228 239 255
228 239 255
228 239 255
228 239 255
228 239 255
228 239 255
228 239 255
228 239 255
228 239 255
228 239 255
228 239 255
228 239 255
228 239 255
228 240 255
228 240 255
228 240 255
228 240 255
228 240 255
228 240 255
226 238 249
220 233 231
213 227 209
201 218 177
196 214 155
184 205 102
175 199 44
174 198 0
175 198 0
176 199 0
175 198 0
175 198 0
176 199 0
174 198 0
175 198 0
176 199 0
174 198 0
175 198 0
174 197 0
175 198 0
175 198 0
174 197 0
176 199 0
173 197 0
176 199 0
175 198 0
175 198 0
174 198 0
176 199 0
175 198 0
173 197 0
174 198 0
176 199 0
175 198 0
175 198 0
176 199 0
174 198 0
174 198 0
175 198 0
174 198 0
174 198 0
174 197 0
174 197 0
175 198 0
173 197 0
174 198 0
176 198 0
174 198 0
175 198 0
174 198 0
175 198 0
176 199 0
174 198 0
177 199 0
175 198 0
175 198 0
174 198 0
175 198 0
175 198 0
175 198 0
175 198 0
173 197 0
175 198 0
176 199 0
174 198 0
175 198 0
176 199 0
175 198 0
175 198 0
177 199 0
175 198 0
175 198 0
175 198 0
175 198 0
174 197 0
175 198 0
174 198 0
174 198 0
175 198 0
175 198 0
175 198 0
174 197 0
174 197 0
174 197 0
175 198 0
174 197 0
176 198 0
175 198 0
173 197 0
174 198 0
175 198 0
174 198 0
174 198 0
175 198 0
174 198 0
173 197 0
174 198 0
175 198 0
175 198 0
174 198 0
174 198 0
174 198 0
175 198 0
175 198 0
175 198 0
174 198 0
174 198 0
175 198 0
174 198 0
175 198 0
174 198 0
175 198 0
175 198 0
173 197 0
174 198 0
175 198 0
175 198 0
175 198 0
174 198 0
173 197 0
174 198 0
175 198 0
175 198 0
176 198 0
175 198 0
174 197 0
174 198 0
175 198 0
173 197 0
174 198 0
174 198 0
176 199 0
176 198 0
174 197 0
175 198 0
175 198 0
174 198 0
174 198 0
175 198 0
173 197 0
175 198 0
174 198 0
174 197 0
175 198 0
176 199 0
174 198 0
177 199 0
173 197 0
176 199 0
175 198 0
174 198 0
173 197 0
175 198 0
177 199 0
175 198 0
175 198 0
174 198 0
174 198 0
175 198 0
175 198 0
175 198 0
175 198 0
175 198 0
174 198 0
172 197 0
176 198 0
174 198 0
174 197 0
175 198 0
174 198 0
175 198 0
174 198 0
174 198 0
175 198 0
175 198 0
174 198 0
175 198 0
180 202 72
184 205 92
198 215 161
201 218 171
212 227 211
219 232 230
227 238 252
228 240 255
228 240 255
228 240 255
228 240 255
228 240 255
228 240 255
228 239 255
228 239 255
228 239 255
228 239 255
228 239 255
228 239 255
228 239 255
228 239 255
228 239 255
228 239 255
228 239 255
228 239 255
228 239 255
228 239 255
228 239 255
228 239 255
228 239 255
228 239 255
228 239 255
228 239 255
228 239 255
228 239 255
228 239 255
228 239 255
228 239 255
228 239 255
227 239 255
227 239 255
227 239 255
227 239 255
227 239 255
227 239 255
227 239 255
227 239 255
227 239 255
227 239 255
227 239 255
227 239 255
227 239 255
227 239 255
227 239 255
227 239 255
227 239 255
227 239 255
227 239 255
227 239 255
227 239 255
227 239 255
227 239 255
227 239 255
227 239 255
227 239 255
227 239 255
227 239 255
227 239 255
227 239 255
227 239 255
227 239 255
227 239 255
227 239 255
227 239 255
227 239 255
227 239 255
227 239 255
227 239 255
227 239 255
227 239 255
227 239 255
227 239 255
226 239 255
226 238 255
226 238 255
226 238 255
226 238 255
226 238 255
226 238 255
226 238 255
226 238 255
226 238 255
226 238 255
226 238 255
226 238 255
226 238 255
226 238 255
226 238 255
226 238 255
226 238 255
226 238 255
226 238 255
226 238 255
226 238 255
226 238 255
226 238 255
226 238 255
226 238 255
226 238 255
226 238 255
226 238 255
226 238 255
226 238 255
226 238 255
226 238 255
226 238 255
226 238 255
226 238 255
226 238 255
226 238 255
226 238 255
226 238 255
226 238 255
226 238 255
226 238 255
226 238 255
226 238 255
226 238 255
226 238 255
226 238 255
226 238 255
226 238 255
226 238 255
226 238 255
226 238 255
226 238 255
226 238 255
226 238 255
226 238 255
226 239 255
226 239 255
227 239 255
227 239 255
227 239 255
227 239 255
227 239 255
227 239 255
227 239 255
227 239 255
227 239 255
227 239 255
227 239 255
227 239 255
227 239 255
227 239 255
227 239 255
227 239 255
227 239 255
227 239 255
227 239 255
227 239 255
227 239 255
227 239 255
227 239 255
227 239 255
227 239 255
227 239 255
227 239 255
227 239 255
227 239 255
227 239 255
227 239 255
227 239 255
227 239 255
227 239 255
227 239 255
227 239 255
227 239 255
227 239 255
227 239 255
227 239 255
227 239 255
227 239 255
227 239 255
227 239 255
228 239 255
228 239 255
228 239 255
228 239 255
228 239 255
228 239 255
228 239 255
228 239 255
228 239 255
228 239 255
228 239 255
228 239 255
228 239 255
228 239 255
228 239 255
228 239 255
228 239 255
228 239 255
228 239 255
228 239 255
228 239 255
228 239 255
228 239 255
228 239 255
228 239 255
228 240 255
228 240 255
228 240 255
228 240 255
228 240 255
228 240 255
228 240 255
225 237 246
216 230 220
209 224 201
203 220 181
190 210 135
185 205 99
175 198 0
175 198 0
174 198 0
174 197 0
175 198 0
174 198 0
175 198 0
174 198 0
176 198 0
177 199 0
174 197 0
174 198 0
175 198 0
174 197 0
174 198 0
173 197 0
174 198 0
174 198 0
175 198 0
173 197 0
174 198 0
173 197 0
174 198 0
174 198 0
174 198 0
174 198 0
174 198 0
176 199 0
174 198 0
172 197 0
175 198 0
175 198 0
175 198 0
174 198 0
175 198 0
175 198 0
174 197 0
175 198 0
174 197 0
174 198 0
175 198 0
174 198 0
175 198 0
174 197 0
175 198 0
174 198 0
174 198 0
174 198 0
174 198 0
174 198 0
175 198 0
174 197 0
175 198 0
175 198 0
176 198 0
175 198 0
175 198 0
174 198 0
175 198 0
173 197 0
177 199 0
173 197 0
174 198 0
174 197 0
175 198 0
175 198 0
175 198 0
174 198 0
177 199 0
175 198 0
175 198 0
175 198 0
175 198 0
172 196 0
175 198 0
174 197 0
175 198 0
174 198 0
174 198 0
174 198 0
175 198 0
173 197 0
173 197 0
175 198 0
175 198 0
173 197 0
175 198 0
174 197 0
175 198 0
174 198 0
175 198 0
175 198 0
175 198 0
175 198 0
174 198 0
175 198 0
174 198 0
174 198 0
175 198 0
175 198 0
175 198 0
175 198 0
174 197 0
174 197 0
172 197 0
173 197 0
175 198 0
174 198 0
174 197 0
174 198 0
174 198 0
173 197 0
175 198 0
175 198 0
173 197 0
175 198 0
176 199 0
175 198 0
175 198 0
174 198 0
176 199 0
173 197 0
174 197 0
174 198 0
175 198 0
174 198 0
175 198 0
175 198 0
175 198 0
174 198 0
174 198 0
175 198 0
175 198 0
176 198 0
174 198 0
175 198 0
175 198 0
174 198 0
173 197 0
177 199 0
175 198 0
173 197 0
173 197 0
176 198 0
175 198 0
175 198 0
175 198 0
176 198 0
175 198 0
174 198 0
175 198 0
173 197 0
175 198 0
174 198 0
173 197 0
174 197 0
176 198 0
174 197 0
173 197 0
174 198 0
174 198 0
173 197 0
176 199 0
175 198 0
175 198 0
174 198 0
174 197 0
172 197 0
173 197 0
174 198 0
175 198 0
174 198 0
175 198 0
176 198 0
175 198 0
174 197 0
173 197 0
173 197 0
173 197 0
174 198 0
176 199 0
175 198 0
175 198 0
175 198 0
183 204 92
199 216 157
206 222 186
205 221 188
218 232 228
224 236 244
228 240 255
228 240 255
228 240 255
228 240 255
228 240 255
228 240 255
228 239 255
228 239 255
228 239 255
228 239 255
228 239 255
228 239 255
228 239 255
228 239 255
228 239 255
228 239 255
228 239 255
228 239 255
228 239 255
228 239 255
228 239 255
228 239 255
228 239 255
228 239 255
228 239 255
228 239 255
228 239 255
228 239 255
228 239 255
228 239 255
228 239 255
228 239 255
228 239 255
227 239 255
227 239 255
227 239 255
227 239 255
227 239 255
227 239 255
227 239 255
227 239 255
227 239 255
227 239 255
227 239 255
227 239 255
227 239 255
227 239 255
227 239 255
227 239 255
227 239 255
227 239 255
227 239 255
227 239 255
227 239 255
227 239 255
227 239 255
227 239 255
227 239 255
227 239 255
227 239 255
227 239 255
227 239 255
227 239 255
227 239 255
227 239 255
227 239 255
227 239 255
227 239 255
227 239 255
227 239 255
227 239 255
227 239 255
227 239 255
227 239 255
227 239 255
227 239 255
226 239 255
226 239 255
226 238 255
226 238 255
226 238 255
226 238 255
226 238 255
226 238 255
226 238 255
226 238 255
226 238 255
226 238 255
226 238 255
226 238 255
226 238 255
226 238 255
226 238 255
226 238 255
226 238 255
226 238 255
226 238 255
226 238 255
226 238 255
226 238 255
226 238 255
226 238 255
226 238 255
226 238 255
226 238 255
226 238 255
226 238 255
226 238 255
226 238 255
226 238 255
226 238 255
226 238 255
226 238 255
226 238 255
226 238 255
226 238 255
226 238 255
226 238 255
226 238 255
226 239 255
226 239 255
227 239 255
227 239 255
227 239 255
227 239 255
227 239 255
227 239 255
227 239 255
227 239 255
227 239 255
227 239 255
227 239 255
227 239 255
227 239 255
227 239 255
227 239 255
227 239 255
227 239 255
227 239 255
227 239 255
227 239 255
227 239 255
227 239 255
227 239 255
227 239 255
227 239 255
227 239 255
227 239 255
227 239 255
227 239 255
227 239 255
227 239 255
227 239 255
227 239 255
227 239 255
227 239 255
227 239 255
227 239 255
227 239 255
227 239 255
227 239 255
227 239 255
227 239 255
227 239 255
227 239 255
228 239 255
228 239 255
228 239 255
228 239 255
228 239 255
228 239 255
228 239 255
228 239 255
228 239 255
228 239 255
228 239 255
228 239 255
228 239 255
228 239 255
228 239 255
228 239 255
228 239 255
228 239 255
228 239 255
228 239 255
228 239 255
228 239 255
228 239 255
228 239 255
228 239 255
228 239 255
228 240 255
228 240 255
228 240 255
228 240 255
228 240 255
228 240 255
228 240 255
224 236 244
212 226 206
204 221 184
198 216 163
192 211 135
182 203 80
174 197 0
174 197 0
175 198 0
175 198 0
176 199 0
175 198 0
175 198 0
174 198 0
175 198 0
175 198 0
175 198 0
175 198 0
175 198 0
174 197 0
174 198 0
174 198 0
175 198 0
175 198 0
176 198 0
175 198 0
175 198 0
175 198 0
175 198 0
174 197 0
174 198 0
174 198 0
174 198 0
175 198 0
173 197 0
175 198 0
175 198 0
175 198 0
174 197 0
173 197 0
173 197 0
174 198 0
175 198 0
174 198 0
175 198 0
175 198 0
174 198 0
175 198 0
174 198 0
174 198 0
175 198 0
175 198 0
174 198 0
174 198 0
174 198 0
173 197 0
173 197 0
175 198 0
174 198 0
175 198 0
174 198 0
173 197 0
174 198 0
174 198 0
173 197 0
175 198 0
176 199 0
173 197 0
173 197 0
176 199 0
173 197 0
175 198 0
174 197 0
175 198 0
174 198 0
173 197 0
174 198 0
175 198 0
175 198 0
173 197 0
175 198 0
174 197 0
175 198 0
173 197 0
176 199 0
174 198 0
175 198 0
174 198 0
175 198 0
175 198 0
175 198 0
173 197 0
175 198 0
174 197 0
173 197 0
174 198 0
173 197 0
174 198 0
173 197 0
174 198 0
175 198 0
174 198 0
175 198 0
175 198 0
174 197 0
175 198 0
173 197 0
173 197 0
173 197 0
176 198 0
173 197 0
174 198 0
175 198 0
173 197 0
174 198 0
174 198 0
176 198 0
174 198 0
173 197 0
175 198 0
175 198 0
175 198 0
174 198 0
174 197 0
174 198 0
175 198 0
175 198 0
173 197 0
175 198 0
175 198 0
175 198 0
175 198 0
174 197 0
175 198 0
174 198 0
173 197 0
174 198 0
174 197 0
174 197 0
175 198 0
175 198 0
176 199 0
173 197 0
175 198 0
176 199 0
175 198 0
173 197 0
176 199 0
174 198 0
174 197 0
175 198 0
174 198 0
174 198 0
175 198 0
176 198 0
174 198 0
174 198 0
174 198 0
174 198 0
174 197 0
173 197 0
174 198 0
175 198 0
175 198 0
174 198 0
176 199 0
173 197 0
175 198 0
174 198 0
175 198 0
175 198 0
176 199 0
174 197 0
173 197 0
174 197 0
175 198 0
174 198 0
175 198 0
175 198 0
174 197 0
176 199 0
176 199 0
173 197 0
175 198 0
174 197 0
174 198 0
174 198 0
175 198 0
175 198 0
173 197 0
174 198 0
175 198 0
175 198 0
176 199 0
175 198 0
175 198 0
174 198 0
175 198 0
174 197 0
176 199 0
175 198 0
175 198 0
180 202 76
192 211 130
201 218 171
208 223 196
214 229 217
224 236 244
228 240 255
228 240 255
228 240 255
228 240 255
228 240 255
228 240 255
228 240 255
228 239 255
228 239 255
228 239 255
228 239 255
228 239 255
228 239 255
228 239 255
228 239 255
228 239 255
228 239 255
228 239 255
228 239 255
228 239 255
228 239 255
228 239 255
228 239 255
228 239 255
228 239 255
228 239 255
228 239 255
228 239 255
228 239 255
228 239 255
228 239 255
228 239 255
228 239 255
227 239 255
227 239 255
227 239 255
227 239 255
227 239 255
227 239 255
227 239 255
227 239 255
227 239 255
227 239 255
227 239 255
227 239 255
227 239 255
227 239 255
227 239 255
227 239 255
227 239 255
227 239 255
227 239 255
227 239 255
227 239 255
227 239 255
227 239 255
227 239 255
227 239 255
227 239 255
227 239 255
227 239 255
227 239 255
227 239 255
227 239 255
227 239 255
227 239 255
227 239 255
227 239 255
227 239 255
227 239 255
227 239 255
227 239 255
227 239 255
227 239 255
227 239 255
227 239 255
227 239 255
226 239 255
226 239 255
226 238 255
226 238 255
226 238 255
226 238 255
226 238 255
226 238 255
226 238 255
226 238 255
226 238 255
226 238 255
226 238 255
226 238 255
226 238 255
226 238 255
226 238 255
226 238 255
226 238 255
226 238 255
226 238 255
226 238 255
226 238 255
226 238 255
226 238 255
226 238 255
226 238 255
226 238 255
226 238 255
226 239 255
226 239 255
227 239 255
227 239 255
227 239 255
227 239 255
227 239 255
227 239 255
227 239 255
227 239 255
227 239 255
227 239 255
227 239 255
227 239 255
227 239 255
227 239 255
227 239 255
227 239 255
227 239 255
227 239 255
227 239 255
227 239 255
227 239 255
227 239 255
227 239 255
227 239 255
227 239 255
227 239 255
227 239 255
227 239 255
227 239 255
227 239 255
227 239 255
227 239 255
227 239 255
227 239 255
227 239 255
227 239 255
227 239 255
227 239 255
227 239 255
227 239 255
227 239 255
227 239 255
227 239 255
227 239 255
228 239 255
228 239 255
228 239 255
228 239 255
228 239 255
228 239 255
228 239 255
228 239 255
228 239 255
228 239 255
228 239 255
228 239 255
228 239 255
228 239 255
228 239 255
228 239 255
228 239 255
228 239 255
228 239 255
228 239 255
228 239 255
228 239 255
228 239 255
228 239 255
228 239 255
228 239 255
228 240 255
228 240 255
228 240 255
228 240 255
228 240 255
228 240 255
228 240 255
228 240 255
227 238 250
213 228 214
212 227 207
201 218 169
191 210 135
179 202 72
175 198 0
176 198 0
175 198 0
175 198 0
174 198 0
176 199 0
175 198 0
174 198 0
174 198 0
173 197 0
175 198 0
176 199 0
172 196 0
173 197 0
174 197 0
175 198 0
176 199 0
174 198 0
175 198 0
174 198 0
175 198 0
174 198 0
175 198 0
175 198 0
174 198 0
175 198 0
175 198 0
176 199 0
175 198 0
174 198 0
175 198 0
175 198 0
175 198 0
174 198 0
175 198 0
174 198 0
174 198 0
174 198 0
174 198 0
175 198 0
173 197 0
175 198 0
175 198 0
174 198 0
174 198 0
176 199 0
176 199 0
174 198 0
174 198 0
175 198 0
173 197 0
176 199 0
174 198 0
173 197 0
175 198 0
175 198 0
174 198 0
174 197 0
175 198 0
175 198 0
175 198 0
175 198 0
175 198 0
175 198 0
174 197 0
173 197 0
175 198 0
176 198 0
175 198 0
174 198 0
175 198 0
175 198 0
176 199 0
174 198 0
173 197 0
174 198 0
174 198 0
175 198 0
175 198 0
174 197 0
172 197 0
174 198 0
174 198 0
174 198 0
173 197 0
174 198 0
174 198 0
175 198 0
175 198 0
175 198 0
173 197 0
174 198 0
175 198 0
176 198 0
174 198 0
175 198 0
175 198 0
174 197 0
174 198 0
175 198 0
174 198 0
175 198 0
176 198 0
174 198 0
173 197 0
174 197 0
173 197 0
174 197 0
174 197 0
175 198 0
176 199 0
176 199 0
174 197 0
176 198 0
175 198 0
175 198 0
173 197 0
173 197 0
173 197 0
175 198 0
174 198 0
174 197 0
174 197 0
174 198 0
175 198 0
174 198 0
174 198 0
175 198 0
174 198 0
174 198 0
174 198 0
174 198 0
176 199 0
176 198 0
177 199 0
175 198 0
175 198 0
174 198 0
175 198 0
175 198 0
175 198 0
175 198 0
175 198 0
174 197 0
173 197 0
175 198 0
174 198 0
176 199 0
174 198 0
176 199 0
175 198 0
174 198 0
174 198 0
175 198 0
174 198 0
174 198 0
173 197 0
174 197 0
175 198 0
175 198 0
174 198 0
174 198 0
175 198 0
175 198 0
174 198 0
175 198 0
174 198 0
175 198 0
174 198 0
176 199 0
175 198 0
175 198 0
175 198 0
175 198 0
174 198 0
174 198 0
175 198 0
173 197 0
176 199 0
174 198 0
174 198 0
175 198 0
175 198 0
175 198 0
173 197 0
174 198 0
174 197 0
174 198 0
175 198 0
177 199 0
176 198 0
173 197 0
174 198 0
174 198 0
175 198 0
175 198 0
175 198 0
173 197 0
174 198 0
175 198 0
174 198 0
174 198 0
174 198 0
175 198 0
174 198 0
175 198 0
173 197 0
175 198 0
179 201 67
188 208 122
202 219 175
204 220 182
222 235 237
227 238 252
228 240 255
228 240 255
228 240 255
228 240 255
228 240 255
228 240 255
228 240 255
228 239 255
228 239 255
228 239 255
228 239 255
228 239 255
228 239 255
228 239 255
228 239 255
228 239 255
228 239 255
228 239 255
228 239 255
228 239 255
228 239 255
228 239 255
228 239 255
228 239 255
228 239 255
228 239 255
228 239 255
228 239 255
228 239 255
228 239 255
228 239 255
228 239 255
228 239 255
227 239 255
227 239 255
227 239 255
227 239 255
227 239 255
227 239 255
227 239 255
227 239 255
227 239 255
227 239 255
227 239 255
227 239 255
227 239 255
227 239 255
227 239 255
227 239 255
227 239 255
227 239 255
227 239 255
227 239 255
227 239 255
227 239 255
227 239 255
227 239 255
227 239 255
227 239 255
227 239 255
227 239 255
227 239 255
227 239 255
227 239 255
227 239 255
227 239 255
227 239 255
227 239 255
227 239 255
227 239 255
227 239 255
227 239 255
227 239 255
227 239 255
227 239 255
227 239 255
227 239 255
227 239 255
226 239 255
226 238 255
226 238 255
226 238 255
226 238 255
226 238 255
226 238 255
226 238 255
226 238 255
226 238 255
226 238 255
226 238 255
226 238 255
226 238 255
226 238 255
226 238 255
226 239 255
226 239 255
227 239 255
227 239 255
227 239 255
227 239 255
227 239 255
227 239 255
227 239 255
227 239 255
227 239 255
227 239 255
227 239 255
227 239 255
227 239 255
227 239 255
227 239 255
227 239 255
227 239 255
227 239 255
227 239 255
227 239 255
227 239 255
227 239 255
227 239 255
227 239 255
227 239 255
227 239 255
227 239 255
227 239 255
227 239 255
227 239 255
227 239 255
227 239 255
227 239 255
227 239 255
227 239 255
227 239 255
227 239 255
227 239 255
227 239 255
227 239 255
227 239 255
227 239 255
227 239 255
227 239 255
228 239 255
228 239 255
228 239 255
228 239 255
228 239 255
228 239 255
228 239 255
228 239 255
228 239 255
228 239 255
228 239 255
228 239 255
228 239 255
228 239 255
228 239 255
228 239 255
228 239 255
228 239 255
228 239 255
228 239 255
228 239 255
228 239 255
228 239 255
228 239 255
228 239 255
228 239 255
228 240 255
228 240 255
228 240 255
228 240 255
228 240 255
228 240 255
228 240 255
228 240 255
228 239 253
219 232 228
214 228 214
202 219 173
189 209 120
183 204 88
174 198 0
175 198 0
174 198 0
177 199 0
176 199 0
174 197 0
176 198 0
175 198 0
175 198 0
175 198 0
175 198 0
174 197 0
176 198 0
175 198 0
175 198 0
173 197 0
175 198 0
175 198 0
174 197 0
174 198 0
172 197 0
176 198 0
175 198 0
174 198 0
178 200 0
175 198 0
175 198 0
176 199 0
174 198 0
174 197 0
174 197 0
175 198 0
174 198 0
174 198 0
175 198 0
176 199 0
174 198 0
176 199 0
175 198 0
175 198 0
175 198 0
175 198 0
174 198 0
175 198 0
175 198 0
176 199 0
174 198 0
174 197 0
175 198 0
174 198 0
174 198 0
174 197 0
174 198 0
175 198 0
174 198 0
174 197 0
176 199 0
174 198 0
176 199 0
175 198 0
174 197 0
174 198 0
174 198 0
175 198 0
175 198 0
173 197 0
175 198 0
173 197 0
174 198 0
175 198 0
175 198 0
175 198 0
174 198 0
174 198 0
175 198 0
175 198 0
174 197 0
174 198 0
174 198 0
174 198 0
173 197 0
176 198 0
174 198 0
175 198 0
175 198 0
175 198 0
175 198 0
175 198 0
173 197 0
173 197 0
175 198 0
175 198 0
175 198 0
175 198 0
174 197 0
174 197 0
175 198 0
174 197 0
174 198 0
175 198 0
173 197 0
175 198 0
173 197 0
175 198 0
174 198 0
172 196 0
175 198 0
173 197 0
174 198 0
174 197 0
175 198 0
173 197 0
174 197 0
172 196 0
175 198 0
173 197 0
176 199 0
175 198 0
174 198 0
172 196 0
174 198 0
174 198 0
176 199 0
173 197 0
172 196 0
174 197 0
174 198 0
175 198 0
173 197 0
175 198 0
173 197 0
173 197 0
175 198 0
175 198 0
175 198 0
174 198 0
175 198 0
175 198 0
177 199 0
173 197 0
176 199 0
175 198 0
175 198 0
174 198 0
174 197 0
175 198 0
176 199 0
175 198 0
175 198 0
175 198 0
173 197 0
174 197 0
174 198 0
176 199 0
173 197 0
175 198 0
175 198 0
174 198 0
176 199 0
174 198 0
173 197 0
173 197 0
174 198 0
174 197 0
174 198 0
174 198 0
175 198 0
174 197 0
175 198 0
175 198 0
174 198 0
174 197 0
175 198 0
173 197 0
173 197 0
174 198 0
174 197 0
176 199 0
175 198 0
176 199 0
175 198 0
173 197 0
175 198 0
175 198 0
175 198 0
173 197 0
174 197 0
173 197 0
175 198 0
173 197 0
173 197 0
173 197 0
173 197 0
175 198 0
174 198 0
174 198 0
175 198 0
175 198 0
176 199 0
175 198 0
174 197 0
174 198 0
175 198 0
176 199 0
175 198 0
175 198 0
174 198 0
173 197 0
175 198 0
175 198 0
174 198 0
174 198 0
174 197 0
176 198 0
176 198 0
174 197 0
174 197 0
174 198 0
173 197 0
176 199 0
180 202 76
198 216 161
203 220 179
209 224 199
219 232 228
228 239 254
228 240 255
228 240 255
228 240 255
228 240 255
228 240 255
228 240 255
228 240 255
228 240 255
228 239 255
228 239 255
228 239 255
228 239 255
228 239 255
228 239 255
228 239 255
228 239 255
228 239 255
228 239 255
228 239 255
228 239 255
228 239 255
228 239 255
228 239 255
228 239 255
228 239 255
228 239 255
228 239 255
228 239 255
228 239 255
228 239 255
228 239 255
228 239 255
228 239 255
228 239 255
227 239 255
227 239 255
227 239 255
227 239 255
227 239 255
227 239 255
227 239 255
227 239 255
227 239 255
227 239 255
227 239 255
227 239 255
227 239 255
227 239 255
227 239 255
227 239 255
227 239 255
227 239 255
227 239 255
227 239 255
227 239 255
227 239 255
227 239 255
227 239 255
227 239 255
227 239 255
227 239 255
227 239 255
227 239 255
227 239 255
227 239 255
227 239 255
227 239 255
227 239 255
227 239 255
227 239 255
227 239 255
227 239 255
227 239 255
227 239 255
227 239 255
227 239 255
227 239 255
227 239 255
227 239 255
226 239 255
226 239 255
226 238 255
226 238 255
226 238 255
227 239 255
227 239 255
227 239 255
227 239 255
227 239 255
227 239 255
227 239 255
227 239 255
227 239 255
227 239 255
227 239 255
227 239 255
227 239 255
227 239 255
227 239 255
227 239 255
227 239 255
227 239 255
227 239 255
227 239 255
227 239 255
227 239 255
227 239 255
227 239 255
227 239 255
227 239 255
227 239 255
227 239 255
227 239 255
227 239 255
227 239 255
227 239 255
227 239 255
227 239 255
227 239 255
227 239 255
227 239 255
227 239 255
227 239 255
227 239 255
227 239 255
227 239 255
227 239 255
227 239 255
228 239 255
228 239 255
228 239 255
228 239 255
228 239 255
228 239 255
228 239 255
228 239 255
228 239 255
228 239 255
228 239 255
228 239 255
228 239 255
228 239 255
228 239 255
228 239 255
228 239 255
228 239 255
228 239 255
228 239 255
228 239 255
228 239 255
228 239 255
228 239 255
228 239 255
228 239 255
228 240 255
228 240 255
228 240 255
228 240 255
228 240 255
228 240 255
228 240 255
228 240 255
228 240 255
224 236 244
216 230 220
208 223 194
195 214 153
183 204 95
174 198 0
174 198 0
175 198 0
174 198 0
174 197 0
175 198 0
175 198 0
174 198 0
175 198 0
176 199 0
174 198 0
175 198 0
175 198 0
174 198 0
173 197 0
174 198 0
174 198 0
174 198 0
174 198 0
174 198 0
175 198 0
176 198 0
174 198 0
174 198 0
175 198 0
174 197 0
176 199 0
175 198 0
174 198 0
176 198 0
174 197 0
174 197 0
176 199 0
176 199 0
175 198 0
174 198 0
174 197 0
174 197 0
175 198 0
175 198 0
172 197 0
174 198 0
174 198 0
175 198 0
173 197 0
173 197 0
175 198 0
174 198 0
175 198 0
175 198 0
175 198 0
174 197 0
174 198 0
174 198 0
175 198 0
175 198 0
173 197 0
176 199 0
174 198 0
175 198 0
174 198 0
175 198 0
174 198 0
175 198 0
176 199 0
175 198 0
175 198 0
174 198 0
175 198 0
175 198 0
174 198 0
175 198 0
175 198 0
175 198 0
173 197 0
178 200 0
174 198 0
174 198 0
174 198 0
174 198 0
173 197 0
174 197 0
173 197 0
175 198 0
173 197 0
174 198 0
174 198 0
174 198 0
174 198 0
173 197 0
175 198 0
174 197 0
175 198 0
172 197 0
174 198 0
174 198 0
174 197 0
174 198 0
173 197 0
174 198 0
174 198 0
175 198 0
176 199 0
173 197 0
175 198 0
175 198 0
175 198 0
175 198 0
174 198 0
176 199 0
175 198 0
175 198 0
174 197 0
176 199 0
175 198 0
175 198 0
175 198 0
175 198 0
174 197 0
175 198 0
176 199 0
175 198 0
175 198 0
173 197 0
174 197 0
175 198 0
172 196 0
175 198 0
174 198 0
174 198 0
174 198 0
175 198 0
176 198 0
175 198 0
176 198 0
174 197 0
174 198 0
174 198 0
174 198 0
175 198 0
172 197 0
175 198 0
176 198 0
174 198 0
174 197 0
174 198 0
175 198 0
175 198 0
173 197 0
175 198 0
174 198 0
175 198 0
173 197 0
175 198 0
175 198 0
176 199 0
174 198 0
175 198 0
175 198 0
174 197 0
175 198 0
176 198 0
175 198 0
174 198 0
174 198 0
174 198 0
176 199 0
174 197 0
175 198 0
175 198 0
174 198 0
175 198 0
175 198 0
175 198 0
175 198 0
173 197 0
174 198 0
174 197 0
174 197 0
175 198 0
175 198 0
174 197 0
175 198 0
174 198 0
174 198 0
174 198 0
175 198 0
175 198 0
176 198 0
172 196 0
176 199 0
173 197 0
175 198 0
175 198 0
176 199 0
174 198 0
175 198 0
174 198 0
176 199 0
173 197 0
174 197 0
174 197 0
176 199 0
175 198 0
174 198 0
172 197 0
173 197 0
174 198 0
176 198 0
174 198 0
175 198 0
175 198 0
176 199 0
174 197 0
174 197 0
174 197 0
175 198 0
175 198 0
174 197 0
175 198 0
174 198 0
174 198 0
175 198 0
176 199 0
175 198 0
175 198 0
176 199 0
174 198 0
174 198 0
175 198 0
175 198 0
177 200 44
187 207 114
193 212 144
209 224 198
215 229 218
225 237 246
228 240 255
228 240 255
228 240 255
228 240 255
228 240 255
228 240 255
228 240 255
228 240 255
228 240 255
228 239 255
228 239 255
228 239 255
228 239 255
228 239 255
228 239 255
228 239 255
228 239 255
228 239 255
228 239 255
228 239 255
228 239 255
228 239 255
228 239 255
228 239 255
228 239 255
228 239 255
228 239 255
228 239 255
228 239 255
228 239 255
228 239 255
228 239 255
228 239 255
228 239 255
228 239 255
227 239 255
227 239 255
227 239 255
227 239 255
227 239 255
227 239 255
227 239 255
227 239 255
227 239 255
227 239 255
227 239 255
227 239 255
227 239 255
227 239 255
227 239 255
227 239 255
227 239 255
227 239 255
227 239 255
227 239 255
227 239 255
227 239 255
227 239 255
227 239 255
227 239 255
227 239 255
227 239 255
227 239 255
227 239 255
227 239 255
227 239 255
227 239 255
227 239 255
227 239 255
227 239 255
227 239 255
227 239 255
227 239 255
227 239 255
227 239 255
227 239 255
227 239 255
227 239 255
227 239 255
227 239 255
227 239 255
227 239 255
227 239 255
227 239 255
227 239 255
227 239 255
227 239 255
227 239 255
227 239 255
227 239 255
227 239 255
227 239 255
227 239 255
227 239 255
227 239 255
227 239 255
227 239 255
227 239 255
227 239 255
227 239 255
227 239 255
227 239 255
227 239 255
227 239 255
227 239 255
227 239 255
227 239 255
227 239 255
227 239 255
227 239 255
227 239 255
227 239 255
227 239 255
227 239 255
227 239 255
227 239 255
228 239 255
228 239 255
228 239 255
228 239 255
228 239 255
228 239 255
228 239 255
228 239 255
228 239 255
228 239 255
228 239 255
228 239 255
228 239 255
228 239 255
228 239 255
228 239 255
228 239 255
228 239 255
228 239 255
228 239 255
228 239 255
228 239 255
228 239 255
228 239 255
228 239 255
228 239 255
228 239 255
228 240 255
228 240 255
228 240 255
228 240 255
228 240 255
228 240 255
228 240 255
228 240 255
228 240 255
229 240 255
223 235 240
214 228 215
199 217 169
192 211 142
178 201 72
177 199 0
174 198 0
177 199 0
174 198 0
175 198 0
174 197 0
175 198 0
174 198 0
175 198 0
174 197 0
175 198 0
176 199 0
175 198 0
175 198 0
175 198 0
174 198 0
173 197 0
174 198 0
175 198 0
175 198 0
177 199 0
174 198 0
174 198 0
172 197 0
173 197 0
176 199 0
174 198 0
174 198 0
174 198 0
174 198 0
175 198 0
175 198 0
174 197 0
175 198 0
176 199 0
175 198 0
177 199 0
176 199 0
175 198 0
174 197 0
173 197 0
175 198 0
176 198 0
175 198 0
175 198 0
174 198 0
175 198 0
175 198 0
174 198 0
175 198 0
175 198 0
175 198 0
176 199 0
175 198 0
176 199 0
175 198 0
174 197 0
174 198 0
172 197 0
175 198 0
175 198 0
173 197 0
174 198 0
173 197 0
175 198 0
174 197 0
175 198 0
175 198 0
175 198 0
173 197 0
174 198 0
176 199 0
176 198 0
176 199 0
173 197 0
173 197 0
174 198 0
174 198 0
173 197 0
176 199 0
176 199 0
174 198 0
174 197 0
174 198 0
173 197 0
175 198 0
174 198 0
174 197 0
173 197 0
174 197 0
173 197 0
174 197 0
176 199 0
174 197 0
174 198 0
174 197 0
175 198 0
175 198 0
174 197 0
173 197 0
175 198 0
175 198 0
174 197 0
173 197 0
175 198 0
173 197 0
175 198 0
173 197 0
175 198 0
174 197 0
176 198 0
174 198 0
175 198 0
174 198 0
174 198 0
174 198 0
174 198 0
174 198 0
174 198 0
173 197 0
175 198 0
173 197 0
175 198 0
174 198 0
174 198 0
175 198 0
175 198 0
174 198 0
177 199 0
174 197 0
175 198 0
174 198 0
174 198 0
174 198 0
174 198 0
174 198 0
175 198 0
176 199 0
174 197 0
176 198 0
174 198 0
172 197 0
173 197 0
173 197 0
174 198 0
174 198 0
175 198 0
173 197 0
173 197 0
174 198 0
174 198 0
172 197 0
175 198 0
174 198 0
175 198 0
173 197 0
174 198 0
175 198 0
175 198 0
175 198 0
174 198 0
175 198 0
176 199 0
175 198 0
175 198 0
173 197 0
173 197 0
174 198 0
175 198 0
175 198 0
175 198 0
175 198 0
175 198 0
175 198 0
172 197 0
175 198 0
175 198 0
175 198 0
174 198 0
173 197 0
173 197 0
174 198 0
173 197 0
175 198 0
174 198 0
175 198 0
175 198 0
175 198 0
176 199 0
175 198 0
174 198 0
175 198 0
173 197 0
174 198 0
175 198 0
175 198 0
176 199 0
173 197 0
175 198 0
174 198 0
173 197 0
174 198 0
176 199 0
176 199 0
173 197 0
175 198 0
174 198 0
175 198 0
174 197 0
174 198 0
175 198 0
173 197 0
174 198 0
173 197 0
175 198 0
173 197 0
174 198 0
173 197 0
175 198 0
174 198 0
174 198 0
175 198 0
175 198 0
174 198 0
176 199 0
176 199 0
174 198 0
176 199 0
175 198 0
174 198 0
176 198 0
175 198 0
174 198 0
175 198 0
176 199 0
176 198 0
175 198 0
175 198 0
174 197 0
176 199 0
175 198 0
175 198 0
181 203 84
199 216 163
200 217 171
211 226 204
221 233 234
228 240 255
228 240 255
228 240 255
228 240 255
228 240 255
228 240 255
228 240 255
228 240 255
228 240 255
228 240 255
228 239 255
228 239 255
228 239 255
228 239 255
228 239 255
228 239 255
228 239 255
228 239 255
228 239 255
228 239 255
228 239 255
228 239 255
228 239 255
228 239 255
228 239 255
228 239 255
228 239 255
228 239 255
228 239 255
228 239 255
228 239 255
228 239 255
228 239 255
228 239 255
228 239 255
228 239 255
227 239 255
227 239 255
227 239 255
227 239 255
227 239 255
227 239 255
227 239 255
227 239 255
227 239 255
227 239 255
227 239 255
227 239 255
227 239 255
227 239 255
227 239 255
227 239 255
227 239 255
227 239 255
227 239 255
227 239 255
227 239 255
227 239 255
227 239 255
227 239 255
227 239 255
227 239 255
227 239 255
227 239 255
227 239 255
227 239 255
227 239 255
227 239 255
227 239 255
227 239 255
227 239 255
227 239 255
227 239 255
227 239 255
227 239 255
227 239 255
227 239 255
227 239 255
227 239 255
227 239 255
227 239 255
227 239 255
227 239 255
227 239 255
227 239 255
227 239 255
227 239 255
227 239 255
227 239 255
227 239 255
227 239 255
227 239 255
227 239 255
227 239 255
227 239 255
227 239 255
227 239 255
227 239 255
227 239 255
227 239 255
227 239 255
227 239 255
227 239 255
227 239 255
227 239 255
228 239 255
228 239 255
228 239 255
228 239 255
228 239 255
228 239 255
228 239 255
228 239 255
228 239 255
228 239 255
228 239 255
228 239 255
228 239 255
228 239 255
228 239 255
228 239 255
228 239 255
228 239 255
228 239 255
228 239 255
228 239 255
228 239 255
228 239 255
228 239 255
228 239 255
228 239 255
228 239 255
228 240 255
228 240 255
228 240 255
228 240 255
228 240 255
228 240 255
228 240 255
228 240 255
228 240 255
228 240 255
229 240 255
219 232 227
208 223 193
199 216 161
192 211 137
177 200 44
176 199 0
175 198 0
174 197 0
174 198 0
174 198 0
175 198 0
173 197 0
175 198 0
175 198 0
174 197 0
174 198 0
174 198 0
174 198 0
175 198 0
175 198 0
174 198 0
174 198 0
175 198 0
175 198 0
175 198 0
175 198 0
174 198 0
176 199 0
175 198 0
175 198 0
174 198 0
174 197 0
175 198 0
174 198 0
175 198 0
176 199 0
173 197 0
172 197 0
176 199 0
174 198 0
174 198 0
174 198 0
173 197 0
175 198 0
174 197 0
175 198 0
175 198 0
175 198 0
173 197 0
176 198 0
174 197 0
176 198 0
174 198 0
176 199 0
174 197 0
176 199 0
173 197 0
174 198 0
173 197 0
175 198 0
175 198 0
175 198 0
174 198 0
175 198 0
174 198 0
176 198 0
174 198 0
173 197 0
174 197 0
174 197 0
175 198 0
175 198 0
174 198 0
173 197 0
173 197 0
175 198 0
175 198 0
175 198 0
174 198 0
175 198 0
173 197 0
174 197 0
174 197 0
174 198 0
174 198 0
174 198 0
176 199 0
175 198 0
175 198 0
173 197 0
175 198 0
174 198 0
174 198 0
175 198 0
176 199 0
174 198 0
174 197 0
176 199 0
174 198 0
174 198 0
175 198 0
173 197 0
174 198 0
173 197 0
175 198 0
175 198 0
174 198 0
174 198 0
175 198 0
174 197 0
175 198 0
176 199 0
174 198 0
174 197 0
173 197 0
174 198 0
174 197 0
174 197 0
174 197 0
174 198 0
176 198 0
175 198 0
173 197 0
175 198 0
175 198 0
174 198 0
174 197 0
173 197 0
175 198 0
175 198 0
175 198 0
174 198 0
174 198 0
174 198 0
173 197 0
174 197 0
175 198 0
173 197 0
176 199 0
174 198 0
174 198 0
174 197 0
174 197 0
174 197 0
174 198 0
174 198 0
174 198 0
174 198 0
175 198 0
176 199 0
175 198 0
175 198 0
174 198 0
174 197 0
174 198 0
174 198 0
174 198 0
175 198 0
175 198 0
174 198 0
175 198 0
173 197 0
174 198 0
174 198 0
173 197 0
175 198 0
174 197 0
174 198 0
174 198 0
174 197 0
175 198 0
174 197 0
173 197 0
175 198 0
174 198 0
174 198 0
174 197 0
175 198 0
175 198 0
175 198 0
173 197 0
174 198 0
177 199 0
173 197 0
174 198 0
174 198 0
173 197 0
175 198 0
174 198 0
174 198 0
173 197 0
176 199 0
174 198 0
174 198 0
176 199 0
176 198 0
175 198 0
174 198 0
176 199 0
176 199 0
174 198 0
175 198 0
174 198 0
175 198 0
175 198 0
175 198 0
174 198 0
175 198 0
174 198 0
175 198 0
175 198 0
176 199 0
175 198 0
176 199 0
174 198 0
173 197 0
174 198 0
176 199 0
176 198 0
175 198 0
174 198 0
174 197 0
174 198 0
174 198 0
175 198 0
174 198 0
172 197 0
174 197 0
173 197 0
175 198 0
175 198 0
175 198 0
176 198 0
175 198 0
176 199 0
177 199 0
175 198 0
175 198 0
175 198 0
174 198 0
176 199 0
176 198 0
173 197 0
175 198 0
175 198 0
174 198 0
175 198 0
175 198 0
176 198 0
175 198 0
174 198 0
176 198 0
175 198 0
175 198 0
174 198 0
175 198 0
175 198 0
178 200 57
191 210 130
205 221 186
216 230 220
221 233 233
228 239 253
228 240 255
228 240 255
228 240 255
228 240 255
228 240 255
228 240 255
228 240 255
228 240 255
228 240 255
228 240 255
228 239 255
228 239 255
228 239 255
228 239 255
228 239 255
228 239 255
228 239 255
228 239 255
228 239 255
228 239 255
228 239 255
228 239 255
228 239 255
228 239 255
228 239 255
228 239 255
228 239 255
228 239 255
228 239 255
228 239 255
228 239 255
228 239 255
228 239 255
228 239 255
228 239 255
228 239 255
227 239 255
227 239 255
227 239 255
227 239 255
227 239 255
227 239 255
227 239 255
227 239 255
227 239 255
227 239 255
227 239 255
227 239 255
227 239 255
227 239 255
227 239 255
227 239 255
227 239 255
227 239 255
227 239 255
227 239 255
227 239 255
227 239 255
227 239 255
227 239 255
227 239 255
227 239 255
227 239 255
227 239 255
227 239 255
227 239 255
227 239 255
227 239 255
227 239 255
227 239 255
227 239 255
227 239 255
227 239 255
227 239 255
227 239 255
227 239 255
227 239 255
227 239 255
227 239 255
227 239 255
227 239 255
227 239 255
227 239 255
227 239 255
227 239 255
227 239 255
227 239 255
227 239 255
227 239 255
227 239 255
227 239 255
227 239 255
227 239 255
227 239 255
228 239 255
228 239 255
228 239 255
228 239 255
228 239 255
228 239 255
228 239 255
228 239 255
228 239 255
228 239 255
228 239 255
228 239 255
228 239 255
228 239 255
228 239 255
228 239 255
228 239 255
228 239 255
228 239 255
228 239 255
228 239 255
228 239 255
228 239 255
228 239 255
228 239 255
228 239 255
228 240 255
228 240 255
228 240 255
228 240 255
228 240 255
228 240 255
228 240 255
228 240 255
228 240 255
228 240 255
229 240 255
227 238 250
221 234 236
206 222 189
198 216 163
192 211 135
176 199 25
173 197 0
175 198 0
175 198 0
174 198 0
175 198 0
174 198 0
175 198 0
175 198 0
174 197 0
174 197 0
175 198 0
175 198 0
174 198 0
175 198 0
175 198 0
175 198 0
175 198 0
174 197 0
177 199 0
176 198 0
174 198 0
176 199 0
174 198 0
174 197 0
173 197 0
175 198 0
175 198 0
174 198 0
174 197 0
175 198 0
175 198 0
174 198 0
175 198 0
176 199 0
175 198 0
174 197 0
175 198 0
174 197 0
174 198 0
175 198 0
173 197 0
174 198 0
175 198 0
175 198 0
175 198 0
174 197 0
175 198 0
175 198 0
174 198 0
174 198 0
176 198 0
176 199 0
176 199 0
175 198 0
175 198 0
174 197 0
175 198 0
174 198 0
173 197 0
174 198 0
175 198 0
176 199 0
174 198 0
174 198 0
174 198 0
174 198 0
175 198 0
174 197 0
173 197 0
174 198 0
173 197 0
175 198 0
173 197 0
173 197 0
175 198 0
175 198 0
176 199 0
173 197 0
172 197 0
176 199 0
173 197 0
174 197 0
174 198 0
175 198 0
174 198 0
174 198 0
174 198 0
175 198 0
173 197 0
175 198 0
173 197 0
175 198 0
175 198 0
174 198 0
173 196 0
175 198 0
173 197 0
174 198 0
175 198 0
174 198 0
174 197 0
176 199 0
175 197 0
174 197 0
175 198 0
173 197 0
173 197 0
175 198 0
174 198 0
174 197 0
176 199 0
174 198 0
174 198 0
175 198 0
175 198 0
175 198 0
176 198 0
174 197 0
173 197 0
172 197 0
173 197 0
175 198 0
174 198 0
174 198 0
174 198 0
173 197 0
174 198 0
173 197 0
176 199 0
175 198 0
173 197 0
174 198 0
175 198 0
175 198 0
174 198 0
175 198 0
175 198 0
173 197 0
174 197 0
175 198 0
173 197 0
173 197 0
174 198 0
176 199 0
174 197 0
174 197 0
174 197 0
176 199 0
174 198 0
175 198 0
174 198 0
175 198 0
175 198 0
174 198 0
173 197 0
173 197 0
173 197 0
174 197 0
174 198 0
174 197 0
177 199 0
174 197 0
173 197 0
174 198 0
174 198 0
174 198 0
175 198 0
175 198 0
175 198 0
174 198 0
175 198 0
175 198 0
175 198 0
175 198 0
175 198 0
173 197 0
176 199 0
175 198 0
173 197 0
176 198 0
174 198 0
176 198 0
174 197 0
176 199 0
175 198 0
174 198 0
175 198 0
175 198 0
174 198 0
174 197 0
174 198 0
174 198 0
176 199 0
174 198 0
172 196 0
174 198 0
174 198 0
173 197 0
174 198 0
175 198 0
175 198 0
173 197 0
175 198 0
174 197 0
173 197 0
175 198 0
175 198 0
176 199 0
174 198 0
177 199 0
175 198 0
174 197 0
175 198 0
174 197 0
174 198 0
175 198 0
175 198 0
175 198 0
175 198 0
174 197 0
174 197 0
174 198 0
174 198 0
176 199 0
175 198 0
175 198 0
175 198 0
175 198 0
176 199 0
176 199 0
175 198 0
175 198 0
175 198 0
175 198 0
174 197 0
175 198 0
175 198 0
175 198 0
175 198 0
175 198 0
175 198 0
174 198 0
172 196 0
175 198 0
174 198 0
173 197 0
175 198 0
175 198 0
175 198 0
176 199 0
175 198 0
174 198 0
174 198 0
174 198 0
174 198 0
175 198 0
175 198 0
175 198 0
175 198 0
175 198 0
176 199 0
176 199 0
176 199 44
186 206 105
203 219 179
210 225 203
222 234 237
227 239 252
229 240 255
228 240 255
228 240 255
228 240 255
228 240 255
228 240 255
228 240 255
228 240 255
228 240 255
228 240 255
228 240 255
228 239 255
228 239 255
228 239 255
228 239 255
228 239 255
228 239 255
228 239 255
228 239 255
228 239 255
228 239 255
228 239 255
228 239 255
228 239 255
228 239 255
228 239 255
228 239 255
228 239 255
228 239 255
228 239 255
228 239 255
228 239 255
228 239 255
228 239 255
228 239 255
228 239 255
228 239 255
227 239 255
227 239 255
227 239 255
227 239 255
227 239 255
227 239 255
227 239 255
227 239 255
227 239 255
227 239 255
227 239 255
227 239 255
227 239 255
227 239 255
227 239 255
227 239 255
227 239 255
227 239 255
227 239 255
227 239 255
227 239 255
227 239 255
227 239 255
227 239 255
227 239 255
227 239 255
227 239 255
227 239 255
227 239 255
227 239 255
227 239 255
227 239 255
227 239 255
227 239 255
227 239 255
227 239 255
227 239 255
227 239 255
227 239 255
227 239 255
227 239 255
227 239 255
227 239 255
227 239 255
227 239 255
227 239 255
228 239 255
228 239 255
228 239 255
228 239 255
228 239 255
228 239 255
228 239 255
228 239 255
228 239 255
228 239 255
228 239 255
228 239 255
228 239 255
228 239 255
228 239 255
228 239 255
228 239 255
228 239 255
228 239 255
228 239 255
228 239 255
228 239 255
228 239 255
228 239 255
228 239 255
228 239 255
228 239 255
228 240 255
228 240 255
228 240 255
228 240 255
228 240 255
228 240 255
228 240 255
228 240 255
228 240 255
228 240 255
229 240 255
227 239 252
223 235 240
205 221 188
201 218 171
186 206 105
175 199 36
174 198 0
174 197 0
174 198 0
173 197 0
175 198 0
175 198 0
175 198 0
175 198 0
174 198 0
174 198 0
174 198 0
175 198 0
175 198 0
175 198 0
174 198 0
174 198 0
175 198 0
174 197 0
175 198 0
175 198 0
175 198 0
174 197 0
173 197 0
174 198 0
173 197 0
173 197 0
174 198 0
173 197 0
176 199 0
176 199 0
174 198 0
175 198 0
174 198 0
175 198 0
175 198 0
173 197 0
175 198 0
174 198 0
174 197 0
174 197 0
173 197 0
174 198 0
174 198 0
173 197 0
176 199 0
173 197 0
174 197 0
175 198 0
175 198 0
175 198 0
174 198 0
175 198 0
174 198 0
175 198 0
175 198 0
174 198 0
175 198 0
173 197 0
175 198 0
173 197 0
175 198 0
175 198 0
172 197 0
175 198 0
176 199 0
174 197 0
174 198 0
173 197 0
175 198 0
174 198 0
175 198 0
174 197 0
174 197 0
175 198 0
175 198 0
173 197 0
176 198 0
175 198 0
175 198 0
172 197 0
175 198 0
175 198 0
175 198 0
174 198 0
175 198 0
174 198 0
174 197 0
176 199 0
174 198 0
173 197 0
176 199 0
175 198 0
173 197 0
175 198 0
176 199 0
175 198 0
174 197 0
174 198 0
174 198 0
173 197 0
175 198 0
173 197 0
174 198 0
175 198 0
174 198 0
175 198 0
174 198 0
174 197 0
173 197 0
174 198 0
174 197 0
173 197 0
174 198 0
175 198 0
175 198 0
174 198 0
173 197 0
175 198 0
174 198 0
174 197 0
174 197 0
175 198 0
174 197 0
173 197 0
174 198 0
173 197 0
174 198 0
174 197 0
174 198 0
173 197 0
174 197 0
174 198 0
174 198 0
175 198 0
174 198 0
174 198 0
175 198 0
174 197 0
174 198 0
174 198 0
175 198 0
174 197 0
175 198 0
174 198 0
176 198 0
175 198 0
175 198 0
176 199 0
172 196 0
173 197 0
173 197 0
175 198 0
173 197 0
173 197 0
174 198 0
175 198 0
175 198 0
176 198 0
176 199 0
175 198 0
174 198 0
174 198 0
175 198 0
174 197 0
173 197 0
174 198 0
175 198 0
174 198 0
175 198 0
176 198 0
174 197 0
174 197 0
174 198 0
175 198 0
175 198 0
174 198 0
174 197 0
174 198 0
173 197 0
175 198 0
175 198 0
175 198 0
175 198 0
175 198 0
175 198 0
174 198 0
175 198 0
173 197 0
176 198 0
175 198 0
174 198 0
175 198 0
175 198 0
173 197 0
174 198 0
174 197 0
174 198 0
177 199 0
175 198 0
174 197 0
175 198 0
173 197 0
172 197 0
173 197 0
174 197 0
174 198 0
174 198 0
173 197 0
175 198 0
175 198 0
177 199 0
174 198 0
175 198 0
175 198 0
173 197 0
175 198 0
175 198 0
174 197 0
176 198 0
174 198 0
174 198 0
176 198 0
173 197 0
174 198 0
176 199 0
175 198 0
177 199 0
175 198 0
175 198 0
174 198 0
174 198 0
173 197 0
176 199 0
175 198 0
175 198 0
174 198 0
176 199 0
174 197 0
174 198 0
174 197 0
175 198 0
174 198 0
172 196 0
174 197 0
175 198 0
173 197 0
175 198 0
174 198 0
175 198 0
175 198 0
174 198 0
175 198 0
175 198 0
176 199 0
175 198 0
175 198 0
174 198 0
174 198 0
175 198 0
174 197 0
175 198 0
175 198 0
174 198 0
175 198 0
174 198 0
173 197 0
175 198 0
176 198 0
174 198 0
174 198 0
175 198 0
175 198 0
177 199 44
186 207 114
198 215 157
207 223 193
222 234 237
227 239 252
229 240 255
228 240 255
228 240 255
228 240 255
228 240 255
228 240 255
228 240 255
228 240 255
228 240 255
228 240 255
228 240 255
228 239 255
228 239 255
228 239 255
228 239 255
228 239 255
228 239 255
228 239 255
228 239 255
228 239 255
228 239 255
228 239 255
228 239 255
228 239 255
228 239 255
228 239 255
228 239 255
228 239 255
228 239 255
228 239 255
228 239 255
228 239 255
228 239 255
228 239 255
228 239 255
228 239 255
228 239 255
228 239 255
228 239 255
227 239 255
227 239 255
227 239 255
227 239 255
227 239 255
227 239 255
227 239 255
227 239 255
227 239 255
227 239 255
227 239 255
227 239 255
227 239 255
227 239 255
227 239 255
227 239 255
227 239 255
227 239 255
227 239 255
227 239 255
227 239 255
227 239 255
227 239 255
227 239 255
227 239 255
227 239 255
227 239 255
227 239 255
227 239 255
227 239 255
227 239 255
227 239 255
227 239 255
228 239 255
228 239 255
228 239 255
228 239 255
228 239 255
228 239 255
228 239 255
228 239 255
228 239 255
228 239 255
228 239 255
228 239 255
228 239 255
228 239 255
228 239 255
228 239 255
228 239 255
228 239 255
228 239 255
228 239 255
228 239 255
228 239 255
228 239 255
228 239 255
228 239 255
228 239 255
228 239 255
228 239 255
228 240 255
228 240 255
228 240 255
228 240 255
228 240 255
228 240 255
228 240 255
228 240 255
228 240 255
229 240 255
229 240 255
229 240 255
220 233 231
211 226 206
198 216 161
186 207 111
176 199 44
175 198 0
174 198 0
174 197 0
174 198 0
174 198 0
175 198 0
175 198 0
176 199 0
174 198 0
176 199 0
174 198 0
175 198 0
175 198 0
173 197 0
173 197 0
174 198 0
174 198 0
174 197 0
175 198 0
174 198 0
174 197 0
175 198 0
174 198 0
174 198 0
174 197 0
174 198 0
174 198 0
174 197 0
175 198 0
175 198 0
175 198 0
173 197 0
175 198 0
175 198 0
174 198 0
175 198 0
175 198 0
174 198 0
174 198 0
176 199 0
173 197 0
173 197 0
175 198 0
175 198 0
175 198 0
174 198 0
176 199 0
175 198 0
173 197 0
172 197 0
175 198 0
174 197 0
174 197 0
174 197 0
175 198 0
174 198 0
174 198 0
175 198 0
176 199 0
173 197 0
175 198 0
174 197 0
174 198 0
176 198 0
175 198 0
176 198 0
174 198 0
175 198 0
175 198 0
175 198 0
175 198 0
175 198 0
175 198 0
175 198 0
175 198 0
174 198 0
175 198 0
176 199 0
176 199 0
174 198 0
174 197 0
174 198 0
175 198 0
174 198 0
175 198 0
174 198 0
172 197 0
174 198 0
174 198 0
174 197 0
174 197 0
174 197 0
175 198 0
174 197 0
176 199 0
174 197 0
175 198 0
174 198 0
173 197 0
174 198 0
175 198 0
174 197 0
174 198 0
174 197 0
174 198 0
175 198 0
174 198 0
175 198 0
173 197 0
174 198 0
174 198 0
174 198 0
174 198 0
175 198 0
176 199 0
174 198 0
175 198 0
174 198 0
174 198 0
174 198 0
174 197 0
174 198 0
174 198 0
172 197 0
173 197 0
173 197 0
173 197 0
176 199 0
173 197 0
174 198 0
176 199 0
174 197 0
175 198 0
173 197 0
174 198 0
174 198 0
176 198 0
173 197 0
174 197 0
175 198 0
174 198 0
175 198 0
173 197 0
174 198 0
173 197 0
174 197 0
175 198 0
173 197 0
175 198 0
174 197 0
176 198 0
174 197 0
175 198 0
175 198 0
173 197 0
176 199 0
171 196 0
175 198 0
174 197 0
174 198 0
175 198 0
175 198 0
173 196 0
174 198 0
173 197 0
174 198 0
174 198 0
174 198 0
176 198 0
174 198 0
174 198 0
175 198 0
174 198 0
174 198 0
175 198 0
174 197 0
173 197 0
174 197 0
175 198 0
173 197 0
175 198 0
173 197 0
172 196 0
175 198 0
176 199 0
175 198 0
173 197 0
175 198 0
175 198 0
176 199 0
174 198 0
173 197 0
174 198 0
174 198 0
174 198 0
174 197 0
173 197 0
176 198 0
173 197 0
174 198 0
174 197 0
176 198 0
174 198 0
175 198 0
175 198 0
175 198 0
176 198 0
174 198 0
175 198 0
174 197 0
174 198 0
174 198 0
174 198 0
175 198 0
174 198 0
175 198 0
175 198 0
173 197 0
174 197 0
173 197 0
174 198 0
174 198 0
175 198 0
175 198 0
176 198 0
174 197 0
175 198 0
175 198 0
175 198 0
174 198 0
174 197 0
175 198 0
175 198 0
175 198 0
174 198 0
174 198 0
174 198 0
173 197 0
174 198 0
174 197 0
175 198 0
175 198 0
176 198 0
174 198 0
175 198 0
174 198 0
174 198 0
175 198 0
175 198 0
175 198 0
175 198 0
175 198 0
174 198 0
174 198 0
174 198 0
174 198 0
174 197 0
176 199 0
174 198 0
174 197 0
175 198 0
174 197 0
174 198 0
173 197 0
175 198 0
174 198 0
174 198 0
173 197 0
174 198 0
173 197 0
175 198 0
175 198 0
174 198 0
174 198 0
175 198 0
174 198 0
174 197 0
174 197 0
175 198 0
175 198 0
176 199 0
176 198 0
175 198 36
186 207 117
200 217 171
213 227 209
218 231 226
229 240 255
229 240 255
229 240 255
228 240 255
228 240 255
228 240 255
228 240 255
228 240 255
228 240 255
228 240 255
228 240 255
228 240 255
228 240 255
228 239 255
228 239 255
228 239 255
228 239 255
228 239 255
228 239 255
228 239 255
228 239 255
228 239 255
228 239 255
228 239 255
228 239 255
228 239 255
228 239 255
228 239 255
228 239 255
228 239 255
228 239 255
228 239 255
228 239 255
228 239 255
228 239 255
228 239 255
228 239 255
228 239 255
228 239 255
228 239 255
227 239 255
227 239 255
227 239 255
227 239 255
227 239 255
227 239 255
227 239 255
227 239 255
227 239 255
227 239 255
227 239 255
227 239 255
227 239 255
227 239 255
227 239 255
227 239 255
227 239 255
227 239 255
227 239 255
227 239 255
227 239 255
227 239 255
228 239 255
228 239 255
228 239 255
228 239 255
228 239 255
228 239 255
228 239 255
228 239 255
228 239 255
228 239 255
228 239 255
228 239 255
228 239 255
228 239 255
228 239 255
228 239 255
228 239 255
228 239 255
228 239 255
228 239 255
228 239 255
228 239 255
228 239 255
228 239 255
228 239 255
228 239 255
228 239 255
228 239 255
228 240 255
228 240 255
228 240 255
228 240 255
228 240 255
228 240 255
228 240 255
228 240 255
228 240 255
228 240 255
229 240 255
229 240 255
229 240 255
221 234 237
213 227 211
200 217 173
187 207 117
178 200 51
174 197 0
175 198 0
175 198 0
176 198 0
174 198 0
174 198 0
174 198 0
175 198 0
175 198 0
175 198 0
177 199 0
176 199 0
174 198 0
174 198 0
175 198 0
175 198 0
175 198 0
177 199 0
174 198 0
175 198 0
174 198 0
174 197 0
174 197 0
175 198 0
173 197 0
174 198 0
175 198 0
174 198 0
174 197 0
175 198 0
175 198 0
175 198 0
175 198 0
174 198 0
175 198 0
176 198 0
174 198 0
175 198 0
175 198 0
173 197 0
173 197 0
174 198 0
173 197 0
176 199 0
176 198 0
174 197 0
173 197 0
173 197 0
175 198 0
175 198 0
174 198 0
174 198 0
174 197 0
176 199 0
176 198 0
173 197 0
175 198 0
176 198 0
172 197 0
174 198 0
175 198 0
173 197 0
175 198 0
176 199 0
173 197 0
175 198 0
175 198 0
173 196 0
175 198 0
174 197 0
174 198 0
174 198 0
176 199 0
174 197 0
175 198 0
173 197 0
176 199 0
174 198 0
174 198 0
174 197 0
174 198 0
173 197 0
174 198 0
175 198 0
174 197 0
175 198 0
172 197 0
175 198 0
174 197 0
174 198 0
176 199 0
174 198 0
175 198 0
175 198 0
176 199 0
176 199 0
174 198 0
175 198 0
174 197 0
174 198 0
173 197 0
176 198 0
174 198 0
173 197 0
174 198 0
173 197 0
175 198 0
175 198 0
175 198 0
172 197 0
176 198 0
173 197 0
174 198 0
176 199 0
173 197 0
174 198 0
176 198 0
175 198 0
174 197 0
175 198 0
174 198 0
174 198 0
171 195 0
174 198 0
175 198 0
175 198 0
175 198 0
174 197 0
174 197 0
175 198 0
173 197 0
176 199 0
173 197 0
175 198 0
174 198 0
175 198 0
174 198 0
175 198 0
173 197 0
175 198 0
175 198 0
176 199 0
173 197 0
175 198 0
175 198 0
174 198 0
175 198 0
173 197 0
175 198 0
175 198 0
175 198 0
173 197 0
176 199 0
176 199 0
174 197 0
175 198 0
174 197 0
175 198 0
174 198 0
173 197 0
174 198 0
175 198 0
173 197 0
175 198 0
174 197 0
174 197 0
174 198 0
174 198 0
176 199 0
173 197 0
173 196 0
175 198 0
174 197 0
175 198 0
175 198 0
175 198 0
174 197 0
176 198 0
174 197 0
173 197 0
176 198 0
174 198 0
174 198 0
174 197 0
175 198 0
174 198 0
175 198 0
172 196 0
174 197 0
175 198 0
175 198 0
174 197 0
173 197 0
176 199 0
175 198 0
172 196 0
174 198 0
175 198 0
175 198 0
174 198 0
173 197 0
176 198 0
175 198 0
175 198 0
175 198 0
173 197 0
174 198 0
174 198 0
174 197 0
174 198 0
176 199 0
173 197 0
173 197 0
175 198 0
175 198 0
174 198 0
175 198 0
175 198 0
174 198 0
173 197 0
174 197 0
175 198 0
174 198 0
173 197 0
173 197 0
174 198 0
175 198 0
174 198 0
175 198 0
175 198 0
173 197 0
175 198 0
174 198 0
175 198 0
174 198 0
174 198 0
174 198 0
173 197 0
176 198 0
175 198 0
173 197 0
175 198 0
175 198 0
175 198 0
174 198 0
175 198 0
173 197 0
174 198 0
174 197 0
176 198 0
176 199 0
173 197 0
176 199 0
176 199 0
174 198 0
175 198 0
175 198 0
175 198 0
174 197 0
176 199 0
174 198 0
176 199 0
173 197 0
173 197 0
172 197 0
174 198 0
173 197 0
174 198 0
176 198 0
175 198 0
175 198 0
175 198 0
176 199 0
176 198 0
173 197 0
177 199 0
175 198 0
176 199 0
175 198 0
174 198 0
174 198 0
175 198 0
175 198 0
176 199 0
176 198 0
173 197 0
173 197 0
174 198 0
174 198 0
173 197 0
174 198 0
177 199 0
179 201 62
189 208 117
197 215 159
212 227 209
219 232 227
229 240 255
229 240 255
229 240 255
228 240 255
228 240 255
228 240 255
228 240 255
228 240 255
228 240 255
228 240 255
228 240 255
228 240 255
228 240 255
228 239 255
228 239 255
228 239 255
228 239 255
228 239 255
228 239 255
228 239 255
228 239 255
228 239 255
228 239 255
228 239 255
228 239 255
228 239 255
228 239 255
228 239 255
228 239 255
228 239 255
228 239 255
228 239 255
228 239 255
228 239 255
228 239 255
228 239 255
228 239 255
228 239 255
228 239 255
228 239 255
227 239 255
227 239 255
227 239 255
227 239 255
227 239 255
227 239 255
227 239 255
227 239 255
227 239 255
227 239 255
227 239 255
227 239 255
228 239 255
228 239 255
228 239 255
228 239 255
228 239 255
228 239 255
228 239 255
228 239 255
228 239 255
228 239 255
228 239 255
228 239 255
228 239 255
228 239 255
228 239 255
228 239 255
228 239 255
228 239 255
228 239 255
228 239 255
228 239 255
228 239 255
228 239 255
228 239 255
228 239 255
228 239 255
228 239 255
228 239 255
228 240 255
228 240 255
228 240 255
228 240 255
228 240 255
228 240 255
228 240 255
228 240 255
228 240 255
228 240 255
229 240 255
229 240 255
229 240 255
225 237 245
214 228 214
205 221 188
189 208 122
177 200 67
175 198 0
174 198 0
175 198 0
175 198 0
177 199 0
175 198 0
176 198 0
175 198 0
174 198 0
175 198 0
176 199 0
175 198 0
176 199 0
173 197 0
176 199 0
173 197 0
173 197 0
176 199 0
176 199 0
176 199 0
175 198 0
176 199 0
174 198 0
174 198 0
174 198 0
174 198 0
174 197 0
172 197 0
174 198 0
175 198 0
175 198 0
174 198 0
177 199 0
174 197 0
174 198 0
174 198 0
174 197 0
174 197 0
174 198 0
174 198 0
176 198 0
174 198 0
172 197 0
175 198 0
174 198 0
174 197 0
175 198 0
174 197 0
174 197 0
173 197 0
175 198 0
174 197 0
174 198 0
174 198 0
175 198 0
174 197 0
176 199 0
174 198 0
174 198 0
175 198 0
173 197 0
175 198 0
173 197 0
175 198 0
175 198 0
174 197 0
175 198 0
175 198 0
175 198 0
173 197 0
174 198 0
174 198 0
174 197 0
176 198 0
175 198 0
174 198 0
175 198 0
174 197 0
175 198 0
174 198 0
175 198 0
173 197 0
175 198 0
175 198 0
174 197 0
175 198 0
173 197 0
173 197 0
174 198 0
176 198 0
174 198 0
176 199 0
174 197 0
174 198 0
174 198 0
173 197 0
175 198 0
175 198 0
174 198 0
175 198 0
174 198 0
176 198 0
173 196 0
174 197 0
174 197 0
175 198 0
174 198 0
175 198 0
174 198 0
176 198 0
175 198 0
175 198 0
174 198 0
175 198 0
175 198 0
175 198 0
174 198 0
176 199 0
175 198 0
174 198 0
174 198 0
174 198 0
173 197 0
175 198 0
175 198 0
174 198 0
174 198 0
172 197 0
176 199 0
172 195 0
174 198 0
173 197 0
174 198 0
175 198 0
174 197 0
174 198 0
176 198 0
175 198 0
176 199 0
171 196 0
176 198 0
174 198 0
175 198 0
175 198 0
174 198 0
175 198 0
175 198 0
174 197 0
175 198 0
175 198 0
175 198 0
174 197 0
174 198 0
174 197 0
175 198 0
173 197 0
173 197 0
174 197 0
174 197 0
174 197 0
172 196 0
174 198 0
173 197 0
175 198 0
174 198 0
175 198 0
173 196 0
174 197 0
173 197 0
175 198 0
173 197 0
176 199 0
176 198 0
174 197 0
175 198 0
174 197 0
174 197 0
173 197 0
175 198 0
174 198 0
173 197 0
174 197 0
174 198 0
175 198 0
174 198 0
174 198 0
174 197 0
174 198 0
175 198 0
174 198 0
174 197 0
175 198 0
176 199 0
174 197 0
174 198 0
174 197 0
175 198 0
174 198 0
173 197 0
175 198 0
175 198 0
173 197 0
173 197 0
174 197 0
174 198 0
174 197 0
175 198 0
176 198 0
174 197 0
174 197 0
174 197 0
175 198 0
175 198 0
175 198 0
174 198 0
175 198 0
174 198 0
173 197 0
175 198 0
174 197 0
174 198 0
175 198 0
174 198 0
175 198 0
175 198 0
176 199 0
175 198 0
175 198 0
174 198 0
174 197 0
174 198 0
173 197 0
174 198 0
176 199 0
174 198 0
174 198 0
175 198 0
175 198 0
174 198 0
174 198 0
174 198 0
174 198 0
176 198 0
174 198 0
174 198 0
172 197 0
174 198 0
176 199 0
175 198 0
174 198 0
174 197 0
175 198 0
174 198 0
174 198 0
174 198 0
173 197 0
174 198 0
174 198 0
175 198 0
172 197 0
176 199 0
174 198 0
174 198 0
173 197 0
175 198 0
175 198 0
173 197 0
175 198 0
174 197 0
175 198 0
174 197 0
175 198 0
175 198 0
174 198 0
175 198 0
175 198 0
175 198 0
174 198 0
176 198 0
174 197 0
174 198 0
174 198 0
175 198 0
174 198 0
175 198 0
174 198 0
174 198 0
175 198 0
174 198 0
173 197 0
173 197 0
174 198 0
175 198 0
174 198 0
176 198 0
173 197 0
174 198 0
175 198 0
176 199 0
176 198 0
174 198 0
175 198 0
178 200 57
188 208 122
203 220 181
216 230 223
226 237 248
229 240 255
229 240 255
229 240 255
228 240 255
228 240 255
228 240 255
228 240 255
228 240 255
228 240 255
228 240 255
228 240 255
228 240 255
228 240 255
228 239 255
228 239 255
228 239 255
228 239 255
228 239 255
228 239 255
228 239 255
228 239 255
228 239 255
228 239 255
228 239 255
228 239 255
228 239 255
228 239 255
228 239 255
228 239 255
228 239 255
228 239 255
228 239 255
228 239 255
228 239 255
228 239 255
228 239 255
228 239 255
228 239 255
228 239 255
228 239 255
228 239 255
228 239 255
227 239 255
227 239 255
228 239 255
228 239 255
228 239 255
228 239 255
228 239 255
228 239 255
228 239 255
228 239 255
228 239 255
228 239 255
228 239 255
228 239 255
228 239 255
228 239 255
228 239 255
228 239 255
228 239 255
228 239 255
228 239 255
228 239 255
228 239 255
228 239 255
228 239 255
228 239 255
228 239 255
228 240 255
228 240 255
228 240 255
228 240 255
228 240 255
228 240 255
228 240 255
228 240 255
228 240 255
228 240 255
229 240 255
229 240 255
229 240 255
229 240 255
226 238 249
217 230 221
209 224 198
195 213 147
184 205 102
175 198 0
175 198 0
174 198 0
174 198 0
176 199 0
175 198 0
176 198 0
174 198 0
175 198 0
175 198 0
173 197 0
174 197 0
174 198 0
176 199 0
174 198 0
175 198 0
174 198 0
175 198 0
176 199 0
176 199 0
175 198 0
175 198 0
175 198 0
174 198 0
175 198 0
174 198 0
174 198 0
177 199 0
176 199 0
176 199 0
174 197 0
175 198 0
175 198 0
174 198 0
173 197 0
175 198 0
176 199 0
175 198 0
175 198 0
175 198 0
174 198 0
174 198 0
175 198 0
176 199 0
175 198 0
174 198 0
174 198 0
174 198 0
177 199 0
173 197 0
178 199 0
174 198 0
176 198 0
176 199 0
173 197 0
174 198 0
174 198 0
175 198 0
175 198 0
175 198 0
174 198 0
176 198 0
176 198 0
175 198 0
175 198 0
174 197 0
174 198 0
174 197 0
174 198 0
173 197 0
176 198 0
174 198 0
175 198 0
175 198 0
175 198 0
174 198 0
174 198 0
176 199 0
174 198 0
174 198 0
175 198 0
175 198 0
175 198 0
175 198 0
174 198 0
176 199 0
175 198 0
173 197 0
174 198 0
174 198 0
174 197 0
176 199 0
174 198 0
174 198 0
175 198 0
173 197 0
175 198 0
174 197 0
175 198 0
176 198 0
175 198 0
176 199 0
175 198 0
173 197 0
174 198 0
176 199 0
174 197 0
173 196 0
173 197 0
174 197 0
175 198 0
175 198 0
174 198 0
173 197 0
175 198 0
174 197 0
174 198 0
174 197 0
174 198 0
174 197 0
175 198 0
174 198 0
173 196 0
175 198 0
174 197 0
175 198 0
175 198 0
173 197 0
173 197 0
174 198 0
172 197 0
174 197 0
175 198 0
176 198 0
174 197 0
174 198 0
174 197 0
175 198 0
174 197 0
177 199 0
174 198 0
174 197 0
175 198 0
175 198 0
175 198 0
174 197 0
174 198 0
175 198 0
174 197 0
173 197 0
175 198 0
175 198 0
173 197 0
175 198 0
175 198 0
174 197 0
175 198 0
174 198 0
175 198 0
175 198 0
175 198 0
175 198 0
174 197 0
174 198 0
175 198 0
175 198 0
174 198 0
174 198 0
174 197 0
176 199 0
173 196 0
174 198 0
174 198 0
175 198 0
175 198 0
174 198 0
174 198 0
174 198 0
176 199 0
174 198 0
174 197 0
174 197 0
174 197 0
175 198 0
175 197 0
175 198 0
174 197 0
173 197 0
175 198 0
175 198 0
175 198 0
175 198 0
174 198 0
175 198 0
173 197 0
176 198 0
175 198 0
174 198 0
174 198 0
176 198 0
175 198 0
175 198 0
175 198 0
176 199 0
174 198 0
175 198 0
175 198 0
174 198 0
175 198 0
173 197 0
172 197 0
174 198 0
174 197 0
175 198 0
175 198 0
175 198 0
175 198 0
176 199 0
173 197 0
176 199 0
174 198 0
174 198 0
176 199 0
174 197 0
173 197 0
174 198 0
174 197 0
174 198 0
174 198 0
175 198 0
174 198 0
173 197 0
174 198 0
175 198 0
174 197 0
176 199 0
176 199 0
174 198 0
176 199 0
175 198 0
173 197 0
175 198 0
174 198 0
175 198 0
175 198 0
175 198 0
173 197 0
174 198 0
176 198 0
175 198 0
175 198 0
173 197 0
173 197 0
174 197 0
173 197 0
174 198 0
175 198 0
175 198 0
175 198 0
174 198 0
174 198 0
174 198 0
175 198 0
175 198 0
176 198 0
175 198 0
175 198 0
175 198 0
174 198 0
174 198 0
175 198 0
174 198 0
176 198 0
174 197 0
176 198 0
175 198 0
176 199 0
175 198 0
173 197 0
176 199 0
175 198 0
173 197 0
176 199 0
175 198 0
174 198 0
174 198 0
175 198 0
175 198 0
175 198 0
175 198 0
175 198 0
174 198 0
175 198 0
175 198 0
174 198 0
174 197 0
174 198 0
176 198 0
175 198 0
175 198 0
175 198 0
173 197 0
174 197 0
176 199 0
174 198 0
175 198 0
174 198 0
175 198 0
175 198 0
176 198 0
176 198 0
175 198 0
182 203 80
195 214 153
210 225 201
219 232 228
226 238 249
229 240 255
229 240 255
229 240 255
229 240 255
228 240 255
228 240 255
228 240 255
228 240 255
228 240 255
228 240 255
228 240 255
228 240 255
228 240 255
228 240 255
228 239 255
228 239 255
228 239 255
228 239 255
228 239 255
228 239 255
228 239 255
228 239 255
228 239 255
228 239 255
228 239 255
228 239 255
228 239 255
228 239 255
228 239 255
228 239 255
228 239 255
228 239 255
228 239 255
228 239 255
228 239 255
228 239 255
228 239 255
228 239 255
228 239 255
228 239 255
228 239 255
228 239 255
228 239 255
228 239 255
228 239 255
228 239 255
228 239 255
228 239 255
228 239 255
228 239 255
228 239 255
228 239 255
228 239 255
228 239 255
228 239 255
228 239 255
228 239 255
228 239 255
228 239 255
228 240 255
228 240 255
228 240 255
228 240 255
228 240 255
228 240 255
228 240 255
228 240 255
228 240 255
228 240 255
229 240 255
229 240 255
229 240 255
229 240 255
228 239 254
222 234 237
210 225 201
198 216 161
184 205 105
176 199 44
175 198 0
174 198 0
175 198 0
175 198 0
177 199 0
174 197 0
174 198 0
174 198 0
174 197 0
175 198 0
174 198 0
174 198 0
174 197 0
173 197 0
176 199 0
175 198 0
176 198 0
174 197 0
175 198 0
175 198 0
175 198 0
174 198 0
174 198 0
175 198 0
174 198 0
175 198 0
175 198 0
174 197 0
176 198 0
175 198 0
175 198 0
175 198 0
176 199 0
174 198 0
174 197 0
173 197 0
175 198 0
175 198 0
174 197 0
175 198 0
174 198 0
175 198 0
175 198 0
175 198 0
174 197 0
175 198 0
175 198 0
175 198 0
174 198 0
175 198 0
175 198 0
174 198 0
174 197 0
174 197 0
173 197 0
175 198 0
173 197 0
175 198 0
174 198 0
173 197 0
174 198 0
175 198 0
175 198 0
175 198 0
172 197 0
173 197 0
174 197 0
175 198 0
174 198 0
174 198 0
173 197 0
174 197 0
174 197 0
175 198 0
175 198 0
174 198 0
174 198 0
174 198 0
175 198 0
174 198 0
174 197 0
175 198 0
173 197 0
172 196 0
174 197 0
176 199 0
175 198 0
174 198 0
174 197 0
176 199 0
174 198 0
174 197 0
174 198 0
174 197 0
175 198 0
175 198 0
174 197 0
174 198 0
175 198 0
175 198 0
174 198 0
176 198 0
176 199 0
176 199 0
175 198 0
174 198 0
173 197 0
174 197 0
175 198 0
175 198 0
175 198 0
172 196 0
175 198 0
173 197 0
173 197 0
174 198 0
176 198 0
172 197 0
173 197 0
175 198 0
175 198 0
172 196 0
174 198 0
173 197 0
175 198 0
175 198 0
173 197 0
175 197 0
176 198 0
176 199 0
176 199 0
175 198 0
173 195 0
175 198 0
174 198 0
176 199 0
174 197 0
175 198 0
174 198 0
174 198 0
173 197 0
174 197 0
175 198 0
175 198 0
173 196 0
175 198 0
173 197 0
175 198 0
174 197 0
175 198 0
174 198 0
173 197 0
175 198 0
173 197 0
175 198 0
174 197 0
173 197 0
176 199 0
173 197 0
176 199 0
175 198 0
174 198 0
173 197 0
175 198 0
174 197 0
175 198 0
175 198 0
175 198 0
173 197 0
174 198 0
174 197 0
172 197 0
172 196 0
175 198 0
175 198 0
174 198 0
175 198 0
173 197 0
173 197 0
174 198 0
175 198 0
174 198 0
174 198 0
174 198 0
175 198 0
174 198 0
176 198 0
174 198 0
175 198 0
172 196 0
174 197 0
175 198 0
173 197 0
175 198 0
173 197 0
173 197 0
174 197 0
175 198 0
175 198 0
175 198 0
174 198 0
175 198 0
174 198 0
175 198 0
174 198 0
175 198 0
172 197 0
175 198 0
174 198 0
175 198 0
174 198 0
175 198 0
174 198 0
176 199 0
175 198 0
174 197 0
174 197 0
176 199 0
173 197 0
175 198 0
174 197 0
175 198 0
175 198 0
174 198 0
175 198 0
175 198 0
175 198 0
173 197 0
176 199 0
173 197 0
173 196 0
173 197 0
175 198 0
175 198 0
174 197 0
176 199 0
174 198 0
174 198 0
174 198 0
173 197 0
175 198 0
174 198 0
175 198 0
176 199 0
175 198 0
174 197 0
175 198 0
173 197 0
174 198 0
175 198 0
175 198 0
175 198 0
174 198 0
173 197 0
175 198 0
176 198 0
174 198 0
176 199 0
175 198 0
175 198 0
173 197 0
174 197 0
174 197 0
173 197 0
175 198 0
174 198 0
174 197 0
175 198 0
174 198 0
174 197 0
174 197 0
174 198 0
174 197 0
175 198 0
176 198 0
173 197 0
174 198 0
175 198 0
173 197 0
175 198 0
174 198 0
175 198 0
174 198 0
173 197 0
174 198 0
175 198 0
175 198 0
175 198 0
176 199 0
175 198 0
174 198 0
175 198 0
175 198 0
174 198 0
174 198 0
173 197 0
175 198 0
174 198 0
176 198 0
175 198 0
174 198 0
175 198 0
173 197 0
173 197 0
174 198 0
174 198 0
174 197 0
176 198 0
175 198 0
174 198 0
176 198 0
175 198 0
174 198 0
172 197 0
175 198 0
173 197 0
175 198 0
176 199 0
176 199 0
173 197 0
175 198 25
183 205 102
194 213 147
212 226 207
223 235 240
228 239 254
229 240 255
229 240 255
229 240 255
229 240 255
228 240 255
228 240 255
228 240 255
228 240 255
228 240 255
228 240 255
228 240 255
228 240 255
228 240 255
228 240 255
228 239 255
228 239 255
228 239 255
228 239 255
228 239 255
228 239 255
228 239 255
228 239 255
228 239 255
228 239 255
228 239 255
228 239 255
228 239 255
228 239 255
228 239 255
228 239 255
228 239 255
228 239 255
228 239 255
228 239 255
228 239 255
228 239 255
228 239 255
228 239 255
228 239 255
228 239 255
228 239 255
228 239 255
228 239 255
228 239 255
228 239 255
228 239 255
228 239 255
228 239 255
228 239 255
228 240 255
228 240 255
228 240 255
228 240 255
228 240 255
228 240 255
228 240 255
228 240 255
228 240 255
228 240 255
229 240 255
229 240 255
229 240 255
229 240 255
229 240 255
225 237 245
219 232 226
205 221 186
197 215 153
178 201 67
176 199 0
175 198 0
174 198 0
173 197 0
176 199 0
173 197 0
176 198 0
175 198 0
175 198 0
174 198 0
175 198 0
175 198 0
175 198 0
175 198 0
175 198 0
174 197 0
174 198 0
174 198 0
174 198 0
174 198 0
174 198 0
174 198 0
174 198 0
175 198 0
174 198 0
173 197 0
173 197 0
174 197 0
176 198 0
175 198 0
178 200 0
175 198 0
174 198 0
174 198 0
174 198 0
175 198 0
173 197 0
176 199 0
175 198 0
175 198 0
174 197 0
174 198 0
175 198 0
174 198 0
175 198 0
175 198 0
175 198 0
175 198 0
174 197 0
173 197 0
174 198 0
176 198 0
174 198 0
175 198 0
176 199 0
175 198 0
174 198 0
173 197 0
175 198 0
175 198 0
173 197 0
175 198 0
174 198 0
176 199 0
175 198 0
175 198 0
175 198 0
174 198 0
174 198 0
175 198 0
174 198 0
175 198 0
176 198 0
175 198 0
174 197 0
176 199 0
174 197 0
174 198 0
175 198 0
174 198 0
174 197 0
175 198 0
174 197 0
174 197 0
174 198 0
174 198 0
173 197 0
174 198 0
175 198 0
174 198 0
174 197 0
175 198 0
174 197 0
175 198 0
174 197 0
174 198 0
174 197 0
173 197 0
174 197 0
174 198 0
174 197 0
174 197 0
174 198 0
174 197 0
175 198 0
174 198 0
174 198 0
175 198 0
175 198 0
172 197 0
173 197 0
173 197 0
174 197 0
174 197 0
175 198 0
175 198 0
174 198 0
174 197 0
174 197 0
173 197 0
174 198 0
173 197 0
174 197 0
174 198 0
174 197 0
175 198 0
174 197 0
173 197 0
174 198 0
174 198 0
175 198 0
174 197 0
174 198 0
174 198 0
175 198 0
174 198 0
173 197 0
175 198 0
175 198 0
174 198 0
175 198 0
174 198 0
175 197 0
174 198 0
175 198 0
177 199 0
173 197 0
175 198 0
174 197 0
175 198 0
175 198 0
175 198 0
174 197 0
175 198 0
172 196 0
173 197 0
174 198 0
175 198 0
172 196 0
176 199 0
174 198 0
175 198 0
174 198 0
174 198 0
174 198 0
174 197 0
173 197 0
175 198 0
175 198 0
172 197 0
174 197 0
174 198 0
174 198 0
174 198 0
173 197 0
174 198 0
176 199 0
173 197 0
175 198 0
175 198 0
177 199 0
174 197 0
174 198 0
174 197 0
172 196 0
172 197 0
174 197 0
175 198 0
173 196 0
174 197 0
173 197 0
174 198 0
174 197 0
173 197 0
175 198 0
174 198 0
176 199 0
173 197 0
174 197 0
174 198 0
175 198 0
174 198 0
174 198 0
174 198 0
174 197 0
175 198 0
174 198 0
174 197 0
173 197 0
174 197 0
175 198 0
173 197 0
175 198 0
175 198 0
174 198 0
173 197 0
174 198 0
176 199 0
173 197 0
174 198 0
174 198 0
174 198 0
175 198 0
177 199 0
173 197 0
175 198 0
176 199 0
174 198 0
174 198 0
176 199 0
174 197 0
175 198 0
174 197 0
175 198 0
174 198 0
174 197 0
175 198 0
173 197 0
176 199 0
175 198 0
175 198 0
177 199 0
175 198 0
174 198 0
174 197 0
176 199 0
175 198 0
176 198 0
175 198 0
175 198 0
172 197 0
174 197 0
175 198 0
175 197 0
175 198 0
176 198 0
174 198 0
176 199 0
174 198 0
175 198 0
174 198 0
176 199 0
175 198 0
174 198 0
172 197 0
176 199 0
177 199 0
174 198 0
173 197 0
174 198 0
173 197 0
174 198 0
173 197 0
174 198 0
176 199 0
173 197 0
174 197 0
175 198 0
174 198 0
173 197 0
173 197 0
175 198 0
175 198 0
174 198 0
174 198 0
174 197 0
176 198 0
175 198 0
173 197 0
175 198 0
174 198 0
172 197 0
173 197 0
173 197 0
175 198 0
174 197 0
174 198 0
175 198 0
175 198 0
174 198 0
175 198 0
175 198 0
175 198 0
174 198 0
174 198 0
173 197 0
175 198 0
173 197 0
175 198 0
172 197 0
174 198 0
173 197 0
174 198 0
174 198 0
175 198 0
176 199 0
174 198 0
176 199 0
175 198 0
175 198 0
175 198 0
176 199 0
174 198 0
172 197 0
176 199 0
175 198 0
175 198 0
175 198 0
175 198 0
174 197 0
178 201 57
193 211 140
199 216 165
215 229 215
226 237 248
229 240 255
229 240 255
229 240 255
229 240 255
229 240 255
228 240 255
228 240 255
228 240 255
228 240 255
228 240 255
228 240 255
228 240 255
228 240 255
228 240 255
228 240 255
228 239 255
228 239 255
228 239 255
228 239 255
228 239 255
228 239 255
228 239 255
228 239 255
228 239 255
228 239 255
228 239 255
228 239 255
228 239 255
228 239 255
228 239 255
228 239 255
228 239 255
228 239 255
228 239 255
228 239 255
228 239 255
228 239 255
228 239 255
228 239 255
228 239 255
228 240 255
228 240 255
228 240 255
228 240 255
228 240 255
228 240 255
228 240 255
228 240 255
228 240 255
228 240 255
229 240 255
229 240 255
229 240 255
229 240 255
229 240 255
228 239 254
220 233 230
211 225 203
194 212 140
182 203 88
175 199 36
175 198 0
175 198 0
175 198 0
176 199 0
174 198 0
175 198 0
175 198 0
174 198 0
175 198 0
174 198 0
173 197 0
176 198 0
174 198 0
175 198 0
176 199 0
173 197 0
175 198 0
175 198 0
175 198 0
174 198 0
174 197 0
175 198 0
176 198 0
175 198 0
175 198 0
176 199 0
174 198 0
175 198 0
175 198 0
174 197 0
176 199 0
174 198 0
175 198 0
176 199 0
175 198 0
173 197 0
173 197 0
175 198 0
176 199 0
175 198 0
176 198 0
175 198 0
175 198 0
175 198 0
175 198 0
174 198 0
175 198 0
176 199 0
175 198 0
175 198 0
175 198 0
174 198 0
175 198 0
175 198 0
173 197 0
175 198 0
174 198 0
175 198 0
173 197 0
175 198 0
174 198 0
173 197 0
175 198 0
176 198 0
175 198 0
173 197 0
174 198 0
175 198 0
174 197 0
174 197 0
173 197 0
174 197 0
174 198 0
173 197 0
174 197 0
173 197 0
174 198 0
174 198 0
174 197 0
173 197 0
174 198 0
174 198 0
175 198 0
175 198 0
174 197 0
174 198 0
173 197 0
175 198 0
174 198 0
173 197 0
175 198 0
173 197 0
175 198 0
176 198 0
175 198 0
175 198 0
175 198 0
175 198 0
174 198 0
176 199 0
174 198 0
176 198 0
175 198 0
174 197 0
175 198 0
175 198 0
175 198 0
173 197 0
174 197 0
175 198 0
176 199 0
175 198 0
175 198 0
174 197 0
175 198 0
174 198 0
175 198 0
175 198 0
174 197 0
174 197 0
173 197 0
174 197 0
174 198 0
176 198 0
176 199 0
175 198 0
174 197 0
176 198 0
174 198 0
174 197 0
175 198 0
174 197 0
173 197 0
173 197 0
176 198 0
174 197 0
175 198 0
176 199 0
174 197 0
174 198 0
176 199 0
174 198 0
173 197 0
172 195 0
173 197 0
175 198 0
175 198 0
175 198 0
174 197 0
173 197 0
174 198 0
175 198 0
174 197 0
175 198 0
174 197 0
174 198 0
173 197 0
175 198 0
175 198 0
174 197 0
174 198 0
173 196 0
175 198 0
174 198 0
176 198 0
173 197 0
174 198 0
173 197 0
173 197 0
174 197 0
174 197 0
173 197 0
175 198 0
174 198 0
174 197 0
174 197 0
175 198 0
174 197 0
175 198 0
174 198 0
176 199 0
174 197 0
173 197 0
174 197 0
175 198 0
174 198 0
174 197 0
172 196 0
175 198 0
175 198 0
174 198 0
176 199 0
175 198 0
175 198 0
176 199 0
173 197 0
174 197 0
175 198 0
174 198 0
175 198 0
174 198 0
174 198 0
174 197 0
172 196 0
175 198 0
173 196 0
175 198 0
175 198 0
174 198 0
173 197 0
174 197 0
174 197 0
173 197 0
175 198 0
175 198 0
174 197 0
173 197 0
174 197 0
174 198 0
176 198 0
175 198 0
173 197 0
175 198 0
174 197 0
175 198 0
175 198 0
174 198 0
173 197 0
174 197 0
173 197 0
175 198 0
174 197 0
175 198 0
175 198 0
174 197 0
175 198 0
174 198 0
174 198 0
175 198 0
176 198 0
175 198 0
175 198 0
176 198 0
173 197 0
174 198 0
175 198 0
173 197 0
175 198 0
173 197 0
173 197 0
175 198 0
173 197 0
176 199 0
175 198 0
174 198 0
176 198 0
174 198 0
174 198 0
173 197 0
175 198 0
174 198 0
174 198 0
174 198 0
176 199 0
174 198 0
174 198 0
174 197 0
174 197 0
174 198 0
174 198 0
174 197 0
172 197 0
175 198 0
174 198 0
174 197 0
176 198 0
175 198 0
173 197 0
175 198 0
174 198 0
174 198 0
174 197 0
173 197 0
175 198 0
173 197 0
175 198 0
176 199 0
175 198 0
174 198 0
174 198 0
174 197 0
174 198 0
173 197 0
175 198 0
176 199 0
175 198 0
175 198 0
175 198 0
174 198 0
174 198 0
174 198 0
175 198 0
174 197 0
175 198 0
176 198 0
176 199 0
174 198 0
173 197 0
175 198 0
175 198 0
174 198 0
175 198 0
174 198 0
174 198 0
174 197 0
175 198 0
175 198 0
175 198 0
177 199 0
175 198 0
175 198 0
174 198 0
174 198 0
174 197 0
175 198 0
175 198 0
173 197 0
173 197 0
175 198 0
175 198 0
176 199 0
176 199 0
175 198 0
176 199 0
175 198 0
176 199 0
174 198 0
175 198 0
175 198 36
183 204 99
197 215 157
207 223 196
217 230 221
228 239 254
229 240 255
229 240 255
229 240 255
229 240 255
229 240 255
228 240 255
228 240 255
228 240 255
228 240 255
228 240 255
228 240 255
228 240 255
228 240 255
228 240 255
228 240 255
228 239 255
228 239 255
228 239 255
228 239 255
228 239 255
228 239 255
228 239 255
228 239 255
228 239 255
228 239 255
228 239 255
228 239 255
228 239 255
228 239 255
228 239 255
228 240 255
228 240 255
228 240 255
228 240 255
228 240 255
228 240 255
228 240 255
228 240 255
228 240 255
228 240 255
229 240 255
229 240 255
229 240 255
229 240 255
229 240 255
229 240 255
224 236 241
213 227 212
205 221 188
190 209 130
178 201 72
173 197 0
174 198 0
175 198 0
175 198 0
176 198 0
174 198 0
175 198 0
174 198 0
175 198 0
175 198 0
175 198 0
174 198 0
174 197 0
178 200 0
174 198 0
174 198 0
174 198 0
176 199 0
174 198 0
175 198 0
173 197 0
173 197 0
176 198 0
175 198 0
175 198 0
174 197 0
174 198 0
174 197 0
175 198 0
174 197 0
174 198 0
174 198 0
173 197 0
174 198 0
175 198 0
173 197 0
174 197 0
176 199 0
174 198 0
177 199 0
174 198 0
176 198 0
174 198 0
174 198 0
174 197 0
175 198 0
175 198 0
175 198 0
174 198 0
173 197 0
175 198 0
174 198 0
174 198 0
174 198 0
174 198 0
173 197 0
173 197 0
173 197 0
174 198 0
173 197 0
173 197 0
175 198 0
174 198 0
174 198 0
175 198 0
173 197 0
175 198 0
175 198 0
173 197 0
175 198 0
176 199 0
175 198 0
173 197 0
175 198 0
173 197 0
175 198 0
176 198 0
176 199 0
175 198 0
175 198 0
172 197 0
173 197 0
174 197 0
175 198 0
174 198 0
175 198 0
175 198 0
175 198 0
175 198 0
174 197 0
174 198 0
175 198 0
176 198 0
174 198 0
176 199 0
175 198 0
176 198 0
174 198 0
175 198 0
175 198 0
172 196 0
174 198 0
173 197 0
174 197 0
173 197 0
175 198 0
174 197 0
174 198 0
174 198 0
175 198 0
176 198 0
176 198 0
174 197 0
174 198 0
175 198 0
175 198 0
174 197 0
174 197 0
175 198 0
174 198 0
175 198 0
174 198 0
174 198 0
174 198 0
175 198 0
175 198 0
174 198 0
174 197 0
174 197 0
174 198 0
172 197 0
175 198 0
174 198 0
174 197 0
173 197 0
175 198 0
175 198 0
174 198 0
175 198 0
173 197 0
175 198 0
173 197 0
175 198 0
173 197 0
174 197 0
174 197 0
174 198 0
174 198 0
173 196 0
173 197 0
174 197 0
174 198 0
175 198 0
174 197 0
175 197 0
174 198 0
175 198 0
172 197 0
174 198 0
175 198 0
175 198 0
173 196 0
174 198 0
174 197 0
175 198 0
175 198 0
175 198 0
173 196 0
173 197 0
173 197 0
173 197 0
174 197 0
174 198 0
174 197 0
174 198 0
173 197 0
174 198 0
175 198 0
174 197 0
175 198 0
175 197 0
175 198 0
173 197 0
173 197 0
173 196 0
175 198 0
174 198 0
172 197 0
176 199 0
176 198 0
173 197 0
174 197 0
171 194 11
169 190 32
168 188 34
171 191 36
173 197 0
175 198 0
173 197 0
172 196 0
175 198 0
173 197 0
175 198 0
175 198 0
174 197 0
174 198 0
175 198 0
172 197 0
173 197 0
173 196 0
175 198 0
174 197 0
174 197 0
173 197 0
174 198 0
174 198 0
172 197 0
175 198 0
173 197 0
174 197 0
175 198 0
172 196 0
174 197 0
174 197 0
176 199 0
173 197 0
174 198 0
175 198 0
175 198 0
174 198 0
174 198 0
176 199 0
175 198 0
174 198 0
173 197 0
173 197 0
175 198 0
175 198 0
174 197 0
175 198 0
174 198 0
175 198 0
175 198 0
175 198 0
174 198 0
175 198 0
174 198 0
173 197 0
172 196 0
173 197 0
175 198 0
175 198 0
173 196 0
174 198 0
178 200 0
174 198 0
174 198 0
176 198 0
176 199 0
174 197 0
175 198 0
175 198 0
175 198 0
175 198 0
173 197 0
175 198 0
175 198 0
172 197 0
176 198 0
174 198 0
174 198 0
176 199 0
175 198 0
175 198 0
175 198 0
176 198 0
174 198 0
173 197 0
175 198 0
174 198 0
174 197 0
176 198 0
175 198 0
175 198 0
174 198 0
175 198 0
175 198 0
175 198 0
173 197 0
175 198 0
174 198 0
176 199 0
174 198 0
176 199 0
172 197 0
174 198 0
175 198 0
173 197 0
175 198 0
175 198 0
175 198 0
173 197 0
173 197 0
174 197 0
173 197 0
173 197 0
174 198 0
173 197 0
174 198 0
174 198 0
174 198 0
175 198 0
175 198 0
173 197 0
175 198 0
174 198 0
174 198 0
175 198 0
174 198 0
175 198 0
174 197 0
176 198 0
176 199 0
174 197 0
175 198 0
174 198 0
174 198 0
174 197 0
173 197 0
175 198 0
174 197 0
175 198 0
176 199 0
177 199 0
178 200 0
175 198 0
176 199 0
176 199 0
176 199 0
175 198 0
177 199 0
172 197 0
174 198 0
175 198 0
175 198 0
174 198 0
174 198 0
174 198 0
177 200 51
191 210 133
203 219 177
214 228 212
225 237 245
229 240 255
229 240 255
229 240 255
229 240 255
229 240 255
229 240 255
228 240 255
228 240 255
228 240 255
228 240 255
228 240 255
228 240 255
228 240 255
228 240 255
228 240 255
228 240 255
228 239 255
228 239 255
228 239 255
228 239 255
228 239 255
228 240 255
228 240 255
228 240 255
228 240 255
228 240 255
228 240 255
228 240 255
228 240 255
228 240 255
228 240 255
229 240 255
229 240 255
229 240 255
229 240 255
229 240 255
229 240 255
229 240 255
218 231 227
208 224 194
198 216 161
184 205 108
176 199 25
174 198 0
175 198 0
175 198 0
175 198 0
174 198 0
175 198 0
174 197 0
174 197 0
173 197 0
174 198 0
174 197 0
173 197 0
176 198 0
173 197 0
172 197 0
176 198 0
175 198 0
175 198 0
174 197 0
175 198 0
174 197 0
175 198 0
175 198 0
175 198 0
176 198 0
175 198 0
174 198 0
175 198 0
174 197 0
174 198 0
173 197 0
174 198 0
175 198 0
175 198 0
174 197 0
174 198 0
173 197 0
177 199 0
174 198 0
174 198 0
175 198 0
174 198 0
174 198 0
174 197 0
174 198 0
175 198 0
174 197 0
174 198 0
174 198 0
174 197 0
174 198 0
175 198 0
175 198 0
174 198 0
173 197 0
175 198 0
174 198 0
174 198 0
175 198 0
173 197 0
173 197 0
175 198 0
173 197 0
174 198 0
174 197 0
172 197 0
174 198 0
173 197 0
175 198 0
174 198 0
173 197 0
175 198 0
174 198 0
175 198 0
174 197 0
175 198 0
176 198 0
174 198 0
174 198 0
175 198 0
173 197 0
174 198 0
174 198 0
172 197 0
174 197 0
175 198 0
173 197 0
172 197 0
174 197 0
176 198 0
176 199 0
175 198 0
174 197 0
175 198 0
175 198 0
175 198 0
173 197 0
174 198 0
172 197 0
175 198 0
175 198 0
175 198 0
175 198 0
175 198 0
175 198 0
176 199 0
172 196 0
176 199 0
175 198 0
176 198 0
173 197 0
174 198 0
174 197 0
175 198 0
176 199 0
175 198 0
173 197 0
174 198 0
174 198 0
174 198 0
175 198 0
176 198 0
174 197 0
173 197 0
174 198 0
174 197 0
176 198 0
175 198 0
175 198 0
173 197 0
175 198 0
174 197 0
173 197 0
174 198 0
175 198 0
173 197 0
175 198 0
174 197 0
173 197 0
175 197 0
175 198 0
174 197 0
174 198 0
174 197 0
175 198 0
175 198 0
173 197 0
175 198 0
175 198 0
174 197 0
174 198 0
173 196 0
172 197 0
172 197 0
175 198 0
174 198 0
174 198 0
173 196 0
177 199 0
175 198 0
174 197 0
173 197 0
173 197 0
172 196 0
173 196 0
173 197 0
173 197 0
176 198 0
173 197 0
175 198 0
171 195 0
174 197 0
176 198 0
174 197 0
175 198 0
172 196 0
175 198 0
174 197 0
175 198 0
175 198 0
172 196 0
175 198 0
173 196 0
175 198 0
174 198 0
173 197 0
173 197 0
174 197 0
173 197 0
174 197 0
173 197 0
173 197 0
172 195 16
159 172 52
152 161 62
137 137 75
148 142 90
147 141 91
142 137 90
143 136 87
148 143 87
150 150 77
153 164 59
167 188 16
173 196 0
174 198 0
172 196 0
174 197 0
171 194 0
174 198 0
172 196 0
174 198 0
175 198 0
173 197 0
174 198 0
175 198 0
174 197 0
174 198 0
175 197 0
173 197 0
173 197 0
173 197 0
175 198 0
175 198 0
174 198 0
173 197 0
174 197 0
174 197 0
176 198 0
173 197 0
174 198 0
173 197 0
173 197 0
177 199 0
173 197 0
175 198 0
174 198 0
174 198 0
175 198 0
174 198 0
174 198 0
174 198 0
175 198 0
174 198 0
173 197 0
174 198 0
173 197 0
174 198 0
175 198 0
174 197 0
174 198 0
176 199 0
176 199 0
174 198 0
174 197 0
174 198 0
175 198 0
174 198 0
175 198 0
174 197 0
172 196 0
174 198 0
174 198 0
175 198 0
174 198 0
175 198 0
174 198 0
175 198 0
174 197 0
174 197 0
174 198 0
175 198 0
175 198 0
176 199 0
175 198 0
175 198 0
175 198 0
174 198 0
175 198 0
174 197 0
175 198 0
176 199 0
175 198 0
174 198 0
175 198 0
172 197 0
175 198 0
174 198 0
174 197 0
175 198 0
174 197 0
174 198 0
174 198 0
175 198 0
175 198 0
174 197 0
175 198 0
174 198 0
173 197 0
173 197 0
174 197 0
175 198 0
173 197 0
174 198 0
175 198 0
176 199 0
174 198 0
172 197 0
175 198 0
173 197 0
175 198 0
174 198 0
176 199 0
174 198 0
174 198 0
174 198 0
175 198 0
175 198 0
176 199 0
175 198 0
175 198 0
174 198 0
174 197 0
176 198 0
173 197 0
175 198 0
176 199 0
174 198 0
174 198 0
174 198 0
175 198 0
175 198 0
173 197 0
176 199 0
178 200 0
175 198 0
174 198 0
175 198 0
176 199 0
176 199 0
176 199 0
175 198 0
176 198 0
175 198 0
175 198 0
175 198 0
174 198 0
176 198 0
176 199 0
176 198 0
174 198 0
173 197 0
174 198 0
176 199 0
175 198 0
176 199 0
175 198 25
186 206 105
202 219 173
214 228 215
222 234 237
228 239 254
229 240 255
229 240 255
229 240 255
229 240 255
229 240 255
229 240 255
228 240 255
228 240 255
228 240 255
228 240 255
228 240 255
228 240 255
228 240 255
228 240 255
228 240 255
228 240 255
228 240 255
228 240 255
228 240 255
228 240 255
228 240 255
229 240 255
229 240 255
229 240 255
229 240 255
229 240 255
229 240 255
229 240 255
226 237 248
217 230 223
201 218 171
192 211 133
179 201 57
176 199 0
175 198 0
176 199 0
175 198 0
174 198 0
174 198 0
175 198 0
173 197 0
174 197 0
174 198 0
175 198 0
175 198 0
176 198 0
173 197 0
174 198 0
174 198 0
174 198 0
175 198 0
176 199 0
174 197 0
175 198 0
175 198 0
174 198 0
175 198 0
175 198 0
175 198 0
173 197 0
175 198 0
173 197 0
176 198 0
176 198 0
175 198 0
175 198 0
175 198 0
176 198 0
173 197 0
175 198 0
175 198 0
175 198 0
174 198 0
174 198 0
175 198 0
175 198 0
174 198 0
173 197 0
175 198 0
173 197 0
175 198 0
174 198 0
173 197 0
175 198 0
175 198 0
175 198 0
176 199 0
173 197 0
174 198 0
174 198 0
174 198 0
173 197 0
176 199 0
175 198 0
175 198 0
173 197 0
174 198 0
175 198 0
175 198 0
175 198 0
175 198 0
174 198 0
175 198 0
175 198 0
175 198 0
174 198 0
175 198 0
177 199 0
176 199 0
175 198 0
174 198 0
175 198 0
174 198 0
174 198 0
174 198 0
174 197 0
173 197 0
175 198 0
174 198 0
175 198 0
175 198 0
176 198 0
174 197 0
174 197 0
174 198 0
176 198 0
174 198 0
174 198 0
175 198 0
175 198 0
176 199 0
174 198 0
173 197 0
175 198 0
174 198 0
175 198 0
173 197 0
174 197 0
174 198 0
175 198 0
176 199 0
174 197 0
174 198 0
173 197 0
174 198 0
175 198 0
175 198 0
174 198 0
173 197 0
173 197 0
174 197 0
174 198 0
174 198 0
175 198 0
175 198 0
173 197 0
173 197 0
173 197 0
175 198 0
174 198 0
176 199 0
176 199 0
175 198 0
173 197 0
174 198 0
175 198 0
176 199 0
174 198 0
175 198 0
175 198 0
174 197 0
176 198 0
173 197 0
174 197 0
174 198 0
174 197 0
175 198 0
175 198 0
174 197 0
173 197 0
175 198 0
175 198 0
175 198 0
173 197 0
175 198 0
173 197 0
174 197 0
175 198 0
174 198 0
174 196 0
172 196 0
174 197 0
174 197 0
174 197 0
173 197 0
173 197 0
173 197 0
173 197 0
175 198 0
173 197 0
174 198 0
173 196 0
175 198 0
175 198 0
174 198 0
171 194 0
171 196 0
172 196 0
173 196 0
174 197 0
176 199 0
174 198 0
173 196 0
176 198 0
174 197 0
175 198 0
175 198 0
175 198 0
173 197 0
174 198 0
175 198 0
174 197 0
174 196 0
173 197 0
175 198 0
174 196 0
174 198 0
172 196 0
172 196 0
160 170 57
149 143 87
137 133 85
156 151 98
150 144 94
152 147 97
149 145 95
153 149 98
156 150 98
141 137 90
147 143 94
152 146 95
138 134 84
148 153 64
171 191 30
173 196 0
173 197 0
175 198 0
175 198 0
175 198 0
174 198 0
176 198 0
174 198 0
173 197 0
172 197 0
174 197 0
174 198 0
174 197 0
173 196 0
175 198 0
174 197 0
173 197 0
175 198 0
174 198 0
174 197 0
176 199 0
176 199 0
175 198 0
174 198 0
173 197 0
176 199 0
174 197 0
173 197 0
173 197 0
175 198 0
175 198 0
175 198 0
176 199 0
176 199 0
175 198 0
175 198 0
174 198 0
174 198 0
173 197 0
175 198 0
173 197 0
174 198 0
175 198 0
176 199 0
174 197 0
173 197 0
175 198 0
173 197 0
175 198 0
173 197 0
175 198 0
174 198 0
175 198 0
174 198 0
175 198 0
175 198 0
174 198 0
174 198 0
174 198 0
175 198 0
173 197 0
175 198 0
175 198 0
175 198 0
174 198 0
174 198 0
175 198 0
175 198 0
175 198 0
173 197 0
175 198 0
173 197 0
176 199 0
174 197 0
175 198 0
174 198 0
175 198 0
173 197 0
173 197 0
174 198 0
175 198 0
174 198 0
174 197 0
174 198 0
175 198 0
175 198 0
173 197 0
172 197 0
176 199 0
173 197 0
177 199 0
175 198 0
175 198 0
176 198 0
174 197 0
174 198 0
175 198 0
175 198 0
177 199 0
172 197 0
174 198 0
174 197 0
175 198 0
174 197 0
174 198 0
176 199 0
173 197 0
175 198 0
175 198 0
175 198 0
175 198 0
176 198 0
173 197 0
173 197 0
176 199 0
174 198 0
175 198 0
175 198 0
175 198 0
174 198 0
174 197 0
174 198 0
174 198 0
175 198 0
174 197 0
175 198 0
174 197 0
173 197 0
173 197 0
174 198 0
174 198 0
175 198 0
174 198 0
175 198 0
176 199 0
175 198 0
175 198 0
175 198 0
175 198 0
175 198 0
174 198 0
173 197 0
176 199 0
175 198 0
177 199 0
174 198 0
174 198 0
174 198 0
174 198 0
173 197 0
174 198 0
174 197 0
175 198 0
176 198 0
174 198 0
181 203 80
188 208 117
205 221 182
213 228 212
227 239 252
229 240 255
229 240 255
229 240 255
229 240 255
229 240 255
229 240 255
228 240 255
228 240 255
228 240 255
228 240 255
228 240 255
228 240 255
228 240 255
229 240 255
229 240 255
229 240 255
229 240 255
229 240 255
229 240 255
229 240 255
222 234 237
209 224 201
200 217 165
187 207 114
174 198 0
174 198 0
175 198 0
174 197 0
174 198 0
176 198 0
173 197 0
176 199 0
175 198 0
173 197 0
175 198 0
176 198 0
175 198 0
175 198 0
175 198 0
175 198 0
174 198 0
174 198 0
176 199 0
173 197 0
174 198 0
174 198 0
174 198 0
175 198 0
177 199 0
174 198 0
175 198 0
173 197 0
175 198 0
176 198 0
174 198 0
174 197 0
175 198 0
174 198 0
174 198 0
175 198 0
175 198 0
173 197 0
175 198 0
175 198 0
173 197 0
174 198 0
174 198 0
175 198 0
175 198 0
176 198 0
174 198 0
173 197 0
176 199 0
175 198 0
174 198 0
174 197 0
175 198 0
174 198 0
174 198 0
174 198 0
175 198 0
176 199 0
175 198 0
176 199 0
174 198 0
175 198 0
174 198 0
174 198 0
173 197 0
174 198 0
174 198 0
175 198 0
175 198 0
175 198 0
175 198 0
174 198 0
174 197 0
175 198 0
175 198 0
172 197 0
176 199 0
177 199 0
174 197 0
174 198 0
175 198 0
174 197 0
173 197 0
174 198 0
175 198 0
173 197 0
173 197 0
174 198 0
174 198 0
173 197 0
174 197 0
174 197 0
173 197 0
175 198 0
175 198 0
173 197 0
175 198 0
174 198 0
175 198 0
175 198 0
174 198 0
173 197 0
174 198 0
174 197 0
175 198 0
172 197 0
173 197 0
172 197 0
174 198 0
173 197 0
174 197 0
174 198 0
174 197 0
173 197 0
175 198 0
173 197 0
175 198 0
174 197 0
175 198 0
174 197 0
173 197 0
174 197 0
174 197 0
174 197 0
176 198 0
173 197 0
175 198 0
175 198 0
174 198 0
174 198 0
176 199 0
173 197 0
173 197 0
173 197 0
174 197 0
175 198 0
173 197 0
174 198 0
175 198 0
176 199 0
173 197 0
173 197 0
174 198 0
175 198 0
176 199 0
173 197 0
176 199 0
172 196 0
173 197 0
174 197 0
177 199 0
175 198 0
174 198 0
174 198 0
175 198 0
174 197 0
175 198 0
175 198 0
173 197 0
175 198 0
172 197 0
174 197 0
173 196 0
173 197 0
176 198 0
173 196 0
174 198 0
173 197 0
174 197 0
170 194 0
175 198 0
172 196 0
172 196 0
173 197 0
173 196 0
174 198 0
176 199 0
173 197 0
173 197 0
175 198 0
176 198 0
174 197 0
175 198 0
175 198 0
172 196 0
175 198 0
174 198 0
174 197 0
172 196 0
174 196 0
174 197 0
170 194 0
174 198 0
171 195 0
173 197 0
172 196 0
172 196 0
174 197 0
175 197 0
160 178 41
135 132 74
133 128 81
152 146 94
156 149 95
159 153 100
165 161 106
162 158 104
155 151 100
158 155 103
153 149 99
154 151 100
161 157 104
152 149 99
150 146 96
150 144 93
151 145 87
165 177 56
172 196 0
176 199 0
174 197 0
173 197 0
174 197 0
176 198 0
171 194 0
174 198 0
173 197 0
172 196 0
175 198 0
175 198 0
173 197 0
175 198 0
176 198 0
175 198 0
174 197 0
173 197 0
174 198 0
175 198 0
175 198 0
175 198 0
174 198 0
175 198 0
176 199 0
173 197 0
173 197 0
175 198 0
174 197 0
174 197 0
174 197 0
176 199 0
175 198 0
173 197 0
173 197 0
173 197 0
174 198 0
173 197 0
176 199 0
175 198 0
175 198 0
176 199 0
173 197 0
172 197 0
176 199 0
174 198 0
174 198 0
176 199 0
176 199 0
173 197 0
173 197 0
175 198 0
174 198 0
173 196 0
175 198 0
174 198 0
173 197 0
176 199 0
174 197 0
173 197 0
175 198 0
174 198 0
173 197 0
174 197 0
173 197 0
175 198 0
175 198 0
174 198 0
175 198 0
174 198 0
174 197 0
174 198 0
174 198 0
174 198 0
174 197 0
173 197 0
175 198 0
173 197 0
175 198 0
174 198 0
174 197 0
174 198 0
175 198 0
176 199 0
174 197 0
174 198 0
175 198 0
174 198 0
174 197 0
176 198 0
174 198 0
174 198 0
174 198 0
174 198 0
174 198 0
174 198 0
175 198 0
173 197 0
173 197 0
174 197 0
175 198 0
173 197 0
176 198 0
175 198 0
174 197 0
174 197 0
173 197 0
173 197 0
177 199 0
173 197 0
174 197 0
175 198 0
177 199 0
175 198 0
174 198 0
173 197 0
175 198 0
174 198 0
176 199 0
175 198 0
174 198 0
174 198 0
174 198 0
173 197 0
175 198 0
175 198 0
174 198 0
175 198 0
174 198 0
175 198 0
175 198 0
176 198 0
175 198 0
173 197 0
175 198 0
176 198 0
173 197 0
174 198 0
175 198 0
173 197 0
175 198 0
174 198 0
174 198 0
175 198 0
176 199 0
176 199 0
176 199 0
174 198 0
174 198 0
176 199 0
174 198 0
174 197 0
176 198 0
175 198 0
174 198 0
176 198 0
175 198 0
173 197 0
176 199 36
189 209 120
200 217 171
210 225 199
226 238 248
229 240 255
229 240 255
229 240 255
229 240 255
229 240 255
229 240 255
229 240 255
228 240 255
229 240 255
229 240 255
229 240 255
228 239 254
221 234 234
206 222 189
195 214 155
181 203 84
175 198 0
174 198 0
175 198 0
175 198 0
174 198 0
175 198 0
173 197 0
175 198 0
173 197 0
177 199 0
174 198 0
174 198 0
175 198 0
173 197 0
174 198 0
174 198 0
174 198 0
175 198 0
175 198 0
175 198 0
173 197 0
174 197 0
176 199 0
175 198 0
176 199 0
174 198 0
175 198 0
176 199 0
175 198 0
174 198 0
175 198 0
174 197 0
175 198 0
172 197 0
174 198 0
176 198 0
174 198 0
174 198 0
174 198 0
174 198 0
174 198 0
174 197 0
175 198 0
174 198 0
175 198 0
175 198 0
176 199 0
175 198 0
175 198 0
175 198 0
174 197 0
176 199 0
174 198 0
174 198 0
174 198 0
175 198 0
175 198 0
175 198 0
173 197 0
175 198 0
175 198 0
174 198 0
174 198 0
175 198 0
174 198 0
175 198 0
173 197 0
176 198 0
176 199 0
174 198 0
174 198 0
175 198 0
174 198 0
174 198 0
173 197 0
176 199 0
174 198 0
177 199 0
174 198 0
174 197 0
175 198 0
175 198 0
174 198 0
174 198 0
175 198 0
174 198 0
174 198 0
173 197 0
175 198 0
175 198 0
174 198 0
176 199 0
172 197 0
174 197 0
174 198 0
175 198 0
174 198 0
174 197 0
175 198 0
174 197 0
174 197 0
173 197 0
174 197 0
174 198 0
172 196 0
174 197 0
174 198 0
175 198 0
173 197 0
174 198 0
174 198 0
173 197 0
175 198 0
174 198 0
175 198 0
175 198 0
173 197 0
174 197 0
173 197 0
176 198 0
175 198 0
174 197 0
174 197 0
175 198 0
174 197 0
174 197 0
175 198 0
175 198 0
174 197 0
174 198 0
174 197 0
174 198 0
174 197 0
173 197 0
175 198 0
172 196 0
174 198 0
172 196 0
174 197 0
175 198 0
174 197 0
174 198 0
171 196 0
174 198 0
175 197 0
175 198 0
174 198 0
173 197 0
176 198 0
174 197 0
174 198 0
175 198 0
175 198 0
176 198 0
175 198 0
172 197 0
175 198 0
172 196 0
175 198 0
174 198 0
174 198 0
173 197 0
175 198 0
174 198 0
174 197 0
175 198 0
174 198 0
174 198 0
172 196 0
175 198 0
174 197 0
174 196 0
174 197 0
173 196 0
174 197 0
174 197 0
174 197 0
175 198 0
174 197 0
174 197 0
172 196 0
173 197 0
174 197 0
175 197 0
172 196 0
175 197 0
176 199 0
174 198 0
174 196 0
174 197 0
175 197 0
174 197 0
174 197 0
174 198 0
173 197 0
173 196 0
173 196 0
173 196 0
174 197 0
173 197 0
173 197 0
175 198 0
156 169 48
138 134 77
143 138 88
156 151 97
156 151 95
157 153 100
159 155 103
158 154 102
161 159 106
160 158 105
156 154 103
151 149 99
151 149 100
158 155 103
154 152 101
149 145 95
160 155 102
151 145 93
149 144 90
148 156 57
173 196 0
174 198 0
173 197 0
173 197 0
173 196 0
174 197 0
175 198 0
172 196 0
175 198 0
172 196 0
173 196 0
173 196 0
175 198 0
175 198 0
174 197 0
174 198 0
174 198 0
174 197 0
174 198 0
173 197 0
174 197 0
174 198 0
176 198 0
175 198 0
174 197 0
175 198 0
175 198 0
173 197 0
174 197 0
175 198 0
174 198 0
174 198 0
172 197 0
175 198 0
173 197 0
174 198 0
174 197 0
174 197 0
173 197 0
176 199 0
175 198 0
176 198 0
174 197 0
174 198 0
175 198 0
174 198 0
174 197 0
175 198 0
178 200 0
174 197 0
175 198 0
176 199 0
176 199 0
174 197 0
175 198 0
173 197 0
174 198 0
174 198 0
174 198 0
174 197 0
175 198 0
174 198 0
176 198 0
174 197 0
174 198 0
174 197 0
174 198 0
176 198 0
173 197 0
174 198 0
175 198 0
174 198 0
175 198 0
174 198 0
175 198 0
175 198 0
174 198 0
174 198 0
174 197 0
174 198 0
174 197 0
172 197 0
174 198 0
175 198 0
173 197 0
175 198 0
175 198 0
174 198 0
177 199 0
174 197 0
175 198 0
174 198 0
175 198 0
174 198 0
176 199 0
176 198 0
175 198 0
175 198 0
175 198 0
174 198 0
174 197 0
175 198 0
176 199 0
174 198 0
175 198 0
175 198 0
175 198 0
172 197 0
174 198 0
174 198 0
174 197 0
172 196 0
175 198 0
175 198 0
174 198 0
174 198 0
175 198 0
175 198 0
174 198 0
174 197 0
174 198 0
175 198 0
175 198 0
176 199 0
174 198 0
175 198 0
174 197 0
174 198 0
174 198 0
173 197 0
174 197 0
174 198 0
175 198 0
176 198 0
176 199 0
174 198 0
175 198 0
176 199 0
176 198 0
174 197 0
175 198 0
175 198 0
174 197 0
176 199 0
174 198 0
175 198 0
173 197 0
174 197 0
175 198 0
176 198 0
175 198 0
176 199 0
174 197 0
176 199 0
173 197 0
176 199 0
173 197 0
173 197 0
175 198 0
173 197 0
175 198 0
175 198 0
181 203 80
195 213 149
205 221 186
222 234 236
227 239 252
229 240 255
229 240 255
229 240 255
214 228 214
210 225 199
192 211 142
178 200 62
174 198 0
176 199 0
174 198 0
176 199 0
174 198 0
175 198 0
175 198 0
175 198 0
174 198 0
174 198 0
174 198 0
174 197 0
175 198 0
174 198 0
175 198 0
175 198 0
176 199 0
175 198 0
173 197 0
175 198 0
175 198 0
173 197 0
175 198 0
176 199 0
174 197 0
174 198 0
176 199 0
172 197 0
175 198 0
175 198 0
175 198 0
174 198 0
175 198 0
173 197 0
174 198 0
176 199 0
176 199 0
173 197 0
176 199 0
174 197 0
175 198 0
175 198 0
173 197 0
174 198 0
174 197 0
175 198 0
174 198 0
172 197 0
176 198 0
174 197 0
175 198 0
174 198 0
175 198 0
175 198 0
175 198 0
173 197 0
176 198 0
174 198 0
175 198 0
175 198 0
174 197 0
174 198 0
174 198 0
175 198 0
174 198 0
173 197 0
173 197 0
174 198 0
174 198 0
176 199 0
173 197 0
174 198 0
173 197 0
174 198 0
175 198 0
175 198 0
174 197 0
175 198 0
175 198 0
175 198 0
174 198 0
175 198 0
176 199 0
173 197 0
173 197 0
174 197 0
174 198 0
174 198 0
175 198 0
176 199 0
175 198 0
175 198 0
175 198 0
173 197 0
174 198 0
174 197 0
175 198 0
176 198 0
175 198 0
175 198 0
174 197 0
175 198 0
175 198 0
176 198 0
175 198 0
175 198 0
175 198 0
176 199 0
173 197 0
176 199 0
174 197 0
173 197 0
175 198 0
176 199 0
174 198 0
173 197 0
177 199 0
176 199 0
175 198 0
174 197 0
173 197 0
175 198 0
176 199 0
175 198 0
176 199 0
174 198 0
175 198 0
175 198 0
175 198 0
173 196 0
174 198 0
176 198 0
175 198 0
174 198 0
174 198 0
174 197 0
173 197 0
175 198 0
173 197 0
175 198 0
174 198 0
174 197 0
174 198 0
173 197 0
173 197 0
173 197 0
175 198 0
173 197 0
175 198 0
174 198 0
172 196 0
175 198 0
173 197 0
173 197 0
174 198 0
172 196 0
175 198 0
172 196 0
175 198 0
174 198 0
175 198 0
174 197 0
172 196 0
176 199 0
174 198 0
174 198 0
175 198 0
175 198 0
174 197 0
174 198 0
174 197 0
172 196 0
173 197 0
174 198 0
171 196 0
173 196 0
174 198 0
174 198 0
173 196 0
173 197 0
173 197 0
173 196 0
175 197 0
172 196 0
174 197 0
172 196 0
172 196 0
174 197 0
171 194 0
174 197 0
174 197 0
174 197 0
174 197 0
173 196 0
174 197 0
174 197 0
173 197 0
174 197 0
172 195 0
173 196 0
173 197 0
173 197 0
172 195 0
174 197 0
175 198 0
158 173 42
153 146 87
154 148 93
156 151 98
165 159 104
162 158 101
163 159 104
163 160 107
161 157 104
162 160 107
160 158 106
166 164 109
161 158 106
165 162 108
161 158 105
164 160 106
157 153 101
151 148 97
158 152 99
145 140 87
149 142 89
146 150 64
175 197 11
172 196 0
173 196 0
175 198 0
175 198 0
173 196 0
172 196 0
173 196 0
174 197 0
174 197 0
176 198 0
174 198 0
174 197 0
174 198 0
174 197 0
174 198 0
174 198 0
173 196 0
175 198 0
174 197 0
173 197 0
174 198 0
172 196 0
174 197 0
176 198 0
174 198 0
174 197 0
175 198 0
174 198 0
175 198 0
174 197 0
173 197 0
174 197 0
174 197 0
175 198 0
174 198 0
173 197 0
175 198 0
174 198 0
175 198 0
174 198 0
175 198 0
175 198 0
175 198 0
174 198 0
175 198 0
177 199 0
175 198 0
174 197 0
174 198 0
174 197 0
174 198 0
175 198 0
174 197 0
174 198 0
173 197 0
173 197 0
176 198 0
175 198 0
176 199 0
174 197 0
174 197 0
174 198 0
175 198 0
174 197 0
174 198 0
175 198 0
175 198 0
176 199 0
174 197 0
175 198 0
174 197 0
175 198 0
174 197 0
174 197 0
175 198 0
174 197 0
175 198 0
175 198 0
175 198 0
173 197 0
174 198 0
174 198 0
175 198 0
175 198 0
173 197 0
173 197 0
174 198 0
174 198 0
175 198 0
176 198 0
175 198 0
175 198 0
174 198 0
175 198 0
174 198 0
173 197 0
174 198 0
174 198 0
175 198 0
175 198 0
173 197 0
175 198 0
175 198 0
175 198 0
175 198 0
174 197 0
174 198 0
174 198 0
175 198 0
178 200 0
174 198 0
175 198 0
173 197 0
174 198 0
175 198 0
175 198 0
173 197 0
175 198 0
176 199 0
174 198 0
176 198 0
174 198 0
175 198 0
174 198 0
174 198 0
174 198 0
174 198 0
174 197 0
173 197 0
175 198 0
174 197 0
172 197 0
174 197 0
174 197 0
175 198 0
175 198 0
174 198 0
174 197 0
174 197 0
175 198 0
174 198 0
173 197 0
174 198 0
176 199 0
174 197 0
175 198 0
173 197 0
173 197 0
174 197 0
174 197 0
174 197 0
175 198 0
176 198 0
174 197 0
175 198 0
175 198 0
175 198 0
174 198 0
174 198 0
175 198 0
175 198 0
174 198 0
175 198 0
176 199 0
178 200 51
193 212 144
201 218 171
219 232 228
175 198 0
175 198 0
176 198 0
173 197 0
173 197 0
176 199 0
175 198 0
176 198 0
174 198 0
177 199 0
174 197 0
175 198 0
174 198 0
176 198 0
174 197 0
174 198 0
175 198 0
175 198 0
174 198 0
174 198 0
173 197 0
174 197 0
174 198 0
176 198 0
175 198 0
175 198 0
175 198 0
174 198 0
174 198 0
175 198 0
174 198 0
174 197 0
173 197 0
175 198 0
175 198 0
176 199 0
174 198 0
175 198 0
175 198 0
173 197 0
172 197 0
174 198 0
176 198 0
174 198 0
174 198 0
175 198 0
176 198 0
175 198 0
174 198 0
173 197 0
175 198 0
174 198 0
175 198 0
175 198 0
173 197 0
175 198 0
175 198 0
175 198 0
173 197 0
173 197 0
174 197 0
174 198 0
175 198 0
176 199 0
175 198 0
174 198 0
174 198 0
175 198 0
175 198 0
175 198 0
177 199 0
175 198 0
174 198 0
174 198 0
175 198 0
174 198 0
173 197 0
174 198 0
175 198 0
174 198 0
172 197 0
174 198 0
174 198 0
174 198 0
173 197 0
174 198 0
175 198 0
174 198 0
174 198 0
173 197 0
174 198 0
175 198 0
176 199 0
174 198 0
175 198 0
175 198 0
175 198 0
173 197 0
174 198 0
175 198 0
173 197 0
174 197 0
175 198 0
175 198 0
176 198 0
174 198 0
174 197 0
174 198 0
174 197 0
174 198 0
174 198 0
175 198 0
172 196 0
175 198 0
175 198 0
174 197 0
174 198 0
174 197 0
175 198 0
173 197 0
174 198 0
175 198 0
175 198 0
174 197 0
173 197 0
173 197 0
175 198 0
173 197 0
174 198 0
174 198 0
175 198 0
174 198 0
175 198 0
172 196 0
173 197 0
175 198 0
174 197 0
175 198 0
174 198 0
175 198 0
173 197 0
174 197 0
174 198 0
175 198 0
174 198 0
174 197 0
173 197 0
173 197 0
175 198 0
175 198 0
173 197 0
174 198 0
174 197 0
173 197 0
176 198 0
173 197 0
172 195 0
174 197 0
174 198 0
174 198 0
174 198 0
174 198 0
174 198 0
174 198 0
173 197 0
173 197 0
173 197 0
174 198 0
176 199 0
174 197 0
173 197 0
175 198 0
171 195 0
174 198 0
174 197 0
174 197 0
173 196 0
174 197 0
173 197 0
173 197 0
175 197 0
173 197 0
172 196 0
174 197 0
173 196 0
175 197 0
175 198 0
175 198 0
172 196 0
175 197 0
173 196 0
173 197 0
172 196 0
175 198 0
171 195 0
173 197 0
173 196 0
174 197 0
172 195 0
173 195 0
174 197 0
173 197 0
175 197 0
173 196 0
174 197 0
173 196 0
172 196 0
173 196 0
163 180 37
147 141 80
152 146 90
154 150 92
166 160 102
162 158 101
162 158 104
163 160 106
161 158 105
163 160 106
162 160 107
163 161 108
164 162 108
165 162 108
167 165 110
160 158 106
162 160 106
159 155 102
156 153 101
160 154 100
156 151 97
154 148 92
138 133 79
152 157 63
175 197 0
172 195 0
174 197 0
174 198 0
174 197 0
176 199 0
176 198 0
175 198 0
174 197 0
175 198 0
175 198 0
175 198 0
174 197 0
175 198 0
174 198 0
173 197 0
175 198 0
174 197 0
174 197 0
172 197 0
174 197 0
174 197 0
174 197 0
174 198 0
172 196 0
173 197 0
175 198 0
175 198 0
176 198 0
175 198 0
175 198 0
173 197 0
175 198 0
174 197 0
174 198 0
175 198 0
174 197 0
175 198 0
174 198 0
176 198 0
175 198 0
175 198 0
175 198 0
175 198 0
175 198 0
175 198 0
174 198 0
175 198 0
174 198 0
175 198 0
174 197 0
174 198 0
174 198 0
175 198 0
175 198 0
175 198 0
176 199 0
174 197 0
175 198 0
175 198 0
174 198 0
176 199 0
175 198 0
174 197 0
175 198 0
176 199 0
174 198 0
173 197 0
174 198 0
175 198 0
174 198 0
174 198 0
175 198 0
174 197 0
175 198 0
174 198 0
176 199 0
176 199 0
176 199 0
175 198 0
176 199 0
176 199 0
174 198 0
175 198 0
174 198 0
174 197 0
176 199 0
174 198 0
172 197 0
175 198 0
174 197 0
175 198 0
175 198 0
173 197 0
176 199 0
173 197 0
175 198 0
176 199 0
175 198 0
175 198 0
175 198 0
175 198 0
174 197 0
174 197 0
174 198 0
174 197 0
174 198 0
172 197 0
177 199 0
172 197 0
174 198 0
175 198 0
174 198 0
175 198 0
175 198 0
175 198 0
173 197 0
174 198 0
174 197 0
175 198 0
174 198 0
174 198 0
175 198 0
176 198 0
173 197 0
174 198 0
175 198 0
176 199 0
173 197 0
176 198 0
174 198 0
175 198 0
174 198 0
174 198 0
174 198 0
174 198 0
175 198 0
173 197 0
174 197 0
174 197 0
174 198 0
175 198 0
175 198 0
174 198 0
176 198 0
174 198 0
174 197 0
173 197 0
174 198 0
176 199 0
175 198 0
173 197 0
175 198 0
174 198 0
176 198 0
175 198 0
175 198 0
174 198 0
175 198 0
175 198 0
173 197 0
175 198 0
175 198 0
174 197 0
176 198 0
175 198 0
174 197 0
174 198 0
175 198 0
174 198 0
174 198 0
175 198 0
175 198 0
175 198 0
173 197 0
176 199 0
174 198 0
175 198 0
174 198 0
174 198 0
173 197 0
175 198 0
175 198 0
175 198 0
175 198 0
175 198 0
174 198 0
174 198 0
174 198 0
174 197 0
173 197 0
173 197 0
175 198 0
175 198 0
173 197 0
173 197 0
173 197 0
175 198 0
175 198 0
172 197 0
175 198 0
175 198 0
175 198 0
175 198 0
175 198 0
175 198 0
175 198 0
175 198 0
174 198 0
174 197 0
174 197 0
174 198 0
175 198 0
174 197 0
173 197 0
174 197 0
174 198 0
175 198 0
173 197 0
174 198 0
175 198 0
175 198 0
175 198 0
175 198 0
175 198 0
175 198 0
175 198 0
174 197 0
175 198 0
175 198 0
174 197 0
175 198 0
174 198 0
175 198 0
175 198 0
174 197 0
174 198 0
175 198 0
174 198 0
174 198 0
173 197 0
176 198 0
174 198 0
174 198 0
173 197 0
175 198 0
174 198 0
175 198 0
174 198 0
176 199 0
174 198 0
175 198 0
175 198 0
174 198 0
174 198 0
174 198 0
174 198 0
174 198 0
175 198 0
176 199 0
175 198 0
176 199 0
175 198 0
176 199 0
173 197 0
174 197 0
173 197 0
174 198 0
174 198 0
173 197 0
175 198 0
175 198 0
173 197 0
175 198 0
173 197 0
175 198 0
174 197 0
174 197 0
174 198 0
175 198 0
175 198 0
174 198 0
176 199 0
173 197 0
174 198 0
175 198 0
175 198 0
176 198 0
174 198 0
173 197 0
174 197 0
174 198 0
174 198 0
174 197 0
176 198 0
174 198 0
174 197 0
175 198 0
174 197 0
175 198 0
175 198 0
173 197 0
175 198 0
173 197 0
173 197 0
175 198 0
173 197 0
173 197 0
174 197 0
173 197 0
174 198 0
173 197 0
175 198 0
175 198 0
172 196 0
173 197 0
175 198 0
175 198 0
173 197 0
174 198 0
173 197 0
173 197 0
172 196 0
173 197 0
175 198 0
174 197 0
175 198 0
173 197 0
175 198 0
174 197 0
175 198 0
174 198 0
174 197 0
174 197 0
175 198 0
173 196 0
172 196 0
172 195 0
173 197 0
175 198 0
173 197 0
172 195 0
172 196 0
172 196 0
174 196 0
176 198 0
173 197 0
174 197 0
172 195 0
174 197 0
174 197 0
174 197 0
174 197 0
174 197 0
172 196 0
174 197 0
175 197 0
172 196 0
171 194 0
169 191 0
173 196 0
173 197 0
172 196 0
173 196 0
174 197 0
173 196 0
170 194 0
173 196 0
172 196 0
172 194 0
173 195 0
174 197 0
173 196 0
173 196 0
172 195 0
171 193 0
146 144 65
148 141 84
149 144 92
153 149 94
150 146 95
162 159 106
164 161 105
162 159 106
166 163 109
164 161 107
169 166 111
169 167 112
167 164 109
166 164 109
165 162 108
163 160 107
160 157 104
161 158 104
161 157 103
160 155 99
158 153 96
149 144 91
151 146 90
143 138 75
170 188 34
173 197 0
175 198 0
172 196 0
174 198 0
174 196 0
173 197 0
173 195 0
174 197 0
172 196 0
174 197 0
173 197 0
174 197 0
175 198 0
174 197 0
174 197 0
174 198 0
174 197 0
171 196 0
174 198 0
175 198 0
173 197 0
176 198 0
175 198 0
174 197 0
175 198 0
174 197 0
175 198 0
173 197 0
174 198 0
174 197 0
173 197 0
174 197 0
173 197 0
174 197 0
174 198 0
174 198 0
176 198 0
174 197 0
173 197 0
174 198 0
176 198 0
175 198 0
174 198 0
174 198 0
173 197 0
172 197 0
174 198 0
174 198 0
175 198 0
174 197 0
175 198 0
175 198 0
175 198 0
176 199 0
174 198 0
176 198 0
174 197 0
174 198 0
176 199 0
175 198 0
174 198 0
176 198 0
174 198 0
174 198 0
174 198 0
173 197 0
174 198 0
175 198 0
174 198 0
175 198 0
173 197 0
174 198 0
174 197 0
174 197 0
174 198 0
174 198 0
175 198 0
175 198 0
177 199 0
173 197 0
175 198 0
175 198 0
176 198 0
175 198 0
173 197 0
173 197 0
173 197 0
174 198 0
173 197 0
174 197 0
173 197 0
174 197 0
174 198 0
174 198 0
175 198 0
173 197 0
174 198 0
175 198 0
174 198 0
175 198 0
174 198 0
173 197 0
176 199 0
174 198 0
174 197 0
175 198 0
174 197 0
173 197 0
175 198 0
175 198 0
174 198 0
175 198 0
175 198 0
173 197 0
174 198 0
177 199 0
175 198 0
175 198 0
174 198 0
175 198 0
175 198 0
173 197 0
174 198 0
175 198 0
173 197 0
174 198 0
175 198 0
174 198 0
174 198 0
173 197 0
177 199 0
174 198 0
174 198 0
173 197 0
176 199 0
174 198 0
173 197 0
174 198 0
175 198 0
174 197 0
175 198 0
176 199 0
174 198 0
176 198 0
174 198 0
175 198 0
174 198 0
175 198 0
175 198 0
173 197 0
174 198 0
176 199 0
176 199 0
174 198 0
174 198 0
174 198 0
173 197 0
174 198 0
175 198 0
173 197 0
174 198 0
176 199 0
174 198 0
175 198 0
176 198 0
175 198 0
174 198 0
175 198 0
175 198 0
175 198 0
174 198 0
175 198 0
174 198 0
174 198 0
174 198 0
174 198 0
173 197 0
175 198 0
175 198 0
175 198 0
173 197 0
174 198 0
172 197 0
176 199 0
174 198 0
176 199 0
174 198 0
175 198 0
175 198 0
175 198 0
176 198 0
174 198 0
175 198 0
174 198 0
176 199 0
174 198 0
173 197 0
174 197 0
175 198 0
173 197 0
175 198 0
174 198 0
175 198 0
173 197 0
174 197 0
174 197 0
176 199 0
176 199 0
174 197 0
174 197 0
173 197 0
175 198 0
175 198 0
174 198 0
173 197 0
175 198 0
174 198 0
175 198 0
174 198 0
175 198 0
174 197 0
173 197 0
175 198 0
176 199 0
175 198 0
174 197 0
175 198 0
176 199 0
176 198 0
176 199 0
175 198 0
175 198 0
173 197 0
175 198 0
176 199 0
176 198 0
175 198 0
175 198 0
175 198 0
174 198 0
174 197 0
176 198 0
174 197 0
175 198 0
174 198 0
176 199 0
176 198 0
174 198 0
175 198 0
175 198 0
174 198 0
173 196 0
175 198 0
175 198 0
174 198 0
174 198 0
174 198 0
175 198 0
173 197 0
175 198 0
175 198 0
174 197 0
175 198 0
175 198 0
175 198 0
174 198 0
175 198 0
173 197 0
176 199 0
175 198 0
175 198 0
176 199 0
174 197 0
174 198 0
173 197 0
174 197 0
175 198 0
174 197 0
175 198 0
173 197 0
175 198 0
174 198 0
175 197 0
174 198 0
173 197 0
174 198 0
174 198 0
174 198 0
175 198 0
174 198 0
176 199 0
174 197 0
174 198 0
175 198 0
173 197 0
174 197 0
175 198 0
173 197 0
175 198 0
175 198 0
172 196 0
174 198 0
174 197 0
175 198 0
174 197 0
175 198 0
175 198 0
175 198 0
176 199 0
174 198 0
174 198 0
174 198 0
174 198 0
175 198 0
174 198 0
174 197 0
176 198 0
174 198 0
175 198 0
173 197 0
174 198 0
172 196 0
174 198 0
173 197 0
174 197 0
175 197 0
173 197 0
174 196 0
172 196 0
174 197 0
172 196 0
173 196 0
174 198 0
172 196 0
174 197 0
173 196 0
175 198 0
174 198 0
175 198 0
175 198 0
173 196 0
176 198 0
173 196 0
175 198 0
176 199 0
173 196 0
171 194 0
171 195 0
174 197 0
173 197 0
173 196 0
175 198 0
173 196 0
173 197 0
175 198 0
171 194 0
175 198 0
160 183 74
122 148 135
109 137 148
91 122 162
72 107 174
61 99 181
71 105 174
85 117 166
106 134 150
144 168 110
164 188 57
172 196 0
171 195 0
173 196 0
173 195 0
174 196 0
172 195 0
158 169 53
146 141 80
154 148 86
150 145 89
155 152 99
153 150 98
156 154 103
163 161 107
166 163 109
165 163 109
165 162 109
169 166 111
169 166 110
172 169 112
167 165 110
169 166 110
169 166 110
166 164 109
166 162 106
163 159 105
161 158 101
157 154 98
155 150 95
151 146 92
152 146 87
156 158 65
175 198 0
174 198 0
173 195 0
173 196 0
173 196 0
174 198 0
175 198 0
171 195 0
173 196 0
174 198 0
173 197 0
173 196 0
174 197 0
175 198 0
174 198 0
175 198 0
176 199 0
175 197 0
175 198 0
173 196 0
173 196 0
175 197 0
174 197 0
174 198 0
175 198 0
176 198 0
175 198 0
174 198 0
172 197 0
174 197 0
175 198 0
174 198 0
174 198 0
175 198 0
175 198 0
176 198 0
174 197 0
175 198 0
173 197 0
174 197 0
173 196 0
176 198 0
173 197 0
175 198 0
174 198 0
174 198 0
175 198 0
174 198 0
175 198 0
172 197 0
174 198 0
175 198 0
174 198 0
172 197 0
175 198 0
175 198 0
174 198 0
175 198 0
174 198 0
173 197 0
174 197 0
173 197 0
174 198 0
174 197 0
174 197 0
174 198 0
174 197 0
174 197 0
176 199 0
173 197 0
175 198 0
173 197 0
174 198 0
175 198 0
173 197 0
174 197 0
174 197 0
174 198 0
174 197 0
174 197 0
175 198 0
175 198 0
175 198 0
174 197 0
176 199 0
174 198 0
175 198 0
174 197 0
175 198 0
174 198 0
175 198 0
174 198 0
174 197 0
173 197 0
174 198 0
173 197 0
175 198 0
175 198 0
175 198 0
176 199 0
175 198 0
175 198 0
175 198 0
174 197 0
174 198 0
174 198 0
175 198 0
174 198 0
175 198 0
172 197 0
175 198 0
174 198 0
173 197 0
174 198 0
174 198 0
173 197 0
176 199 0
175 198 0
175 198 0
174 197 0
174 198 0
177 199 0
174 198 0
175 198 0
175 198 0
174 197 0
175 198 0
175 198 0
174 198 0
174 198 0
175 198 0
176 199 0
174 198 0
175 198 0
173 197 0
174 198 0
174 198 0
174 198 0
175 198 0
174 198 0
175 198 0
174 198 0
173 197 0
173 197 0
175 198 0
175 198 0
173 197 0
173 197 0
174 198 0
174 198 0
177 199 0
177 199 0
175 198 0
176 199 0
175 198 0
176 199 0
174 198 0
175 198 0
175 198 0
174 198 0
175 198 0
174 198 0
174 198 0
175 198 0
174 198 0
174 198 0
175 198 0
173 197 0
174 198 0
173 197 0
176 199 0
175 198 0
175 198 0
174 198 0
174 198 0
175 198 0
176 199 0
173 197 0
176 199 0
175 198 0
174 198 0
174 197 0
175 198 0
174 198 0
176 198 0
175 198 0
175 198 0
175 198 0
175 198 0
174 198 0
174 198 0
175 198 0
174 197 0
176 199 0
173 197 0
173 197 0
174 197 0
175 198 0
173 197 0
176 199 0
171 196 0
175 198 0
174 198 0
174 198 0
176 199 0
175 198 0
174 197 0
174 198 0
175 198 0
173 197 0
175 198 0
174 198 0
173 197 0
175 198 0
174 197 0
174 198 0
176 199 0
174 198 0
175 198 0
176 198 0
176 198 0
174 198 0
175 198 0
174 198 0
174 197 0
174 198 0
175 198 0
174 198 0
175 198 0
175 198 0
173 197 0
173 197 0
173 197 0
175 198 0
174 198 0
175 198 0
175 198 0
177 199 0
176 198 0
174 197 0
174 198 0
172 197 0
175 198 0
174 198 0
174 198 0
174 197 0
174 198 0
173 197 0
176 198 0
173 197 0
175 198 0
173 197 0
175 198 0
176 199 0
173 197 0
174 198 0
174 197 0
174 198 0
173 197 0
175 198 0
176 199 0
174 198 0
175 198 0
174 198 0
172 197 0
175 198 0
175 198 0
174 197 0
174 198 0
174 198 0
174 198 0
174 198 0
174 198 0
174 198 0
175 198 0
174 197 0
174 198 0
174 198 0
175 198 0
174 198 0
174 197 0
175 198 0
175 198 0
174 197 0
174 198 0
175 198 0
176 198 0
175 198 0
175 198 0
174 198 0
174 198 0
174 198 0
173 197 0
174 198 0
174 197 0
174 198 0
174 197 0
176 199 0
175 198 0
173 197 0
175 198 0
175 198 0
176 198 0
175 198 0
175 198 0
175 198 0
173 197 0
174 198 0
172 196 0
174 197 0
175 197 0
175 198 0
174 197 0
174 197 0
175 198 0
175 198 0
173 197 0
175 198 0
173 197 0
173 197 0
173 196 0
174 198 0
173 197 0
175 198 0
174 197 0
173 197 0
174 197 0
174 197 0
175 198 0
175 198 0
175 198 0
174 197 0
176 199 0
172 195 0
175 198 0
172 197 0
173 196 0
173 197 0
175 198 0
173 197 0
174 197 0
174 197 0
171 195 0
171 195 0
174 197 0
172 195 0
172 196 0
171 194 0
172 196 0
172 195 0
173 196 0
174 197 0
172 194 0
175 198 0
174 197 18
123 149 134
89 120 164
61 99 181
62 99 179
62 99 181
62 99 181
62 99 181
62 99 181
62 99 181
61 99 181
62 99 181
61 98 181
61 98 179
105 131 149
149 172 92
173 196 0
173 195 0
168 191 0
168 190 11
138 134 69
141 135 75
150 145 87
144 141 93
151 147 97
157 153 100
155 152 99
163 160 108
156 154 104
161 159 107
168 164 110
166 164 109
170 167 110
170 167 111
172 168 112
171 168 111
169 164 109
171 167 110
168 164 108
169 164 108
169 164 107
160 156 99
155 150 93
158 153 93
154 148 87
143 138 77
166 185 25
175 197 0
173 196 0
171 195 0
174 197 0
174 197 0
175 197 0
174 197 0
174 197 0
173 197 0
175 198 0
173 196 0
175 198 0
175 198 0
174 198 0
175 197 0
173 196 0
174 197 0
173 197 0
173 197 0
173 197 0
175 198 0
173 197 0
175 197 0
174 198 0
174 198 0
173 197 0
175 198 0
174 198 0
174 197 0
175 198 0
173 197 0
175 198 0
174 197 0
173 197 0
174 197 0
174 198 0
175 198 0
174 197 0
174 197 0
174 197 0
175 198 0
175 198 0
174 197 0
174 198 0
174 198 0
173 197 0
174 198 0
173 196 0
174 197 0
174 198 0
175 198 0
174 198 0
174 197 0
175 198 0
176 198 0
174 198 0
174 198 0
173 197 0
175 198 0
175 198 0
176 198 0
175 198 0
175 198 0
174 198 0
173 197 0
174 198 0
175 198 0
174 198 0
174 198 0
174 198 0
174 198 0
174 198 0
174 198 0
173 197 0
175 198 0
173 197 0
174 197 0
174 197 0
175 198 0
173 197 0
176 199 0
173 197 0
173 197 0
172 196 0
174 198 0
175 198 0
174 198 0
174 198 0
175 198 0
176 199 0
173 197 0
173 197 0
173 197 0
175 198 0
174 198 0
174 198 0
174 197 0
175 198 0
175 198 0
174 197 0
175 198 0
174 198 0
173 197 0
175 198 0
174 197 0
175 198 0
175 198 0
174 198 0
175 198 0
175 198 0
173 197 0
174 198 0
175 198 0
173 197 0
175 198 0
173 197 0
173 197 0
174 198 0
175 198 0
174 198 0
176 198 0
174 198 0
175 198 0
176 198 0
175 198 0
175 198 0
174 198 0
173 197 0
174 198 0
173 197 0
175 198 0
175 198 0
177 199 0
174 198 0
174 197 0
175 198 0
175 198 0
175 198 0
173 197 0
174 198 0
176 199 0
175 198 0
176 199 0
174 198 0
175 198 0
174 198 0
176 198 0
175 198 0
174 198 0
176 199 0
174 198 0
176 199 0
174 198 0
175 198 0
174 198 0
174 198 0
175 198 0
175 198 0
174 197 0
174 198 0
175 198 0
174 198 0
176 198 0
174 198 0
174 197 0
176 198 0
173 197 0
174 198 0
173 197 0
172 197 0
173 197 0
175 198 0
174 198 0
175 198 0
173 197 0
174 198 0
175 198 0
174 198 0
176 198 0
175 198 0
175 198 0
175 198 0
175 198 0
174 198 0
174 197 0
174 198 0
176 198 0
174 198 0
174 198 0
173 197 0
174 198 0
174 198 0
176 199 0
175 198 0
176 198 0
175 198 0
175 198 0
173 197 0
175 198 0
173 197 0
175 198 0
172 197 0
175 198 0
174 198 0
175 198 0
174 197 0
175 198 0
174 198 0
175 198 0
174 198 0
175 198 0
175 198 0
175 198 0
175 198 0
175 198 0
176 199 0
175 198 0
175 198 0
175 198 0
176 199 0
175 198 0
175 198 0
173 197 0
174 197 0
175 198 0
176 199 0
175 198 0
175 198 0
174 198 0
174 198 0
174 197 0
174 198 0
175 198 0
174 197 0
174 198 0
175 198 0
175 198 0
174 197 0
173 197 0
175 198 0
174 197 0
174 198 0
174 198 0
175 198 0
175 198 0
174 198 0
174 198 0
174 198 0
173 197 0
175 198 0
175 198 0
173 197 0
174 198 0
174 197 0
175 198 0
173 197 0
177 199 0
173 197 0
176 198 0
174 197 0
175 198 0
175 198 0
173 197 0
173 197 0
175 198 0
175 198 0
174 198 0
173 197 0
174 198 0
175 198 0
174 198 0
175 198 0
175 198 0
173 197 0
174 197 0
175 198 0
174 197 0
173 197 0
175 198 0
174 198 0
173 197 0
174 198 0
176 199 0
173 197 0
175 198 0
173 197 0
175 198 0
175 198 0
173 197 0
173 197 0
174 198 0
173 197 0
175 198 0
176 199 0
174 197 0
173 197 0
173 197 0
175 198 0
176 198 0
175 198 0
175 198 0
176 199 0
174 197 0
176 199 0
173 197 0
173 197 0
175 198 0
175 198 0
175 198 0
173 197 0
174 197 0
174 197 0
174 197 0
174 197 0
175 198 0
173 197 0
173 197 0
171 195 0
172 196 0
175 198 0
172 196 0
174 197 0
171 195 0
176 199 0
175 198 0
175 198 0
175 198 0
175 198 0
172 196 0
175 198 0
174 197 0
173 197 0
172 196 0
173 197 0
173 196 0
173 196 0
174 196 0
173 197 0
174 197 0
173 197 0
174 197 0
173 196 0
172 194 0
170 194 0
173 196 0
174 198 0
172 196 0
173 197 0
173 196 0
172 196 0
172 196 0
173 196 0
156 180 84
92 121 162
63 100 180
61 99 181
62 99 181
62 99 180
61 99 181
61 99 181
61 98 181
61 99 181
61 99 181
61 99 181
61 99 181
62 99 180
62 99 181
62 99 179
63 99 180
82 112 165
163 186 60
171 194 0
155 169 40
129 124 69
143 138 82
147 143 88
147 143 92
148 146 96
150 147 99
138 137 96
158 156 106
162 160 106
165 162 108
166 162 106
169 167 110
168 165 110
173 169 112
175 171 112
167 163 108
171 167 108
170 166 107
170 165 105
168 164 106
162 158 102
167 162 100
164 158 100
165 159 93
155 148 87
134 130 75
151 158 53
174 197 0
174 196 0
173 196 0
172 195 0
173 197 0
173 197 0
175 198 0
173 196 0
175 197 0
173 197 0
175 198 0
173 197 0
172 196 0
174 198 0
175 198 0
174 198 0
174 197 0
173 196 0
174 197 0
173 197 0
175 198 0
174 198 0
175 198 0
173 197 0
175 198 0
175 198 0
172 196 0
174 198 0
175 198 0
175 198 0
175 198 0
174 197 0
174 197 0
174 198 0
174 198 0
173 197 0
174 198 0
174 197 0
175 198 0
176 199 0
173 197 0
173 197 0
174 197 0
173 197 0
174 198 0
175 197 0
175 198 0
175 198 0
176 198 0
172 195 0
174 197 0
173 197 0
175 198 0
175 198 0
175 198 0
174 198 0
174 197 0
174 198 0
174 198 0
173 197 0
176 198 0
175 198 0
172 197 0
174 197 0
175 198 0
175 198 0
173 197 0
175 198 0
174 198 0
175 198 0
173 197 0
173 197 0
175 198 0
174 197 0
174 198 0
175 198 0
176 199 0
174 198 0
175 198 0
173 197 0
175 198 0
175 198 0
173 197 0
174 197 0
173 197 0
174 198 0
173 197 0
176 199 0
173 197 0
173 197 0
173 197 0
173 197 0
175 198 0
175 198 0
174 198 0
174 198 0
173 197 0
173 197 0
174 198 0
174 197 0
176 199 0
174 198 0
174 197 0
173 197 0
175 198 0
174 198 0
176 199 0
175 198 0
174 198 0
175 198 0
174 198 0
175 198 0
174 198 0
174 198 0
176 199 0
174 198 0
174 197 0
176 198 0
175 198 0
173 197 0
175 198 0
176 198 0
175 198 0
176 199 0
175 198 0
175 198 0
175 198 0
175 198 0
175 198 0
176 198 0
176 198 0
176 198 0
175 198 0
174 198 0
174 197 0
174 198 0
174 198 0
174 198 0
174 198 0
175 198 0
174 198 0
174 198 0
176 199 0
176 199 0
173 197 0
175 198 0
176 199 0
175 198 0
176 198 0
173 197 0
174 198 0
174 197 0
175 198 0
176 199 0
175 198 0
174 198 0
173 197 0
175 198 0
173 197 0
174 198 0
175 198 0
174 198 0
175 198 0
173 197 0
176 198 0
175 198 0
174 197 0
176 199 0
175 198 0
175 198 0
175 198 0
174 198 0
174 198 0
176 198 0
175 198 0
174 198 0
175 198 0
175 198 0
174 198 0
174 198 0
174 198 0
176 199 0
174 198 0
174 198 0
175 198 0
175 198 0
175 198 0
174 198 0
174 198 0
174 198 0
174 198 0
173 197 0
173 197 0
176 199 0
174 197 0
173 197 0
174 198 0
173 197 0
173 197 0
173 197 0
173 197 0
174 198 0
174 198 0
173 197 0
174 197 0
174 198 0
175 198 0
174 198 0
175 198 0
174 198 0
175 198 0
174 198 0
174 198 0
174 198 0
173 197 0
175 198 0
173 197 0
172 196 0
174 197 0
176 199 0
174 198 0
174 198 0
174 198 0
175 198 0
176 199 0
176 199 0
173 197 0
173 197 0
176 199 0
173 197 0
177 199 0
174 197 0
176 198 0
175 198 0
176 199 0
174 198 0
173 197 0
173 197 0
175 198 0
174 198 0
175 198 0
175 198 0
175 198 0
174 198 0
173 197 0
174 198 0
174 198 0
174 198 0
174 198 0
173 197 0
176 198 0
174 197 0
173 196 0
175 198 0
174 198 0
176 199 0
174 198 0
173 197 0
174 197 0
172 196 0
175 198 0
175 198 0
174 197 0
175 198 0
174 197 0
175 198 0
175 198 0
174 197 0
174 197 0
174 197 0
175 198 0
175 198 0
175 198 0
174 198 0
175 198 0
176 199 0
174 198 0
174 198 0
176 198 0
174 198 0
175 198 0
173 197 0
176 198 0
174 198 0
173 197 0
173 197 0
174 198 0
175 198 0
175 198 0
175 198 0
175 198 0
176 198 0
174 197 0
173 197 0
173 196 0
174 197 0
173 197 0
175 198 0
176 198 0
174 197 0
173 197 0
174 198 0
174 197 0
171 196 0
175 198 0
175 198 0
174 197 0
175 198 0
172 196 0
172 196 0
173 197 0
173 196 0
175 198 0
176 198 0
174 197 0
174 197 0
175 198 0
173 197 0
174 197 0
172 196 0
175 198 0
174 197 0
175 198 0
174 198 0
172 196 0
174 198 0
174 197 0
174 198 0
174 197 0
174 198 0
174 198 0
174 197 0
173 196 0
174 197 0
174 197 0
174 198 0
172 196 0
172 196 0
173 196 0
171 194 0
172 195 0
171 195 0
171 194 0
172 195 0
173 196 0
174 197 0
171 193 0
171 195 0
172 196 0
174 197 0
171 195 18
127 152 126
68 103 174
62 99 180
62 99 181
62 99 180
62 99 180
62 99 181
61 99 181
61 99 181
62 99 181
61 99 181
61 98 181
61 99 180
62 99 181
62 99 180
62 99 181
62 99 181
62 98 176
61 98 177
67 102 174
142 166 104
128 131 55
143 138 78
131 126 78
137 134 85
141 139 91
139 137 91
148 145 98
150 148 101
149 148 101
153 152 103
165 161 107
169 166 111
168 164 108
171 167 110
174 170 110
172 167 109
176 171 110
173 169 110
173 168 107
174 169 108
170 165 103
174 169 106
166 161 99
168 162 101
156 150 84
147 141 84
153 147 83
144 144 67
173 196 0
173 196 0
174 197 0
175 197 0
173 197 0
173 197 0
171 196 0
173 196 0
173 197 0
174 197 0
173 197 0
174 197 0
175 198 0
175 197 0
173 197 0
173 197 0
175 197 0
173 197 0
174 197 0
175 198 0
174 197 0
175 198 0
175 198 0
175 198 0
174 198 0
174 198 0
175 198 0
174 197 0
176 198 0
173 197 0
174 197 0
176 199 0
173 197 0
176 199 0
174 198 0
173 197 0
175 197 0
174 197 0
174 197 0
174 197 0
175 198 0
175 198 0
175 198 0
174 198 0
176 198 0
174 198 0
175 198 0
174 198 0
175 198 0
175 198 0
175 198 0
174 198 0
175 198 0
175 198 0
175 198 0
173 197 0
175 198 0
176 198 0
174 197 0
173 197 0
176 199 0
174 197 0
173 197 0
175 198 0
173 197 0
177 199 0
175 198 0
174 198 0
174 198 0
176 198 0
176 199 0
176 198 0
175 198 0
173 197 0
176 198 0
173 197 0
175 198 0
175 198 0
174 198 0
174 197 0
175 198 0
175 198 0
175 198 0
175 198 0
175 198 0
176 199 0
175 198 0
176 199 0
174 197 0
176 199 0
176 199 0
173 197 0
175 198 0
175 198 0
176 199 0
175 198 0
174 198 0
174 197 0
175 198 0
174 198 0
174 198 0
174 197 0
174 198 0
175 198 0
175 198 0
176 199 0
175 198 0
172 197 0
174 198 0
174 198 0
175 198 0
174 198 0
175 198 0
174 198 0
176 198 0
175 198 0
174 198 0
176 199 0
176 199 0
173 197 0
176 198 0
175 198 0
174 198 0
174 198 0
173 197 0
172 197 0
174 198 0
175 198 0
174 197 0
174 198 0
176 199 0
175 198 0
174 197 0
173 197 0
175 198 0
176 199 0
174 198 0
175 198 0
174 198 0
176 199 0
174 197 0
173 197 0
174 198 0
176 199 0
174 198 0
174 198 0
175 198 0
177 199 0
173 197 0
175 198 0
173 197 0
174 198 0
174 198 0
177 199 0
174 198 0
175 198 0
175 198 0
174 198 0
176 199 0
176 199 0
175 198 0
176 199 0
174 197 0
175 198 0
175 198 0
173 197 0
173 197 0
176 199 0
176 198 0
175 198 0
175 198 0
175 198 0
173 197 0
174 198 0
174 198 0
175 198 0
174 198 0
175 198 0
173 197 0
175 198 0
173 197 0
176 199 0
177 199 0
174 197 0
174 198 0
175 198 0
175 198 0
174 198 0
176 198 0
173 197 0
174 197 0
175 198 0
174 198 0
173 197 0
175 198 0
174 197 0
174 198 0
173 197 0
173 197 0
175 198 0
175 198 0
176 199 0
174 197 0
174 198 0
175 198 0
174 198 0
175 198 0
174 198 0
174 198 0
175 198 0
176 199 0
175 198 0
175 198 0
174 198 0
175 198 0
174 197 0
173 197 0
174 198 0
175 198 0
174 198 0
174 198 0
174 198 0
176 198 0
176 198 0
175 198 0
176 199 0
173 197 0
175 198 0
174 198 0
175 198 0
175 198 0
175 198 0
175 198 0
174 198 0
172 197 0
175 198 0
175 198 0
174 198 0
175 198 0
174 198 0
172 197 0
174 198 0
175 198 0
175 198 0
173 197 0
172 196 0
175 198 0
176 199 0
174 198 0
175 198 0
176 199 0
175 198 0
175 198 0
174 198 0
173 197 0
175 198 0
173 197 0
175 198 0
174 197 0
174 198 0
176 198 0
176 199 0
175 198 0
175 198 0
175 198 0
174 198 0
173 197 0
173 197 0
174 198 0
175 198 0
174 198 0
174 197 0
175 198 0
175 198 0
174 198 0
175 198 0
175 198 0
174 198 0
174 197 0
172 196 0
175 198 0
176 198 0
173 197 0
176 198 0
174 197 0
175 198 0
176 199 0
174 197 0
173 196 0
174 198 0
173 197 0
174 198 0
173 196 0
174 198 0
175 198 0
175 198 0
174 197 0
175 198 0
174 197 0
173 197 0
176 198 0
173 197 0
174 198 0
174 197 0
174 198 0
173 197 0
175 198 0
173 197 0
174 198 0
175 198 0
175 198 0
174 198 0
173 197 0
173 197 0
175 198 0
173 197 0
172 196 0
175 198 0
176 198 0
173 197 0
172 196 0
173 197 0
173 197 0
173 197 0
172 196 0
173 197 0
173 196 0
172 195 0
171 195 0
173 196 0
174 197 0
174 197 0
174 197 0
173 197 0
172 195 0
175 197 0
172 196 0
173 196 0
172 195 0
174 196 0
175 198 0
175 198 0
173 196 0
172 196 0
170 193 0
175 198 0
173 196 0
171 195 0
173 196 0
171 195 0
118 145 136
62 99 175
62 99 179
63 100 181
62 99 180
62 99 179
62 99 181
62 99 181
62 99 181
62 99 181
61 99 181
62 99 181
61 99 181
61 99 181
62 99 179
62 99 179
62 99 181
62 99 181
62 99 181
62 99 178
62 99 177
63 99 176
105 115 133
132 127 76
132 130 82
132 129 83
119 119 80
126 126 87
133 133 91
141 140 96
148 146 99
143 144 100
161 158 104
169 166 109
167 164 108
174 168 108
174 169 108
173 169 108
173 168 108
174 169 110
176 170 108
169 163 101
171 166 105
162 157 96
167 162 97
161 156 96
163 157 95
148 144 81
146 140 80
138 132 68
170 193 0
173 195 0
174 197 0
173 197 0
173 197 0
172 195 0
173 196 0
172 195 0
173 196 0
174 197 0
175 198 0
172 195 0
173 197 0
172 195 0
173 196 0
175 198 0
175 198 0
173 196 0
175 198 0
173 197 0
174 198 0
174 198 0
173 197 0
173 197 0
176 198 0
172 196 0
174 197 0
172 196 0
173 197 0
174 198 0
174 197 0
174 198 0
174 197 0
174 197 0
175 198 0
172 196 0
175 198 0
174 198 0
174 198 0
175 198 0
174 198 0
175 198 0
173 197 0
175 198 0
174 198 0
174 197 0
175 198 0
174 198 0
175 198 0
174 197 0
173 197 0
175 198 0
175 198 0
172 196 0
175 198 0
174 198 0
175 198 0
174 198 0
175 198 0
175 198 0
174 197 0
174 197 0
174 197 0
174 198 0
173 197 0
175 198 0
176 199 0
177 199 0
174 197 0
175 198 0
175 198 0
175 198 0
174 198 0
175 198 0
174 198 0
175 198 0
175 198 0
174 198 0
174 197 0
175 198 0
173 197 0
175 198 0
176 199 0
173 197 0
174 198 0
175 198 0
174 197 0
174 198 0
173 197 0
176 198 0
173 197 0
174 198 0
175 198 0
176 198 0
173 197 0
174 198 0
175 198 0
175 198 0
175 198 0
174 198 0
173 197 0
173 197 0
175 198 0
175 198 0
175 198 0
174 198 0
173 197 0
175 198 0
173 197 0
174 198 0
174 198 0
176 198 0
174 197 0
175 198 0
173 197 0
173 197 0
174 198 0
173 197 0
174 198 0
174 198 0
173 197 0
175 198 0
176 198 0
175 198 0
175 198 0
175 198 0
175 198 0
174 198 0
173 197 0
175 198 0
174 198 0
174 197 0
174 198 0
176 199 0
175 198 0
174 198 0
173 197 0
174 198 0
174 198 0
176 199 0
175 198 0
175 198 0
176 198 0
174 198 0
174 198 0
173 197 0
174 197 0
175 198 0
176 198 0
175 198 0
174 198 0
176 198 0
174 198 0
175 198 0
175 198 0
174 198 0
173 197 0
175 198 0
176 199 0
175 198 0
174 198 0
173 197 0
173 197 0
173 197 0
175 198 0
174 198 0
173 197 0
175 198 0
175 198 0
175 198 0
177 199 0
175 198 0
176 198 0
174 197 0
176 198 0
175 198 0
174 198 0
175 198 0
176 198 0
175 198 0
174 198 0
175 198 0
175 198 0
174 197 0
175 198 0
175 198 0
175 198 0
175 198 0
174 198 0
174 198 0
174 198 0
176 199 0
174 198 0
172 197 0
173 197 0
175 198 0
176 199 0
175 198 0
175 198 0
178 199 0
176 199 0
173 197 0
176 199 0
174 198 0
175 198 0
175 198 0
175 198 0
175 198 0
173 197 0
176 199 0
174 198 0
174 198 0
175 198 0
176 199 0
174 198 0
175 198 0
173 197 0
176 199 0
174 198 0
175 198 0
174 197 0
175 198 0
175 198 0
174 197 0
175 198 0
174 197 0
173 197 0
173 197 0
173 197 0
174 198 0
173 197 0
176 199 0
175 198 0
174 198 0
174 198 0
175 198 0
175 198 0
175 198 0
176 199 0
174 198 0
172 197 0
174 198 0
172 197 0
174 198 0
176 199 0
175 198 0
175 198 0
174 198 0
175 198 0
177 199 0
175 198 0
175 198 0
174 197 0
176 198 0
172 197 0
175 198 0
175 198 0
175 198 0
173 197 0
173 197 0
175 198 0
174 198 0
174 198 0
175 198 0
172 196 0
173 197 0
173 197 0
175 198 0
176 198 0
173 197 0
174 198 0
175 197 0
175 198 0
174 198 0
174 198 0
173 197 0
173 197 0
174 197 0
175 198 0
174 198 0
175 198 0
173 197 0
173 197 0
174 198 0
172 196 0
173 197 0
173 197 0
174 198 0
175 198 0
176 198 0
175 198 0
174 197 0
176 199 0
175 198 0
175 198 0
174 198 0
174 198 0
175 198 0
174 197 0
175 198 0
173 197 0
173 196 0
175 198 0
174 198 0
174 197 0
174 197 0
174 197 0
174 198 0
175 198 0
174 198 0
172 196 0
175 198 0
172 197 0
175 198 0
174 197 0
173 196 0
174 197 0
174 198 0
174 198 0
173 196 0
174 197 0
172 196 0
173 196 0
174 198 0
174 197 0
174 197 0
173 196 0
174 197 0
171 194 0
175 198 0
171 195 0
172 196 0
173 197 0
174 197 0
173 197 0
170 195 0
172 195 0
172 195 0
174 197 0
174 197 0
172 196 0
170 193 0
173 197 0
173 196 0
173 197 0
172 195 0
171 195 0
171 195 0
172 195 0
122 147 129
62 99 175
62 99 178
62 99 178
63 100 180
61 99 180
62 99 180
62 99 181
62 99 181
61 99 180
62 99 180
62 99 180
62 99 181
62 99 179
61 99 181
62 99 180
62 99 180
61 98 177
62 99 179
62 99 178
62 98 173
61 98 175
61 98 175
60 95 166
101 112 128
119 118 73
118 116 78
116 117 80
118 118 83
130 130 91
137 137 94
142 141 97
148 147 97
147 146 97
162 159 104
162 159 105
170 166 106
169 165 104
176 171 110
172 167 103
173 169 106
172 167 102
176 170 105
170 165 97
175 168 102
169 163 97
168 162 98
166 160 91
159 151 89
143 138 75
134 129 65
164 184 16
174 197 0
172 195 0
174 197 0
172 194 0
173 196 0
172 195 0
174 197 0
174 197 0
174 197 0
173 196 0
173 196 0
174 198 0
174 197 0
172 196 0
174 197 0
171 194 0
175 198 0
174 197 0
175 198 0
175 198 0
174 197 0
176 198 0
173 196 0
175 198 0
175 198 0
175 198 0
176 198 0
174 197 0
174 197 0
174 197 0
174 198 0
175 198 0
173 197 0
174 198 0
174 197 0
176 199 0
174 197 0
173 197 0
173 197 0
176 198 0
173 197 0
175 198 0
174 197 0
174 197 0
175 198 0
174 197 0
174 198 0
176 199 0
173 197 0
176 199 0
176 198 0
176 199 0
174 197 0
175 198 0
175 198 0
174 198 0
175 198 0
176 199 0
174 197 0
175 198 0
176 198 0
174 198 0
175 198 0
174 198 0
173 197 0
176 198 0
175 198 0
174 198 0
173 197 0
175 198 0
174 198 0
174 197 0
174 198 0
174 198 0
174 198 0
174 198 0
175 197 0
174 197 0
175 198 0
174 198 0
174 198 0
176 199 0
175 198 0
175 198 0
176 198 0
176 199 0
174 198 0
175 198 0
174 198 0
174 197 0
174 197 0
176 198 0
175 198 0
174 197 0
174 198 0
176 198 0
175 198 0
174 198 0
176 199 0
174 197 0
174 198 0
175 198 0
175 198 0
176 198 0
175 198 0
174 198 0
175 198 0
174 198 0
176 199 0
175 198 0
177 199 0
177 199 0
175 198 0
175 198 0
175 198 0
175 198 0
175 198 0
175 198 0
175 198 0
175 198 0
176 199 0
175 198 0
176 199 0
175 198 0
173 197 0
172 197 0
175 198 0
174 197 0
174 198 0
173 197 0
174 198 0
174 198 0
175 198 0
175 198 0
176 199 0
175 198 0
175 198 0
175 198 0
174 198 0
175 198 0
174 198 0
175 198 0
175 198 0
175 198 0
175 198 0
175 198 0
174 198 0
174 197 0
175 198 0
175 198 0
176 198 0
174 198 0
175 198 0
175 198 0
175 198 0
177 199 0
174 198 0
176 198 0
173 197 0
175 198 0
175 198 0
174 197 0
175 198 0
174 197 0
174 197 0
173 197 0
176 199 0
175 198 0
173 197 0
175 198 0
173 197 0
174 198 0
174 198 0
175 198 0
175 198 0
174 197 0
175 198 0
174 198 0
176 199 0
174 198 0
175 198 0
176 199 0
173 197 0
177 199 0
174 197 0
175 198 0
175 198 0
175 198 0
175 198 0
174 197 0
174 198 0
175 198 0
176 199 0
175 198 0
175 198 0
175 198 0
173 197 0
177 199 0
175 198 0
175 198 0
174 198 0
173 197 0
175 198 0
174 197 0
175 198 0
176 198 0
174 197 0
175 198 0
174 198 0
176 199 0
175 198 0
174 198 0
175 198 0
174 197 0
174 198 0
174 198 0
175 198 0
175 198 0
173 197 0
174 198 0
176 199 0
174 198 0
175 198 0
175 198 0
174 198 0
175 198 0
174 198 0
174 198 0
175 198 0
173 196 0
173 197 0
175 198 0
174 198 0
174 197 0
174 198 0
175 198 0
173 197 0
175 198 0
175 198 0
174 198 0
174 198 0
176 199 0
174 198 0
175 198 0
174 198 0
174 197 0
175 198 0
175 198 0
174 197 0
175 198 0
173 197 0
174 198 0
173 197 0
175 198 0
174 197 0
173 197 0
174 197 0
176 199 0
174 198 0
173 197 0
172 196 0
172 197 0
175 198 0
173 196 0
175 198 0
174 197 0
173 197 0
175 198 0
174 198 0
174 198 0
173 197 0
173 197 0
174 197 0
174 198 0
173 197 0
172 197 0
176 199 0
175 198 0
174 198 0
174 197 0
174 198 0
173 197 0
173 197 0
175 198 0
175 198 0
174 198 0
174 198 0
172 195 0
173 197 0
174 197 0
174 197 0
174 198 0
175 198 0
174 198 0
174 198 0
176 198 0
174 198 0
174 198 0
174 197 0
175 198 0
175 198 0
174 198 0
175 198 0
173 197 0
174 198 0
173 197 0
174 197 0
174 197 0
174 198 0
174 197 0
173 197 0
175 198 0
174 198 0
174 198 0
175 198 0
172 196 0
175 197 0
174 197 0
175 197 0
173 196 0
173 196 0
174 198 0
172 196 0
173 197 0
173 197 0
173 197 0
171 195 0
174 197 0
172 195 0
172 196 0
174 197 0
172 196 0
173 196 0
172 195 0
173 197 0
173 197 0
173 196 0
175 198 0
171 195 0
169 192 0
169 193 0
169 193 0
171 195 0
171 193 0
172 195 0
173 196 0
174 197 0
151 175 88
62 99 173
63 100 178
63 100 179
62 99 177
62 99 175
62 99 178
61 99 180
63 100 180
62 99 181
61 99 181
61 99 180
61 98 177
62 99 180
62 99 181
62 99 178
63 100 181
62 99 177
62 99 179
62 99 178
62 99 178
61 98 173
61 98 172
61 97 172
62 98 170
60 95 159
105 109 101
114 114 72
103 106 74
105 107 75
113 116 83
126 127 88
131 131 88
140 139 92
154 152 99
161 157 103
164 160 103
168 164 104
169 165 103
172 166 102
172 167 103
173 168 103
172 167 100
169 164 99
173 166 102
167 160 93
166 160 89
161 155 93
164 158 91
154 149 79
147 142 77
140 135 64
162 180 22
173 194 0
173 196 0
168 192 0
173 197 0
175 198 0
175 197 0
173 196 0
172 195 0
173 196 0
172 195 0
173 196 0
176 199 0
175 198 0
174 197 0
173 196 0
174 197 0
175 197 0
174 197 0
174 197 0
173 197 0
174 197 0
175 198 0
176 198 0
175 198 0
174 197 0
173 197 0
174 197 0
174 197 0
174 197 0
174 197 0
174 197 0
172 197 0
174 197 0
175 198 0
171 195 0
174 198 0
173 197 0
174 197 0
174 197 0
174 198 0
176 199 0
174 197 0
173 196 0
175 198 0
173 197 0
175 198 0
174 197 0
174 198 0
173 197 0
171 196 0
173 197 0
175 198 0
176 199 0
174 198 0
174 198 0
175 198 0
174 197 0
174 197 0
175 198 0
175 198 0
174 198 0
173 197 0
174 198 0
173 197 0
175 198 0
175 198 0
175 198 0
175 198 0
173 197 0
174 197 0
177 199 0
176 199 0
174 198 0
173 197 0
175 198 0
174 197 0
175 198 0
175 198 0
174 198 0
174 197 0
175 198 0
175 198 0
174 197 0
174 198 0
173 197 0
174 198 0
174 198 0
176 199 0
175 198 0
174 197 0
174 197 0
176 198 0
174 198 0
174 197 0
173 197 0
175 198 0
175 198 0
174 198 0
174 197 0
174 198 0
174 198 0
174 198 0
176 199 0
174 198 0
176 199 0
173 197 0
175 198 0
175 198 0
174 198 0
174 197 0
175 198 0
173 197 0
173 197 0
174 198 0
174 197 0
174 197 0
173 197 0
173 197 0
175 198 0
175 198 0
175 198 0
175 198 0
174 197 0
174 198 0
173 197 0
173 197 0
175 198 0
175 198 0
175 198 0
175 198 0
174 197 0
174 197 0
174 197 0
174 197 0
176 199 0
174 198 0
176 198 0
175 198 0
175 198 0
176 198 0
173 197 0
175 198 0
174 197 0
174 198 0
174 198 0
174 198 0
175 198 0
172 197 0
175 198 0
175 198 0
174 197 0
175 198 0
177 199 0
175 198 0
174 198 0
174 198 0
176 199 0
175 198 0
175 198 0
175 198 0
174 198 0
175 198 0
173 197 0
175 198 0
175 198 0
175 198 0
174 198 0
174 198 0
176 198 0
175 198 0
175 198 0
173 197 0
173 197 0
175 198 0
173 197 0
174 198 0
173 197 0
172 197 0
175 198 0
174 198 0
174 198 0
173 197 0
175 198 0
174 198 0
175 198 0
173 197 0
175 198 0
175 198 0
174 198 0
175 198 0
174 198 0
174 198 0
175 198 0
175 198 0
175 198 0
174 198 0
174 197 0
175 198 0
175 198 0
175 198 0
175 198 0
174 198 0
175 198 0
175 198 0
174 197 0
173 197 0
175 198 0
174 197 0
175 198 0
175 198 0
175 198 0
173 197 0
177 199 0
175 198 0
175 198 0
175 198 0
175 198 0
173 197 0
174 198 0
177 199 0
174 198 0
174 197 0
175 198 0
175 198 0
174 198 0
174 197 0
175 198 0
174 197 0
175 198 0
174 198 0
174 198 0
173 197 0
174 198 0
174 198 0
175 198 0
174 197 0
176 199 0
174 197 0
176 199 0
178 200 0
175 198 0
175 198 0
176 199 0
174 198 0
174 198 0
175 198 0
174 198 0
174 197 0
173 197 0
174 198 0
177 199 0
175 198 0
175 198 0
174 198 0
175 198 0
173 197 0
175 198 0
175 198 0
172 196 0
174 198 0
174 198 0
175 198 0
175 198 0
175 198 0
174 198 0
176 199 0
174 198 0
174 197 0
175 198 0
175 198 0
174 197 0
176 199 0
174 197 0
174 198 0
172 197 0
174 198 0
174 197 0
173 197 0
175 198 0
174 198 0
174 198 0
174 198 0
174 197 0
173 197 0
173 197 0
173 197 0
173 197 0
176 198 0
173 197 0
175 198 0
174 197 0
175 198 0
175 198 0
174 197 0
174 198 0
173 197 0
174 197 0
176 198 0
175 198 0
174 198 0
174 198 0
174 197 0
174 198 0
174 197 0
175 198 0
173 197 0
174 198 0
175 198 0
174 197 0
173 196 0
176 198 0
174 197 0
174 197 0
172 196 0
175 198 0
174 197 0
171 195 0
173 197 0
175 198 0
171 194 0
171 196 0
173 197 0
174 198 0
175 198 0
175 198 0
175 198 0
173 197 0
172 196 0
172 196 0
172 196 0
173 196 0
172 196 0
173 196 0
173 196 0
170 194 0
172 195 0
173 196 0
172 196 0
172 195 0
171 194 0
172 195 0
169 193 0
173 196 0
171 194 0
170 194 0
168 192 0
165 188 44
79 111 164
63 99 176
61 98 172
63 99 177
62 99 176
62 99 180
62 99 180
62 99 179
62 99 178
62 99 179
62 99 180
62 99 180
62 99 178
62 99 178
62 99 180
62 99 181
62 99 178
62 98 175
62 99 179
62 99 174
62 99 173
62 99 180
62 98 174
62 98 168
62 99 175
60 96 169
64 94 158
102 102 72
95 96 70
93 95 69
107 108 75
127 126 85
131 131 89
137 136 85
149 147 95
156 153 101
164 159 97
166 162 102
170 165 102
172 166 101
171 166 96
174 168 100
174 167 97
172 166 98
169 163 97
165 160 93
164 158 87
159 153 81
152 147 78
153 146 76
150 144 75
134 129 59
161 178 30
175 197 0
175 198 0
172 195 0
175 196 0
173 195 0
174 196 0
173 195 0
174 197 0
172 195 0
173 196 0
174 197 0
174 197 0
174 197 0
172 194 0
173 197 0
173 196 0
174 196 0
175 197 0
173 196 0
175 197 0
174 197 0
174 197 0
174 197 0
174 197 0
172 196 0
173 197 0
174 197 0
173 197 0
175 198 0
175 198 0
174 198 0
172 196 0
174 197 0
175 198 0
175 198 0
174 198 0
173 197 0
174 197 0
173 196 0
174 198 0
174 198 0
174 197 0
173 197 0
173 197 0
174 197 0
176 198 0
176 198 0
173 197 0
176 198 0
175 198 0
174 198 0
174 198 0
173 197 0
175 198 0
175 198 0
176 198 0
174 198 0
175 198 0
176 198 0
174 198 0
174 198 0
175 198 0
176 198 0
175 198 0
174 197 0
175 198 0
175 198 0
174 197 0
175 198 0
174 198 0
173 197 0
174 198 0
174 198 0
176 199 0
174 198 0
176 198 0
175 198 0
175 198 0
175 198 0
173 197 0
174 197 0
176 199 0
175 198 0
175 198 0
173 197 0
176 199 0
173 197 0
175 198 0
175 198 0
174 198 0
174 198 0
173 197 0
174 198 0
173 197 0
173 197 0
174 198 0
174 197 0
174 198 0
174 198 0
175 198 0
175 198 0
173 197 0
174 198 0
174 198 0
175 198 0
175 198 0
175 198 0
175 198 0
175 198 0
174 198 0
175 198 0
173 197 0
175 198 0
175 198 0
174 198 0
174 198 0
174 198 0
176 199 0
173 197 0
175 198 0
175 198 0
175 198 0
173 197 0
175 198 0
174 198 0
174 198 0
175 198 0
173 197 0
174 198 0
174 198 0
175 198 0
176 198 0
175 198 0
175 198 0
174 198 0
173 197 0
175 198 0
174 197 0
174 197 0
173 197 0
175 198 0
173 197 0
174 198 0
173 197 0
175 198 0
176 198 0
175 198 0
174 198 0
174 198 0
175 198 0
174 198 0
175 198 0
175 198 0
175 198 0
175 198 0
173 197 0
174 198 0
174 197 0
175 198 0
175 198 0
174 198 0
174 198 0
173 197 0
174 198 0
174 198 0
174 197 0
175 198 0
175 198 0
174 197 0
174 198 0
175 198 0
176 199 0
175 198 0
175 198 0
174 198 0
175 198 0
175 198 0
174 198 0
175 198 0
174 198 0
175 198 0
175 198 0
176 198 0
175 198 0
173 197 0
175 198 0
174 198 0
174 198 0
174 198 0
176 198 0
174 198 0
175 198 0
174 198 0
174 198 0
173 197 0
174 198 0
175 198 0
174 198 0
176 198 0
174 198 0
174 198 0
175 198 0
173 197 0
174 198 0
175 198 0
175 198 0
174 197 0
175 198 0
174 197 0
177 199 0
174 198 0
174 198 0
174 198 0
174 197 0
175 198 0
172 197 0
174 198 0
173 197 0
176 199 0
174 198 0
176 199 0
175 198 0
173 197 0
176 199 0
174 198 0
176 199 0
175 198 0
176 199 0
175 198 0
174 198 0
173 197 0
176 199 0
175 198 0
175 198 0
173 197 0
175 198 0
174 198 0
175 198 0
174 198 0
174 197 0
174 198 0
175 198 0
175 198 0
175 198 0
175 198 0
175 198 0
174 197 0
175 198 0
173 197 0
174 198 0
174 197 0
175 198 0
175 198 0
175 198 0
175 198 0
174 198 0
174 198 0
177 199 0
174 198 0
176 199 0
173 197 0
173 197 0
173 197 0
176 199 0
175 198 0
176 199 0
175 198 0
174 197 0
175 198 0
175 198 0
174 198 0
174 198 0
173 197 0
173 197 0
174 198 0
175 198 0
174 198 0
174 197 0
174 197 0
175 198 0
173 196 0
174 198 0
173 197 0
175 198 0
175 198 0
174 198 0
174 197 0
174 198 0
176 199 0
174 198 0
174 198 0
174 197 0
173 197 0
174 198 0
175 198 0
173 197 0
173 196 0
175 198 0
174 198 0
174 197 0
173 197 0
173 197 0
174 197 0
175 198 0
175 198 0
173 197 0
177 199 0
174 197 0
174 198 0
174 198 0
173 197 0
172 196 0
175 197 0
174 197 0
173 197 0
172 196 0
173 196 0
174 198 0
175 198 0
173 197 0
174 198 0
173 196 0
175 198 0
174 197 0
175 198 0
171 195 0
174 197 0
173 196 0
172 196 0
173 197 0
172 195 0
173 197 0
172 197 0
173 196 0
173 196 0
170 194 0
171 194 0
170 193 0
173 195 0
173 196 0
171 193 0
172 195 0
170 193 0
174 197 0
170 194 0
169 192 0
112 139 135
63 100 173
62 98 172
62 99 176
63 100 177
62 99 177
62 99 178
62 99 179
62 99 178
62 99 179
62 99 178
62 99 178
62 99 180
62 99 178
62 99 177
62 99 177
63 99 180
62 99 172
62 99 175
63 100 179
62 99 178
62 99 176
62 99 174
61 98 170
62 98 168
61 98 171
62 98 168
61 96 163
65 85 121
76 81 56
93 97 71
86 91 66
121 121 82
129 129 84
137 136 92
131 131 81
153 151 91
161 157 97
165 161 97
167 162 96
171 165 94
171 165 93
170 164 91
168 163 97
172 167 95
169 163 97
170 163 91
162 155 90
169 162 89
162 156 84
159 153 80
146 140 72
135 129 57
166 186 19
170 191 0
172 194 0
174 196 0
174 197 0
173 195 0
172 194 0
172 195 0
173 196 0
174 198 0
175 198 0
174 196 0
174 197 0
172 195 0
173 196 0
175 198 0
172 196 0
176 198 0
174 196 0
172 196 0
173 196 0
177 199 0
174 197 0
173 197 0
174 197 0
173 196 0
173 197 0
173 197 0
176 198 0
175 197 0
173 197 0
176 198 0
173 197 0
173 197 0
173 197 0
173 197 0
174 198 0
174 197 0
174 198 0
174 197 0
173 197 0
175 198 0
173 197 0
175 198 0
173 196 0
174 197 0
174 198 0
174 197 0
172 197 0
174 197 0
173 197 0
173 197 0
174 198 0
174 198 0
175 198 0
175 198 0
175 198 0
175 198 0
174 197 0
175 198 0
174 198 0
174 198 0
174 198 0
174 198 0
175 198 0
174 198 0
176 199 0
175 198 0
175 198 0
174 198 0
176 199 0
175 198 0
175 198 0
173 197 0
173 197 0
173 197 0
174 198 0
175 197 0
173 197 0
175 198 0
175 198 0
174 198 0
175 198 0
175 198 0
175 198 0
174 198 0
176 198 0
174 198 0
176 199 0
174 198 0
176 199 0
175 198 0
173 197 0
174 197 0
177 199 0
174 198 0
172 197 0
176 199 0
173 197 0
175 198 0
175 198 0
175 198 0
173 197 0
175 198 0
175 198 0
175 198 0
175 198 0
174 198 0
173 197 0
172 196 0
175 198 0
176 199 0
175 198 0
174 198 0
174 197 0
174 198 0
176 198 0
175 198 0
174 198 0
174 198 0
175 198 0
174 197 0
173 197 0
174 198 0
173 197 0
177 199 0
175 198 0
174 198 0
176 199 0
174 198 0
176 198 0
175 198 0
174 197 0
173 197 0
173 197 0
175 198 0
175 198 0
175 198 0
174 198 0
174 198 0
175 198 0
175 198 0
173 197 0
175 198 0
175 198 0
174 198 0
173 197 0
173 197 0
177 199 0
174 198 0
176 199 0
174 198 0
175 198 0
175 198 0
174 198 0
174 198 0
173 197 0
174 198 0
175 198 0
174 198 0
176 199 0
174 198 0
175 198 0
175 198 0
175 198 0
173 197 0
176 198 0
175 198 0
175 198 0
174 198 0
175 198 0
175 198 0
173 197 0
174 198 0
173 197 0
176 199 0
175 198 0
174 197 0
174 197 0
175 198 0
175 198 0
174 198 0
175 198 0
176 199 0
174 197 0
173 197 0
173 197 0
175 198 0
174 198 0
174 198 0
176 198 0
174 198 0
176 199 0
175 198 0
174 197 0
174 198 0
174 198 0
175 198 0
175 198 0
174 198 0
175 198 0
175 198 0
174 197 0
172 197 0
174 198 0
175 198 0
175 198 0
175 198 0
174 198 0
175 198 0
174 197 0
174 198 0
176 199 0
174 197 0
174 198 0
173 197 0
173 197 0
175 198 0
175 198 0
175 198 0
176 198 0
173 197 0
172 197 0
176 199 0
174 198 0
173 197 0
175 198 0
175 198 0
175 198 0
175 198 0
175 198 0
174 197 0
174 198 0
174 198 0
176 199 0
174 198 0
174 198 0
173 197 0
174 197 0
174 197 0
174 198 0
176 198 0
173 197 0
175 198 0
174 198 0
174 198 0
174 198 0
175 198 0
174 197 0
173 197 0
173 197 0
175 198 0
176 199 0
175 198 0
173 197 0
175 198 0
175 198 0
175 198 0
174 198 0
174 197 0
173 197 0
176 198 0
174 198 0
173 197 0
175 198 0
173 197 0
175 198 0
174 198 0
174 198 0
174 198 0
175 198 0
173 197 0
174 197 0
174 197 0
176 199 0
174 198 0
175 198 0
174 198 0
173 197 0
175 198 0
174 197 0
174 198 0
175 198 0
174 198 0
176 198 0
174 197 0
174 198 0
174 198 0
174 198 0
175 198 0
174 197 0
175 198 0
173 197 0
174 198 0
174 198 0
173 197 0
174 197 0
174 197 0
174 197 0
173 197 0
174 198 0
174 197 0
174 197 0
175 198 0
173 197 0
174 198 0
174 198 0
173 197 0
174 198 0
173 196 0
173 197 0
173 197 0
173 197 0
176 199 0
173 196 0
174 197 0
174 197 0
173 197 0
170 194 0
173 197 0
173 196 0
171 195 0
174 197 0
172 196 0
172 196 0
174 197 0
173 197 0
174 197 0
174 198 0
173 196 0
174 198 0
173 197 0
171 194 0
174 196 0
173 197 0
173 196 0
171 193 0
172 196 0
171 194 0
173 197 0
170 194 0
173 196 0
171 195 0
167 190 0
172 195 0
171 194 0
162 186 51
69 103 156
62 99 170
63 99 176
63 99 173
62 98 174
62 99 178
62 99 177
62 99 176
62 99 174
62 99 174
62 99 180
62 99 174
62 99 178
62 99 175
62 99 177
62 99 177
61 98 175
62 99 174
62 99 175
62 98 171
61 98 169
61 98 174
63 99 173
63 99 173
62 98 172
62 98 172
62 98 166
60 96 167
64 94 152
70 75 63
76 81 56
103 105 67
111 112 72
127 125 78
132 130 80
147 145 87
151 149 91
159 155 86
160 155 91
169 164 95
162 158 91
165 160 85
171 165 91
169 163 92
170 164 84
168 161 88
166 160 87
163 157 84
161 154 78
158 151 80
148 143 72
143 138 63
129 123 56
173 196 0
171 194 0
172 195 0
173 195 0
170 192 0
173 195 0
172 195 0
174 197 0
173 197 0
173 196 0
170 193 0
173 196 0
175 198 0
174 197 0
173 196 0
175 197 0
176 198 0
173 195 0
176 198 0
173 196 0
174 197 0
174 197 0
173 196 0
175 198 0
173 197 0
174 198 0
173 197 0
175 198 0
174 197 0
173 196 0
174 197 0
175 198 0
174 197 0
174 198 0
174 197 0
173 197 0
174 198 0
175 198 0
173 197 0
175 198 0
174 197 0
173 197 0
175 198 0
175 198 0
173 197 0
175 198 0
176 198 0
173 197 0
174 198 0
173 197 0
176 198 0
174 197 0
173 197 0
174 197 0
174 198 0
174 197 0
175 198 0
174 197 0
175 198 0
175 198 0
174 197 0
175 198 0
174 198 0
175 198 0
174 197 0
174 197 0
174 198 0
175 198 0
175 198 0
175 198 0
176 198 0
176 198 0
175 198 0
174 198 0
175 198 0
174 198 0
175 198 0
174 198 0
176 198 0
175 198 0
174 198 0
175 198 0
175 198 0
175 198 0
173 197 0
174 198 0
175 198 0
174 197 0
174 197 0
173 197 0
174 198 0
174 198 0
173 197 0
174 198 0
175 198 0
175 198 0
174 198 0
175 198 0
175 198 0
175 198 0
174 197 0
173 197 0
175 198 0
175 198 0
176 198 0
174 197 0
173 197 0
174 198 0
175 198 0
175 198 0
173 197 0
175 198 0
173 197 0
173 197 0
175 198 0
175 198 0
176 198 0
174 198 0
175 198 0
173 197 0
175 198 0
176 198 0
174 198 0
174 198 0
177 199 0
173 197 0
176 199 0
174 198 0
175 198 0
176 198 0
174 198 0
174 198 0
176 198 0
174 198 0
175 198 0
175 198 0
176 199 0
175 198 0
175 198 0
174 198 0
175 198 0
176 199 0
175 198 0
174 197 0
175 198 0
175 198 0
175 198 0
174 198 0
175 198 0
174 198 0
174 198 0
174 198 0
175 198 0
174 197 0
174 198 0
175 198 0
174 198 0
175 198 0
174 198 0
176 198 0
176 198 0
174 197 0
176 199 0
175 198 0
175 198 0
174 198 0
174 197 0
175 198 0
174 198 0
174 198 0
176 198 0
175 198 0
174 198 0
176 199 0
175 198 0
174 198 0
174 198 0
174 198 0
174 198 0
173 197 0
173 197 0
175 198 0
175 198 0
175 198 0
175 198 0
174 197 0
175 198 0
174 198 0
175 198 0
173 197 0
174 198 0
173 197 0
174 198 0
175 198 0
174 197 0
177 199 0
174 198 0
175 198 0
175 198 0
173 197 0
173 197 0
174 197 0
176 199 0
175 198 0
175 198 0
174 197 0
174 198 0
173 197 0
174 198 0
174 197 0
174 198 0
173 197 0
174 198 0
174 197 0
174 198 0
175 198 0
174 197 0
174 198 0
173 197 0
174 197 0
176 199 0
174 198 0
175 198 0
175 198 0
174 198 0
174 198 0
176 199 0
175 198 0
174 197 0
175 198 0
173 197 0
174 198 0
176 198 0
173 197 0
175 197 0
174 198 0
174 197 0
175 198 0
174 198 0
174 198 0
174 198 0
173 197 0
174 198 0
172 196 0
173 197 0
174 197 0
176 198 0
177 199 0
175 198 0
174 198 0
174 198 0
172 197 0
174 197 0
173 196 0
173 197 0
173 197 0
174 198 0
175 198 0
174 198 0
175 198 0
174 198 0
175 198 0
175 198 0
174 197 0
174 197 0
176 199 0
174 197 0
174 198 0
175 198 0
173 197 0
173 197 0
175 198 0
176 198 0
175 198 0
174 198 0
174 198 0
175 198 0
174 197 0
174 198 0
175 198 0
174 198 0
175 198 0
173 197 0
174 198 0
174 198 0
172 196 0
174 197 0
175 198 0
174 198 0
174 197 0
174 198 0
174 197 0
173 197 0
172 196 0
173 197 0
175 198 0
173 197 0
173 197 0
174 198 0
173 197 0
173 197 0
173 196 0
174 197 0
174 198 0
174 197 0
173 197 0
173 197 0
173 197 0
174 198 0
172 196 0
174 198 0
174 198 0
173 197 0
173 196 0
174 197 0
175 198 0
172 195 0
175 197 0
173 197 0
171 195 0
173 197 0
170 194 0
174 197 0
174 197 0
174 197 0
175 198 0
173 197 0
172 195 0
173 196 0
174 196 0
173 196 0
174 197 0
168 192 0
168 192 0
171 195 0
169 193 0
171 195 0
170 193 0
170 194 0
170 193 0
171 194 0
171 195 0
167 191 0
171 195 0
171 193 0
170 193 0
135 160 107
61 98 162
62 98 167
61 98 163
62 99 172
62 99 174
62 98 172
62 99 171
63 99 175
63 100 181
63 99 175
62 99 177
63 99 178
62 99 174
62 99 171
62 99 177
62 99 178
62 99 175
62 98 173
61 98 173
63 100 179
62 98 168
62 99 176
62 98 167
62 98 170
62 98 169
62 98 164
61 97 165
62 98 163
61 96 158
57 73 95
66 72 49
96 99 63
97 101 65
112 113 73
128 128 76
135 133 79
146 144 85
157 151 87
165 159 92
167 162 87
170 163 86
172 164 92
166 160 80
167 161 84
166 160 82
157 152 82
162 155 78
157 150 75
160 154 77
157 150 77
146 140 66
139 133 53
146 150 51
168 190 0
170 192 0
172 193 0
171 193 0
173 194 0
171 192 0
171 193 0
170 192 0
172 196 0
173 195 0
173 196 0
171 195 0
173 196 0
173 195 0
176 198 0
175 198 0
174 197 0
174 197 0
174 197 0
173 197 0
172 196 0
175 198 0
174 197 0
176 199 0
175 198 0
171 194 0
173 197 0
174 198 0
173 196 0
175 198 0
175 198 0
175 198 0
174 197 0
173 197 0
171 195 0
173 197 0
173 197 0
173 196 0
174 198 0
174 197 0
174 198 0
173 197 0
175 198 0
174 198 0
174 198 0
172 196 0
174 198 0
173 197 0
174 198 0
175 198 0
174 197 0
174 198 0
174 198 0
174 197 0
174 197 0
174 197 0
174 197 0
174 198 0
175 198 0
174 197 0
174 198 0
175 198 0
174 198 0
176 199 0
174 198 0
174 198 0
172 197 0
174 198 0
175 198 0
175 198 0
174 197 0
175 198 0
175 198 0
175 198 0
174 198 0
175 198 0
175 198 0
174 197 0
174 198 0
174 198 0
174 198 0
174 198 0
174 198 0
174 198 0
175 198 0
174 198 0
175 198 0
173 197 0
174 198 0
175 198 0
175 198 0
174 197 0
176 199 0
175 198 0
176 199 0
174 198 0
173 197 0
173 197 0
176 199 0
174 197 0
175 198 0
174 197 0
174 198 0
176 198 0
173 197 0
175 198 0
176 199 0
173 197 0
175 198 0
175 198 0
174 197 0
174 198 0
175 198 0
174 197 0
175 198 0
176 198 0
175 198 0
174 197 0
175 198 0
174 198 0
175 198 0
173 197 0
175 198 0
174 198 0
174 197 0
174 198 0
174 198 0
175 198 0
173 197 0
174 198 0
175 198 0
175 198 0
174 198 0
174 198 0
173 197 0
175 198 0
175 198 0
174 198 0
177 199 0
174 198 0
175 198 0
176 199 0
175 198 0
174 198 0
175 198 0
175 198 0
174 198 0
175 198 0
175 198 0
175 198 0
174 198 0
174 198 0
174 198 0
177 199 0
175 198 0
175 198 0
175 198 0
174 198 0
174 198 0
174 198 0
175 198 0
174 198 0
174 198 0
176 199 0
174 197 0
175 198 0
175 198 0
174 198 0
173 197 0
174 197 0
175 198 0
174 198 0
175 198 0
175 198 0
173 197 0
174 198 0
175 198 0
173 197 0
176 199 0
175 198 0
175 198 0
175 198 0
173 197 0
174 197 0
174 198 0
174 198 0
174 197 0
174 198 0
174 198 0
174 198 0
175 198 0
174 198 0
175 198 0
174 197 0
173 197 0
174 197 0
174 198 0
173 197 0
174 197 0
173 197 0
176 199 0
174 198 0
176 199 0
173 197 0
175 198 0
175 198 0
175 198 0
176 199 0
173 197 0
175 198 0
175 198 0
175 198 0
175 198 0
172 197 0
175 198 0
173 197 0
174 198 0
175 198 0
174 197 0
174 198 0
175 198 0
175 198 0
174 198 0
174 197 0
174 197 0
174 197 0
174 198 0
174 198 0
174 198 0
174 198 0
174 197 0
173 197 0
173 197 0
175 198 0
174 197 0
175 198 0
174 198 0
174 198 0
174 198 0
173 197 0
176 198 0
175 198 0
174 198 0
174 197 0
176 199 0
173 197 0
176 198 0
175 198 0
175 198 0
175 198 0
174 198 0
173 197 0
175 198 0
173 197 0
174 198 0
175 198 0
173 196 0
176 199 0
174 198 0
174 198 0
174 198 0
174 198 0
174 197 0
173 197 0
176 198 0
173 197 0
173 197 0
174 198 0
174 198 0
173 197 0
174 197 0
175 198 0
174 198 0
173 197 0
174 198 0
174 198 0
174 198 0
173 197 0
172 197 0
173 197 0
175 198 0
173 197 0
174 198 0
175 198 0
174 197 0
173 197 0
175 198 0
174 197 0
174 198 0
174 198 0
174 198 0
174 197 0
174 198 0
172 195 0
174 197 0
176 198 0
174 197 0
174 198 0
174 198 0
174 197 0
175 198 0
174 197 0
174 197 0
175 198 0
174 197 0
173 196 0
175 198 0
174 197 0
174 198 0
173 197 0
174 197 0
174 197 0
170 194 0
173 197 0
175 198 0
175 198 0
173 196 0
174 197 0
173 197 0
173 197 0
173 196 0
175 198 0
173 196 0
172 196 0
170 194 0
172 196 0
172 196 0
171 195 0
172 195 0
173 196 0
171 194 0
172 195 0
172 196 0
174 197 0
170 193 0
172 194 0
173 197 0
173 196 0
171 195 0
170 194 0
168 191 0
172 195 0
167 191 0
168 191 0
167 189 0
168 191 0
95 124 137
62 98 165
62 98 163
63 99 172
62 99 175
62 99 170
62 99 175
62 99 172
62 99 173
62 99 177
62 99 175
63 99 176
63 100 179
63 100 178
62 99 175
62 99 173
62 98 172
62 99 176
62 99 174
62 98 168
62 99 171
62 98 169
62 98 169
61 98 166
63 100 173
62 98 165
61 97 167
61 97 167
62 97 163
60 94 157
57 87 138
55 62 39
72 75 44
85 90 55
109 108 64
129 128 73
135 133 73
143 140 75
156 151 83
151 147 75
155 150 80
165 159 85
161 156 75
174 166 87
165 158 81
164 157 80
167 160 85
166 159 80
159 152 70
153 147 71
152 146 63
145 140 63
128 124 47
149 164 19
171 193 0
169 189 0
169 190 0
169 191 0
173 194 0
171 194 0
171 194 0
172 194 0
172 195 0
173 196 0
170 192 0
172 194 0
173 196 0
171 195 0
175 197 0
175 198 0
174 197 0
173 197 0
174 197 0
174 197 0
173 196 0
174 197 0
173 196 0
176 199 0
173 195 0
174 197 0
173 196 0
174 197 0
174 197 0
171 196 0
173 196 0
175 198 0
177 199 0
174 197 0
174 197 0
174 198 0
173 197 0
174 197 0
174 197 0
174 198 0
175 198 0
175 198 0
175 198 0
174 198 0
174 197 0
174 198 0
174 197 0
175 198 0
173 197 0
175 197 0
174 198 0
175 198 0
173 197 0
173 197 0
176 198 0
174 197 0
174 198 0
174 198 0
174 198 0
175 198 0
174 198 0
174 198 0
174 198 0
174 197 0
174 198 0
174 198 0
173 196 0
175 198 0
175 198 0
174 198 0
175 198 0
175 198 0
174 197 0
176 198 0
175 198 0
176 199 0
175 198 0
174 197 0
174 197 0
174 198 0
174 198 0
175 198 0
173 197 0
175 198 0
174 198 0
176 199 0
175 198 0
174 197 0
177 199 0
176 199 0
174 197 0
176 199 0
174 198 0
174 198 0
174 198 0
174 198 0
174 198 0
174 198 0
174 198 0
176 198 0
174 197 0
175 198 0
173 197 0
175 198 0
175 198 0
175 198 0
174 198 0
174 197 0
174 198 0
175 198 0
172 197 0
174 197 0
175 198 0
173 197 0
175 198 0
174 198 0
175 198 0
174 197 0
174 197 0
174 198 0
175 198 0
174 198 0
175 198 0
174 197 0
175 198 0
175 198 0
175 198 0
175 198 0
176 199 0
174 198 0
176 198 0
173 197 0
174 198 0
176 198 0
174 198 0
175 198 0
174 198 0
175 198 0
176 199 0
174 198 0
176 199 0
174 198 0
175 198 0
174 197 0
173 197 0
175 198 0
174 197 0
172 197 0
174 198 0
174 198 0
174 197 0
174 198 0
174 197 0
176 199 0
174 197 0
174 198 0
175 198 0
175 198 0
174 198 0
176 199 0
176 199 0
175 198 0
174 198 0
176 198 0
174 198 0
174 197 0
174 198 0
174 198 0
176 198 0
174 197 0
174 198 0
175 198 0
174 197 0
174 197 0
175 198 0
175 198 0
174 198 0
174 198 0
175 198 0
176 199 0
175 198 0
173 197 0
172 197 0
175 198 0
173 197 0
173 197 0
174 198 0
174 198 0
175 198 0
176 199 0
175 198 0
175 198 0
174 198 0
176 199 0
174 198 0
175 198 0
176 198 0
175 198 0
175 198 0
174 198 0
175 198 0
175 198 0
174 197 0
173 197 0
176 198 0
175 198 0
176 199 0
174 198 0
175 198 0
175 198 0
174 197 0
173 197 0
175 198 0
176 198 0
174 198 0
173 197 0
173 197 0
174 198 0
177 199 0
175 198 0
174 198 0
173 197 0
174 197 0
174 198 0
175 198 0
174 198 0
173 197 0
174 197 0
176 199 0
176 198 0
173 197 0
175 198 0
171 196 0
175 198 0
174 197 0
173 197 0
174 197 0
174 198 0
175 198 0
172 197 0
174 198 0
176 199 0
174 198 0
174 197 0
175 198 0
175 198 0
176 199 0
174 198 0
175 198 0
175 198 0
175 198 0
174 197 0
174 198 0
174 197 0
174 198 0
175 198 0
172 197 0
175 198 0
174 197 0
175 198 0
175 198 0
174 198 0
175 198 0
175 198 0
176 198 0
174 197 0
173 197 0
176 199 0
174 197 0
175 198 0
177 199 0
175 198 0
174 198 0
175 198 0
174 198 0
173 197 0
174 197 0
175 198 0
174 198 0
175 198 0
174 197 0
174 198 0
174 198 0
175 198 0
174 197 0
176 199 0
172 196 0
173 197 0
174 198 0
176 199 0
174 198 0
174 197 0
174 197 0
173 197 0
176 199 0
173 197 0
174 198 0
174 197 0
174 198 0
172 196 0
172 197 0
171 195 0
174 197 0
174 197 0
174 198 0
172 195 0
174 197 0
173 196 0
174 197 0
176 198 0
172 196 0
171 194 0
173 196 0
171 195 0
172 196 0
173 197 0
172 196 0
173 197 0
174 198 0
172 196 0
173 196 0
173 195 0
169 193 0
170 195 0
174 198 0
173 196 0
171 195 0
170 194 0
171 195 0
171 194 0
172 196 0
170 193 0
171 195 0
173 195 0
172 195 0
173 196 0
171 194 0
169 193 0
168 192 0
173 195 0
169 193 0
168 191 0
167 190 0
166 189 0
172 194 0
161 185 47
65 100 159
62 98 166
62 98 164
61 98 164
63 99 171
62 98 170
62 99 174
62 99 172
63 99 173
62 99 176
62 99 173
62 99 177
62 99 174
61 98 170
62 99 176
63 99 172
62 99 175
62 99 173
62 99 174
62 99 173
62 99 170
62 99 171
62 98 166
62 98 166
62 99 170
61 97 161
62 98 165
62 98 162
62 97 158
60 94 154
59 93 147
66 68 27
74 77 43
83 87 47
107 108 57
115 115 64
142 138 75
148 143 76
148 143 75
152 148 78
151 146 69
169 161 84
157 152 72
163 158 73
160 153 74
163 157 75
152 145 67
161 154 73
151 145 63
148 143 58
146 141 57
136 131 59
130 125 41
168 188 0
170 188 0
169 190 0
166 188 0
170 192 0
174 195 0
169 192 0
169 192 0
174 196 0
173 196 0
172 195 0
175 197 0
173 196 0
175 196 0
172 194 0
172 196 0
175 198 0
173 196 0
172 196 0
174 196 0
174 197 0
173 196 0
174 197 0
173 196 0
174 197 0
174 198 0
174 197 0
173 196 0
173 197 0
173 196 0
173 197 0
173 197 0
173 196 0
174 197 0
173 197 0
175 198 0
173 197 0
177 199 0
175 198 0
174 198 0
173 197 0
173 197 0
174 197 0
175 198 0
175 198 0
174 198 0
175 198 0
173 197 0
173 197 0
174 197 0
173 197 0
172 196 0
173 197 0
175 198 0
175 198 0
172 196 0
174 198 0
173 196 0
174 197 0
173 197 0
174 197 0
173 197 0
174 197 0
173 197 0
175 198 0
174 197 0
176 199 0
174 197 0
174 198 0
174 198 0
175 198 0
174 198 0
175 198 0
174 198 0
174 198 0
173 197 0
175 198 0
174 198 0
175 198 0
175 198 0
174 198 0
173 197 0
174 197 0
174 198 0
174 198 0
175 198 0
173 197 0
175 198 0
174 198 0
173 197 0
175 198 0
174 197 0
173 197 0
173 197 0
175 198 0
175 198 0
174 198 0
175 198 0
175 198 0
174 198 0
176 199 0
175 198 0
175 198 0
175 198 0
173 197 0
174 198 0
174 198 0
175 198 0
175 198 0
176 198 0
174 198 0
176 199 0
173 197 0
173 197 0
176 198 0
174 198 0
174 197 0
176 198 0
173 197 0
173 197 0
174 198 0
174 198 0
173 197 0
174 198 0
175 198 0
175 198 0
173 197 0
174 198 0
174 198 0
174 198 0
174 198 0
174 197 0
175 198 0
173 197 0
176 199 0
173 197 0
174 198 0
175 198 0
174 198 0
174 197 0
175 198 0
175 198 0
175 198 0
176 198 0
174 198 0
174 198 0
175 198 0
175 198 0
174 198 0
175 198 0
174 197 0
175 198 0
174 197 0
173 197 0
176 199 0
176 199 0
173 197 0
173 197 0
174 198 0
175 198 0
172 197 0
176 199 0
175 198 0
175 198 0
175 198 0
174 198 0
174 198 0
175 198 0
175 198 0
174 197 0
174 198 0
177 199 0
175 198 0
174 198 0
174 198 0
176 198 0
175 198 0
173 197 0
174 198 0
175 198 0
174 197 0
175 198 0
175 198 0
173 197 0
173 197 0
172 197 0
175 198 0
175 198 0
174 197 0
173 197 0
175 198 0
174 197 0
174 197 0
174 198 0
173 197 0
174 198 0
176 198 0
174 198 0
174 198 0
173 197 0
175 198 0
175 198 0
174 198 0
174 198 0
174 197 0
175 198 0
175 198 0
174 197 0
175 198 0
176 199 0
174 198 0
174 198 0
175 198 0
175 198 0
174 198 0
175 198 0
173 197 0
175 198 0
175 198 0
174 198 0
175 198 0
174 197 0
174 198 0
173 197 0
175 198 0
173 197 0
174 198 0
174 198 0
175 198 0
176 199 0
174 197 0
175 198 0
175 198 0
175 198 0
175 198 0
176 199 0
174 198 0
175 198 0
173 197 0
174 198 0
176 199 0
175 198 0
176 199 0
174 198 0
175 198 0
176 198 0
175 198 0
174 198 0
175 198 0
174 198 0
175 198 0
175 198 0
174 198 0
173 197 0
173 197 0
175 198 0
175 198 0
175 198 0
176 198 0
174 198 0
174 198 0
175 198 0
175 198 0
172 196 0
177 199 0
172 197 0
175 198 0
174 198 0
176 198 0
173 197 0
175 198 0
173 197 0
175 198 0
173 197 0
174 198 0
173 197 0
174 198 0
175 198 0
174 198 0
174 198 0
175 198 0
173 197 0
174 198 0
174 198 0
173 196 0
175 198 0
175 198 0
174 197 0
174 198 0
174 197 0
173 197 0
173 197 0
174 197 0
174 197 0
173 197 0
175 197 0
173 197 0
174 197 0
173 196 0
172 196 0
174 197 0
175 198 0
173 197 0
172 196 0
172 195 0
173 197 0
174 197 0
174 198 0
175 198 0
173 196 0
173 197 0
174 198 0
173 197 0
174 197 0
174 197 0
172 196 0
175 198 0
173 197 0
172 196 0
172 195 0
173 196 0
173 197 0
173 197 0
173 196 0
171 195 0
174 197 0
169 193 0
172 196 0
174 197 0
172 195 0
168 192 0
170 194 0
169 192 0
172 196 0
171 194 0
169 192 0
168 192 0
169 193 0
170 194 0
167 191 0
172 195 0
174 196 0
168 191 0
169 192 0
172 195 0
167 189 0
149 173 76
62 98 156
62 98 162
62 98 164
62 99 167
62 98 171
62 98 169
62 98 169
61 98 173
62 99 173
62 98 171
61 97 167
62 98 167
61 98 169
62 98 169
62 99 173
62 98 167
61 98 165
62 98 168
63 99 174
63 99 171
62 98 165
62 98 170
62 98 164
63 99 170
61 97 165
62 98 163
62 98 165
62 98 164
63 98 163
61 97 162
60 95 152
64 72 59
73 76 27
97 97 41
107 108 47
120 118 57
133 129 68
131 128 65
146 142 66
160 153 78
145 140 58
157 151 66
162 156 72
154 149 67
164 158 78
157 152 70
159 152 71
160 154 70
155 149 64
148 142 60
150 143 60
126 121 45
144 153 28
166 185 0
170 192 0
168 188 0
170 189 0
169 192 0
172 193 0
172 194 0
171 193 0
170 192 0
172 195 0
172 196 0
170 192 0
173 195 0
170 193 0
172 195 0
174 196 0
172 195 0
174 196 0
175 197 0
173 196 0
173 197 0
174 197 0
175 198 0
174 197 0
173 197 0
170 193 0
174 197 0
173 196 0
173 197 0
174 197 0
172 196 0
173 196 0
173 197 0
174 197 0
173 197 0
175 198 0
174 197 0
174 197 0
175 198 0
175 198 0
175 197 0
176 198 0
174 198 0
173 197 0
174 198 0
174 198 0
174 197 0
174 197 0
172 196 0
175 198 0
176 199 0
172 196 0
175 198 0
176 199 0
173 196 0
173 197 0
175 198 0
173 197 0
175 198 0
175 198 0
174 198 0
175 198 0
174 197 0
174 197 0
174 198 0
173 197 0
174 198 0
175 198 0
175 198 0
176 199 0
175 198 0
174 197 0
175 198 0
175 198 0
174 198 0
176 199 0
174 197 0
176 198 0
175 198 0
174 198 0
174 197 0
175 198 0
175 198 0
174 198 0
175 198 0
174 198 0
174 198 0
175 198 0
174 198 0
175 198 0
174 198 0
175 198 0
174 198 0
174 198 0
175 198 0
173 196 0
175 198 0
174 198 0
175 198 0
175 198 0
174 198 0
174 198 0
174 198 0
173 197 0
175 198 0
175 198 0
173 196 0
173 197 0
172 197 0
176 198 0
175 198 0
174 198 0
175 198 0
175 198 0
176 199 0
176 199 0
174 197 0
174 198 0
174 198 0
174 197 0
174 198 0
174 198 0
174 198 0
175 198 0
174 198 0
175 198 0
174 198 0
174 197 0
174 198 0
174 198 0
175 198 0
175 198 0
174 198 0
174 197 0
175 198 0
175 198 0
176 198 0
174 197 0
174 197 0
175 198 0
174 198 0
175 198 0
173 197 0
176 199 0
175 198 0
175 198 0
174 198 0
176 199 0
174 197 0
176 198 0
174 198 0
173 197 0
175 198 0
173 197 0
175 198 0
175 198 0
173 197 0
175 198 0
175 198 0
174 198 0
173 197 0
174 198 0
175 198 0
173 197 0
174 198 0
174 198 0
174 198 0
175 198 0
175 198 0
176 199 0
173 197 0
173 197 0
174 198 0
174 198 0
174 197 0
174 198 0
175 198 0
176 199 0
176 198 0
174 197 0
175 198 0
174 198 0
174 198 0
174 198 0
175 198 0
175 198 0
175 198 0
173 197 0
173 197 0
175 198 0
175 198 0
176 198 0
176 198 0
175 198 0
174 198 0
173 197 0
174 197 0
174 198 0
174 197 0
176 198 0
174 198 0
176 199 0
175 198 0
175 198 0
173 197 0
175 198 0
174 198 0
174 198 0
174 198 0
175 198 0
176 199 0
176 199 0
174 197 0
174 197 0
175 198 0
174 197 0
175 198 0
172 197 0
175 198 0
175 198 0
176 199 0
175 198 0
173 197 0
174 198 0
174 198 0
174 197 0
173 197 0
175 198 0
175 198 0
175 198 0
175 198 0
176 199 0
175 198 0
173 197 0
175 198 0
173 197 0
174 197 0
176 199 0
174 198 0
173 196 0
174 198 0
173 197 0
173 197 0
173 197 0
174 197 0
174 197 0
174 198 0
175 198 0
174 198 0
175 198 0
173 197 0
176 199 0
174 197 0
174 198 0
176 199 0
174 198 0
174 197 0
175 198 0
174 197 0
174 198 0
175 198 0
172 196 0
173 197 0
176 199 0
176 199 0
173 197 0
174 198 0
174 198 0
173 197 0
175 198 0
176 199 0
175 198 0
172 197 0
175 198 0
175 198 0
174 198 0
173 197 0
173 197 0
173 197 0
175 198 0
174 198 0
174 198 0
173 197 0
177 199 0
172 196 0
172 196 0
174 198 0
171 195 0
175 198 0
174 198 0
175 198 0
173 196 0
174 197 0
175 198 0
172 197 0
172 196 0
174 197 0
176 199 0
172 196 0
174 197 0
174 198 0
173 197 0
174 197 0
173 196 0
174 198 0
175 198 0
174 197 0
174 198 0
174 197 0
173 196 0
173 197 0
174 197 0
175 198 0
173 196 0
173 197 0
173 195 0
173 196 0
172 195 0
175 198 0
171 195 0
173 197 0
175 198 0
171 195 0
171 195 0
173 197 0
172 196 0
173 197 0
171 195 0
172 195 0
171 194 0
172 196 0
173 196 0
172 194 0
173 196 0
170 193 0
171 194 0
169 194 0
168 191 0
170 194 0
164 188 0
169 191 0
171 194 0
166 190 0
165 189 0
163 187 0
168 191 0
136 161 94
63 98 157
60 96 148
60 96 159
61 97 163
62 98 170
61 98 167
62 98 169
61 98 172
62 98 170
62 98 168
61 98 170
62 99 170
62 98 166
63 99 171
62 98 171
62 99 170
62 99 170
62 99 169
62 98 163
62 99 173
62 98 166
63 99 172
62 99 165
62 98 166
62 98 166
62 98 162
61 97 157
63 99 163
61 97 158
61 95 152
60 95 148
68 79 78
87 87 34
91 92 27
104 104 47
130 126 60
133 130 57
136 132 55
132 129 44
145 141 60
150 144 59
144 140 58
147 143 57
150 144 65
146 140 59
153 146 64
151 145 67
151 146 56
149 144 59
139 134 52
131 127 37
126 127 30
167 187 11
164 181 0
168 188 0
167 190 0
171 192 0
167 188 0
168 189 0
166 186 0
168 189 0
170 192 0
170 192 0
171 193 0
171 193 0
171 194 0
173 194 0
173 196 0
173 196 0
173 196 0
174 197 0
173 196 0
175 197 0
173 196 0
172 194 0
174 196 0
172 195 0
173 196 0
175 198 0
174 196 0
173 196 0
173 197 0
173 196 0
174 198 0
173 197 0
172 196 0
173 196 0
174 198 0
175 197 0
173 197 0
175 198 0
173 196 0
173 197 0
175 198 0
174 198 0
172 196 0
173 196 0
175 198 0
174 197 0
174 197 0
176 199 0
175 198 0
174 197 0
174 198 0
175 198 0
174 198 0
174 197 0
173 197 0
175 198 0
175 198 0
174 198 0
175 198 0
175 198 0
173 197 0
176 199 0
175 197 0
174 197 0
172 196 0
174 197 0
173 197 0
173 196 0
175 198 0
175 198 0
175 198 0
176 198 0
174 197 0
173 197 0
173 197 0
174 198 0
173 197 0
174 198 0
172 196 0
174 197 0
174 198 0
176 198 0
175 198 0
174 198 0
174 197 0
174 198 0
174 198 0
177 199 0
174 198 0
175 198 0
175 198 0
172 197 0
175 198 0
175 198 0
173 197 0
176 198 0
174 198 0
174 197 0
173 197 0
174 198 0
175 198 0
175 198 0
174 197 0
175 198 0
174 198 0
174 198 0
173 197 0
175 198 0
174 198 0
175 198 0
176 199 0
175 198 0
174 197 0
175 198 0
174 197 0
175 198 0
175 198 0
175 198 0
174 197 0
175 198 0
174 197 0
173 197 0
175 198 0
175 198 0
174 198 0
174 197 0
174 198 0
176 199 0
176 199 0
174 197 0
176 199 0
175 198 0
175 198 0
174 198 0
175 198 0
174 197 0
175 198 0
174 198 0
174 198 0
174 198 0
175 198 0
173 197 0
174 197 0
174 197 0
174 197 0
174 198 0
174 197 0
175 198 0
174 198 0
173 197 0
175 198 0
175 198 0
176 198 0
173 197 0
173 197 0
173 197 0
175 198 0
174 198 0
175 198 0
175 198 0
174 198 0
175 198 0
173 197 0
175 198 0
174 197 0
174 198 0
175 198 0
174 198 0
175 198 0
174 198 0
174 198 0
176 198 0
175 198 0
175 198 0
174 198 0
174 197 0
174 198 0
175 198 0
174 198 0
177 199 0
174 198 0
174 198 0
173 197 0
175 198 0
173 197 0
173 197 0
173 197 0
172 197 0
173 197 0
173 197 0
173 197 0
175 198 0
175 198 0
174 198 0
175 198 0
174 197 0
173 197 0
173 197 0
174 198 0
174 198 0
174 197 0
175 198 0
174 197 0
173 197 0
175 198 0
175 198 0
174 198 0
174 198 0
174 197 0
173 197 0
175 198 0
174 197 0
173 197 0
175 198 0
173 197 0
175 198 0
174 198 0
174 197 0
174 198 0
175 198 0
173 197 0
174 198 0
173 197 0
175 198 0
173 197 0
174 198 0
175 198 0
174 198 0
175 198 0
175 198 0
176 198 0
174 198 0
175 198 0
174 198 0
174 197 0
176 198 0
174 198 0
173 197 0
174 197 0
173 197 0
174 198 0
173 197 0
174 197 0
174 197 0
175 198 0
173 197 0
174 198 0
174 198 0
174 197 0
174 198 0
174 198 0
173 197 0
176 199 0
174 198 0
173 197 0
174 198 0
174 198 0
175 198 0
176 198 0
175 198 0
173 197 0
174 198 0
175 198 0
175 198 0
175 198 0
173 196 0
174 198 0
174 197 0
174 197 0
175 198 0
174 198 0
173 197 0
175 198 0
175 198 0
176 198 0
175 198 0
172 196 0
174 197 0
174 198 0
175 198 0
174 198 0
174 198 0
175 198 0
175 198 0
174 197 0
173 197 0
173 197 0
173 197 0
173 197 0
174 197 0
173 197 0
176 199 0
173 197 0
174 198 0
174 198 0
174 197 0
173 197 0
175 198 0
175 198 0
172 196 0
173 197 0
173 197 0
174 198 0
175 198 0
174 198 0
173 197 0
173 197 0
175 198 0
172 196 0
173 196 0
173 196 0
175 198 0
174 197 0
174 197 0
172 195 0
171 195 0
173 196 0
173 196 0
172 196 0
173 196 0
172 196 0
173 197 0
171 195 0
171 194 0
174 197 0
174 197 0
174 198 0
171 194 0
167 192 0
169 192 0
173 196 0
170 193 0
171 195 0
169 192 0
171 194 0
179 200 88
177 199 80
174 196 76
175 198 92
179 200 102
174 195 76
178 201 84
174 195 76
171 194 72
168 191 0
167 189 0
140 164 100
60 96 153
60 96 156
61 97 155
63 98 163
62 98 166
61 98 166
62 98 165
61 98 167
62 98 164
62 99 173
63 99 171
63 99 174
62 98 162
61 97 166
62 98 165
61 98 168
62 99 169
62 98 171
62 98 167
62 98 164
62 98 166
62 98 161
62 98 165
62 99 167
62 98 164
63 99 166
61 97 157
62 97 161
62 98 164
61 96 158
60 93 142
70 83 87
85 86 19
83 84 22
98 98 28
110 109 41
122 119 46
133 130 45
133 129 54
139 135 50
143 138 54
144 139 46
144 140 51
143 139 53
150 144 59
143 137 53
145 140 49
141 135 51
145 139 56
135 129 42
134 129 49
157 172 19
166 182 0
169 187 0
171 190 0
168 189 0
168 188 0
169 192 0
167 188 0
170 191 0
171 192 0
172 195 0
172 193 0
170 190 0
171 194 0
171 193 0
172 196 0
169 192 0
172 195 0
173 196 0
174 197 0
173 196 0
173 197 0
172 195 0
174 197 0
172 195 0
174 196 0
173 196 0
173 195 0
174 197 0
173 196 0
175 198 0
173 196 0
172 195 0
174 197 0
172 195 0
175 198 0
173 197 0
175 198 0
175 197 0
177 199 0
173 197 0
174 197 0
174 197 0
173 196 0
173 197 0
174 196 0
173 197 0
174 198 0
175 198 0
174 198 0
173 196 0
174 197 0
173 197 0
172 196 0
175 198 0
173 197 0
173 197 0
175 198 0
174 198 0
176 198 0
175 198 0
172 197 0
175 198 0
173 197 0
174 198 0
173 197 0
174 198 0
174 198 0
175 198 0
173 197 0
175 198 0
173 197 0
173 197 0
175 198 0
174 198 0
175 198 0
174 197 0
174 198 0
174 198 0
175 198 0
172 196 0
174 198 0
174 197 0
174 197 0
174 198 0
175 198 0
175 198 0
175 198 0
173 197 0
172 197 0
175 198 0
174 198 0
174 197 0
176 198 0
175 198 0
173 197 0
173 197 0
175 198 0
175 198 0
173 197 0
175 198 0
174 197 0
176 199 0
174 197 0
175 198 0
175 198 0
175 198 0
176 198 0
173 197 0
174 198 0
176 198 0
174 198 0
173 197 0
173 197 0
173 197 0
174 198 0
175 198 0
175 198 0
174 197 0
173 197 0
174 198 0
175 198 0
174 198 0
175 198 0
174 198 0
176 198 0
175 198 0
175 198 0
175 198 0
174 198 0
175 198 0
175 198 0
173 197 0
175 198 0
176 198 0
175 198 0
174 197 0
175 198 0
176 199 0
173 197 0
175 198 0
176 198 0
174 197 0
176 199 0
175 198 0
174 198 0
175 198 0
175 198 0
173 197 0
175 198 0
174 198 0
172 197 0
174 198 0
175 198 0
175 198 0
175 198 0
174 198 0
173 197 0
175 198 0
174 198 0
174 198 0
174 198 0
174 198 0
175 198 0
176 199 0
174 197 0
174 198 0
174 198 0
174 198 0
175 198 0
177 199 0
174 198 0
173 197 0
176 199 0
175 198 0
173 197 0
174 198 0
175 198 0
175 198 0
177 199 0
175 198 0
175 198 0
175 198 0
176 198 0
174 198 0
175 198 0
174 198 0
173 197 0
174 197 0
176 199 0
174 198 0
175 198 0
175 198 0
173 197 0
177 199 0
175 198 0
174 198 0
174 198 0
174 197 0
174 198 0
176 199 0
175 198 0
174 197 0
175 198 0
173 197 0
174 197 0
175 198 0
175 198 0
176 198 0
174 198 0
176 198 0
176 199 0
175 198 0
176 199 0
174 198 0
176 199 0
175 198 0
173 197 0
175 198 0
174 198 0
174 197 0
174 197 0
174 198 0
173 197 0
174 197 0
176 199 0
175 198 0
173 197 0
174 198 0
174 198 0
174 198 0
175 198 0
174 198 0
175 198 0
174 197 0
174 198 0
175 198 0
176 198 0
175 198 0
175 198 0
174 198 0
175 198 0
174 198 0
173 197 0
174 197 0
174 197 0
173 197 0
174 197 0
174 198 0
176 199 0
175 198 0
175 198 0
172 197 0
175 198 0
175 198 0
176 198 0
176 198 0
174 198 0
174 198 0
174 197 0
175 198 0
174 198 0
174 198 0
175 198 0
174 198 0
174 198 0
174 198 0
173 197 0
174 198 0
173 197 0
175 198 0
175 198 0
176 198 0
174 197 0
175 198 0
174 198 0
172 197 0
175 198 0
174 198 0
174 198 0
173 197 0
174 197 0
175 198 0
173 196 0
175 198 0
175 198 0
175 198 0
176 198 0
175 198 0
175 198 0
175 198 0
173 197 0
173 197 0
174 198 0
175 198 0
172 196 0
173 196 0
175 197 0
173 197 0
172 197 0
174 198 0
176 199 0
174 198 0
174 198 0
173 196 0
173 196 0
173 196 0
174 197 0
173 196 0
175 198 0
175 198 0
173 197 0
172 196 0
173 196 0
175 198 0
172 196 0
173 197 0
173 197 0
174 198 0
172 195 0
172 195 0
175 198 0
172 196 0
173 197 0
173 196 0
171 195 0
175 198 0
169 193 0
170 193 0
172 195 0
172 194 0
170 193 0
171 194 0
172 195 44
180 201 92
185 206 122
180 202 84
180 203 95
178 201 80
188 209 137
199 217 175
191 210 147
187 208 135
186 207 125
175 197 76
184 204 128
177 197 105
165 187 99
111 137 129
84 115 139
61 97 162
61 97 161
61 98 161
61 97 164
62 98 163
61 97 158
62 98 163
62 98 166
61 98 163
61 97 158
62 99 174
62 99 164
61 98 163
60 96 158
63 99 167
62 98 162
61 98 162
62 99 168
63 99 161
63 99 169
62 98 162
62 98 163
61 97 158
61 97 156
62 97 155
62 98 158
61 97 150
62 97 153
60 95 146
60 94 146
79 88 84
83 83 9
98 96 22
110 107 31
109 107 31
111 109 35
126 121 43
125 123 35
133 130 44
134 130 46
142 137 49
145 140 42
140 135 39
136 131 44
139 134 39
136 131 44
141 135 48
136 130 44
127 123 30
151 161 22
163 179 0
166 183 0
163 181 0
165 183 0
169 189 0
165 185 0
170 189 0
167 189 0
168 189 0
168 190 0
171 193 0
170 191 0
170 191 0
169 191 0
169 191 0
173 195 0
172 194 0
174 197 0
174 195 0
176 198 0
174 197 0
174 196 0
175 198 0
172 196 0
175 197 0
172 196 0
173 197 0
174 197 0
172 195 0
171 195 0
173 196 0
173 196 0
173 197 0
175 197 0
175 197 0
174 196 0
175 198 0
174 197 0
171 195 0
173 197 0
173 197 0
172 196 0
175 198 0
174 197 0
174 198 0
173 196 0
173 197 0
174 198 0
174 197 0
177 199 0
176 198 0
174 197 0
173 197 0
174 198 0
175 198 0
174 198 0
174 198 0
176 199 0
173 197 0
175 198 0
175 198 0
174 197 0
174 197 0
174 197 0
175 198 0
174 197 0
174 198 0
176 198 0
174 197 0
173 197 0
174 197 0
174 198 0
175 198 0
174 198 0
174 197 0
174 198 0
175 198 0
174 197 0
176 199 0
173 197 0
175 198 0
173 196 0
174 197 0
174 197 0
173 197 0
176 199 0
177 199 0
175 198 0
174 198 0
175 198 0
174 197 0
175 198 0
175 198 0
174 197 0
174 198 0
174 198 0
175 198 0
174 197 0
174 197 0
174 198 0
173 197 0
174 197 0
175 198 0
175 198 0
174 198 0
176 198 0
174 198 0
175 198 0
175 198 0
174 198 0
174 197 0
175 198 0
174 197 0
174 197 0
174 197 0
175 198 0
174 197 0
172 196 0
175 198 0
174 197 0
177 199 0
174 198 0
175 198 0
174 198 0
174 198 0
173 197 0
175 198 0
174 198 0
175 198 0
175 198 0
175 198 0
174 198 0
175 198 0
175 198 0
174 197 0
175 198 0
174 197 0
174 197 0
175 198 0
175 198 0
174 198 0
174 198 0
176 198 0
173 197 0
175 198 0
175 198 0
174 197 0
175 198 0
174 197 0
175 198 0
175 198 0
174 198 0
174 198 0
174 198 0
174 198 0
173 197 0
175 198 0
176 199 0
173 197 0
174 198 0
173 197 0
174 198 0
174 198 0
174 197 0
175 198 0
175 198 0
173 197 0
174 197 0
175 198 0
176 199 0
174 198 0
176 198 0
175 198 0
174 198 0
174 198 0
175 198 0
173 197 0
174 197 0
173 197 0
176 199 0
174 198 0
173 197 0
176 198 0
175 198 0
174 198 0
174 198 0
175 198 0
174 198 0
176 199 0
175 198 0
174 198 0
176 198 0
174 198 0
175 198 0
175 198 0
175 198 0
175 198 0
174 197 0
175 198 0
173 197 0
176 198 0
175 198 0
174 198 0
174 198 0
175 197 0
175 198 0
175 198 0
175 198 0
176 198 0
175 198 0
174 198 0
174 197 0
173 197 0
174 197 0
176 198 0
174 198 0
173 197 0
175 198 0
174 197 0
176 199 0
173 197 0
175 198 0
174 197 0
173 197 0
175 198 0
174 198 0
174 197 0
172 196 0
175 198 0
172 197 0
174 197 0
174 198 0
174 198 0
174 198 0
174 198 0
173 197 0
174 198 0
174 198 0
173 197 0
174 197 0
175 198 0
174 198 0
176 198 0
175 198 0
173 197 0
175 198 0
174 197 0
174 197 0
175 198 0
177 199 0
174 198 0
173 197 0
174 198 0
175 198 0
175 198 0
174 198 0
176 198 0
174 198 0
174 198 0
174 197 0
175 198 0
176 199 0
172 196 0
174 198 0
173 197 0
174 198 0
174 197 0
174 198 0
174 198 0
175 198 0
172 196 0
175 198 0
175 198 0
175 198 0
174 198 0
173 197 0
173 197 0
175 198 0
175 198 0
174 198 0
173 197 0
175 198 0
174 197 0
175 198 0
174 198 0
172 196 0
174 197 0
174 198 0
175 198 0
173 197 0
176 199 0
175 198 0
175 198 0
174 197 0
173 197 0
172 196 0
177 199 0
173 196 0
175 198 0
172 196 0
175 198 0
172 197 0
174 197 0
173 197 0
175 198 0
175 198 0
174 197 0
172 196 0
171 195 0
174 198 0
171 195 0
173 197 0
174 197 0
175 198 0
174 197 0
171 195 0
173 196 0
173 197 0
173 195 0
173 196 0
171 194 0
174 197 0
172 196 0
170 194 0
174 197 0
173 196 0
173 196 0
168 192 0
170 194 0
171 194 0
171 194 0
172 195 25
179 200 88
185 206 117
183 204 108
196 215 167
208 224 212
216 231 238
218 234 254
218 233 252
216 232 252
216 232 248
214 230 244
218 233 249
218 233 248
206 223 206
194 213 153
142 164 159
90 118 164
82 113 150
73 106 152
69 103 154
60 96 156
61 97 161
61 97 158
61 96 164
61 98 163
62 98 165
62 98 167
62 98 166
61 98 167
63 99 168
61 98 163
62 98 161
61 97 163
62 98 168
62 99 165
62 98 163
63 99 164
62 99 167
62 98 165
61 96 147
63 99 162
62 98 160
60 96 157
62 97 158
61 97 158
60 95 147
60 95 143
62 97 156
74 81 71
80 78 8
100 96 11
102 100 22
102 100 12
104 103 21
125 120 35
120 115 32
120 117 29
125 122 30
132 128 37
133 128 34
144 139 47
131 128 32
130 126 34
129 124 37
132 127 37
127 122 42
149 159 19
161 174 0
159 174 0
167 183 0
166 183 0
170 189 0
164 184 0
165 185 0
171 191 0
169 190 0
172 194 0
169 192 0
172 193 0
170 192 0
170 191 0
168 189 0
173 196 0
171 193 0
174 197 0
171 193 0
171 193 0
171 193 0
174 197 0
174 197 0
174 196 0
174 196 0
171 196 0
174 197 0
174 197 0
175 198 0
172 194 0
174 197 0
174 198 0
172 195 0
173 197 0
170 194 0
172 196 0
174 197 0
173 196 0
174 198 0
171 194 0
174 197 0
173 196 0
174 197 0
172 196 0
173 197 0
174 197 0
174 197 0
174 198 0
174 197 0
173 197 0
174 198 0
175 198 0
175 198 0
172 195 0
173 196 0
176 199 0
175 198 0
175 197 0
174 197 0
174 197 0
173 196 0
176 198 0
174 197 0
173 197 0
173 197 0
174 197 0
176 199 0
175 198 0
172 196 0
174 197 0
174 197 0
176 199 0
173 197 0
174 197 0
174 197 0
175 198 0
175 198 0
174 198 0
175 198 0
176 198 0
175 198 0
174 198 0
175 198 0
174 197 0
173 197 0
175 198 0
175 198 0
174 197 0
174 198 0
175 198 0
175 198 0
174 198 0
175 198 0
175 198 0
175 198 0
174 198 0
173 197 0
175 198 0
174 197 0
176 198 0
175 198 0
174 198 0
174 197 0
174 198 0
174 198 0
174 198 0
176 199 0
176 198 0
175 198 0
174 198 0
175 198 0
175 198 0
174 198 0
176 199 0
175 198 0
174 198 0
175 198 0
174 197 0
175 198 0
175 198 0
176 199 0
176 199 0
175 198 0
174 198 0
173 197 0
175 198 0
174 197 0
175 198 0
175 198 0
174 198 0
173 197 0
175 198 0
174 197 0
174 198 0
174 198 0
175 198 0
175 198 0
175 198 0
176 199 0
173 197 0
176 198 0
174 198 0
176 198 0
176 199 0
175 198 0
174 197 0
174 198 0
176 199 0
175 198 0
173 197 0
173 197 0
174 198 0
176 199 0
174 197 0
174 198 0
176 198 0
175 198 0
174 197 0
175 198 0
175 198 0
174 198 0
174 198 0
176 198 0
171 196 0
173 197 0
175 198 0
175 198 0
173 197 0
173 197 0
175 198 0
175 198 0
175 198 0
173 197 0
175 198 0
174 198 0
174 197 0
175 198 0
173 197 0
175 198 0
174 197 0
173 197 0
174 198 0
174 198 0
175 198 0
177 199 0
174 198 0
175 198 0
175 198 0
175 198 0
174 198 0
175 198 0
175 198 0
174 198 0
174 198 0
174 197 0
174 198 0
174 198 0
175 198 0
175 198 0
173 197 0
174 197 0
175 198 0
175 198 0
174 197 0
175 198 0
173 197 0
174 198 0
174 198 0
176 199 0
174 198 0
174 197 0
173 197 0
175 198 0
173 197 0
174 198 0
173 197 0
176 199 0
173 197 0
176 199 0
176 199 0
174 198 0
175 198 0
176 199 0
175 198 0
174 197 0
176 199 0
175 198 0
175 198 0
176 199 0
175 198 0
174 198 0
175 198 0
174 198 0
175 198 0
175 198 0
174 198 0
174 198 0
173 197 0
176 199 0
175 198 0
174 197 0
176 199 0
175 198 0
176 199 0
174 197 0
174 198 0
176 199 0
174 198 0
175 198 0
175 198 0
173 197 0
174 198 0
174 198 0
174 198 0
176 199 0
174 197 0
174 198 0
174 198 0
173 197 0
174 197 0
173 197 0
174 198 0
174 197 0
176 199 0
175 198 0
174 198 0
173 197 0
175 198 0
174 197 0
173 197 0
174 198 0
174 198 0
173 197 0
173 197 0
174 198 0
173 197 0
174 197 0
176 199 0
174 197 0
174 197 0
175 198 0
174 197 0
174 197 0
175 198 0
174 198 0
173 197 0
173 197 0
174 198 0
172 196 0
173 196 0
173 197 0
174 198 0
175 198 0
176 199 0
173 197 0
175 198 0
175 198 0
173 197 0
173 197 0
172 196 0
173 197 0
174 197 0
174 197 0
174 197 0
174 197 0
173 197 0
172 196 0
174 197 0
170 194 0
173 196 0
175 198 0
172 195 0
171 195 0
174 198 0
171 195 0
174 198 0
173 197 0
172 196 0
173 197 0
173 196 0
173 195 0
173 196 0
171 194 0
171 195 0
174 197 0
173 196 0
170 194 0
172 196 0
169 192 0
171 195 0
170 193 0
178 200 76
182 203 111
182 204 105
198 216 175
217 232 244
216 232 249
213 231 249
212 230 253
212 230 254
211 230 253
209 228 248
209 228 246
211 229 250
211 229 249
213 231 253
214 231 250
216 232 253
201 217 242
85 115 178
99 125 179
77 108 171
68 102 153
72 104 151
62 97 153
61 97 153
61 96 158
60 96 156
61 98 165
61 97 161
61 98 162
62 98 165
62 98 165
61 97 156
62 98 160
61 97 156
62 98 164
61 98 163
61 96 154
62 98 163
62 98 162
61 96 148
61 96 153
61 97 154
62 97 155
61 96 151
61 97 151
61 96 150
60 95 151
61 96 143
59 93 136
102 107 40
87 85 0
95 90 3
80 78 0
105 102 0
99 95 16
104 102 14
115 112 0
118 114 25
123 119 22
124 119 28
128 124 32
133 129 28
122 117 19
126 120 34
121 114 34
120 119 19
153 162 19
160 173 0
157 171 0
159 173 0
165 182 0
166 183 0
164 181 0
163 180 0
165 183 0
166 185 0
173 194 0
167 188 0
171 191 0
169 189 0
172 194 0
172 195 0
170 192 0
170 192 0
169 191 0
171 193 0
168 190 0
170 192 0
172 195 0
171 194 0
173 196 0
172 196 0
173 196 0
173 197 0
173 196 0
171 195 0
173 195 0
175 197 0
171 194 0
173 196 0
173 197 0
174 197 0
175 198 0
175 198 0
173 196 0
174 198 0
174 198 0
173 197 0
174 197 0
174 197 0
172 196 0
176 198 0
174 197 0
174 197 0
174 197 0
175 198 0
174 198 0
176 198 0
174 197 0
175 198 0
175 197 0
174 197 0
173 196 0
176 198 0
175 198 0
173 196 0
174 197 0
175 198 0
173 196 0
174 198 0
175 198 0
174 197 0
175 198 0
175 198 0
174 197 0
173 197 0
174 198 0
173 197 0
174 198 0
175 198 0
175 198 0
173 197 0
175 198 0
174 198 0
175 197 0
173 197 0
174 197 0
174 198 0
174 198 0
175 198 0
174 198 0
175 198 0
175 198 0
172 196 0
175 198 0
174 198 0
173 197 0
175 198 0
174 198 0
175 198 0
174 198 0
174 197 0
175 198 0
173 197 0
175 198 0
175 198 0
173 197 0
173 197 0
175 198 0
174 197 0
174 197 0
175 198 0
174 198 0
174 197 0
173 197 0
174 198 0
174 198 0
173 197 0
175 198 0
173 197 0
174 198 0
173 197 0
175 198 0
175 198 0
174 197 0
174 198 0
177 199 0
174 198 0
174 197 0
173 197 0
175 198 0
175 198 0
174 197 0
174 198 0
174 197 0
174 197 0
175 198 0
173 197 0
173 197 0
173 197 0
174 198 0
175 198 0
174 198 0
175 198 0
176 199 0
175 198 0
175 198 0
174 198 0
173 197 0
175 198 0
173 197 0
175 198 0
174 198 0
174 198 0
172 196 0
175 198 0
175 198 0
175 198 0
175 198 0
174 198 0
175 198 0
173 197 0
175 198 0
174 198 0
176 198 0
175 198 0
175 198 0
173 197 0
174 198 0
174 198 0
174 197 0
176 198 0
173 197 0
175 198 0
173 197 0
175 198 0
175 198 0
176 198 0
177 199 0
174 198 0
174 198 0
174 198 0
173 197 0
173 197 0
174 198 0
175 198 0
174 197 0
174 197 0
176 199 0
176 199 0
172 197 0
175 198 0
174 198 0
175 198 0
173 197 0
174 198 0
174 197 0
174 198 0
174 198 0
174 197 0
174 198 0
174 198 0
175 198 0
174 198 0
175 198 0
174 198 0
175 198 0
175 198 0
174 198 0
174 197 0
174 198 0
175 198 0
173 196 0
173 197 0
175 198 0
175 198 0
175 198 0
174 198 0
175 198 0
174 198 0
174 198 0
174 198 0
176 199 0
174 197 0
176 198 0
172 197 0
174 198 0
177 199 0
173 197 0
176 199 0
176 199 0
172 197 0
173 197 0
175 198 0
175 198 0
175 198 0
175 198 0
174 197 0
175 198 0
173 197 0
174 198 0
174 198 0
174 197 0
175 198 0
174 198 0
174 198 0
175 198 0
175 198 0
175 198 0
175 198 0
174 197 0
174 197 0
174 198 0
174 198 0
175 198 0
176 199 0
174 198 0
174 198 0
176 198 0
173 197 0
175 198 0
174 197 0
175 198 0
174 198 0
175 198 0
174 198 0
174 198 0
175 198 0
173 197 0
173 197 0
176 199 0
175 198 0
175 198 0
173 197 0
174 197 0
173 197 0
174 197 0
173 197 0
173 197 0
174 198 0
175 198 0
175 198 0
174 197 0
172 197 0
173 196 0
174 197 0
174 198 0
177 199 0
174 198 0
174 197 0
173 197 0
174 197 0
171 195 0
175 198 0
173 197 0
174 198 0
174 197 0
174 198 0
174 197 0
176 199 0
170 194 0
176 199 0
174 197 0
175 198 0
173 197 0
174 197 0
172 197 0
174 198 0
174 198 0
175 198 0
174 197 0
172 196 0
175 197 0
174 197 0
173 196 0
173 197 0
174 198 0
173 197 0
174 197 0
173 196 0
172 196 0
173 196 0
174 197 0
173 195 0
174 197 0
173 197 0
173 197 0
172 195 0
173 196 0
172 195 0
172 195 0
171 195 0
170 194 0
172 196 0
171 194 0
173 196 0
171 194 0
172 194 44
186 207 122
184 205 111
195 214 163
216 232 241
217 233 253
212 230 250
209 228 248
207 225 233
207 226 230
199 217 196
195 214 175
197 216 177
194 214 173
191 211 157
188 208 163
192 211 189
201 219 217
206 224 240
212 229 253
164 183 222
84 114 179
82 113 177
64 100 169
64 98 156
66 100 147
61 97 161
61 97 163
61 96 160
62 98 159
61 97 162
60 97 157
61 97 159
61 97 161
61 97 160
60 96 154
61 97 154
62 98 163
61 97 157
62 99 165
61 96 151
62 98 155
62 98 160
62 97 152
63 99 162
62 98 154
62 98 155
61 96 145
60 96 143
61 96 145
59 93 132
60 91 111
112 113 0
109 109 11
93 90 11
72 68 0
88 84 0
102 97 0
104 99 0
120 114 0
108 103 0
121 116 25
121 114 16
113 110 11
117 113 11
116 111 0
113 108 11
133 137 11
144 151 0
154 164 0
153 165 0
161 174 0
160 177 0
164 182 0
165 183 0
162 179 0
168 187 0
161 179 0
170 191 0
169 190 0
169 191 0
168 188 0
167 187 0
170 190 0
172 193 0
173 196 0
172 194 0
169 189 0
170 193 0
173 193 0
171 193 0
171 194 0
171 193 0
175 197 0
172 195 0
171 194 0
173 196 0
173 197 0
170 194 0
173 196 0
174 197 0
174 197 0
172 195 0
174 197 0
173 196 0
175 198 0
173 196 0
176 198 0
175 198 0
172 195 0
173 196 0
174 197 0
174 197 0
173 197 0
174 198 0
175 198 0
175 198 0
173 195 0
174 197 0
175 198 0
174 198 0
174 197 0
173 197 0
176 198 0
174 198 0
173 196 0
173 195 0
174 197 0
174 197 0
174 198 0
173 197 0
176 198 0
174 197 0
174 197 0
175 198 0
175 198 0
174 197 0
172 196 0
174 197 0
174 197 0
174 198 0
174 197 0
175 198 0
174 197 0
175 198 0
174 197 0
175 198 0
175 198 0
174 197 0
174 198 0
174 197 0
174 197 0
174 197 0
173 197 0
174 197 0
174 197 0
175 198 0
175 198 0
173 197 0
174 198 0
174 198 0
176 199 0
175 198 0
174 198 0
176 199 0
174 198 0
174 198 0
173 197 0
175 198 0
174 198 0
174 198 0
174 197 0
175 198 0
174 198 0
175 198 0
174 198 0
174 198 0
173 197 0
175 198 0
175 198 0
175 198 0
174 197 0
174 198 0
174 198 0
175 198 0
175 198 0
175 198 0
174 198 0
173 197 0
174 198 0
175 198 0
175 198 0
173 196 0
173 197 0
173 197 0
174 198 0
173 197 0
175 198 0
174 198 0
176 199 0
175 198 0
175 198 0
175 198 0
173 197 0
174 197 0
173 197 0
176 198 0
173 197 0
176 199 0
174 198 0
174 198 0
177 199 0
175 198 0
172 197 0
174 198 0
174 198 0
174 198 0
176 198 0
174 198 0
175 198 0
175 198 0
175 198 0
174 198 0
175 198 0
174 198 0
174 198 0
175 198 0
174 198 0
175 198 0
175 198 0
174 198 0
174 198 0
174 197 0
175 198 0
174 198 0
175 198 0
175 198 0
173 197 0
175 198 0
175 198 0
175 198 0
175 198 0
174 197 0
174 197 0
175 198 0
175 198 0
173 197 0
175 198 0
175 198 0
175 198 0
176 199 0
174 197 0
174 198 0
174 198 0
174 198 0
173 197 0
174 198 0
175 198 0
175 198 0
175 198 0
175 198 0
173 197 0
175 198 0
174 198 0
175 198 0
174 198 0
174 198 0
175 198 0
175 198 0
174 198 0
175 198 0
174 198 0
173 197 0
175 198 0
174 198 0
174 198 0
173 197 0
174 198 0
173 197 0
175 198 0
174 198 0
175 198 0
172 197 0
175 198 0
175 198 0
174 197 0
175 198 0
174 198 0
174 198 0
174 198 0
174 197 0
175 198 0
174 198 0
175 198 0
175 198 0
174 198 0
173 197 0
175 198 0
176 199 0
174 198 0
175 198 0
174 198 0
174 197 0
174 198 0
176 199 0
175 198 0
173 197 0
175 198 0
175 198 0
174 198 0
175 198 0
174 198 0
174 198 0
174 198 0
174 198 0
173 197 0
176 199 0
174 197 0
176 199 0
175 198 0
175 198 0
174 198 0
173 197 0
174 198 0
172 196 0
174 197 0
174 198 0
173 196 0
175 198 0
175 198 0
174 198 0
175 198 0
177 199 0
173 197 0
174 197 0
174 198 0
175 198 0
175 198 0
173 197 0
173 197 0
175 198 0
174 198 0
173 196 0
173 197 0
173 197 0
174 198 0
173 197 0
175 198 0
174 198 0
175 198 0
174 198 0
174 197 0
174 198 0
174 197 0
176 199 0
174 198 0
174 197 0
173 196 0
174 197 0
172 196 0
176 199 0
174 198 0
174 197 0
176 198 0
174 198 0
176 199 0
175 198 0
173 197 0
172 197 0
174 197 0
172 196 0
174 197 0
175 198 0
175 198 0
171 195 0
176 198 0
171 196 0
170 195 0
174 198 0
175 198 0
175 198 0
174 197 0
174 197 0
174 197 0
175 197 0
172 195 0
171 195 0
173 197 0
170 195 0
172 196 0
171 194 0
172 196 0
174 197 0
171 195 0
171 195 0
171 195 0
174 197 0
167 191 0
171 195 0
173 196 36
182 203 102
185 207 128
206 223 207
218 234 252
214 232 254
210 229 246
206 224 227
199 217 191
190 210 157
176 199 88
172 196 62
175 198 80
175 199 88
175 198 92
172 195 25
171 195 80
174 197 72
173 197 67
129 154 151
104 132 159
151 172 199
122 146 199
77 110 183
87 116 181
64 99 163
63 99 158
62 97 154
62 97 154
61 96 155
61 97 160
61 96 154
61 97 155
62 98 161
61 97 159
61 97 160
61 96 150
62 98 160
62 98 163
62 97 155
61 96 151
61 97 151
61 96 142
61 97 153
62 97 151
61 97 156
62 98 160
61 97 151
62 98 154
61 96 143
60 95 146
62 96 146
79 99 99
118 122 0
102 106 0
116 120 0
90 93 0
101 96 0
94 91 0
100 95 0
89 82 0
94 90 0
100 93 0
114 108 16
113 111 0
114 111 0
119 119 0
145 149 0
147 152 0
152 160 0
154 163 0
153 164 0
161 174 0
155 169 0
167 182 0
167 185 0
166 183 0
168 186 0
163 184 0
166 186 0
162 182 0
170 192 0
170 190 0
169 189 0
170 191 0
172 196 0
170 191 0
170 193 0
171 194 0
173 195 0
172 195 0
173 196 0
172 194 0
173 196 0
172 194 0
173 195 0
173 195 0
170 192 0
173 195 0
171 194 0
173 197 0
173 196 0
173 195 0
173 196 0
173 197 0
174 197 0
172 195 0
172 196 0
173 196 0
173 196 0
173 196 0
172 196 0
174 197 0
174 197 0
172 196 0
173 197 0
173 197 0
175 198 0
173 196 0
173 196 0
173 197 0
171 195 0
174 197 0
175 198 0
171 195 0
174 198 0
173 197 0
173 196 0
174 198 0
174 197 0
174 198 0
175 198 0
173 196 0
174 198 0
174 198 0
172 197 0
175 198 0
173 197 0
173 197 0
173 197 0
173 197 0
173 197 0
174 198 0
175 198 0
174 198 0
173 196 0
173 197 0
174 197 0
174 198 0
174 197 0
175 198 0
174 198 0
175 198 0
173 197 0
175 198 0
173 197 0
173 197 0
175 198 0
174 197 0
174 198 0
175 198 0
174 198 0
174 197 0
174 198 0
174 198 0
175 198 0
176 198 0
175 198 0
175 198 0
175 198 0
175 198 0
175 198 0
172 197 0
175 198 0
175 198 0
175 198 0
173 197 0
175 198 0
173 197 0
174 198 0
174 197 0
175 198 0
174 198 0
175 198 0
176 199 0
174 197 0
176 198 0
175 198 0
174 198 0
174 198 0
174 198 0
174 197 0
175 198 0
174 197 0
174 198 0
175 198 0
175 198 0
174 197 0
172 197 0
175 198 0
175 198 0
176 199 0
175 198 0
175 198 0
175 198 0
174 197 0
175 198 0
175 198 0
174 197 0
176 199 0
173 197 0
176 198 0
174 197 0
174 197 0
173 197 0
174 198 0
174 198 0
174 198 0
174 198 0
176 199 0
175 198 0
175 198 0
174 197 0
174 198 0
175 198 0
174 198 0
177 199 0
174 197 0
173 197 0
175 198 0
175 198 0
173 197 0
173 197 0
174 197 0
175 198 0
175 198 0
173 197 0
175 198 0
176 199 0
174 198 0
174 197 0
173 197 0
175 198 0
174 198 0
176 199 0
176 199 0
174 197 0
175 198 0
173 197 0
176 198 0
175 198 0
176 198 0
174 198 0
174 198 0
175 198 0
174 198 0
174 197 0
176 199 0
173 197 0
175 198 0
175 198 0
174 198 0
175 198 0
174 197 0
174 198 0
175 198 0
174 197 0
174 197 0
172 197 0
174 198 0
175 198 0
174 197 0
174 198 0
176 198 0
173 197 0
175 198 0
174 197 0
175 198 0
175 198 0
174 198 0
174 197 0
176 199 0
173 197 0
173 197 0
174 198 0
175 198 0
175 198 0
176 198 0
174 197 0
174 198 0
174 198 0
173 197 0
174 198 0
176 199 0
175 198 0
175 198 0
173 197 0
175 198 0
173 197 0
173 197 0
175 198 0
175 198 0
174 198 0
174 197 0
177 199 0
176 199 0
174 198 0
174 197 0
174 197 0
174 198 0
174 198 0
175 198 0
174 197 0
174 197 0
174 198 0
174 198 0
175 198 0
175 198 0
176 199 0
175 198 0
174 198 0
174 197 0
173 197 0
173 197 0
173 197 0
175 198 0
175 198 0
174 198 0
175 198 0
174 197 0
175 198 0
173 197 0
174 198 0
173 197 0
174 198 0
175 198 0
174 198 0
175 198 0
175 198 0
175 198 0
174 197 0
174 198 0
173 196 0
174 198 0
174 198 0
172 196 0
173 197 0
174 198 0
174 197 0
175 198 0
175 198 0
174 198 0
175 198 0
174 198 0
172 196 0
173 197 0
174 198 0
176 198 0
174 197 0
172 196 0
175 198 0
175 198 0
173 197 0
174 198 0
173 196 0
173 197 0
172 196 0
175 198 0
175 198 0
174 198 0
173 197 0
174 197 0
175 198 0
174 197 0
173 197 0
174 197 0
173 197 0
175 198 0
171 194 0
173 196 0
172 196 0
172 196 0
173 196 0
171 194 0
173 196 0
172 196 0
172 196 0
170 194 0
174 197 0
174 197 0
173 197 0
172 196 0
174 197 0
174 197 0
171 194 0
171 195 0
169 192 0
171 195 0
170 193 0
172 195 0
189 209 137
186 207 122
212 228 223
215 231 249
213 231 253
203 221 217
195 214 181
181 203 102
176 199 88
174 197 62
173 196 67
170 194 57
169 192 62
172 196 62
172 195 72
173 196 62
172 195 51
171 194 62
171 195 72
122 148 134
104 131 151
114 139 161
112 138 156
87 117 178
74 107 173
76 108 173
65 100 165
60 95 155
60 95 151
59 95 144
59 95 141
59 95 146
60 95 144
61 96 153
61 97 158
61 97 158
61 97 150
61 96 155
60 96 147
61 96 149
61 97 158
61 97 151
61 96 148
62 97 154
61 96 151
60 95 143
61 96 148
60 95 142
60 95 143
60 95 142
60 95 139
58 92 121
112 126 77
105 110 0
104 108 0
123 126 0
104 104 0
102 104 0
113 115 0
96 95 0
107 104 0
105 103 0
112 112 0
116 115 0
128 128 0
131 134 0
147 154 0
138 143 0
144 151 0
149 156 0
156 167 0
157 168 0
160 174 0
161 178 0
158 172 0
166 183 0
163 179 0
162 180 0
163 181 0
166 186 0
166 186 0
167 188 0
170 190 0
170 190 0
171 194 0
171 191 0
169 191 0
169 189 0
169 190 0
173 195 0
172 195 0
166 187 0
170 191 0
169 192 0
174 196 0
172 194 0
173 196 0
173 195 0
176 197 0
173 197 0
172 196 0
174 196 0
172 196 0
173 196 0
171 194 0
173 196 0
173 196 0
173 196 0
174 197 0
173 195 0
173 197 0
176 198 0
174 197 0
174 197 0
172 196 0
174 197 0
174 197 0
175 198 0
174 197 0
174 196 0
176 198 0
174 198 0
173 196 0
173 196 0
175 198 0
174 197 0
175 198 0
175 198 0
174 198 0
175 198 0
175 198 0
175 198 0
176 198 0
173 196 0
175 198 0
175 198 0
174 198 0
174 198 0
173 196 0
173 197 0
174 197 0
175 198 0
175 198 0
173 197 0
174 197 0
174 197 0
174 197 0
175 198 0
174 197 0
173 197 0
173 197 0
175 198 0
174 198 0
173 197 0
174 197 0
174 197 0
174 198 0
173 197 0
173 197 0
173 197 0
174 197 0
174 197 0
175 198 0
174 197 0
176 199 0
174 198 0
173 197 0
174 198 0
174 198 0
174 197 0
175 198 0
174 198 0
176 199 0
174 197 0
174 198 0
174 197 0
174 198 0
175 198 0
172 196 0
175 198 0
175 198 0
174 197 0
174 198 0
174 198 0
173 197 0
174 198 0
174 197 0
174 198 0
175 198 0
173 197 0
175 198 0
173 197 0
173 197 0
175 198 0
175 198 0
175 198 0
174 198 0
174 198 0
173 197 0
174 198 0
176 198 0
174 197 0
175 198 0
174 198 0
175 198 0
174 198 0
175 198 0
174 198 0
174 198 0
175 198 0
174 198 0
175 198 0
174 198 0
177 199 0
176 199 0
174 197 0
175 198 0
175 198 0
175 198 0
176 199 0
174 197 0
173 197 0
174 198 0
174 198 0
174 198 0
174 197 0
175 198 0
174 198 0
175 198 0
174 197 0
174 198 0
174 198 0
174 197 0
175 198 0
174 198 0
174 198 0
175 198 0
174 198 0
175 198 0
175 198 0
175 198 0
174 197 0
175 198 0
173 197 0
175 198 0
174 198 0
175 198 0
175 198 0
174 198 0
175 198 0
174 198 0
176 199 0
174 198 0
174 198 0
173 197 0
174 198 0
174 197 0
175 198 0
174 197 0
175 198 0
173 197 0
174 198 0
176 198 0
175 198 0
173 197 0
174 198 0
173 197 0
175 198 0
174 198 0
175 198 0
175 198 0
174 198 0
175 198 0
175 198 0
174 198 0
176 198 0
175 198 0
175 198 0
176 198 0
175 198 0
174 198 0
173 197 0
174 198 0
175 198 0
174 198 0
175 198 0
175 198 0
174 198 0
174 197 0
173 197 0
175 198 0
174 198 0
175 198 0
174 198 0
175 198 0
175 198 0
175 198 0
175 198 0
176 198 0
174 198 0
174 197 0
174 198 0
175 198 0
174 197 0
175 198 0
174 198 0
175 198 0
173 197 0
174 198 0
175 198 0
175 198 0
174 197 0
175 198 0
173 197 0
173 197 0
174 198 0
173 197 0
175 198 0
174 198 0
173 197 0
176 199 0
176 199 0
174 197 0
175 198 0
174 197 0
173 197 0
174 198 0
175 198 0
174 197 0
171 196 0
174 198 0
175 198 0
173 197 0
175 198 0
174 198 0
174 197 0
175 198 0
175 198 0
175 198 0
174 198 0
172 197 0
175 198 0
173 197 0
176 199 0
175 198 0
174 198 0
176 199 0
171 196 0
172 197 0
175 198 0
175 198 0
173 197 0
175 198 0
174 198 0
173 197 0
175 198 0
175 198 0
173 197 0
177 199 0
175 198 0
174 197 0
173 197 0
170 194 0
173 197 0
173 197 0
175 198 0
172 196 0
172 195 0
175 198 0
174 197 0
176 198 0
174 197 0
172 196 0
172 196 0
175 198 0
173 196 0
174 198 0
173 197 0
173 197 0
175 198 0
172 195 0
172 195 0
175 198 0
174 197 0
172 196 0
174 197 0
172 196 0
173 196 0
171 195 0
172 195 0
173 197 0
171 195 0
174 197 0
171 195 0
172 196 0
173 197 0
169 193 0
172 196 0
172 196 36
175 197 76
181 203 88
212 228 227
217 233 252
209 227 241
203 220 206
181 204 105
175 199 76
169 194 84
171 194 80
170 194 67
173 198 57
175 199 62
171 194 51
171 195 72
171 194 51
174 199 88
169 193 62
172 194 67
172 196 76
144 169 102
89 118 140
93 122 153
86 115 143
103 130 161
82 112 166
79 111 176
85 115 180
61 97 161
61 97 160
68 101 144
61 95 134
60 95 154
60 96 149
61 97 154
61 97 157
60 96 152
61 96 150
62 97 148
61 97 154
62 97 155
62 97 155
60 95 141
60 95 149
61 96 150
60 96 142
61 97 152
60 96 141
60 95 139
59 93 131
60 95 140
60 94 133
69 97 123
114 124 0
118 130 0
117 126 0
123 132 0
115 124 0
103 106 0
107 112 0
117 120 0
121 123 0
126 130 0
123 126 0
138 142 0
128 132 0
135 139 0
152 162 0
148 155 0
153 162 0
153 163 0
149 160 0
161 175 0
162 176 0
161 175 0
161 178 0
164 182 0
169 188 0
167 186 0
164 181 0
169 189 0
167 185 0
171 192 0
169 191 0
171 190 0
171 193 0
171 192 0
171 193 0
171 194 0
172 194 0
169 191 0
169 190 0
172 194 0
172 196 0
172 194 0
170 193 0
174 196 0
174 196 0
174 196 0
173 196 0
173 196 0
175 197 0
173 197 0
171 195 0
173 197 0
173 197 0
173 195 0
174 196 0
174 197 0
173 196 0
172 196 0
174 197 0
171 194 0
173 197 0
176 198 0
172 195 0
175 198 0
174 197 0
173 197 0
174 198 0
175 198 0
171 195 0
174 197 0
174 197 0
174 197 0
175 198 0
173 196 0
173 197 0
174 196 0
174 197 0
173 197 0
173 196 0
172 196 0
173 196 0
175 198 0
172 196 0
174 197 0
174 197 0
174 198 0
174 198 0
174 197 0
174 197 0
175 198 0
175 198 0
175 197 0
173 197 0
176 198 0
176 198 0
176 198 0
174 197 0
175 198 0
174 198 0
176 199 0
174 197 0
174 198 0
173 197 0
174 198 0
177 199 0
174 197 0
173 197 0
175 198 0
176 198 0
175 198 0
175 198 0
175 198 0
173 197 0
173 197 0
174 198 0
174 198 0
175 198 0
173 197 0
172 197 0
174 198 0
175 198 0
174 198 0
174 198 0
174 198 0
175 198 0
173 197 0
174 198 0
175 198 0
174 197 0
174 198 0
174 198 0
174 197 0
174 197 0
175 198 0
175 198 0
174 197 0
173 197 0
174 198 0
174 197 0
174 198 0
175 198 0
174 198 0
174 198 0
174 197 0
175 198 0
175 198 0
174 198 0
174 198 0
174 198 0
176 199 0
174 198 0
174 198 0
175 198 0
174 197 0
175 198 0
174 198 0
175 198 0
176 199 0
174 198 0
176 198 0
176 198 0
174 198 0
175 198 0
173 197 0
173 197 0
175 198 0
172 197 0
174 198 0
174 198 0
175 198 0
173 197 0
173 197 0
176 198 0
174 197 0
176 198 0
174 197 0
175 198 0
173 197 0
174 198 0
175 198 0
176 198 0
174 197 0
175 198 0
174 197 0
174 198 0
175 198 0
175 198 0
174 197 0
175 198 0
174 198 0
173 197 0
176 198 0
174 198 0
174 198 0
174 197 0
175 198 0
174 198 0
175 198 0
176 199 0
173 197 0
174 198 0
176 199 0
176 199 0
174 197 0
174 198 0
175 198 0
175 198 0
174 198 0
175 198 0
175 198 0
174 197 0
174 198 0
175 198 0
174 197 0
175 198 0
174 198 0
176 199 0
174 198 0
175 198 0
175 198 0
173 197 0
174 198 0
174 198 0
175 198 0
175 198 0
173 197 0
176 199 0
174 198 0
173 197 0
174 198 0
174 197 0
173 197 0
174 198 0
176 198 0
175 198 0
174 198 0
175 198 0
173 197 0
172 197 0
172 197 0
174 197 0
173 197 0
174 197 0
175 198 0
174 198 0
175 198 0
175 198 0
173 197 0
175 198 0
175 198 0
175 198 0
175 198 0
174 197 0
174 197 0
175 198 0
175 198 0
173 197 0
175 198 0
172 196 0
174 197 0
174 197 0
175 198 0
173 197 0
174 198 0
176 199 0
173 197 0
173 197 0
176 199 0
174 197 0
174 198 0
173 197 0
175 198 0
173 196 0
173 197 0
174 198 0
173 197 0
176 199 0
175 198 0
173 197 0
174 198 0
173 196 0
173 197 0
173 197 0
175 198 0
174 197 0
174 198 0
175 198 0
173 197 0
176 198 0
174 197 0
172 196 0
175 198 0
174 198 0
175 198 0
172 196 0
175 198 0
175 198 0
173 196 0
173 197 0
174 198 0
176 198 0
176 199 0
174 198 0
174 197 0
172 196 0
174 198 0
174 197 0
175 198 0
173 197 0
175 198 0
174 197 0
171 195 0
173 196 0
173 197 0
173 196 0
173 197 0
172 195 0
172 196 0
173 197 0
175 198 0
174 197 0
171 194 0
174 197 0
175 198 0
174 198 0
175 198 0
173 197 0
172 196 0
173 196 0
174 198 0
173 197 0
173 197 0
174 197 0
173 197 0
171 195 0
171 195 0
173 197 0
172 196 0
174 197 0
174 197 0
172 196 0
171 194 0
172 196 0
170 194 0
170 193 0
171 195 0
179 200 84
180 202 88
210 226 218
214 231 242
210 228 241
192 212 159
175 199 92
175 199 84
174 197 57
174 198 84
174 197 76
172 195 57
173 197 88
170 195 80
170 194 72
172 196 80
172 196 80
172 196 80
164 188 62
167 191 57
169 192 80
164 187 72
93 122 141
76 106 134
92 120 143
105 132 164
89 118 155
87 116 167
82 113 179
76 107 165
61 97 159
59 95 149
63 98 146
59 94 142
60 95 149
59 94 145
60 96 145
60 96 147
61 97 151
61 96 150
61 96 137
61 96 144
60 95 139
61 95 143
61 96 149
60 95 137
60 95 141
60 95 133
61 96 142
60 95 136
59 93 126
60 94 137
59 93 130
102 119 78
124 134 0
117 127 0
131 141 0
116 123 0
123 132 0
119 124 0
130 134 0
129 134 0
132 139 0
128 132 0
129 137 0
128 134 0
140 146 0
152 160 0
143 151 0
149 160 0
153 165 0
157 171 0
157 171 0
161 175 0
160 176 0
161 178 0
157 175 0
164 182 0
166 185 0
171 189 0
166 185 0
165 184 0
167 187 0
169 190 0
169 191 0
171 192 0
167 189 0
171 193 0
169 189 0
172 195 0
168 189 0
170 191 0
172 194 0
171 193 0
170 192 0
173 194 0
171 193 0
171 193 0
173 196 0
174 196 0
173 196 0
172 195 0
171 193 0
171 194 0
175 196 0
175 197 0
174 197 0
173 196 0
174 196 0
173 195 0
174 197 0
173 197 0
173 197 0
172 195 0
172 195 0
172 196 0
174 198 0
175 197 0
175 197 0
175 197 0
172 195 0
175 198 0
172 196 0
173 197 0
174 198 0
173 196 0
175 198 0
174 197 0
174 198 0
171 195 0
173 197 0
175 198 0
174 197 0
175 198 0
173 197 0
174 198 0
175 198 0
174 197 0
173 197 0
173 196 0
174 197 0
175 198 0
175 198 0
174 197 0
174 197 0
177 199 0
175 198 0
175 198 0
173 197 0
174 197 0
173 197 0
173 197 0
175 198 0
174 197 0
175 198 0
176 199 0
174 197 0
173 197 0
174 197 0
172 196 0
175 198 0
173 197 0
175 198 0
174 198 0
175 198 0
175 198 0
175 198 0
174 198 0
173 197 0
172 197 0
174 198 0
177 199 0
173 197 0
174 198 0
175 198 0
176 198 0
174 198 0
174 198 0
174 197 0
174 198 0
174 197 0
174 198 0
173 197 0
176 199 0
175 198 0
175 198 0
175 198 0
175 198 0
175 198 0
175 198 0
176 199 0
175 198 0
175 198 0
175 198 0
173 197 0
173 197 0
174 197 0
176 199 0
174 198 0
174 198 0
174 198 0
174 198 0
174 197 0
174 197 0
173 197 0
175 198 0
174 198 0
175 198 0
175 198 0
172 196 0
173 197 0
173 197 0
174 197 0
176 199 0
175 198 0
173 197 0
175 198 0
174 198 0
175 198 0
174 198 0
174 197 0
174 197 0
176 198 0
175 198 0
175 198 0
174 197 0
176 198 0
175 198 0
174 197 0
174 198 0
175 198 0
175 198 0
174 197 0
176 198 0
174 198 0
174 197 0
174 198 0
173 197 0
175 198 0
175 198 0
175 198 0
176 199 0
176 199 0
175 198 0
175 198 0
174 198 0
176 198 0
175 198 0
174 198 0
174 197 0
174 198 0
175 198 0
175 198 0
174 198 0
175 198 0
176 198 0
175 198 0
173 197 0
175 198 0
175 198 0
172 197 0
175 198 0
174 197 0
174 198 0
173 197 0
174 198 0
174 197 0
174 198 0
176 199 0
174 198 0
173 197 0
173 197 0
175 198 0
175 198 0
176 199 0
176 199 0
175 198 0
175 198 0
174 198 0
174 198 0
174 198 0
173 197 0
174 197 0
175 198 0
175 198 0
175 198 0
174 198 0
175 198 0
171 196 0
175 198 0
174 198 0
173 197 0
175 198 0
175 198 0
175 198 0
174 198 0
174 198 0
174 198 0
175 198 0
174 198 0
173 197 0
174 197 0
174 197 0
175 198 0
174 198 0
174 197 0
174 198 0
173 197 0
173 197 0
172 196 0
175 198 0
173 197 0
175 198 0
174 198 0
173 197 0
175 198 0
173 197 0
176 199 0
175 198 0
175 198 0
175 198 0
175 198 0
176 199 0
174 198 0
173 197 0
173 197 0
174 198 0
176 198 0
175 198 0
173 197 0
175 198 0
174 198 0
176 199 0
174 198 0
173 197 0
175 198 0
174 198 0
174 198 0
173 197 0
173 197 0
173 197 0
175 198 0
173 197 0
173 197 0
173 197 0
173 197 0
173 197 0
174 197 0
174 197 0
174 198 0
173 196 0
175 198 0
174 198 0
175 198 0
174 197 0
173 196 0
172 196 0
172 196 0
172 196 0
173 196 0
174 197 0
175 198 0
174 197 0
173 197 0
172 196 0
173 197 0
174 198 0
171 195 0
174 197 0
174 198 0
174 198 0
173 196 0
172 196 0
173 197 0
174 198 0
175 198 0
172 195 0
172 196 0
172 196 0
173 197 0
174 198 0
171 194 0
173 196 0
172 196 0
171 195 0
175 197 0
174 198 0
173 197 0
172 195 0
172 196 0
171 195 0
172 196 0
173 196 0
172 195 0
170 195 0
171 195 0
174 197 0
169 194 0
170 194 0
173 196 36
180 202 67
192 212 153
219 234 252
214 231 249
190 210 155
175 199 76
174 198 67
172 195 67
174 197 62
173 197 84
176 199 80
169 193 84
171 196 72
171 195 80
172 197 84
172 197 88
172 196 72
168 192 51
166 191 80
166 190 84
166 189 67
165 188 84
149 172 103
78 108 125
102 129 154
94 121 141
83 112 136
100 126 138
87 116 151
75 107 173
73 103 155
59 95 145
62 95 134
59 93 136
59 94 138
60 95 147
59 94 137
60 95 143
61 96 147
60 95 141
60 95 139
60 95 136
61 97 144
61 96 147
60 95 131
61 96 143
61 96 144
61 96 144
59 93 114
60 94 134
60 95 129
60 94 125
83 109 102
116 128 0
116 128 0
119 132 0
127 140 0
128 138 0
129 141 0
134 143 0
128 136 0
123 132 0
138 148 0
122 131 0
141 150 0
134 144 0
145 157 0
148 159 0
146 155 0
149 164 0
155 169 0
155 166 0
155 167 0
151 162 0
163 180 0
154 170 0
163 180 0
166 185 0
165 183 0
162 177 0
162 181 0
166 188 0
166 184 0
169 190 0
167 187 0
168 189 0
169 189 0
168 188 0
170 192 0
170 190 0
170 192 0
171 191 0
169 192 0
170 193 0
172 195 0
172 193 0
171 193 0
168 191 0
171 195 0
171 194 0
173 196 0
171 193 0
174 196 0
173 195 0
174 197 0
171 194 0
174 197 0
172 195 0
173 197 0
173 197 0
173 196 0
174 197 0
172 195 0
172 195 0
173 196 0
173 196 0
175 198 0
175 198 0
175 198 0
174 197 0
175 198 0
173 197 0
171 196 0
176 198 0
175 198 0
173 197 0
174 197 0
173 196 0
174 198 0
173 197 0
173 197 0
174 197 0
173 196 0
172 196 0
174 197 0
175 198 0
173 197 0
174 197 0
172 197 0
173 197 0
174 197 0
173 197 0
174 198 0
174 198 0
175 197 0
173 196 0
174 198 0
174 197 0
175 198 0
174 198 0
175 198 0
175 198 0
174 198 0
174 197 0
174 197 0
174 198 0
175 198 0
172 196 0
175 198 0
174 198 0
175 198 0
172 196 0
175 198 0
175 198 0
176 199 0
175 198 0
175 198 0
174 198 0
174 198 0
174 198 0
174 197 0
174 198 0
174 198 0
174 197 0
174 198 0
174 198 0
173 197 0
175 198 0
174 198 0
174 198 0
174 198 0
175 198 0
173 197 0
173 197 0
175 198 0
173 197 0
174 198 0
174 197 0
174 197 0
174 198 0
174 198 0
175 198 0
174 198 0
174 197 0
174 198 0
173 197 0
176 199 0
176 198 0
176 199 0
173 197 0
175 198 0
175 198 0
173 197 0
174 197 0
174 197 0
174 198 0
174 197 0
175 198 0
174 198 0
173 197 0
174 198 0
173 197 0
175 198 0
174 198 0
174 198 0
174 198 0
175 198 0
174 198 0
174 198 0
175 198 0
174 198 0
176 199 0
174 198 0
174 198 0
175 198 0
175 198 0
176 198 0
176 199 0
175 198 0
174 198 0
174 197 0
176 199 0
176 198 0
176 199 0
173 197 0
175 198 0
174 197 0
175 198 0
175 198 0
173 197 0
176 198 0
175 198 0
174 198 0
175 198 0
174 198 0
175 198 0
176 198 0
174 197 0
174 197 0
175 198 0
177 199 0
173 197 0
175 198 0
175 198 0
174 197 0
176 198 0
173 197 0
173 197 0
176 199 0
173 197 0
174 198 0
174 198 0
175 198 0
175 198 0
173 197 0
173 197 0
175 198 0
174 198 0
174 198 0
175 198 0
173 197 0
175 198 0
173 197 0
176 199 0
173 197 0
175 198 0
173 197 0
175 198 0
175 198 0
174 198 0
176 198 0
172 197 0
174 198 0
175 198 0
176 198 0
174 197 0
174 197 0
174 197 0
175 198 0
177 199 0
174 197 0
174 197 0
176 198 0
174 198 0
173 197 0
174 198 0
175 198 0
175 198 0
175 198 0
174 198 0
174 198 0
173 197 0
174 197 0
175 198 0
174 198 0
174 198 0
174 198 0
175 198 0
175 198 0
174 197 0
175 198 0
174 197 0
175 198 0
174 198 0
176 199 0
175 198 0
176 198 0
176 199 0
175 198 0
175 198 0
175 198 0
174 197 0
174 198 0
174 197 0
175 198 0
174 198 0
175 198 0
174 197 0
175 198 0
176 198 0
173 197 0
175 198 0
174 198 0
175 198 0
175 198 0
174 197 0
174 198 0
173 197 0
173 197 0
175 198 0
173 197 0
173 197 0
175 198 0
174 197 0
174 198 0
174 198 0
174 197 0
173 197 0
173 197 0
174 198 0
174 198 0
173 197 0
174 198 0
174 198 0
173 196 0
174 197 0
174 198 0
174 198 0
175 198 0
175 198 0
172 196 0
173 196 0
173 197 0
173 196 0
175 198 0
173 197 0
174 198 0
175 198 0
174 198 0
174 198 0
174 197 0
174 198 0
173 197 0
174 198 0
173 197 0
174 198 0
175 198 0
175 198 0
171 195 0
172 195 0
174 197 0
174 197 0
172 196 0
172 195 0
173 197 0
173 196 0
171 194 0
170 194 0
172 195 0
174 198 0
175 198 0
175 198 0
175 198 0
172 196 0
172 195 0
174 197 0
169 193 0
172 195 0
172 196 0
182 202 102
179 202 92
216 231 234
212 229 241
187 208 137
173 195 62
173 197 72
174 197 57
174 197 80
170 194 80
175 198 72
169 193 57
168 193 72
172 197 67
169 194 80
165 189 80
171 196 108
165 190 92
167 191 72
165 190 76
165 190 57
169 192 95
160 184 67
159 183 92
117 141 130
90 118 142
90 117 144
102 127 153
91 118 137
95 122 144
91 119 166
72 103 157
65 99 159
60 94 140
63 96 137
60 94 128
58 92 123
60 94 134
59 94 136
59 93 130
58 92 131
60 95 136
60 96 148
59 94 131
60 95 136
61 95 139
59 93 131
60 95 135
60 95 130
60 95 133
58 92 128
60 94 125
61 92 110
120 135 36
123 138 0
112 124 0
130 143 0
125 138 0
126 140 0
131 144 0
123 137 0
136 147 0
144 159 0
139 151 0
141 151 0
138 150 0
131 143 0
147 158 0
152 164 0
148 159 0
150 166 0
145 159 0
159 174 0
150 166 0
162 178 0
161 177 0
161 178 0
161 177 0
165 183 0
167 187 0
166 187 0
166 185 0
167 187 0
168 189 0
171 190 0
170 191 0
164 184 0
170 191 0
166 188 0
167 188 0
170 192 0
172 195 0
168 191 0
171 193 0
170 193 0
172 194 0
175 196 0
168 190 0
171 193 0
169 191 0
170 194 0
173 196 0
170 192 0
172 195 0
172 195 0
173 195 0
173 196 0
171 195 0
174 197 0
174 195 0
173 197 0
173 196 0
172 194 0
173 196 0
175 198 0
174 196 0
174 197 0
175 198 0
175 198 0
172 195 0
174 197 0
175 198 0
174 197 0
174 197 0
171 196 0
174 197 0
173 196 0
176 198 0
174 197 0
172 196 0
173 197 0
172 197 0
173 197 0
174 197 0
175 198 0
174 198 0
174 197 0
175 198 0
172 196 0
172 196 0
174 197 0
174 197 0
174 197 0
173 197 0
173 197 0
175 198 0
175 197 0
173 197 0
175 198 0
174 198 0
175 198 0
175 198 0
175 198 0
175 198 0
175 198 0
174 197 0
174 197 0
175 198 0
174 197 0
174 198 0
174 197 0
173 197 0
173 197 0
174 197 0
174 197 0
173 197 0
175 198 0
176 199 0
175 198 0
175 198 0
173 197 0
173 197 0
175 198 0
174 198 0
175 198 0
175 198 0
173 197 0
174 197 0
176 199 0
173 197 0
176 199 0
174 197 0
176 198 0
173 197 0
175 198 0
175 198 0
174 198 0
174 197 0
174 198 0
175 198 0
173 197 0
174 198 0
175 198 0
174 198 0
173 197 0
173 197 0
174 197 0
173 197 0
173 197 0
175 198 0
174 198 0
174 197 0
174 197 0
175 198 0
175 198 0
173 197 0
175 198 0
173 197 0
174 198 0
175 198 0
176 199 0
175 198 0
173 197 0
175 198 0
175 198 0
174 198 0
173 197 0
175 198 0
176 199 0
176 199 0
176 199 0
177 199 0
175 198 0
174 198 0
174 198 0
175 198 0
175 198 0
173 197 0
174 198 0
173 197 0
175 198 0
175 198 0
175 198 0
175 198 0
174 198 0
175 198 0
174 198 0
175 198 0
175 198 0
175 198 0
174 198 0
175 198 0
175 198 0
175 198 0
174 198 0
174 198 0
175 198 0
175 198 0
173 197 0
175 198 0
175 198 0
175 198 0
174 198 0
175 198 0
174 198 0
173 197 0
174 198 0
175 198 0
174 197 0
174 198 0
174 198 0
175 198 0
174 197 0
175 198 0
174 198 0
175 198 0
174 198 0
175 198 0
176 199 0
173 197 0
174 198 0
173 197 0
175 198 0
174 198 0
175 198 0
174 197 0
176 198 0
173 197 0
176 199 0
174 198 0
174 197 0
174 198 0
173 197 0
175 198 0
175 198 0
172 197 0
174 198 0
174 198 0
173 197 0
175 198 0
175 198 0
173 197 0
175 198 0
173 197 0
175 198 0
174 198 0
174 198 0
175 198 0
172 197 0
175 198 0
175 198 0
175 198 0
174 198 0
173 197 0
175 198 0
175 198 0
175 198 0
174 198 0
175 198 0
172 196 0
175 198 0
174 197 0
173 197 0
173 197 0
175 198 0
175 198 0
175 198 0
174 198 0
176 199 0
176 198 0
174 197 0
174 197 0
173 197 0
174 198 0
173 197 0
173 197 0
175 198 0
174 197 0
174 197 0
174 198 0
175 198 0
173 197 0
173 197 0
173 197 0
173 196 0
174 198 0
173 197 0
173 197 0
172 195 0
176 198 0
173 197 0
173 197 0
174 197 0
176 198 0
174 198 0
174 197 0
175 198 0
174 198 0
173 197 0
174 197 0
174 197 0
174 197 0
172 196 0
174 198 0
173 197 0
174 198 0
171 195 0
175 198 0
174 197 0
174 198 0
172 196 0
175 198 0
172 195 0
174 198 0
175 198 0
175 198 0
172 196 0
173 197 0
171 195 0
173 197 0
173 197 0
173 197 0
173 197 0
175 198 0
172 196 0
174 198 0
173 197 0
174 197 0
172 196 0
173 197 0
171 196 0
170 193 0
173 197 0
172 196 0
174 197 0
174 197 0
171 194 0
173 197 0
172 196 0
174 197 0
171 195 0
173 197 0
169 193 0
173 196 0
171 195 0
172 196 0
171 194 0
173 197 0
169 192 0
172 196 44
185 206 111
202 219 186
219 234 249
201 219 196
176 199 72
174 197 62
175 198 99
174 198 62
174 198 76
173 196 76
170 194 76
171 196 76
171 195 62
168 192 72
170 194 67
169 194 72
167 192 67
170 194 57
169 193 72
160 183 72
167 191 99
167 190 72
155 178 67
155 178 62
155 178 90
93 119 90
85 114 137
88 115 134
103 129 151
107 132 137
95 122 146
70 103 153
76 103 145
59 94 140
62 96 134
61 95 133
58 92 134
58 92 122
59 94 129
58 92 121
59 94 130
60 94 129
59 94 125
57 91 107
60 94 130
60 95 135
59 93 128
59 92 118
56 90 114
59 93 115
59 92 129
58 90 105
107 124 60
112 125 0
115 128 0
125 140 0
130 145 0
131 147 0
128 142 0
126 142 0
134 150 0
138 152 0
132 144 0
145 158 0
144 156 0
153 169 0
152 166 0
144 158 0
146 162 0
154 170 0
150 166 0
155 172 0
158 176 0
157 173 0
159 175 0
158 175 0
165 184 0
163 182 0
166 184 0
162 180 0
166 188 0
164 184 0
164 183 0
169 191 0
166 184 0
166 187 0
169 191 0
169 191 0
167 189 0
164 186 0
169 189 0
172 194 0
169 189 0
171 193 0
170 193 0
171 193 0
172 195 0
172 195 0
172 195 0
172 194 0
173 196 0
171 194 0
172 194 0
172 195 0
173 196 0
173 196 0
174 195 0
172 196 0
174 197 0
173 196 0
173 196 0
171 195 0
173 197 0
174 196 0
171 195 0
174 197 0
173 196 0
173 197 0
174 196 0
175 198 0
172 196 0
175 198 0
173 197 0
175 198 0
173 196 0
173 196 0
173 197 0
174 198 0
173 196 0
174 197 0
174 197 0
174 198 0
174 197 0
173 196 0
174 198 0
173 197 0
175 197 0
177 199 0
173 196 0
175 198 0
176 199 0
174 197 0
174 197 0
176 199 0
175 197 0
174 198 0
174 198 0
175 198 0
174 198 0
173 197 0
175 198 0
174 198 0
173 197 0
174 198 0
174 198 0
174 198 0
172 196 0
175 198 0
173 197 0
173 196 0
174 197 0
175 198 0
176 199 0
175 198 0
174 197 0
174 198 0
175 198 0
174 197 0
174 197 0
174 197 0
173 197 0
175 198 0
175 198 0
174 197 0
174 197 0
175 198 0
174 198 0
173 197 0
173 197 0
174 198 0
173 197 0
175 198 0
174 198 0
174 197 0
175 198 0
173 197 0
175 198 0
174 197 0
175 198 0
174 197 0
174 198 0
174 198 0
175 198 0
174 198 0
172 197 0
175 198 0
175 198 0
175 198 0
175 198 0
174 198 0
173 197 0
175 198 0
175 198 0
175 198 0
173 197 0
175 198 0
174 198 0
174 197 0
174 198 0
174 198 0
174 197 0
174 197 0
174 197 0
174 198 0
174 198 0
173 197 0
174 197 0
174 198 0
174 198 0
172 196 0
176 198 0
174 198 0
174 197 0
174 197 0
173 197 0
176 199 0
174 197 0
175 198 0
174 198 0
175 198 0
174 198 0
174 198 0
175 198 0
174 197 0
175 198 0
175 198 0
174 198 0
174 197 0
172 197 0
173 197 0
175 198 0
175 198 0
174 198 0
174 198 0
174 198 0
175 198 0
173 197 0
174 198 0
176 198 0
174 198 0
174 197 0
175 198 0
174 197 0
174 198 0
175 198 0
174 197 0
175 198 0
174 197 0
174 198 0
174 198 0
176 198 0
174 197 0
174 198 0
175 198 0
175 198 0
174 198 0
175 198 0
174 198 0
174 198 0
175 198 0
173 197 0
175 198 0
175 198 0
175 198 0
174 198 0
175 198 0
174 198 0
174 198 0
173 197 0
173 197 0
174 198 0
173 197 0
173 197 0
174 198 0
174 198 0
175 198 0
176 199 0
173 197 0
173 196 0
174 198 0
175 198 0
174 198 0
175 198 0
174 197 0
175 198 0
175 198 0
174 197 0
174 198 0
174 198 0
173 197 0
175 198 0
175 198 0
173 197 0
173 197 0
175 198 0
175 198 0
174 197 0
173 197 0
176 199 0
175 198 0
172 196 0
173 197 0
175 198 0
177 199 0
174 198 0
173 197 0
176 199 0
174 198 0
174 198 0
174 197 0
175 198 0
173 197 0
174 197 0
175 198 0
173 197 0
175 198 0
174 198 0
174 197 0
174 197 0
174 197 0
174 198 0
174 198 0
174 197 0
174 197 0
174 197 0
175 198 0
174 197 0
175 198 0
174 197 0
175 198 0
174 198 0
174 197 0
174 198 0
175 198 0
173 197 0
174 198 0
174 198 0
173 197 0
173 197 0
173 196 0
174 197 0
173 197 0
174 197 0
176 199 0
174 198 0
175 198 0
172 196 0
175 198 0
175 198 0
174 198 0
174 198 0
172 195 0
174 197 0
174 197 0
173 196 0
174 198 0
173 197 0
174 197 0
174 197 0
173 197 0
173 197 0
174 198 0
171 196 0
173 197 0
173 196 0
174 197 0
171 195 0
172 196 0
172 195 0
173 197 0
172 195 0
173 196 0
175 198 0
174 198 0
172 195 0
170 194 0
171 195 0
173 196 0
171 195 0
169 193 0
172 196 0
172 195 0
170 194 0
172 196 0
172 194 0
169 193 0
167 190 0
170 194 0
171 194 0
181 202 102
177 200 76
212 228 221
209 225 220
178 200 88
174 197 80
173 196 84
174 199 76
173 197 84
168 193 57
170 193 62
170 194 72
171 195 84
169 193 51
167 191 84
171 195 80
163 187 88
164 188 57
165 189 67
165 189 92
164 188 67
163 187 99
159 182 57
162 186 76
153 176 76
152 174 76
131 154 95
94 121 135
94 121 129
81 109 126
108 132 155
93 118 131
87 115 149
77 106 150
76 103 145
58 92 118
61 95 125
60 94 129
60 94 125
59 93 133
60 94 129
57 91 128
59 93 126
57 91 108
59 93 120
60 94 121
58 93 124
59 94 122
58 92 118
57 90 117
56 89 100
62 92 110
94 111 40
100 114 0
116 131 0
119 135 0
127 142 0
131 145 0
129 146 0
142 159 0
141 158 0
132 150 0
138 154 0
145 158 0
131 145 0
148 164 0
151 167 0
152 169 0
154 172 0
148 164 0
153 169 0
151 166 0
155 173 0
162 180 0
156 174 0
158 175 0
162 182 0
163 182 0
164 183 0
160 179 0
164 183 0
166 186 0
169 190 0
167 188 0
168 189 0
169 190 0
168 188 0
170 192 0
168 190 0
169 191 0
171 193 0
167 188 0
171 193 0
171 193 0
174 195 0
172 194 0
174 195 0
171 193 0
173 196 0
171 195 0
171 194 0
172 194 0
173 196 0
174 197 0
173 195 0
174 196 0
173 195 0
173 195 0
174 197 0
171 194 0
172 195 0
174 198 0
173 196 0
174 197 0
174 197 0
170 193 0
175 197 0
170 194 0
172 195 0
174 197 0
174 197 0
174 197 0
174 197 0
170 195 0
172 196 0
173 197 0
173 197 0
175 198 0
173 196 0
174 197 0
175 198 0
175 197 0
173 197 0
175 198 0
174 197 0
174 197 0
173 196 0
175 198 0
174 198 0
176 198 0
173 197 0
173 197 0
175 198 0
173 196 0
173 197 0
174 198 0
175 197 0
172 197 0
176 198 0
175 198 0
174 198 0
173 197 0
174 198 0
175 198 0
175 198 0
174 198 0
174 197 0
173 197 0
175 198 0
175 198 0
174 198 0
174 197 0
174 197 0
174 197 0
175 198 0
173 197 0
174 198 0
174 197 0
174 197 0
173 197 0
175 198 0
174 198 0
175 198 0
173 197 0
174 198 0
175 198 0
174 197 0
173 197 0
174 198 0
171 195 0
175 198 0
175 198 0
175 198 0
174 197 0
174 197 0
173 197 0
175 198 0
175 198 0
174 197 0
175 198 0
173 197 0
174 197 0
175 198 0
174 197 0
175 198 0
174 198 0
174 198 0
175 198 0
174 197 0
174 198 0
174 198 0
173 197 0
174 197 0
175 198 0
173 197 0
174 198 0
175 198 0
172 196 0
174 198 0
174 198 0
173 197 0
175 198 0
174 198 0
174 198 0
175 198 0
174 198 0
175 198 0
175 198 0
175 198 0
175 198 0
174 198 0
175 198 0
175 198 0
172 197 0
174 198 0
174 198 0
174 198 0
175 198 0
174 197 0
174 198 0
172 197 0
174 197 0
174 197 0
174 198 0
173 197 0
173 197 0
174 197 0
174 198 0
176 198 0
173 197 0
174 198 0
174 198 0
177 199 0
175 198 0
175 198 0
174 198 0
175 198 0
174 198 0
174 197 0
175 198 0
175 198 0
176 199 0
173 197 0
174 198 0
173 197 0
174 198 0
174 198 0
175 198 0
173 197 0
176 198 0
177 199 0
174 198 0
176 199 0
174 197 0
176 198 0
174 198 0
175 198 0
173 197 0
173 197 0
174 198 0
176 198 0
174 198 0
175 198 0
175 198 0
174 197 0
175 198 0
173 197 0
176 199 0
174 197 0
174 198 0
175 198 0
175 198 0
175 198 0
175 198 0
175 198 0
175 198 0
173 197 0
174 198 0
176 199 0
175 198 0
174 197 0
175 198 0
174 197 0
173 197 0
174 197 0
172 196 0
174 198 0
173 197 0
174 198 0
175 198 0
174 198 0
174 198 0
176 199 0
175 198 0
174 198 0
172 196 0
174 197 0
176 199 0
174 197 0
176 199 0
174 197 0
174 198 0
173 197 0
173 197 0
173 197 0
173 197 0
175 198 0
177 199 0
172 197 0
173 197 0
175 198 0
175 198 0
174 198 0
174 198 0
175 198 0
175 198 0
176 199 0
173 197 0
177 199 0
173 197 0
173 197 0
174 198 0
175 198 0
173 197 0
174 198 0
174 198 0
174 197 0
173 196 0
173 197 0
174 197 0
173 197 0
174 197 0
175 198 0
174 197 0
175 198 0
175 198 0
176 199 0
174 197 0
176 198 0
174 198 0
175 198 0
175 198 0
173 197 0
172 196 0
174 197 0
173 197 0
174 198 0
172 196 0
175 198 0
176 198 0
174 197 0
173 196 0
176 198 0
174 198 0
172 196 0
172 196 0
172 196 0
173 197 0
174 198 0
173 197 0
175 198 0
172 196 0
173 196 0
174 197 0
172 196 0
172 196 0
173 197 0
172 195 0
173 196 0
174 197 0
172 196 0
174 198 0
173 197 0
172 195 0
172 196 0
174 198 0
172 196 0
172 196 0
172 197 0
173 197 0
172 195 0
174 197 0
173 196 0
172 195 0
171 194 0
168 191 0
172 196 0
172 196 0
173 197 0
168 192 0
179 201 80
184 205 108
221 235 249
186 207 133
175 198 67
174 197 57
174 197 62
173 196 67
173 198 72
173 197 88
169 192 67
171 196 92
167 192 72
166 190 67
168 193 80
166 190 72
170 193 62
168 191 72
171 196 105
166 191 120
163 187 95
155 178 88
167 190 114
162 185 84
155 177 76
151 172 80
148 169 62
122 144 86
95 120 125
98 124 124
92 118 131
97 122 126
99 124 132
77 106 142
70 100 132
71 99 128
61 95 129
67 97 105
56 89 111
57 91 117
57 91 114
57 90 117
58 92 121
59 92 118
58 92 121
57 90 121
57 91 113
58 92 124
56 89 102
57 90 117
55 86 92
86 102 51
127 142 0
118 133 0
116 132 0
127 143 0
129 146 0
129 146 0
137 156 0
133 151 0
139 157 0
145 162 0
138 154 0
141 154 0
149 164 0
151 168 0
145 161 0
154 171 0
152 170 0
155 172 0
152 171 0
157 174 0
157 174 0
159 176 0
159 177 0
160 178 0
161 182 0
163 181 0
163 184 0
166 187 0
168 187 0
161 182 0
165 185 0
172 193 0
169 189 0
166 188 0
170 191 0
169 189 0
168 189 0
171 193 0
170 192 0
169 190 0
171 192 0
168 190 0
167 190 0
173 195 0
173 195 0
171 193 0
170 193 0
172 194 0
173 195 0
173 195 0
173 196 0
170 194 0
172 195 0
172 195 0
173 196 0
171 193 0
172 194 0
172 195 0
173 196 0
173 196 0
175 198 0
170 193 0
175 198 0
173 196 0
174 197 0
172 196 0
175 198 0
174 197 0
173 197 0
174 198 0
174 197 0
173 196 0
173 196 0
175 198 0
174 197 0
173 196 0
173 197 0
175 198 0
174 197 0
173 197 0
173 197 0
174 198 0
174 197 0
176 199 0
174 197 0
175 198 0
176 198 0
173 197 0
174 197 0
174 197 0
176 198 0
175 198 0
174 198 0
173 196 0
173 196 0
175 198 0
172 197 0
176 198 0
173 197 0
174 198 0
173 197 0
175 198 0
173 197 0
172 197 0
174 197 0
175 198 0
175 198 0
173 197 0
174 198 0
175 198 0
174 198 0
174 197 0
174 198 0
175 198 0
173 197 0
174 197 0
174 198 0
175 198 0
174 198 0
174 198 0
173 197 0
175 198 0
174 197 0
174 198 0
175 198 0
174 197 0
174 197 0
173 196 0
175 198 0
174 197 0
174 197 0
174 198 0
174 198 0
172 197 0
174 197 0
174 198 0
175 198 0
175 198 0
175 198 0
173 197 0
175 198 0
173 197 0
175 198 0
175 198 0
174 197 0
174 198 0
174 198 0
174 198 0
175 198 0
177 199 0
174 198 0
175 198 0
173 197 0
173 197 0
174 197 0
175 198 0
175 198 0
174 198 0
174 197 0
174 198 0
174 198 0
174 198 0
175 198 0
173 197 0
174 198 0
173 197 0
173 197 0
174 198 0
174 198 0
175 198 0
175 198 0
174 198 0
175 198 0
175 198 0
175 198 0
174 198 0
173 197 0
174 198 0
174 197 0
175 198 0
174 197 0
176 199 0
174 198 0
174 197 0
174 198 0
175 198 0
176 199 0
175 198 0
173 197 0
175 198 0
174 198 0
175 198 0
176 199 0
174 198 0
174 198 0
175 198 0
175 198 0
175 198 0
174 198 0
174 198 0
175 198 0
176 199 0
174 198 0
173 197 0
175 198 0
173 197 0
173 197 0
174 198 0
173 197 0
174 198 0
174 198 0
175 198 0
174 198 0
175 198 0
176 199 0
174 198 0
175 198 0
173 197 0
173 197 0
175 198 0
175 198 0
174 197 0
175 198 0
172 197 0
174 198 0
176 199 0
173 197 0
175 198 0
174 198 0
175 198 0
174 197 0
174 198 0
176 199 0
173 197 0
175 198 0
175 198 0
174 198 0
177 199 0
174 198 0
174 197 0
175 198 0
174 198 0
175 198 0
176 198 0
173 197 0
175 198 0
174 198 0
175 198 0
175 198 0
174 198 0
173 197 0
175 198 0
174 198 0
173 197 0
175 198 0
174 198 0
176 199 0
174 198 0
175 198 0
174 198 0
175 198 0
174 198 0
175 198 0
175 198 0
175 198 0
174 197 0
173 197 0
174 197 0
174 198 0
174 197 0
173 197 0
174 197 0
174 198 0
175 198 0
174 198 0
174 198 0
174 198 0
174 197 0
174 197 0
175 198 0
175 198 0
175 198 0
173 197 0
174 197 0
175 198 0
175 198 0
173 197 0
176 198 0
175 198 0
174 197 0
174 197 0
175 198 0
173 197 0
175 198 0
174 197 0
174 198 0
174 198 0
176 198 0
172 196 0
174 198 0
173 196 0
174 197 0
173 196 0
175 198 0
174 198 0
174 198 0
174 197 0
174 197 0
175 198 0
173 197 0
171 195 0
173 197 0
172 197 0
173 197 0
174 197 0
173 197 0
172 196 0
174 198 0
174 197 0
174 197 0
174 197 0
171 195 0
174 197 0
174 197 0
174 197 0
171 194 0
172 196 0
173 197 0
174 198 0
170 194 0
175 198 0
172 196 0
172 196 0
174 197 0
174 198 0
171 194 0
170 193 0
172 196 0
170 194 0
172 196 0
172 196 0
171 194 0
172 195 0
171 195 0
174 197 0
174 197 0
173 197 0
173 197 0
178 201 88
191 211 140
214 230 231
174 198 62
173 196 72
175 199 72
167 191 62
171 195 76
171 195 62
176 199 67
168 192 80
163 186 62
165 189 67
171 196 67
165 190 84
168 191 99
169 193 108
168 192 92
174 197 105
165 188 99
159 183 92
159 181 88
160 182 88
155 177 88
160 182 84
153 173 92
149 171 84
143 163 84
122 144 102
84 109 120
93 120 133
102 126 133
101 124 119
105 120 120
75 106 134
76 102 117
63 93 100
71 99 103
56 89 102
56 89 107
56 88 105
57 91 113
56 90 99
56 89 101
56 88 115
58 92 121
57 90 113
56 88 90
60 92 102
77 98 65
96 111 25
111 127 0
113 131 0
116 133 0
119 136 0
123 138 0
137 154 0
133 151 0
137 153 0
136 154 0
142 161 0
148 164 0
133 150 0
152 173 0
140 157 0
152 170 0
151 171 0
151 168 0
158 177 0
152 171 0
159 177 0
160 178 0
156 176 0
166 186 0
156 176 0
167 188 0
168 186 0
160 182 0
162 182 0
159 179 0
164 184 0
164 185 0
167 188 0
166 186 0
166 188 0
166 187 0
166 183 0
168 190 0
172 194 0
173 194 0
169 189 0
171 193 0
171 194 0
170 194 0
171 194 0
171 193 0
169 193 0
172 195 0
172 195 0
170 193 0
171 194 0
171 193 0
172 195 0
172 195 0
173 197 0
172 195 0
174 197 0
173 196 0
171 194 0
173 195 0
173 196 0
173 196 0
173 196 0
172 196 0
173 196 0
174 196 0
174 196 0
175 198 0
173 195 0
174 198 0
172 196 0
171 196 0
174 198 0
176 198 0
173 197 0
173 196 0
174 197 0
174 196 0
175 198 0
174 197 0
172 196 0
172 196 0
175 198 0
174 197 0
173 197 0
174 197 0
175 198 0
175 198 0
174 197 0
173 196 0
174 197 0
174 198 0
174 198 0
175 198 0
174 198 0
175 198 0
173 197 0
172 196 0
174 198 0
175 198 0
173 197 0
175 198 0
174 197 0
173 197 0
175 198 0
174 198 0
173 197 0
173 197 0
174 197 0
174 197 0
172 196 0
174 197 0
174 197 0
174 197 0
173 197 0
174 198 0
174 197 0
176 198 0
176 199 0
176 199 0
175 198 0
176 199 0
176 198 0
173 197 0
174 197 0
173 197 0
174 198 0
172 197 0
174 198 0
175 198 0
173 197 0
174 197 0
176 199 0
175 198 0
175 198 0
175 198 0
174 197 0
174 198 0
174 197 0
173 197 0
175 198 0
174 198 0
176 199 0
175 198 0
174 197 0
172 197 0
172 196 0
173 197 0
173 197 0
175 198 0
176 199 0
175 198 0
174 197 0
173 197 0
173 197 0
176 199 0
175 198 0
175 198 0
174 197 0
176 199 0
174 197 0
176 199 0
176 199 0
175 198 0
175 198 0
173 197 0
175 198 0
175 198 0
174 198 0
175 198 0
174 198 0
176 199 0
175 198 0
177 199 0
173 197 0
175 198 0
173 197 0
173 197 0
174 198 0
174 197 0
174 197 0
173 197 0
175 198 0
174 198 0
176 198 0
176 199 0
174 198 0
172 197 0
174 198 0
174 198 0
175 198 0
174 198 0
174 197 0
175 198 0
175 198 0
174 197 0
175 198 0
175 198 0
175 198 0
174 197 0
175 198 0
176 199 0
174 198 0
174 198 0
174 198 0
174 198 0
173 197 0
175 198 0
175 198 0
175 198 0
175 198 0
174 198 0
173 197 0
174 198 0
173 197 0
174 197 0
174 198 0
173 197 0
175 198 0
177 199 0
174 197 0
175 198 0
173 197 0
175 198 0
174 198 0
175 198 0
176 199 0
174 198 0
173 197 0
174 198 0
173 197 0
174 197 0
174 197 0
174 198 0
173 197 0
175 198 0
175 198 0
174 198 0
174 198 0
174 198 0
176 199 0
175 198 0
174 198 0
175 198 0
174 197 0
175 198 0
174 197 0
174 197 0
174 198 0
175 198 0
174 197 0
175 198 0
175 198 0
175 198 0
173 197 0
174 197 0
174 197 0
173 197 0
175 198 0
173 196 0
174 197 0
175 198 0
175 198 0
176 198 0
175 198 0
174 198 0
174 198 0
174 198 0
175 198 0
174 198 0
174 197 0
174 198 0
174 198 0
174 198 0
174 198 0
175 198 0
174 197 0
174 197 0
175 198 0
175 198 0
175 198 0
174 198 0
175 198 0
174 197 0
174 197 0
174 197 0
173 196 0
173 197 0
173 197 0
175 198 0
176 199 0
174 198 0
175 198 0
174 198 0
173 197 0
175 198 0
174 197 0
174 198 0
172 197 0
174 197 0
175 198 0
172 196 0
173 197 0
174 197 0
172 196 0
173 197 0
175 198 0
175 198 0
173 196 0
174 197 0
174 197 0
172 196 0
173 197 0
173 197 0
175 197 0
174 198 0
174 198 0
174 197 0
175 198 0
174 197 0
173 197 0
174 198 0
173 197 0
173 196 0
174 197 0
173 196 0
173 197 0
175 198 0
175 198 0
170 194 0
173 196 0
174 197 0
173 196 0
173 197 0
172 195 0
173 197 0
171 195 0
171 196 0
173 197 0
173 195 0
173 196 0
173 196 0
172 195 0
173 196 0
173 197 0
167 191 0
172 195 0
171 195 0
170 193 0
177 199 44
175 199 36
198 217 175
194 212 167
176 199 62
173 196 57
178 201 84
170 194 72
168 192 62
175 199 57
170 194 57
170 193 84
170 194 92
171 195 72
173 195 102
170 194 105
167 191 95
169 192 95
167 191 122
166 189 92
164 187 105
158 181 88
162 185 100
158 180 95
151 174 92
163 186 105
156 178 92
142 163 95
138 158 108
138 157 76
111 132 84
92 117 122
102 126 128
94 119 108
128 146 113
109 128 100
71 102 118
72 99 95
74 101 76
55 87 107
57 90 108
53 86 92
56 88 97
55 87 105
55 87 111
55 88 94
55 88 99
60 90 95
77 100 72
89 107 44
117 134 0
108 125 0
112 129 0
124 141 0
123 140 0
130 148 0
131 148 0
140 158 0
133 153 0
141 159 0
146 165 0
144 161 0
149 166 0
149 169 0
149 168 0
149 169 0
152 170 0
156 176 0
153 171 0
155 174 0
157 176 0
159 178 0
157 176 0
154 175 0
162 184 0
162 180 0
162 182 0
159 180 0
163 182 0
165 188 0
163 181 0
170 192 0
166 188 0
169 191 0
167 190 0
166 185 0
168 189 0
164 187 0
172 193 0
170 192 0
170 191 0
172 194 0
170 192 0
168 190 0
167 191 0
171 192 0
170 193 0
169 192 0
167 190 0
172 194 0
173 196 0
172 195 0
173 196 0
172 195 0
172 196 0
173 196 0
169 191 0
172 195 0
173 195 0
172 195 0
173 197 0
170 193 0
172 195 0
172 195 0
170 193 0
173 195 0
174 196 0
172 196 0
173 196 0
171 195 0
172 196 0
173 197 0
172 195 0
174 197 0
174 197 0
172 196 0
174 197 0
175 198 0
172 196 0
174 197 0
174 197 0
173 196 0
174 198 0
171 194 0
174 198 0
174 198 0
172 196 0
174 197 0
173 197 0
175 198 0
175 198 0
174 197 0
175 198 0
174 197 0
174 197 0
174 197 0
173 197 0
174 197 0
176 198 0
174 198 0
175 198 0
176 199 0
176 199 0
174 198 0
174 198 0
174 198 0
173 197 0
173 197 0
174 197 0
174 197 0
174 197 0
174 197 0
174 198 0
174 197 0
175 198 0
175 198 0
173 197 0
174 197 0
173 196 0
175 198 0
175 198 0
175 198 0
173 197 0
174 197 0
173 197 0
175 198 0
174 198 0
176 198 0
175 198 0
174 198 0
175 198 0
174 197 0
174 198 0
175 198 0
173 197 0
174 197 0
174 197 0
174 197 0
174 198 0
173 197 0
175 198 0
173 197 0
174 198 0
174 197 0
175 198 0
176 199 0
175 198 0
174 198 0
173 197 0
175 198 0
174 198 0
175 198 0
174 197 0
174 198 0
174 198 0
175 198 0
173 197 0
175 198 0
174 197 0
174 197 0
175 198 0
175 198 0
174 198 0
174 198 0
175 198 0
173 197 0
174 198 0
174 197 0
174 198 0
176 199 0
175 198 0
175 198 0
175 198 0
173 197 0
175 198 0
174 197 0
176 198 0
174 198 0
175 198 0
176 199 0
176 198 0
174 198 0
175 198 0
176 198 0
176 199 0
175 198 0
173 197 0
174 198 0
174 198 0
173 197 0
174 197 0
174 198 0
174 198 0
173 197 0
174 198 0
175 198 0
175 198 0
173 196 0
175 198 0
175 198 0
175 198 0
174 197 0
174 198 0
175 198 0
174 198 0
175 198 0
175 198 0
174 198 0
173 197 0
175 198 0
174 197 0
175 198 0
174 197 0
176 198 0
174 198 0
173 197 0
176 198 0
173 197 0
173 197 0
173 197 0
173 197 0
175 198 0
175 198 0
174 198 0
175 198 0
175 198 0
173 197 0
174 198 0
175 198 0
174 198 0
176 199 0
175 198 0
175 198 0
174 198 0
173 197 0
175 198 0
175 198 0
176 198 0
175 198 0
173 197 0
174 198 0
176 198 0
174 198 0
173 197 0
176 198 0
175 198 0
175 198 0
174 198 0
174 198 0
175 198 0
175 198 0
175 198 0
175 198 0
174 198 0
175 198 0
175 198 0
175 198 0
175 198 0
174 198 0
175 198 0
175 198 0
175 198 0
174 198 0
174 197 0
175 198 0
176 199 0
173 197 0
173 197 0
176 199 0
174 197 0
174 198 0
174 197 0
172 197 0
173 197 0
175 198 0
174 197 0
173 197 0
173 197 0
174 198 0
175 198 0
176 198 0
176 198 0
175 198 0
174 198 0
175 198 0
173 197 0
174 196 0
174 197 0
174 197 0
174 198 0
175 198 0
175 198 0
174 198 0
174 197 0
174 198 0
175 198 0
172 196 0
174 198 0
174 198 0
174 197 0
174 198 0
174 198 0
173 197 0
174 197 0
175 198 0
174 198 0
174 197 0
174 197 0
175 198 0
175 198 0
174 198 0
173 197 0
173 196 0
173 197 0
173 197 0
174 197 0
172 196 0
174 197 0
175 198 0
175 198 0
172 196 0
173 197 0
173 197 0
175 198 0
173 197 0
172 195 0
174 197 0
173 197 0
175 198 0
174 197 0
177 199 0
174 197 0
171 195 0
171 195 0
173 197 0
173 196 0
172 195 0
171 194 0
172 196 0
171 194 0
169 192 0
172 196 0
171 194 0
171 194 0
170 194 0
175 198 0
171 195 0
172 195 0
172 195 0
170 194 0
177 200 62
176 200 62
195 214 155
183 204 102
173 196 72
173 196 76
178 200 105
173 197 67
169 193 76
171 194 72
172 196 72
174 197 80
173 197 117
176 199 105
166 189 92
171 194 92
166 189 105
169 192 99
166 189 95
162 185 95
167 191 114
166 189 120
164 187 111
166 189 108
158 180 99
152 173 67
157 177 105
152 173 99
140 160 95
137 156 92
118 134 67
117 134 84
86 110 105
109 131 117
117 137 90
146 158 25
89 110 78
70 96 80
91 111 57
72 91 40
54 82 57
72 96 72
70 94 86
63 85 67
66 89 62
76 94 57
87 104 31
88 103 0
107 123 0
104 121 0
109 127 0
107 126 0
118 136 0
122 139 0
115 134 0
122 141 0
143 163 0
128 146 0
132 151 0
134 154 0
142 160 0
154 174 0
141 159 0
153 172 0
156 176 0
154 174 0
157 176 0
154 174 0
156 176 0
157 176 0
160 179 0
165 184 0
161 182 0
155 173 0
159 180 0
165 184 0
162 181 0
156 175 0
160 179 0
165 187 0
168 188 0
169 191 0
165 184 0
165 187 0
170 192 0
166 188 0
167 187 0
168 190 0
169 191 0
167 188 0
170 191 0
168 189 0
168 191 0
171 194 0
170 192 0
171 195 0
171 194 0
171 194 0
172 194 0
171 194 0
170 193 0
172 195 0
169 191 0
171 194 0
171 194 0
172 194 0
172 193 0
173 197 0
171 194 0
173 196 0
174 197 0
173 196 0
170 193 0
174 197 0
173 197 0
172 195 0
172 195 0
172 195 0
172 195 0
174 197 0
173 196 0
173 196 0
171 195 0
175 198 0
174 197 0
172 196 0
174 197 0
175 198 0
175 198 0
172 196 0
174 197 0
172 196 0
174 196 0
174 197 0
172 196 0
173 197 0
173 197 0
174 198 0
175 197 0
175 198 0
173 196 0
173 197 0
173 196 0
173 197 0
175 198 0
176 199 0
173 197 0
175 198 0
174 198 0
176 199 0
174 197 0
176 199 0
174 198 0
172 197 0
173 197 0
176 199 0
175 198 0
175 198 0
174 198 0
174 197 0
174 198 0
176 199 0
175 198 0
174 198 0
175 198 0
173 196 0
175 198 0
175 198 0
175 198 0
174 198 0
174 197 0
174 198 0
175 198 0
173 197 0
174 198 0
173 197 0
176 198 0
174 198 0
175 198 0
174 197 0
175 198 0
174 198 0
174 198 0
175 198 0
175 198 0
176 199 0
175 198 0
174 197 0
175 198 0
174 198 0
176 199 0
175 198 0
174 198 0
175 198 0
176 199 0
176 198 0
173 197 0
176 199 0
176 198 0
174 197 0
174 197 0
174 197 0
173 197 0
176 199 0
176 198 0
177 199 0
175 198 0
174 198 0
174 198 0
175 198 0
173 197 0
174 198 0
174 197 0
175 198 0
176 199 0
175 198 0
175 198 0
173 197 0
175 198 0
176 199 0
175 198 0
173 197 0
177 199 0
173 197 0
173 197 0
175 198 0
173 197 0
174 198 0
175 198 0
173 197 0
175 198 0
176 199 0
175 198 0
174 198 0
174 198 0
174 198 0
176 199 0
175 198 0
174 198 0
174 197 0
173 197 0
174 198 0
175 198 0
175 198 0
174 198 0
174 198 0
173 197 0
174 198 0
176 199 0
174 198 0
173 197 0
175 198 0
175 198 0
174 198 0
175 198 0
174 197 0
173 197 0
176 199 0
173 197 0
173 197 0
175 198 0
175 198 0
174 198 0
173 197 0
176 198 0
174 197 0
175 198 0
172 197 0
174 198 0
174 198 0
175 198 0
175 198 0
176 199 0
174 197 0
175 198 0
175 198 0
172 197 0
175 198 0
173 197 0
175 198 0
175 198 0
173 197 0
173 197 0
174 198 0
175 198 0
174 198 0
174 198 0
173 197 0
175 198 0
175 198 0
175 198 0
175 198 0
174 198 0
174 198 0
175 198 0
172 196 0
175 198 0
176 199 0
174 197 0
174 198 0
174 197 0
175 198 0
174 198 0
174 197 0
175 198 0
173 197 0
173 197 0
174 198 0
175 198 0
174 197 0
174 197 0
174 197 0
174 198 0
175 198 0
175 198 0
174 198 0
175 198 0
174 198 0
176 199 0
175 198 0
175 198 0
176 199 0
174 197 0
174 198 0
174 197 0
176 199 0
173 197 0
174 197 0
174 197 0
174 198 0
174 198 0
173 197 0
173 197 0
174 198 0
173 197 0
175 198 0
175 198 0
174 198 0
174 197 0
175 198 0
173 196 0
174 197 0
173 197 0
175 198 0
175 198 0
175 198 0
173 197 0
175 198 0
174 198 0
173 197 0
174 198 0
174 197 0
173 197 0
175 198 0
175 198 0
175 198 0
173 197 0
175 198 0
175 198 0
173 197 0
174 197 0
173 197 0
172 196 0
173 197 0
174 197 0
175 198 0
174 197 0
174 198 0
175 198 0
175 198 0
173 196 0
174 197 0
174 197 0
172 196 0
173 197 0
174 198 0
173 197 0
173 197 0
174 197 0
174 197 0
173 197 0
173 197 0
175 198 0
174 197 0
170 194 0
172 196 0
172 196 0
170 194 0
173 197 0
171 195 0
172 195 0
171 195 0
170 194 0
167 192 0
172 196 0
172 196 0
172 195 0
171 194 0
170 193 0
171 195 0
174 197 36
180 202 80
192 211 142
176 198 76
175 199 80
175 198 95
174 196 62
174 197 76
173 196 67
173 196 76
172 194 67
172 195 111
171 195 80
173 197 108
176 199 111
167 190 111
166 190 72
167 190 80
171 194 102
173 196 108
162 185 95
157 180 105
161 184 94
161 184 99
150 172 88
161 183 102
154 175 99
152 173 99
150 170 105
140 159 92
148 167 80
115 132 44
110 126 60
94 115 82
116 136 92
154 172 0
132 149 18
90 108 57
109 125 18
115 132 0
94 110 0
107 122 0
87 102 0
96 111 0
99 114 0
102 117 0
97 114 0
109 126 0
114 130 0
114 131 0
113 129 0
127 145 0
115 133 0
122 142 0
126 145 0
135 153 0
131 149 0
138 157 0
138 155 0
142 161 0
136 155 0
154 176 0
142 161 0
151 170 0
141 160 0
148 169 0
152 173 0
146 165 0
162 183 0
158 179 0
163 184 0
156 176 0
157 175 0
158 178 0
157 179 0
163 182 0
163 183 0
168 189 0
165 187 0
168 190 0
166 187 0
165 186 0
163 185 0
162 183 0
169 191 0
168 189 0
165 187 0
168 188 0
171 193 0
164 186 0
170 193 0
167 189 0
169 191 0
169 193 0
169 192 0
167 190 0
170 193 0
171 194 0
171 193 0
170 192 0
172 195 0
170 192 0
170 193 0
172 195 0
173 197 0
174 197 0
175 197 0
173 195 0
173 197 0
171 194 0
174 197 0
171 195 0
173 197 0
174 197 0
175 198 0
171 195 0
172 195 0
171 195 0
174 197 0
173 196 0
174 198 0
174 197 0
173 197 0
172 194 0
173 196 0
174 198 0
174 197 0
173 196 0
174 197 0
172 196 0
174 197 0
174 198 0
176 198 0
174 197 0
174 196 0
173 197 0
174 197 0
174 197 0
174 198 0
174 197 0
174 197 0
174 197 0
174 197 0
173 196 0
173 197 0
174 198 0
174 197 0
174 197 0
175 198 0
173 197 0
175 198 0
173 197 0
173 197 0
176 199 0
173 197 0
174 198 0
173 197 0
175 198 0
176 199 0
176 198 0
175 198 0
176 198 0
174 197 0
172 197 0
175 198 0
175 198 0
174 198 0
174 198 0
172 196 0
174 198 0
175 198 0
173 197 0
174 197 0
174 197 0
174 198 0
175 198 0
175 198 0
175 198 0
174 197 0
174 198 0
176 199 0
175 198 0
174 198 0
176 198 0
174 198 0
175 198 0
174 197 0
174 198 0
176 198 0
175 198 0
174 198 0
175 198 0
174 197 0
174 197 0
176 199 0
175 198 0
174 198 0
174 198 0
174 197 0
176 198 0
174 198 0
174 198 0
174 198 0
173 197 0
173 197 0
175 198 0
175 198 0
174 197 0
175 198 0
174 197 0
174 197 0
173 197 0
175 198 0
173 197 0
174 197 0
173 197 0
176 199 0
174 198 0
173 197 0
175 198 0
175 198 0
174 198 0
175 198 0
175 198 0
174 198 0
175 198 0
175 198 0
173 197 0
174 198 0
175 198 0
175 198 0
173 197 0
174 198 0
175 198 0
176 198 0
176 199 0
174 198 0
174 197 0
175 198 0
174 198 0
173 197 0
175 198 0
174 198 0
175 198 0
175 198 0
175 198 0
175 198 0
174 198 0
175 198 0
174 198 0
174 198 0
173 197 0
172 196 0
174 198 0
174 198 0
174 198 0
175 198 0
175 198 0
174 198 0
175 198 0
173 197 0
173 197 0
174 198 0
173 197 0
173 197 0
175 198 0
174 198 0
175 198 0
175 198 0
175 198 0
174 198 0
176 199 0
173 197 0
176 199 0
174 198 0
174 197 0
175 198 0
174 197 0
174 198 0
174 197 0
175 198 0
173 197 0
175 198 0
173 197 0
175 198 0
174 198 0
174 198 0
174 198 0
173 197 0
174 198 0
176 198 0
175 198 0
174 198 0
173 197 0
174 198 0
176 199 0
173 197 0
175 198 0
175 198 0
174 197 0
172 196 0
176 199 0
174 197 0
175 198 0
174 197 0
174 198 0
173 196 0
173 197 0
174 197 0
177 199 0
175 198 0
176 198 0
174 198 0
174 197 0
174 198 0
175 198 0
176 199 0
175 198 0
174 198 0
174 197 0
177 199 0
174 198 0
173 197 0
174 197 0
176 198 0
173 197 0
173 197 0
175 198 0
174 197 0
174 198 0
173 197 0
174 198 0
175 198 0
174 198 0
176 199 0
175 198 0
174 197 0
175 198 0
175 198 0
174 197 0
173 197 0
175 198 0
172 196 0
174 197 0
175 198 0
173 196 0
173 196 0
174 198 0
175 198 0
174 198 0
173 197 0
175 198 0
176 199 0
172 196 0
175 198 0
173 197 0
174 197 0
173 197 0
174 197 0
174 197 0
175 198 0
174 197 0
173 197 0
175 198 0
174 197 0
175 198 0
174 197 0
173 196 0
172 196 0
175 198 0
173 197 0
172 197 0
174 197 0
175 198 0
173 196 0
171 194 0
173 197 0
173 197 0
174 198 0
173 197 0
175 198 0
172 196 0
175 198 0
170 193 0
173 196 0
173 197 0
172 196 0
172 196 0
170 194 0
173 196 0
171 195 0
170 194 0
173 197 0
170 194 0
166 191 0
171 195 0
172 196 0
172 196 0
172 195 0
173 197 0
173 197 25
179 201 67
178 200 67
175 197 67
175 197 72
176 198 80
173 196 108
168 191 72
173 196 80
172 196 67
173 196 76
171 194 67
170 193 95
174 197 95
168 191 114
166 190 95
166 189 99
172 194 102
169 193 92
165 189 76
164 187 102
167 190 76
155 178 92
160 183 95
155 178 102
159 181 95
162 184 125
152 173 80
146 166 84
158 178 99
143 162 88
140 158 95
114 132 62
135 152 67
132 151 25
146 165 0
129 147 0
117 136 0
129 148 0
118 136 0
106 123 0
102 118 0
108 125 0
105 122 0
110 126 0
107 125 0
113 131 0
113 129 0
118 137 0
124 141 0
120 138 0
116 135 0
135 156 0
128 146 0
127 147 0
143 163 0
139 160 0
133 153 0
147 167 0
146 167 0
144 164 0
144 163 0
151 173 0
156 178 0
154 176 0
151 171 0
159 179 0
157 178 0
151 173 0
152 171 0
156 177 0
159 180 0
155 175 0
155 173 0
160 181 0
161 182 0
164 186 0
162 182 0
169 190 0
161 183 0
166 188 0
169 192 0
167 189 0
167 188 0
169 190 0
162 184 0
170 193 0
167 190 0
168 191 0
169 190 0
169 192 0
164 187 0
171 193 0
172 193 0
171 194 0
171 194 0
170 193 0
171 194 0
172 195 0
170 192 0
171 195 0
171 194 0
170 193 0
173 196 0
173 195 0
174 196 0
171 194 0
172 195 0
171 195 0
172 196 0
171 195 0
169 192 0
171 195 0
175 197 0
171 194 0
173 197 0
173 196 0
173 197 0
172 196 0
171 196 0
173 197 0
172 196 0
174 197 0
173 197 0
175 198 0
176 198 0
175 198 0
172 196 0
175 198 0
173 196 0
171 195 0
173 196 0
173 196 0
175 198 0
175 198 0
174 197 0
172 197 0
172 196 0
173 196 0
173 197 0
174 198 0
173 196 0
173 196 0
172 196 0
173 197 0
175 198 0
175 198 0
174 198 0
176 198 0
174 197 0
175 198 0
174 197 0
175 198 0
174 198 0
175 198 0
176 198 0
176 199 0
174 197 0
175 198 0
174 197 0
173 197 0
175 198 0
175 198 0
176 199 0
176 199 0
173 197 0
173 197 0
174 198 0
175 198 0
173 197 0
175 198 0
173 197 0
175 198 0
174 198 0
173 197 0
173 196 0
174 198 0
176 199 0
174 198 0
174 198 0
175 198 0
176 199 0
174 198 0
175 198 0
174 197 0
175 198 0
174 198 0
175 198 0
175 198 0
173 197 0
174 197 0
174 197 0
174 197 0
175 198 0
174 198 0
175 198 0
174 198 0
175 198 0
175 198 0
173 197 0
175 198 0
175 198 0
175 198 0
175 198 0
175 198 0
174 198 0
173 197 0
176 199 0
175 198 0
174 197 0
175 198 0
175 198 0
173 197 0
175 198 0
174 198 0
174 198 0
173 197 0
176 198 0
175 198 0
173 197 0
173 197 0
175 198 0
174 197 0
173 197 0
174 198 0
173 197 0
174 198 0
175 198 0
174 198 0
175 198 0
173 197 0
175 198 0
175 198 0
175 198 0
175 198 0
174 197 0
173 197 0
174 198 0
176 199 0
174 197 0
174 198 0
173 197 0
176 199 0
175 198 0
173 197 0
174 197 0
174 198 0
173 197 0
175 198 0
176 198 0
174 198 0
172 197 0
174 198 0
175 198 0
174 197 0
175 198 0
174 198 0
174 198 0
174 198 0
173 197 0
174 197 0
175 198 0
173 197 0
173 197 0
175 198 0
176 198 0
174 198 0
175 198 0
175 198 0
174 198 0
174 198 0
175 198 0
174 197 0
174 197 0
175 198 0
176 198 0
174 198 0
174 198 0
174 198 0
174 197 0
174 198 0
175 198 0
174 198 0
176 199 0
174 198 0
173 197 0
176 199 0
173 197 0
175 198 0
176 199 0
174 198 0
174 198 0
175 198 0
174 198 0
174 198 0
175 198 0
174 198 0
174 198 0
174 198 0
175 198 0
175 198 0
177 199 0
175 198 0
174 197 0
174 197 0
177 199 0
174 198 0
173 197 0
173 197 0
174 198 0
174 197 0
174 198 0
174 197 0
174 198 0
173 197 0
174 197 0
173 197 0
173 197 0
175 198 0
174 197 0
174 197 0
174 198 0
173 197 0
175 198 0
175 198 0
174 198 0
173 197 0
174 197 0
174 198 0
173 197 0
174 198 0
174 197 0
174 197 0
175 198 0
174 198 0
174 198 0
174 197 0
175 198 0
174 197 0
174 198 0
175 198 0
174 197 0
173 197 0
172 197 0
173 197 0
173 196 0
174 198 0
174 198 0
174 197 0
173 197 0
174 198 0
174 197 0
174 197 0
174 197 0
174 198 0
175 198 0
175 198 0
173 197 0
173 197 0
173 197 0
174 197 0
173 197 0
173 197 0
174 197 0
174 197 0
174 197 0
173 196 0
174 198 0
172 196 0
173 196 0
173 197 0
171 195 0
172 196 0
172 195 0
173 197 0
174 197 0
175 198 0
174 197 0
172 196 0
174 198 0
173 197 0
173 195 0
173 196 0
173 197 0
171 196 0
171 194 0
172 196 0
173 197 0
174 197 0
169 192 0
172 196 0
173 196 0
172 195 0
169 192 0
171 194 0
172 196 0
166 190 0
169 193 0
170 193 0
173 197 0
172 196 0
175 199 57
176 199 44
171 195 51
176 199 88
177 200 76
174 197 80
171 194 76
168 191 62
174 198 76
177 200 111
171 194 84
171 194 92
172 196 95
174 197 95
170 195 102
162 185 67
166 190 92
169 193 108
167 191 99
165 187 92
161 184 80
158 181 84
160 182 84
163 186 102
163 185 114
154 175 95
147 167 84
152 172 92
160 179 105
165 183 128
146 165 84
132 150 72
129 147 44
138 158 0
153 173 0
135 156 0
114 131 0
133 152 0
119 137 0
109 129 0
118 136 0
130 148 0
119 138 0
112 130 0
126 144 0
108 128 0
123 142 0
121 140 0
132 151 0
139 159 0
119 138 0
129 148 0
135 155 0
135 156 0
139 160 0
128 148 0
146 168 0
148 169 0
147 168 0
148 168 0
144 163 0
147 169 0
153 173 0
160 181 0
150 172 0
156 178 0
160 180 0
151 173 0
157 177 0
154 174 0
157 179 0
162 182 0
161 182 0
162 184 0
163 184 0
160 181 0
162 183 0
164 187 0
162 183 0
163 186 0
169 190 0
170 193 0
168 191 0
168 190 0
167 189 0
165 187 0
168 190 0
168 191 0
170 193 0
172 194 0
169 191 0
169 189 0
170 192 0
172 195 0
169 190 0
169 191 0
172 195 0
170 194 0
171 193 0
170 193 0
170 193 0
168 190 0
171 194 0
167 190 0
171 195 0
172 196 0
172 195 0
172 196 0
172 196 0
173 196 0
172 196 0
170 194 0
171 195 0
174 196 0
172 196 0
172 195 0
175 197 0
173 197 0
174 196 0
174 197 0
174 197 0
174 197 0
174 197 0
174 196 0
175 197 0
172 195 0
172 195 0
172 197 0
173 196 0
174 197 0
173 197 0
172 196 0
173 197 0
175 198 0
173 196 0
172 196 0
174 197 0
172 195 0
175 198 0
174 198 0
173 196 0
175 198 0
175 198 0
171 195 0
174 197 0
172 196 0
174 197 0
173 197 0
174 197 0
174 197 0
174 198 0
172 196 0
174 198 0
173 197 0
174 198 0
174 197 0
175 198 0
173 197 0
173 197 0
172 196 0
175 198 0
173 197 0
173 197 0
174 198 0
173 197 0
175 198 0
173 196 0
174 197 0
174 197 0
174 197 0
174 197 0
173 197 0
174 198 0
173 197 0
173 196 0
175 198 0
173 197 0
175 198 0
175 198 0
173 197 0
175 198 0
174 197 0
174 197 0
175 198 0
175 198 0
175 198 0
173 197 0
175 198 0
174 197 0
175 198 0
177 199 0
175 198 0
174 197 0
174 197 0
173 197 0
173 197 0
175 198 0
177 199 0
174 197 0
176 198 0
174 198 0
174 197 0
175 198 0
175 198 0
175 198 0
173 197 0
175 198 0
174 197 0
173 197 0
174 198 0
174 198 0
174 197 0
174 198 0
173 197 0
174 198 0
175 198 0
176 198 0
172 196 0
173 197 0
174 197 0
174 198 0
175 198 0
173 197 0
174 198 0
174 197 0
174 197 0
175 198 0
176 199 0
175 198 0
173 197 0
174 198 0
173 197 0
175 198 0
175 198 0
174 198 0
175 198 0
174 198 0
176 199 0
175 198 0
173 197 0
174 198 0
174 197 0
174 198 0
175 198 0
175 198 0
173 197 0
175 198 0
174 198 0
174 197 0
174 198 0
175 198 0
174 197 0
175 198 0
175 198 0
175 198 0
176 199 0
175 198 0
174 197 0
173 197 0
173 197 0
175 198 0
174 197 0
175 198 0
175 198 0
174 198 0
175 198 0
173 197 0
174 198 0
175 198 0
172 197 0
174 198 0
173 197 0
175 198 0
175 198 0
174 198 0
174 197 0
175 198 0
177 199 0
174 198 0
175 198 0
175 198 0
173 197 0
174 198 0
176 198 0
175 198 0
175 198 0
174 198 0
175 198 0
173 197 0
175 198 0
174 197 0
175 198 0
174 198 0
174 198 0
175 198 0
175 198 0
173 197 0
174 197 0
175 198 0
173 197 0
173 197 0
175 198 0
173 197 0
174 198 0
173 197 0
174 198 0
174 198 0
174 197 0
175 198 0
174 198 0
174 198 0
175 198 0
174 198 0
173 197 0
173 197 0
173 197 0
173 197 0
173 197 0
173 197 0
175 198 0
175 198 0
174 198 0
174 197 0
175 198 0
175 198 0
175 198 0
174 198 0
174 198 0
174 198 0
175 198 0
175 198 0
173 197 0
174 198 0
173 197 0
176 199 0
175 198 0
173 197 0
175 198 0
175 198 0
176 198 0
173 196 0
175 198 0
173 197 0
174 198 0
172 196 0
174 197 0
174 197 0
173 197 0
174 198 0
174 197 0
175 198 0
173 196 0
174 198 0
174 198 0
175 198 0
174 197 0
175 198 0
173 197 0
173 196 0
175 198 0
175 198 0
175 198 0
173 196 0
174 197 0
176 199 0
174 198 0
175 198 0
174 197 0
175 198 0
175 198 0
175 198 0
172 196 0
171 194 0
174 197 0
174 198 0
172 196 0
172 195 0
171 195 0
173 197 0
173 197 0
173 195 0
175 198 0
172 196 0
174 197 0
172 196 0
174 197 0
172 196 0
172 196 0
173 196 0
172 196 0
169 193 0
173 196 0
171 195 0
172 196 0
172 196 0
170 194 0
170 193 0
167 190 0
171 194 0
173 196 0
176 199 57
180 202 67
177 199 76
177 200 72
173 196 57
169 191 72
174 197 80
176 199 76
176 199 95
171 194 88
175 198 111
173 196 88
172 194 92
174 197 95
166 190 84
170 193 105
171 195 108
165 189 95
168 191 84
160 184 99
169 191 88
163 186 84
160 183 95
157 178 92
164 185 88
161 182 105
160 180 111
157 178 92
151 172 105
137 156 67
140 159 84
144 163 51
146 167 57
138 158 0
155 176 0
147 168 0
126 146 0
138 158 0
130 149 0
128 147 0
122 142 0
119 137 0
123 144 0
121 142 0
122 142 0
133 153 0
136 156 0
134 154 0
126 146 0
130 152 0
134 154 0
138 158 0
147 167 0
136 156 0
142 161 0
141 162 0
147 167 0
146 167 0
142 165 0
146 166 0
151 171 0
148 168 0
150 173 0
152 174 0
150 171 0
150 171 0
162 184 0
157 178 0
163 184 0
161 183 0
163 184 0
165 188 0
160 182 0
164 186 0
163 185 0
166 188 0
162 184 0
163 184 0
159 182 0
162 185 0
167 188 0
164 187 0
168 190 0
169 191 0
171 193 0
167 189 0
168 190 0
168 191 0
171 194 0
172 194 0
168 190 0
171 193 0
167 190 0
170 192 0
169 191 0
169 192 0
171 193 0
169 193 0
169 193 0
171 194 0
171 195 0
173 195 0
171 194 0
169 191 0
171 194 0
173 195 0
174 198 0
172 196 0
171 194 0
173 196 0
172 195 0
172 196 0
173 197 0
173 196 0
172 196 0
174 197 0
173 195 0
172 196 0
174 198 0
171 194 0
173 197 0
171 195 0
173 197 0
174 196 0
173 196 0
175 198 0
174 197 0
173 197 0
175 198 0
171 194 0
174 197 0
174 198 0
176 198 0
174 197 0
174 197 0
174 198 0
172 196 0
173 196 0
172 197 0
174 197 0
174 198 0
174 197 0
174 197 0
174 197 0
174 197 0
175 198 0
173 197 0
175 198 0
173 197 0
174 197 0
174 197 0
173 197 0
176 199 0
174 198 0
172 196 0
173 196 0
174 198 0
174 197 0
173 197 0
174 197 0
176 198 0
173 197 0
174 198 0
174 198 0
172 196 0
175 198 0
173 197 0
172 196 0
174 198 0
175 198 0
174 198 0
173 196 0
173 196 0
175 198 0
176 198 0
174 197 0
175 198 0
174 198 0
174 197 0
173 197 0
175 198 0
175 198 0
173 197 0
174 197 0
175 198 0
174 198 0
174 198 0
173 196 0
173 197 0
175 198 0
176 199 0
173 197 0
175 198 0
175 198 0
176 199 0
173 196 0
175 198 0
174 198 0
175 198 0
174 197 0
175 197 0
174 197 0
175 198 0
175 198 0
175 198 0
174 197 0
175 198 0
175 198 0
174 198 0
174 198 0
174 198 0
172 197 0
175 198 0
174 198 0
176 199 0
174 198 0
175 198 0
175 198 0
173 197 0
174 197 0
176 199 0
173 197 0
175 198 0
174 198 0
175 198 0
174 197 0
175 198 0
175 197 0
173 197 0
173 197 0
175 198 0
174 197 0
175 198 0
175 198 0
175 198 0
175 198 0
174 198 0
174 198 0
175 198 0
175 198 0
173 197 0
173 197 0
175 198 0
175 198 0
174 197 0
174 198 0
175 198 0
174 197 0
175 198 0
174 197 0
174 197 0
174 197 0
174 198 0
176 198 0
174 198 0
173 197 0
174 198 0
174 197 0
175 198 0
176 199 0
175 198 0
175 198 0
173 197 0
175 198 0
173 197 0
176 199 0
174 198 0
173 197 0
175 198 0
175 198 0
172 197 0
176 198 0
173 197 0
175 198 0
175 198 0
175 198 0
176 199 0
175 198 0
174 198 0
175 198 0
174 197 0
174 198 0
175 198 0
173 197 0
174 198 0
174 197 0
173 197 0
174 198 0
175 198 0
176 199 0
174 198 0
175 198 0
175 198 0
174 198 0
175 198 0
174 198 0
176 198 0
175 198 0
175 198 0
174 198 0
175 198 0
174 197 0
173 197 0
173 197 0
175 198 0
175 198 0
174 198 0
175 198 0
173 197 0
175 198 0
174 197 0
174 198 0
174 197 0
174 198 0
176 199 0
172 196 0
175 198 0
175 198 0
175 198 0
173 197 0
173 197 0
174 198 0
173 196 0
176 198 0
173 197 0
175 198 0
173 197 0
174 197 0
173 197 0
174 198 0
174 197 0
173 197 0
173 197 0
174 197 0
174 197 0
176 199 0
174 197 0
173 197 0
172 197 0
176 199 0
175 198 0
175 198 0
175 198 0
173 197 0
172 196 0
175 198 0
175 198 0
174 197 0
173 197 0
175 198 0
173 196 0
175 198 0
173 196 0
174 198 0
174 197 0
175 198 0
172 196 0
174 197 0
173 196 0
172 197 0
176 198 0
173 196 0
174 197 0
174 198 0
174 197 0
173 197 0
173 197 0
173 197 0
173 197 0
173 197 0
175 198 0
175 198 0
174 198 0
174 197 0
174 197 0
172 196 0
175 198 0
171 195 0
174 197 0
175 198 0
170 193 0
172 195 0
175 198 0
174 197 0
172 195 0
172 196 0
172 196 0
171 195 0
173 196 0
174 197 0
169 193 0
173 196 0
171 195 0
173 195 0
172 196 0
173 196 0
170 193 0
172 196 0
173 196 0
172 196 0
174 197 0
176 199 36
171 193 51
170 193 51
169 192 57
171 194 76
166 190 62
171 194 97
174 198 88
174 197 84
175 198 111
174 197 92
172 195 99
174 198 108
169 192 57
166 190 102
173 196 114
170 193 95
161 184 88
168 190 99
163 185 92
168 190 108
160 182 108
162 185 92
157 179 88
157 179 88
161 182 111
165 186 120
163 183 80
158 177 102
148 168 67
149 170 67
140 162 25
151 171 0
153 175 0
149 171 0
132 152 0
143 163 0
144 165 0
126 145 0
132 151 0
129 149 0
130 150 0
130 151 0
128 148 0
129 151 0
140 161 0
145 166 0
144 164 0
140 161 0
136 156 0
144 166 0
142 163 0
146 168 0
144 165 0
146 168 0
150 172 0
150 172 0
155 176 0
154 177 0
150 171 0
158 180 0
154 175 0
152 173 0
154 175 0
157 179 0
160 182 0
160 183 0
156 177 0
158 181 0
163 186 0
161 181 0
171 193 0
168 191 0
168 189 0
167 190 0
164 187 0
167 187 0
163 186 0
163 186 0
164 187 0
164 185 0
171 192 0
169 191 0
170 192 0
165 188 0
168 191 0
168 191 0
166 189 0
169 191 0
171 192 0
169 192 0
171 192 0
166 189 0
170 193 0
169 191 0
169 191 0
169 193 0
171 194 0
173 196 0
173 195 0
171 194 0
174 197 0
172 196 0
173 195 0
173 196 0
172 195 0
172 196 0
174 197 0
172 195 0
174 195 0
169 192 0
173 196 0
175 198 0
172 195 0
173 197 0
174 196 0
174 197 0
171 195 0
173 196 0
174 197 0
173 196 0
173 196 0
173 197 0
171 194 0
173 197 0
172 195 0
173 196 0
173 197 0
175 197 0
174 197 0
174 198 0
174 197 0
174 197 0
173 196 0
174 198 0
173 197 0
174 197 0
172 196 0
174 197 0
170 194 0
174 198 0
175 198 0
173 196 0
173 197 0
173 197 0
173 197 0
174 198 0
170 194 0
174 198 0
175 198 0
174 198 0
172 197 0
175 198 0
176 199 0
174 197 0
174 197 0
173 197 0
173 196 0
176 198 0
173 197 0
176 198 0
175 198 0
173 197 0
176 199 0
175 198 0
174 198 0
176 199 0
174 198 0
173 197 0
173 197 0
173 197 0
174 197 0
174 197 0
174 197 0
175 198 0
175 198 0
173 196 0
176 198 0
175 198 0
174 198 0
173 197 0
173 196 0
172 196 0
173 197 0
174 197 0
175 198 0
175 198 0
175 198 0
176 199 0
174 198 0
175 198 0
173 197 0
174 198 0
175 198 0
174 198 0
173 197 0
174 198 0
174 198 0
175 198 0
175 198 0
176 198 0
175 198 0
176 198 0
174 198 0
175 198 0
173 197 0
173 197 0
173 197 0
175 198 0
176 199 0
175 198 0
175 198 0
175 198 0
176 199 0
175 198 0
176 199 0
174 198 0
174 198 0
175 198 0
175 198 0
174 197 0
175 198 0
176 198 0
173 197 0
174 198 0
172 197 0
174 197 0
174 198 0
176 199 0
174 198 0
174 198 0
175 198 0
174 197 0
174 197 0
175 198 0
175 198 0
174 197 0
175 198 0
174 198 0
175 198 0
174 197 0
173 197 0
174 198 0
175 198 0
174 197 0
174 198 0
174 198 0
175 198 0
173 197 0
176 198 0
172 196 0
174 198 0
174 198 0
174 198 0
177 199 0
175 198 0
173 197 0
172 197 0
175 198 0
176 199 0
173 197 0
176 198 0
176 198 0
175 198 0
175 198 0
173 197 0
174 198 0
175 198 0
175 198 0
176 198 0
174 198 0
172 197 0
174 197 0
174 198 0
175 198 0
175 198 0
174 198 0
174 198 0
173 197 0
173 197 0
174 197 0
175 198 0
173 197 0
175 198 0
173 196 0
175 198 0
174 198 0
174 198 0
174 198 0
175 198 0
173 197 0
174 197 0
174 197 0
174 197 0
176 198 0
175 198 0
176 199 0
174 198 0
174 197 0
174 198 0
174 197 0
174 198 0
175 198 0
176 198 0
174 198 0
173 197 0
174 197 0
175 198 0
174 197 0
175 198 0
174 197 0
175 198 0
174 197 0
173 197 0
175 198 0
174 197 0
174 197 0
176 199 0
173 197 0
173 196 0
174 197 0
174 197 0
175 198 0
173 197 0
174 198 0
174 198 0
174 198 0
174 197 0
174 198 0
175 198 0
175 198 0
173 197 0
174 197 0
174 197 0
174 197 0
174 197 0
173 197 0
175 197 0
175 198 0
173 197 0
175 198 0
174 197 0
176 198 0
174 197 0
173 197 0
173 197 0
173 197 0
174 198 0
174 198 0
175 198 0
173 196 0
171 195 0
174 198 0
175 198 0
171 196 0
175 198 0
174 197 0
173 197 0
174 197 0
173 196 0
171 195 0
174 198 0
171 195 0
174 197 0
174 197 0
172 196 0
175 198 0
173 197 0
173 197 0
175 198 0
173 197 0
170 194 0
173 197 0
174 197 0
172 195 0
169 194 0
174 198 0
170 194 0
172 195 0
173 196 0
174 197 0
174 198 0
171 195 0
172 196 0
174 197 0
166 191 0
173 196 0
175 198 0
168 193 0
173 196 0
173 196 0
172 195 0
171 194 0
171 194 0
172 196 0
169 193 0
173 196 0
171 195 0
174 197 0
175 198 0
174 198 44
169 192 36
171 194 74
169 192 62
170 193 60
169 192 76
165 188 70
168 191 72
174 197 100
177 199 99
173 195 102
170 193 102
170 193 95
175 198 105
170 192 102
161 185 99
161 183 76
172 194 80
157 179 84
168 191 117
157 179 84
165 187 108
165 186 99
164 186 80
163 183 80
158 179 95
163 183 105
147 168 92
155 176 92
154 175 57
151 172 36
147 168 25
160 182 0
155 177 0
149 172 0
140 162 0
140 161 0
136 158 0
145 165 0
133 153 0
139 160 0
146 167 0
132 153 0
132 153 0
142 164 0
144 165 0
139 160 0
139 160 0
139 161 0
141 162 0
140 161 0
150 172 0
151 173 0
146 167 0
155 177 0
150 172 0
151 173 0
164 187 0
157 179 0
155 177 0
154 176 0
158 178 0
158 180 0
153 176 0
157 179 0
158 180 0
161 184 0
161 183 0
160 182 0
159 181 0
167 190 0
164 184 0
162 182 0
169 191 0
163 185 0
167 190 0
167 189 0
170 192 0
167 190 0
165 188 0
163 185 0
168 190 0
168 191 0
170 193 0
171 195 0
171 194 0
167 190 0
169 192 0
169 192 0
172 195 0
168 190 0
172 194 0
171 192 0
172 195 0
170 192 0
169 192 0
172 195 0
171 194 0
172 194 0
173 196 0
174 197 0
170 193 0
169 193 0
173 196 0
173 196 0
171 193 0
172 196 0
171 195 0
173 196 0
175 198 0
174 196 0
173 195 0
174 195 0
172 196 0
171 195 0
172 196 0
175 198 0
174 197 0
172 195 0
170 193 0
172 196 0
174 197 0
172 195 0
175 197 0
173 196 0
176 198 0
176 198 0
173 196 0
173 197 0
173 197 0
172 196 0
173 197 0
172 196 0
173 197 0
173 197 0
173 196 0
174 197 0
172 195 0
173 196 0
175 198 0
173 196 0
174 197 0
175 198 0
173 197 0
174 197 0
174 197 0
174 197 0
174 198 0
174 197 0
174 197 0
172 195 0
173 197 0
174 197 0
174 197 0
174 198 0
175 198 0
175 198 0
175 198 0
173 197 0
175 198 0
173 197 0
174 198 0
175 198 0
172 197 0
174 198 0
174 197 0
174 197 0
175 198 0
175 198 0
174 198 0
173 197 0
176 198 0
174 198 0
175 198 0
174 198 0
176 199 0
174 198 0
175 198 0
173 197 0
173 197 0
173 197 0
175 198 0
172 197 0
174 198 0
175 198 0
174 198 0
175 198 0
173 197 0
174 198 0
173 197 0
173 197 0
175 198 0
174 198 0
176 199 0
172 196 0
174 198 0
174 197 0
174 197 0
175 198 0
175 198 0
174 197 0
174 197 0
175 198 0
175 198 0
175 198 0
173 197 0
174 197 0
175 198 0
175 198 0
175 198 0
173 197 0
174 198 0
175 198 0
175 198 0
174 197 0
174 198 0
174 198 0
175 198 0
174 197 0
175 198 0
176 198 0
174 198 0
175 198 0
172 197 0
172 196 0
172 197 0
174 198 0
174 198 0
175 198 0
174 198 0
173 197 0
172 197 0
175 198 0
175 198 0
175 198 0
174 198 0
174 198 0
174 198 0
175 198 0
174 198 0
174 197 0
175 198 0
172 197 0
174 197 0
174 198 0
173 197 0
174 198 0
173 197 0
174 198 0
175 198 0
175 198 0
175 198 0
175 198 0
174 198 0
174 198 0
175 198 0
173 197 0
175 198 0
173 197 0
176 199 0
174 198 0
174 198 0
171 196 0
173 197 0
175 198 0
174 197 0
175 198 0
173 197 0
176 198 0
176 199 0
174 198 0
175 198 0
173 197 0
176 199 0
175 198 0
175 198 0
176 198 0
174 198 0
173 197 0
175 198 0
175 198 0
175 198 0
176 198 0
176 199 0
173 197 0
174 198 0
174 198 0
174 198 0
175 198 0
175 198 0
174 197 0
173 197 0
172 196 0
174 197 0
175 198 0
174 198 0
174 198 0
173 197 0
174 197 0
174 198 0
174 198 0
175 198 0
174 198 0
174 197 0
174 198 0
175 198 0
175 198 0
175 198 0
173 197 0
175 198 0
174 198 0
176 198 0
176 199 0
173 197 0
174 198 0
174 198 0
175 198 0
174 198 0
175 198 0
174 198 0
175 198 0
173 197 0
172 197 0
173 197 0
174 197 0
174 198 0
174 198 0
175 198 0
175 198 0
175 198 0
175 198 0
174 197 0
174 197 0
174 197 0
173 197 0
174 197 0
172 197 0
173 197 0
174 198 0
175 198 0
175 198 0
174 197 0
174 197 0
172 196 0
174 198 0
174 198 0
173 197 0
175 198 0
172 196 0
174 198 0
174 197 0
174 198 0
173 197 0
173 196 0
173 197 0
173 197 0
175 198 0
174 198 0
172 196 0
175 198 0
175 198 0
173 197 0
174 198 0
173 196 0
173 197 0
176 199 0
176 198 0
173 197 0
175 197 0
177 199 0
174 198 0
173 196 0
175 198 0
173 197 0
175 198 0
171 195 0
172 195 0
175 198 0
171 195 0
174 197 0
173 197 0
172 195 0
175 198 0
173 197 0
171 195 0
173 197 0
172 196 0
172 196 0
173 196 0
173 197 0
169 194 0
170 193 0
169 192 0
171 195 0
172 195 0
170 194 0
167 190 0
171 194 0
171 195 0
172 196 0
175 198 0
172 196 51
169 191 47
169 192 70
166 188 67
171 194 80
164 186 67
169 191 84
171 194 90
171 193 88
175 197 120
177 199 111
173 196 99
168 191 105
166 189 80
172 195 92
169 192 84
175 198 120
165 187 72
173 196 102
167 189 95
158 179 76
164 186 76
161 181 92
156 177 99
155 176 88
157 178 84
161 181 88
159 180 95
162 183 72
154 176 36
148 170 36
153 175 0
159 180 0
145 169 0
153 175 0
154 175 0
147 168 0
144 166 0
144 166 0
144 166 0
141 162 0
138 159 0
153 174 0
141 163 0
136 158 0
148 170 0
147 169 0
145 165 0
147 168 0
149 170 0
148 170 0
147 169 0
145 167 0
157 178 0
156 178 0
154 175 0
155 176 0
163 186 0
152 174 0
155 178 0
161 184 0
157 178 0
160 182 0
164 187 0
160 183 0
163 185 0
164 186 0
162 184 0
164 186 0
167 189 0
160 181 0
164 186 0
167 190 0
165 187 0
162 184 0
167 189 0
169 191 0
166 188 0
169 192 0
169 192 0
166 189 0
168 191 0
167 189 0
169 191 0
171 193 0
164 186 0
171 193 0
169 192 0
168 191 0
165 187 0
171 194 0
173 195 0
169 192 0
170 192 0
167 190 0
172 195 0
172 194 0
170 193 0
171 194 0
170 193 0
171 194 0
170 193 0
172 195 0
171 193 0
172 196 0
172 195 0
173 196 0
174 196 0
171 195 0
171 194 0
172 194 0
175 197 0
173 194 0
172 196 0
174 197 0
173 196 0
174 197 0
173 197 0
174 197 0
173 197 0
170 194 0
172 195 0
175 198 0
173 196 0
172 196 0
173 197 0
174 198 0
174 198 0
173 197 0
175 198 0
175 198 0
171 196 0
173 197 0
173 197 0
173 196 0
175 198 0
173 196 0
175 198 0
174 197 0
173 197 0
173 197 0
174 198 0
173 197 0
174 198 0
173 197 0
173 196 0
176 198 0
174 198 0
175 198 0
172 197 0
173 197 0
173 196 0
175 198 0
174 197 0
174 198 0
175 198 0
174 198 0
174 197 0
174 197 0
174 197 0
173 197 0
173 197 0
174 198 0
175 198 0
174 197 0
174 198 0
175 198 0
174 197 0
175 198 0
174 197 0
175 198 0
174 197 0
176 198 0
174 198 0
174 197 0
174 197 0
176 198 0
176 199 0
175 198 0
172 196 0
175 197 0
174 198 0
176 199 0
174 198 0
173 197 0
174 198 0
175 198 0
175 198 0
175 198 0
174 198 0
173 196 0
175 198 0
175 198 0
172 196 0
175 198 0
175 198 0
174 198 0
175 198 0
172 197 0
174 198 0
174 198 0
173 196 0
177 199 0
174 197 0
174 197 0
174 198 0
174 198 0
173 197 0
174 197 0
174 198 0
174 197 0
173 197 0
173 197 0
173 197 0
175 198 0
175 198 0
175 198 0
175 198 0
175 198 0
173 197 0
175 198 0
174 198 0
176 198 0
174 198 0
176 198 0
175 198 0
173 197 0
174 198 0
174 198 0
174 197 0
172 197 0
173 197 0
174 198 0
173 197 0
173 197 0
175 198 0
174 198 0
174 197 0
173 197 0
175 198 0
175 198 0
174 198 0
175 198 0
174 198 0
174 197 0
176 199 0
175 198 0
175 198 0
172 197 0
173 197 0
174 198 0
174 197 0
175 198 0
175 198 0
175 198 0
175 198 0
174 198 0
174 198 0
174 198 0
175 198 0
174 198 0
174 197 0
174 198 0
175 198 0
173 197 0
174 197 0
175 198 0
174 198 0
175 198 0
175 198 0
173 197 0
175 198 0
174 197 0
173 197 0
174 198 0
174 198 0
175 198 0
174 198 0
174 198 0
175 198 0
175 198 0
174 197 0
175 198 0
174 198 0
174 197 0
174 198 0
174 198 0
173 197 0
176 198 0
174 197 0
174 198 0
174 197 0
174 198 0
175 198 0
175 198 0
176 198 0
176 198 0
174 197 0
175 198 0
174 197 0
174 197 0
173 197 0
175 198 0
173 197 0
174 198 0
174 197 0
173 197 0
175 198 0
175 198 0
176 198 0
174 197 0
174 198 0
174 197 0
176 199 0
175 198 0
172 196 0
174 197 0
175 198 0
173 197 0
174 198 0
175 198 0
173 197 0
176 199 0
174 198 0
175 198 0
173 197 0
174 198 0
174 198 0
174 198 0
175 198 0
173 197 0
173 197 0
175 198 0
173 197 0
173 197 0
173 197 0
174 197 0
173 197 0
175 198 0
174 197 0
176 199 0
175 198 0
173 197 0
174 197 0
176 199 0
174 198 0
174 198 0
174 197 0
173 197 0
175 198 0
174 197 0
174 197 0
172 195 0
175 198 0
174 198 0
173 197 0
174 197 0
174 197 0
174 198 0
174 197 0
173 197 0
173 196 0
175 198 0
173 197 0
174 197 0
173 197 0
175 198 0
170 194 0
173 197 0
173 196 0
170 194 0
173 197 0
173 197 0
175 198 0
171 195 0
172 196 0
172 196 0
172 195 0
171 194 0
172 196 0
172 196 0
173 196 0
173 197 0
172 196 0
171 195 0
168 192 0
175 197 0
172 195 0
170 193 0
173 197 0
172 195 0
171 194 0
171 195 0
174 197 0
172 195 0
172 195 0
171 194 0
171 195 0
175 198 0
173 196 0
175 198 25
172 195 67
174 196 25
168 190 25
168 190 72
169 191 67
163 185 88
163 186 82
169 191 95
175 197 88
176 198 111
170 194 84
174 195 92
169 190 102
164 186 84
170 192 95
167 190 99
165 187 80
170 193 114
165 188 105
166 187 95
162 184 95
158 178 62
159 181 88
161 181 88
159 180 92
154 175 57
159 180 76
158 178 57
150 172 51
157 180 0
164 187 0
161 184 0
152 175 0
145 167 0
151 172 0
144 166 0
152 173 0
155 177 0
145 168 0
145 166 0
149 170 0
146 168 0
149 171 0
148 170 0
143 164 0
144 167 0
146 167 0
149 170 0
152 174 0
152 173 0
152 173 0
153 175 0
151 173 0
151 174 0
159 180 0
151 173 0
159 183 0
156 178 0
155 177 0
161 183 0
161 182 0
158 181 0
162 184 0
161 184 0
160 183 0
155 177 0
154 176 0
166 188 0
162 184 0
164 187 0
167 189 0
162 184 0
165 187 0
168 189 0
169 192 0
167 190 0
169 192 0
169 191 0
165 187 0
168 191 0
169 191 0
169 192 0
168 191 0
169 192 0
170 192 0
166 188 0
172 194 0
170 193 0
170 192 0
168 191 0
174 196 0
172 195 0
172 195 0
170 193 0
169 191 0
168 191 0
170 191 0
174 196 0
172 196 0
173 196 0
173 196 0
169 192 0
173 196 0
175 197 0
172 195 0
171 194 0
171 193 0
172 196 0
171 194 0
174 197 0
171 194 0
172 195 0
174 197 0
174 197 0
172 195 0
173 197 0
172 196 0
173 197 0
173 196 0
172 195 0
171 194 0
173 196 0
172 195 0
175 198 0
173 197 0
174 197 0
172 196 0
173 196 0
171 195 0
173 196 0
174 197 0
173 197 0
173 197 0
175 198 0
174 198 0
173 196 0
173 196 0
174 197 0
173 196 0
174 197 0
174 197 0
174 198 0
173 197 0
173 197 0
174 198 0
174 198 0
173 196 0
173 197 0
172 196 0
173 197 0
174 197 0
172 196 0
171 196 0
170 193 0
174 197 0
174 197 0
175 198 0
173 197 0
174 197 0
175 198 0
173 196 0
174 196 0
175 198 0
173 197 0
174 197 0
173 197 0
175 198 0
173 197 0
175 198 0
172 196 0
174 197 0
172 196 0
174 198 0
174 198 0
176 199 0
172 197 0
174 197 0
173 197 0
174 197 0
173 197 0
175 198 0
175 198 0
174 197 0
174 198 0
175 198 0
174 198 0
174 198 0
175 198 0
175 198 0
175 198 0
175 198 0
173 197 0
176 199 0
175 198 0
175 198 0
175 198 0
175 198 0
173 197 0
173 197 0
175 198 0
175 198 0
174 198 0
175 198 0
174 198 0
174 198 0
173 197 0
174 198 0
173 197 0
174 198 0
174 197 0
177 199 0
174 198 0
174 197 0
175 198 0
174 198 0
176 198 0
175 198 0
173 197 0
173 197 0
175 198 0
173 197 0
173 197 0
175 198 0
174 198 0
175 198 0
174 198 0
175 198 0
174 198 0
176 198 0
174 198 0
175 198 0
174 198 0
173 197 0
176 199 0
173 197 0
173 197 0
173 197 0
174 198 0
174 197 0
173 197 0
175 198 0
175 198 0
174 197 0
175 198 0
174 197 0
177 199 0
174 198 0
175 198 0
174 198 0
173 197 0
174 197 0
174 198 0
173 197 0
174 198 0
175 198 0
172 197 0
175 198 0
174 198 0
175 198 0
174 198 0
175 198 0
175 198 0
175 198 0
173 197 0
176 199 0
174 198 0
175 198 0
176 199 0
174 198 0
175 198 0
174 197 0
174 198 0
174 197 0
174 197 0
173 197 0
174 198 0
174 197 0
173 197 0
175 198 0
175 198 0
175 198 0
173 197 0
174 197 0
174 198 0
175 198 0
174 198 0
174 198 0
174 198 0
175 198 0
174 197 0
174 197 0
173 197 0
174 197 0
174 197 0
175 198 0
175 198 0
175 198 0
174 198 0
173 197 0
174 198 0
174 197 0
173 196 0
175 198 0
174 198 0
174 198 0
174 198 0
174 198 0
174 198 0
175 198 0
175 198 0
172 197 0
175 198 0
173 197 0
173 197 0
173 197 0
174 197 0
175 198 0
173 197 0
173 197 0
175 198 0
173 196 0
173 197 0
174 197 0
174 198 0
176 199 0
174 198 0
174 197 0
174 197 0
174 198 0
175 198 0
175 198 0
175 198 0
174 197 0
174 197 0
175 198 0
173 197 0
172 196 0
176 199 0
175 198 0
174 197 0
176 199 0
173 197 0
174 197 0
174 197 0
175 198 0
174 198 0
174 198 0
172 196 0
174 198 0
173 197 0
172 196 0
173 197 0
175 198 0
174 198 0
175 198 0
174 198 0
175 197 0
174 197 0
174 198 0
174 197 0
174 198 0
175 197 0
176 199 0
172 195 0
172 196 0
173 197 0
173 197 0
175 198 0
173 197 0
171 195 0
174 197 0
172 196 0
173 197 0
174 197 0
171 195 0
171 195 0
173 196 0
172 196 0
172 195 0
170 194 0
174 197 0
175 198 0
172 196 0
172 196 0
170 195 0
176 198 0
172 195 0
168 192 0
174 197 0
170 193 0
169 193 0
172 196 0
170 194 0
170 194 0
171 195 0
170 194 0
172 196 0
173 197 0
173 197 0
173 196 18
165 189 0
169 191 40
172 196 60
173 195 57
173 194 100
167 190 100
164 187 78
172 194 76
166 189 62
174 195 122
175 198 102
172 194 67
175 197 99
173 196 76
174 195 95
169 191 76
170 191 99
173 194 99
171 193 111
169 190 99
160 181 76
157 177 80
166 188 84
164 185 92
162 184 84
164 185 76
160 182 67
163 184 25
155 176 36
164 186 25
163 186 0
157 178 0
153 175 0
153 175 0
149 169 0
151 174 0
143 165 0
146 167 0
152 174 0
147 170 0
152 174 0
155 176 0
153 175 0
150 171 0
152 173 0
144 165 0
145 167 0
151 172 0
152 175 0
144 167 0
150 172 0
151 173 0
155 177 0
151 175 0
157 179 0
157 179 0
158 180 0
156 178 0
155 177 0
162 185 0
163 186 0
166 188 0
160 183 0
168 191 0
163 185 0
166 189 0
163 186 0
167 189 0
165 188 0
168 191 0
161 184 0
164 187 0
165 186 0
163 186 0
165 188 0
168 190 0
166 187 0
170 192 0
167 190 0
171 195 0
170 192 0
171 193 0
167 189 0
169 191 0
169 192 0
170 194 0
168 191 0
168 191 0
169 192 0
174 197 0
170 193 0
169 194 0
172 195 0
173 196 0
168 192 0
169 192 0
170 193 0
173 195 0
174 196 0
172 196 0
172 195 0
169 192 0
171 193 0
174 197 0
170 193 0
174 197 0
170 193 0
173 196 0
170 193 0
171 194 0
174 197 0
174 196 0
170 192 0
172 195 0
172 196 0
175 198 0
173 196 0
173 196 0
172 196 0
175 198 0
174 198 0
175 198 0
173 197 0
173 196 0
173 196 0
175 198 0
173 196 0
174 197 0
173 196 0
174 196 0
172 196 0
174 198 0
175 198 0
173 197 0
174 197 0
173 197 0
173 197 0
175 198 0
175 198 0
174 198 0
174 197 0
176 198 0
173 196 0
174 198 0
175 198 0
173 197 0
175 198 0
173 197 0
175 198 0
175 198 0
173 197 0
175 198 0
173 197 0
175 198 0
174 198 0
174 198 0
174 197 0
175 198 0
175 198 0
173 196 0
175 197 0
175 198 0
175 198 0
175 198 0
175 198 0
175 198 0
173 197 0
174 198 0
175 198 0
176 198 0
174 198 0
175 198 0
174 197 0
175 198 0
175 198 0
173 197 0
175 198 0
173 197 0
174 197 0
176 199 0
174 197 0
174 198 0
173 197 0
175 198 0
174 197 0
176 198 0
175 198 0
174 198 0
174 197 0
173 197 0
173 197 0
175 198 0
174 198 0
174 198 0
175 198 0
174 198 0
174 198 0
175 198 0
171 195 0
174 198 0
175 198 0
173 197 0
175 198 0
175 198 0
174 198 0
174 197 0
175 198 0
173 197 0
176 199 0
174 198 0
174 197 0
174 198 0
175 198 0
174 198 0
175 198 0
174 197 0
175 198 0
173 197 0
172 197 0
174 198 0
174 198 0
175 198 0
175 198 0
175 198 0
174 197 0
176 198 0
175 198 0
174 197 0
174 198 0
173 197 0
174 198 0
174 198 0
173 197 0
174 198 0
173 197 0
174 198 0
174 198 0
174 198 0
175 198 0
175 198 0
175 198 0
175 198 0
174 197 0
175 198 0
174 198 0
174 197 0
174 197 0
174 198 0
174 198 0
174 198 0
175 198 0
174 198 0
173 197 0
175 198 0
174 198 0
175 198 0
175 198 0
173 197 0
175 198 0
175 198 0
172 197 0
175 198 0
173 197 0
176 199 0
175 198 0
173 197 0
175 198 0
175 198 0
174 198 0
174 198 0
174 197 0
175 198 0
175 198 0
174 197 0
173 197 0
174 197 0
174 197 0
174 198 0
173 197 0
174 198 0
173 196 0
174 197 0
173 197 0
172 197 0
174 197 0
174 198 0
174 197 0
175 198 0
176 198 0
175 198 0
174 198 0
176 199 0
175 198 0
174 198 0
174 197 0
175 198 0
173 197 0
175 198 0
174 197 0
174 198 0
174 197 0
175 198 0
175 198 0
173 197 0
174 197 0
174 198 0
176 199 0
176 198 0
174 197 0
174 197 0
174 198 0
175 198 0
174 198 0
175 198 0
174 197 0
173 197 0
175 198 0
175 198 0
175 198 0
174 197 0
174 198 0
174 198 0
172 195 0
174 198 0
175 198 0
176 199 0
176 199 0
175 198 0
174 198 0
175 198 0
175 198 0
174 198 0
173 197 0
171 195 0
175 198 0
173 197 0
175 198 0
176 198 0
174 197 0
174 198 0
174 197 0
175 198 0
173 197 0
176 199 0
175 198 0
172 196 0
174 198 0
175 198 0
176 198 0
173 197 0
174 198 0
172 196 0
173 196 0
174 197 0
174 198 0
175 198 0
175 198 0
173 197 0
175 198 0
176 199 0
174 197 0
174 198 0
171 195 0
173 197 0
173 197 0
173 197 0
175 198 0
175 198 0
170 194 0
173 197 0
173 197 0
173 197 0
174 197 0
173 197 0
172 196 0
174 198 0
175 198 0
172 195 0
173 197 0
171 195 0
174 197 0
173 197 0
172 196 0
171 194 0
172 196 0
172 196 0
173 197 0
172 195 0
173 196 0
170 194 0
173 196 0
171 195 0
169 193 0
174 197 0
168 192 0
173 196 0
171 194 0
175 198 0
174 198 0
175 198 0
168 191 18
170 194 0
169 191 44
166 188 36
165 188 47
168 189 76
171 193 62
168 190 84
178 200 94
175 196 94
172 193 102
175 196 102
173 194 95
171 193 99
171 190 99
168 189 62
171 193 95
175 195 102
165 187 84
169 191 80
166 187 80
163 184 51
162 183 62
156 177 67
163 184 80
164 186 88
163 185 44
156 178 0
160 182 25
160 182 0
159 182 0
160 182 0
160 183 0
153 176 0
154 176 0
154 176 0
159 182 0
157 179 0
155 177 0
152 175 0
149 172 0
150 172 0
151 172 0
152 174 0
149 172 0
153 174 0
154 177 0
152 174 0
160 181 0
158 179 0
153 176 0
152 174 0
155 178 0
155 177 0
162 185 0
163 185 0
163 186 0
162 185 0
161 181 0
165 186 0
157 179 0
160 184 0
160 182 0
162 184 0
160 182 0
163 186 0
162 185 0
164 187 0
164 187 0
163 183 0
165 188 0
164 186 0
169 191 0
165 188 0
170 193 0
168 193 0
170 193 0
169 191 0
166 190 0
167 189 0
169 192 0
171 194 0
171 194 0
168 190 0
172 195 0
167 189 0
171 193 0
169 192 0
170 192 0
172 196 0
171 194 0
167 190 0
172 196 0
170 193 0
174 197 0
170 193 0
172 195 0
173 197 0
171 195 0
171 193 0
171 193 0
170 193 0
174 197 0
171 194 0
172 196 0
171 194 0
172 196 0
171 195 0
173 196 0
170 194 0
172 196 0
173 196 0
175 198 0
171 194 0
175 198 0
173 197 0
171 194 0
172 195 0
174 196 0
172 195 0
173 196 0
172 196 0
170 194 0
172 197 0
174 196 0
175 198 0
171 194 0
175 198 0
175 198 0
175 198 0
174 197 0
173 197 0
172 196 0
174 197 0
173 197 0
174 197 0
172 196 0
172 196 0
175 198 0
177 199 0
174 198 0
174 197 0
174 198 0
173 196 0
174 198 0
172 196 0
174 197 0
173 197 0
175 198 0
174 197 0
175 198 0
173 197 0
172 197 0
173 196 0
174 198 0
174 197 0
174 197 0
175 198 0
174 197 0
175 198 0
173 197 0
174 198 0
175 198 0
174 197 0
174 197 0
173 197 0
177 199 0
173 197 0
173 197 0
172 197 0
174 198 0
175 197 0
175 198 0
174 198 0
175 198 0
175 198 0
173 197 0
174 198 0
175 198 0
174 197 0
174 197 0
174 198 0
174 197 0
173 197 0
175 198 0
173 197 0
173 197 0
173 197 0
176 198 0
174 198 0
175 198 0
174 198 0
174 197 0
174 198 0
174 198 0
174 198 0
174 197 0
175 198 0
173 197 0
176 198 0
174 198 0
175 198 0
175 198 0
175 198 0
175 198 0
176 198 0
175 198 0
174 198 0
175 198 0
174 198 0
175 198 0
174 198 0
174 198 0
174 197 0
173 197 0
176 199 0
175 198 0
174 197 0
175 198 0
174 198 0
173 197 0
174 197 0
175 198 0
174 198 0
175 198 0
175 198 0
174 197 0
174 197 0
175 198 0
176 199 0
175 198 0
174 198 0
175 198 0
176 199 0
175 198 0
175 198 0
174 198 0
173 197 0
174 197 0
174 198 0
175 198 0
176 198 0
176 199 0
175 198 0
175 198 0
174 198 0
175 198 0
174 198 0
174 198 0
174 198 0
174 198 0
175 198 0
172 197 0
174 198 0
174 197 0
175 198 0
175 198 0
173 197 0
174 198 0
175 198 0
176 199 0
174 198 0
174 197 0
175 198 0
175 198 0
176 199 0
174 198 0
175 198 0
174 198 0
176 198 0
175 198 0
172 197 0
174 197 0
176 198 0
174 197 0
174 198 0
173 197 0
173 197 0
174 197 0
173 197 0
175 198 0
175 198 0
173 197 0
175 198 0
176 198 0
175 198 0
174 198 0
175 198 0
174 198 0
172 196 0
175 198 0
174 198 0
174 198 0
173 197 0
176 198 0
173 197 0
174 198 0
173 197 0
175 198 0
174 197 0
173 197 0
174 197 0
174 197 0
176 198 0
175 198 0
176 199 0
173 197 0
173 197 0
175 198 0
175 198 0
174 198 0
174 198 0
175 198 0
174 197 0
175 198 0
175 198 0
173 197 0
174 197 0
174 198 0
173 197 0
174 197 0
174 198 0
175 198 0
174 198 0
174 198 0
174 198 0
175 198 0
174 198 0
175 198 0
174 197 0
176 198 0
175 198 0
174 197 0
174 198 0
175 198 0
174 197 0
175 198 0
174 198 0
175 198 0
173 197 0
175 198 0
175 198 0
173 197 0
175 198 0
172 196 0
175 198 0
175 198 0
175 198 0
174 197 0
174 198 0
174 197 0
176 199 0
175 198 0
172 196 0
174 197 0
176 198 0
173 197 0
176 199 0
176 199 0
173 197 0
171 195 0
173 197 0
173 197 0
172 196 0
173 197 0
175 198 0
173 197 0
173 196 0
173 196 0
175 198 0
173 196 0
174 197 0
174 198 0
172 196 0
175 198 0
173 197 0
172 196 0
174 197 0
174 197 0
173 197 0
172 196 0
173 196 0
173 196 0
172 196 0
172 195 0
171 195 0
173 196 0
171 195 0
172 195 0
167 192 0
169 193 0
171 195 0
169 192 0
169 192 0
170 194 0
169 193 0
170 194 0
171 195 0
172 195 0
175 198 0
172 195 0
172 196 0
168 192 0
168 191 18
168 191 18
165 188 60
174 195 82
165 188 51
170 193 60
167 188 80
168 190 70
179 200 108
173 196 99
173 195 72
173 195 76
167 189 84
171 193 80
166 187 84
166 188 72
169 190 76
165 187 72
164 185 76
164 185 92
157 179 62
166 187 84
160 181 57
161 182 57
159 181 0
164 187 0
162 184 0
163 186 0
157 180 0
147 169 0
157 179 0
158 181 0
164 187 0
154 176 0
160 183 0
154 175 0
150 172 0
155 178 0
153 175 0
162 184 0
156 178 0
148 170 0
148 171 0
153 176 0
160 182 0
155 178 0
159 182 0
155 177 0
157 180 0
153 175 0
159 181 0
155 177 0
158 179 0
162 182 0
164 187 0
163 186 0
163 187 0
160 182 0
164 186 0
162 185 0
162 184 0
164 186 0
166 190 0
167 190 0
164 187 0
167 189 0
163 185 0
168 191 0
169 191 0
170 193 0
168 191 0
166 187 0
164 187 0
170 192 0
167 189 0
166 189 0
170 192 0
164 187 0
167 190 0
165 187 0
173 195 0
166 189 0
172 193 0
169 191 0
170 193 0
170 193 0
168 190 0
171 194 0
173 196 0
175 197 0
170 194 0
170 193 0
173 196 0
173 197 0
170 193 0
173 196 0
169 192 0
172 195 0
172 195 0
170 193 0
172 195 0
171 195 0
172 196 0
173 197 0
173 196 0
170 194 0
174 196 0
172 195 0
172 196 0
175 198 0
173 197 0
172 195 0
174 197 0
175 198 0
174 197 0
172 195 0
172 196 0
175 198 0
173 196 0
172 196 0
175 197 0
173 196 0
173 197 0
174 197 0
175 198 0
173 197 0
174 197 0
173 197 0
174 198 0
173 196 0
174 198 0
174 197 0
172 195 0
176 198 0
174 198 0
174 197 0
175 198 0
174 198 0
173 197 0
173 196 0
173 196 0
174 197 0
174 197 0
174 198 0
174 197 0
174 198 0
173 197 0
176 199 0
174 198 0
173 197 0
174 197 0
172 196 0
174 197 0
176 199 0
174 197 0
174 197 0
174 198 0
173 197 0
173 197 0
173 197 0
174 198 0
173 197 0
175 198 0
175 198 0
174 197 0
173 197 0
173 197 0
175 198 0
174 197 0
173 197 0
174 197 0
175 198 0
175 198 0
176 198 0
175 198 0
173 197 0
174 197 0
175 198 0
174 198 0
172 197 0
172 196 0
174 197 0
175 198 0
174 197 0
172 197 0
176 199 0
174 197 0
175 198 0
176 199 0
172 196 0
174 198 0
175 198 0
174 197 0
174 197 0
173 197 0
176 199 0
176 199 0
174 197 0
176 198 0
174 198 0
174 197 0
174 197 0
173 197 0
174 198 0
173 197 0
174 197 0
175 198 0
174 197 0
173 197 0
176 199 0
177 199 0
173 197 0
174 198 0
175 198 0
175 198 0
175 198 0
175 198 0
173 197 0
173 197 0
175 198 0
174 198 0
173 197 0
173 197 0
175 198 0
175 198 0
175 198 0
175 198 0
173 197 0
174 198 0
173 197 0
175 198 0
174 197 0
175 198 0
175 198 0
175 198 0
175 198 0
174 197 0
174 198 0
176 199 0
174 198 0
173 197 0
172 197 0
174 198 0
175 198 0
175 198 0
175 198 0
175 198 0
175 198 0
174 197 0
174 197 0
175 198 0
175 198 0
173 197 0
176 198 0
173 197 0
175 198 0
176 199 0
175 198 0
174 198 0
174 198 0
174 198 0
175 198 0
174 198 0
173 197 0
174 198 0
174 197 0
175 198 0
174 198 0
174 197 0
173 197 0
174 197 0
175 198 0
173 197 0
172 197 0
173 197 0
175 198 0
175 198 0
173 197 0
174 198 0
175 198 0
173 197 0
174 198 0
175 198 0
173 197 0
177 199 0
174 197 0
173 197 0
175 198 0
176 198 0
175 198 0
173 197 0
173 197 0
173 197 0
174 197 0
175 198 0
174 198 0
173 197 0
174 198 0
174 198 0
174 198 0
174 198 0
173 197 0
173 197 0
174 198 0
175 198 0
175 198 0
175 198 0
175 198 0
174 198 0
174 198 0
175 198 0
175 198 0
175 198 0
175 198 0
173 197 0
174 197 0
174 197 0
173 197 0
173 197 0
172 197 0
174 198 0
175 198 0
174 197 0
173 197 0
174 197 0
174 198 0
174 197 0
173 197 0
175 198 0
175 198 0
176 198 0
173 197 0
174 197 0
173 197 0
175 198 0
173 197 0
174 198 0
173 197 0
173 197 0
174 198 0
172 196 0
173 197 0
174 198 0
175 198 0
174 197 0
174 198 0
175 198 0
174 197 0
174 198 0
174 197 0
174 198 0
172 196 0
172 196 0
174 198 0
174 198 0
173 197 0
174 197 0
171 195 0
173 197 0
174 197 0
172 196 0
176 199 0
175 198 0
174 197 0
172 196 0
175 198 0
173 197 0
171 195 0
171 194 0
173 197 0
174 197 0
173 197 0
174 197 0
172 195 0
171 196 0
173 197 0
174 197 0
173 196 0
174 197 0
173 197 0
173 197 0
172 196 0
173 197 0
174 196 0
172 195 0
173 196 0
175 198 0
173 196 0
173 196 0
174 197 0
172 195 0
168 191 0
172 196 0
170 194 0
173 196 0
174 197 0
171 195 0
173 197 0
170 194 0
169 192 0
171 194 25
170 193 36
165 188 25
171 193 40
168 191 51
168 190 47
168 190 40
170 192 65
173 195 67
176 195 88
174 195 84
173 195 67
169 190 80
169 191 57
168 190 92
171 192 57
170 191 72
161 182 51
161 182 51
166 188 72
167 188 76
173 194 92
171 192 44
166 187 51
162 185 36
161 184 0
160 183 0
165 188 0
156 179 0
165 186 0
152 174 0
160 182 0
160 182 0
153 176 0
156 178 0
148 171 0
158 181 0
155 177 0
144 167 0
152 174 0
155 178 0
154 177 0
159 181 0
156 178 0
161 183 0
158 181 0
156 178 0
160 182 0
159 182 0
159 181 0
161 184 0
160 182 0
162 185 0
160 182 0
163 185 0
160 183 0
162 185 0
165 188 0
163 186 0
165 188 0
165 186 0
164 187 0
165 188 0
164 186 0
166 187 0
169 193 0
163 186 0
169 193 0
170 193 0
169 193 0
166 189 0
163 185 0
170 194 0
167 191 0
170 194 0
171 194 0
163 186 0
166 189 0
169 191 0
168 190 0
172 195 0
169 192 0
170 193 0
167 191 0
171 195 0
168 191 0
171 194 0
169 192 0
172 194 0
168 191 0
170 194 0
172 194 0
172 195 0
169 193 0
172 195 0
169 193 0
172 195 0
172 195 0
174 197 0
171 194 0
172 196 0
173 196 0
171 195 0
170 194 0
173 196 0
172 194 0
171 194 0
175 197 0
172 194 0
172 195 0
175 198 0
172 196 0
173 196 0
173 195 0
174 197 0
173 196 0
175 198 0
174 197 0
173 197 0
174 197 0
174 197 0
172 195 0
174 197 0
173 196 0
174 197 0
172 196 0
173 197 0
175 198 0
175 198 0
174 198 0
173 197 0
173 196 0
173 196 0
174 197 0
174 198 0
174 197 0
174 197 0
174 197 0
175 198 0
173 197 0
174 197 0
172 196 0
173 196 0
173 196 0
174 198 0
173 196 0
173 197 0
173 197 0
173 197 0
174 197 0
173 197 0
174 197 0
174 198 0
174 197 0
174 197 0
173 196 0
173 197 0
175 198 0
173 197 0
174 198 0
174 197 0
174 197 0
174 197 0
174 198 0
173 196 0
174 198 0
174 198 0
173 197 0
173 197 0
173 197 0
174 198 0
172 196 0
175 198 0
174 198 0
175 198 0
172 197 0
174 197 0
173 197 0
174 198 0
175 198 0
174 198 0
176 199 0
174 197 0
175 198 0
175 197 0
175 198 0
174 198 0
173 197 0
174 198 0
172 196 0
174 198 0
175 198 0
174 198 0
174 197 0
173 197 0
174 198 0
174 197 0
174 197 0
173 197 0
175 198 0
175 198 0
176 199 0
175 198 0
174 198 0
174 198 0
174 197 0
173 196 0
173 197 0
174 198 0
173 197 0
173 197 0
172 196 0
174 198 0
174 197 0
175 198 0
175 198 0
173 197 0
174 197 0
176 199 0
175 198 0
173 197 0
175 198 0
173 197 0
173 197 0
175 198 0
175 198 0
174 198 0
175 198 0
175 198 0
174 198 0
172 197 0
174 198 0
175 198 0
175 198 0
177 199 0
174 198 0
175 198 0
174 198 0
174 198 0
174 198 0
174 198 0
174 198 0
174 198 0
175 198 0
174 198 0
172 197 0
175 198 0
174 198 0
173 197 0
174 197 0
174 198 0
175 198 0
173 197 0
174 198 0
174 197 0
176 199 0
175 198 0
175 198 0
176 199 0
173 197 0
174 198 0
174 197 0
175 198 0
174 198 0
175 198 0
175 198 0
174 197 0
174 198 0
173 197 0
174 198 0
175 198 0
175 198 0
173 197 0
176 198 0
174 197 0
173 197 0
174 197 0
175 198 0
174 198 0
175 198 0
173 197 0
175 198 0
175 198 0
176 198 0
175 198 0
175 198 0
176 198 0
174 198 0
176 199 0
173 197 0
175 198 0
173 197 0
173 197 0
175 198 0
173 197 0
172 197 0
174 198 0
175 198 0
174 198 0
174 198 0
174 198 0
176 198 0
173 196 0
174 197 0
175 198 0
174 198 0
176 199 0
173 197 0
174 198 0
175 198 0
174 198 0
175 198 0
173 197 0
174 197 0
175 198 0
176 198 0
176 198 0
175 198 0
172 196 0
176 199 0
175 198 0
175 198 0
175 198 0
174 197 0
174 198 0
172 196 0
175 198 0
173 197 0
172 197 0
174 198 0
175 198 0
175 198 0
174 197 0
174 197 0
174 198 0
172 196 0
173 197 0
171 195 0
174 197 0
172 196 0
174 197 0
174 197 0
174 198 0
174 198 0
174 197 0
174 197 0
174 197 0
174 197 0
172 196 0
175 198 0
174 198 0
172 196 0
172 196 0
174 197 0
174 197 0
171 195 0
173 196 0
175 198 0
174 197 0
172 196 0
173 197 0
172 196 0
172 196 0
173 196 0
173 197 0
173 196 0
174 198 0
174 198 0
174 197 0
175 198 0
172 196 0
174 197 0
169 193 0
172 196 0
173 197 0
172 195 0
172 195 0
172 196 0
173 196 0
171 195 0
172 196 0
172 195 0
172 196 0
171 194 0
174 198 0
175 198 0
172 195 0
171 195 0
172 195 0
174 198 0
169 193 0
173 196 0
173 196 0
171 194 0
171 194 0
170 193 0
173 197 0
171 196 0
170 194 0
172 194 0
171 194 0
167 191 0
169 191 36
168 191 47
164 187 31
165 186 51
159 181 47
168 190 47
166 187 76
177 199 95
169 190 67
170 192 76
168 189 76
167 190 76
165 187 44
166 188 72
166 188 67
163 184 51
167 188 57
171 192 84
165 186 80
170 191 62
158 180 0
159 180 25
163 186 25
165 187 0
165 189 0
158 180 0
157 178 0
155 177 0
163 185 0
153 176 0
156 178 0
158 179 0
160 183 0
164 186 0
159 181 0
162 184 0
154 177 0
159 183 0
156 178 0
157 179 0
160 183 0
159 182 0
152 174 0
161 183 0
157 180 0
158 181 0
162 185 0
165 187 0
161 184 0
161 185 0
166 191 0
164 188 0
160 183 0
162 184 0
165 189 0
169 192 0
160 183 0
167 189 0
161 185 0
161 183 0
165 188 0
167 189 0
169 191 0
169 192 0
167 189 0
167 190 0
162 185 0
171 194 0
169 192 0
164 187 0
169 193 0
164 188 0
169 191 0
169 193 0
166 188 0
170 193 0
165 189 0
169 192 0
169 192 0
172 196 0
172 195 0
169 191 0
169 192 0
169 191 0
170 193 0
171 194 0
172 194 0
171 194 0
171 194 0
173 196 0
172 196 0
171 195 0
171 195 0
174 196 0
173 195 0
171 195 0
175 198 0
173 196 0
173 196 0
172 196 0
172 194 0
171 195 0
171 195 0
173 196 0
174 196 0
173 197 0
173 196 0
173 196 0
171 193 0
170 194 0
173 196 0
172 195 0
173 196 0
174 197 0
173 197 0
175 198 0
173 196 0
172 196 0
172 195 0
174 197 0
169 192 0
173 197 0
174 198 0
175 198 0
172 195 0
175 198 0
173 197 0
173 197 0
172 196 0
172 196 0
175 198 0
173 197 0
173 197 0
173 196 0
174 197 0
174 198 0
173 196 0
176 199 0
175 198 0
175 198 0
177 199 0
174 197 0
174 198 0
172 196 0
174 198 0
174 197 0
172 196 0
174 198 0
172 196 0
175 197 0
174 197 0
174 198 0
173 196 0
174 197 0
175 198 0
174 197 0
174 198 0
174 197 0
173 196 0
176 198 0
173 197 0
173 197 0
175 198 0
174 198 0
174 197 0
175 198 0
172 196 0
174 196 0
175 198 0
174 198 0
175 198 0
174 197 0
174 197 0
174 197 0
175 198 0
176 199 0
176 199 0
174 197 0
175 198 0
174 198 0
175 198 0
174 198 0
173 196 0
174 198 0
173 197 0
175 198 0
174 197 0
174 198 0
176 199 0
175 198 0
175 198 0
174 198 0
175 198 0
176 198 0
176 198 0
176 198 0
173 197 0
174 198 0
175 198 0
174 197 0
174 198 0
175 198 0
175 198 0
175 198 0
174 198 0
174 198 0
175 198 0
174 198 0
173 197 0
175 198 0
174 198 0
173 197 0
174 198 0
174 198 0
176 198 0
175 198 0
175 198 0
175 198 0
173 197 0
174 197 0
175 198 0
175 198 0
176 199 0
174 198 0
176 199 0
175 198 0
174 198 0
175 198 0
175 198 0
175 198 0
175 198 0
174 198 0
175 198 0
174 197 0
175 198 0
172 196 0
174 198 0
173 197 0
175 198 0
174 198 0
175 198 0
174 198 0
174 198 0
175 198 0
173 197 0
174 198 0
175 198 0
176 198 0
175 198 0
175 198 0
174 198 0
174 197 0
174 198 0
174 198 0
174 198 0
173 197 0
173 197 0
175 198 0
175 198 0
175 198 0
176 199 0
174 197 0
174 198 0
174 198 0
175 198 0
176 199 0
174 198 0
174 198 0
174 198 0
174 198 0
174 198 0
172 196 0
174 198 0
175 198 0
174 198 0
174 198 0
174 197 0
175 198 0
174 198 0
175 198 0
174 198 0
175 198 0
175 198 0
174 197 0
173 197 0
175 198 0
175 198 0
172 196 0
173 197 0
175 198 0
175 198 0
174 197 0
174 198 0
173 197 0
174 198 0
173 197 0
174 198 0
174 198 0
175 198 0
175 198 0
174 198 0
174 198 0
173 197 0
174 197 0
175 198 0
174 197 0
174 198 0
174 198 0
174 198 0
173 197 0
174 197 0
175 198 0
174 198 0
174 197 0
176 199 0
173 197 0
175 198 0
174 198 0
174 197 0
174 197 0
175 198 0
175 198 0
174 197 0
172 196 0
174 198 0
174 197 0
175 198 0
175 198 0
175 198 0
172 196 0
175 198 0
176 198 0
173 197 0
172 196 0
174 198 0
173 197 0
173 197 0
174 198 0
174 198 0
175 198 0
172 196 0
172 196 0
175 198 0
174 198 0
174 198 0
173 197 0
173 197 0
173 197 0
173 197 0
175 198 0
174 196 0
174 198 0
172 196 0
174 197 0
174 198 0
173 197 0
176 199 0
173 197 0
173 197 0
172 196 0
173 197 0
174 198 0
172 196 0
173 197 0
174 197 0
173 197 0
173 197 0
172 196 0
174 197 0
171 194 0
172 196 0
172 195 0
174 197 0
170 194 0
173 196 0
172 196 0
173 197 0
172 196 0
171 195 0
174 197 0
173 196 0
175 198 0
175 197 0
172 195 0
169 194 0
171 195 0
171 195 0
174 197 0
173 196 0
172 195 0
171 194 0
171 194 0
171 195 0
173 196 0
172 196 0
173 196 0
173 196 0
171 193 0
172 195 0
172 195 0
172 194 31
173 194 31
170 193 51
169 191 25
168 190 31
168 190 44
169 191 72
175 196 57
171 192 62
172 192 57
172 194 84
169 190 72
170 192 80
163 184 44
164 186 57
168 190 51
167 187 67
171 192 80
171 192 67
156 178 25
165 187 44
167 189 0
166 191 0
166 189 0
166 188 0
163 185 0
157 180 0
160 182 0
157 179 0
159 181 0
162 184 0
161 184 0
151 173 0
163 185 0
160 182 0
156 179 0
157 180 0
165 188 0
163 185 0
151 174 0
158 181 0
157 181 0
160 183 0
162 185 0
153 176 0
164 186 0
157 179 0
161 184 0
159 182 0
161 184 0
158 181 0
164 186 0
161 184 0
168 191 0
161 183 0
159 181 0
161 183 0
163 187 0
163 186 0
162 184 0
166 189 0
163 187 0
166 189 0
165 187 0
163 186 0
166 188 0
166 190 0
168 191 0
170 192 0
168 191 0
169 191 0
170 191 0
167 190 0
171 193 0
167 189 0
170 193 0
167 189 0
171 195 0
169 191 0
172 195 0
165 188 0
172 195 0
168 192 0
168 192 0
168 191 0
172 195 0
172 194 0
171 194 0
173 196 0
173 195 0
170 193 0
170 194 0
173 196 0
169 192 0
171 193 0
171 195 0
173 196 0
171 193 0
172 196 0
169 192 0
173 196 0
172 195 0
173 195 0
175 197 0
174 197 0
172 195 0
174 197 0
173 196 0
171 195 0
173 196 0
172 195 0
173 196 0
172 196 0
172 195 0
172 196 0
174 197 0
172 196 0
172 195 0
172 196 0
172 195 0
175 198 0
173 195 0
172 196 0
173 197 0
171 194 0
173 196 0
171 193 0
173 196 0
174 197 0
173 196 0
174 198 0
172 196 0
174 197 0
174 197 0
175 198 0
177 199 0
175 198 0
176 199 0
175 198 0
172 196 0
172 196 0
174 197 0
172 196 0
175 198 0
174 198 0
174 197 0
174 197 0
172 195 0
173 196 0
174 197 0
174 198 0
173 196 0
174 198 0
175 198 0
174 198 0
172 196 0
176 198 0
176 199 0
174 198 0
174 197 0
173 197 0
174 197 0
175 198 0
174 197 0
175 198 0
174 198 0
176 198 0
174 197 0
175 198 0
176 198 0
175 198 0
175 198 0
174 197 0
175 198 0
174 198 0
174 198 0
175 198 0
175 198 0
174 198 0
174 197 0
173 197 0
174 198 0
174 198 0
173 197 0
175 198 0
173 197 0
174 198 0
175 198 0
176 198 0
175 198 0
175 198 0
173 197 0
175 198 0
174 198 0
173 197 0
174 198 0
175 198 0
173 197 0
175 198 0
174 197 0
174 198 0
175 198 0
174 198 0
174 197 0
175 198 0
173 197 0
173 197 0
175 198 0
173 197 0
175 198 0
175 198 0
175 198 0
175 198 0
174 198 0
174 198 0
174 197 0
175 198 0
175 198 0
174 198 0
174 198 0
177 199 0
172 196 0
173 197 0
175 198 0
175 198 0
174 198 0
174 197 0
174 198 0
174 198 0
176 198 0
174 198 0
175 198 0
175 198 0
175 198 0
173 197 0
174 197 0
175 198 0
174 198 0
174 198 0
173 197 0
174 197 0
174 198 0
174 198 0
175 198 0
175 198 0
172 197 0
174 198 0
174 198 0
175 198 0
173 197 0
176 199 0
176 198 0
173 197 0
175 198 0
175 198 0
174 198 0
174 198 0
176 199 0
174 198 0
174 198 0
174 198 0
175 198 0
173 196 0
173 197 0
176 199 0
174 198 0
174 198 0
176 199 0
176 198 0
174 197 0
174 198 0
174 197 0
174 197 0
174 198 0
173 197 0
174 197 0
174 198 0
175 198 0
174 197 0
173 197 0
173 197 0
175 198 0
175 198 0
174 198 0
173 197 0
173 197 0
173 197 0
174 198 0
176 198 0
175 198 0
174 198 0
175 198 0
174 198 0
174 198 0
175 198 0
174 198 0
176 199 0
175 198 0
173 196 0
174 198 0
176 199 0
175 198 0
173 197 0
173 197 0
174 197 0
173 197 0
174 198 0
173 197 0
173 197 0
176 199 0
174 198 0
175 198 0
172 196 0
174 197 0
175 198 0
173 197 0
174 197 0
174 198 0
175 198 0
175 198 0
174 198 0
174 197 0
175 198 0
174 197 0
175 198 0
173 197 0
173 197 0
176 199 0
175 198 0
174 198 0
174 197 0
173 197 0
175 198 0
173 197 0
175 198 0
175 198 0
173 197 0
174 197 0
174 198 0
175 198 0
174 197 0
174 198 0
175 198 0
171 195 0
174 198 0
173 197 0
173 197 0
175 198 0
174 197 0
175 198 0
173 197 0
173 196 0
176 199 0
173 197 0
174 197 0
171 195 0
174 197 0
173 196 0
175 198 0
172 196 0
173 197 0
175 198 0
177 199 0
173 196 0
171 195 0
171 195 0
172 195 0
174 197 0
173 196 0
173 196 0
172 196 0
173 197 0
171 195 0
173 196 0
170 194 0
173 197 0
174 197 0
171 194 0
173 197 0
173 197 0
172 196 0
173 197 0
172 195 0
172 195 0
173 197 0
174 196 0
170 193 0
169 193 0
170 193 0
170 194 0
172 195 0
168 192 0
172 195 0
170 194 0
172 196 0
172 195 0
171 195 0
175 198 0
174 197 0
170 193 18
170 193 25
168 191 0
173 196 18
176 198 62
170 192 65
173 194 74
176 197 76
173 194 62
173 194 62
175 196 25
176 197 76
171 192 80
172 193 88
170 192 62
173 194 72
173 194 67
175 195 67
169 190 36
168 190 36
163 186 25
165 188 25
165 189 0
167 189 0
164 187 0
159 182 0
160 182 0
163 184 0
161 183 0
158 180 0
159 182 0
161 183 0
159 182 0
157 180 0
160 183 0
153 176 0
157 180 0
165 188 0
160 182 0
152 176 0
160 184 0
160 183 0
163 186 0
157 180 0
162 184 0
164 188 0
158 181 0
155 177 0
166 188 0
166 190 0
162 185 0
166 189 0
155 177 0
163 186 0
164 187 0
163 186 0
166 190 0
165 189 0
165 188 0
169 192 0
167 189 0
166 188 0
165 188 0
165 188 0
170 193 0
165 189 0
164 186 0
170 193 0
167 189 0
173 195 0
171 194 0
171 193 0
167 189 0
169 192 0
169 192 0
172 196 0
170 193 0
170 193 0
170 194 0
171 193 0
173 196 0
167 190 0
169 192 0
167 191 0
171 194 0
171 194 0
169 191 0
174 197 0
170 193 0
171 195 0
169 192 0
171 195 0
173 196 0
171 194 0
174 196 0
174 197 0
170 193 0
173 196 0
174 197 0
173 196 0
172 194 0
171 195 0
171 194 0
171 195 0
171 195 0
172 195 0
173 196 0
170 194 0
171 195 0
170 193 0
170 194 0
172 196 0
175 197 0
173 195 0
174 196 0
173 197 0
175 198 0
173 196 0
172 195 0
174 197 0
174 196 0
174 197 0
174 197 0
174 197 0
175 198 0
173 197 0
174 198 0
174 196 0
175 198 0
173 196 0
172 196 0
174 198 0
174 197 0
172 196 0
175 198 0
174 197 0
172 196 0
173 196 0
174 197 0
172 196 0
174 197 0
174 197 0
174 198 0
173 197 0
173 197 0
172 197 0
173 197 0
173 197 0
174 198 0
176 198 0
173 197 0
172 196 0
174 197 0
176 198 0
174 198 0
174 198 0
175 198 0
173 196 0
174 198 0
174 197 0
174 197 0
174 198 0
176 199 0
171 195 0
174 198 0
174 197 0
172 196 0
173 196 0
173 197 0
174 197 0
173 197 0
174 198 0
174 198 0
175 198 0
173 197 0
174 197 0
175 198 0
174 198 0
175 198 0
175 198 0
175 198 0
175 198 0
175 198 0
175 198 0
174 198 0
175 198 0
175 198 0
175 198 0
174 198 0
175 198 0
175 198 0
173 197 0
174 197 0
174 197 0
174 198 0
174 198 0
174 197 0
174 197 0
175 198 0
174 198 0
173 197 0
174 198 0
176 199 0
174 197 0
174 198 0
174 198 0
173 197 0
175 198 0
175 198 0
174 198 0
175 198 0
174 198 0
174 197 0
174 198 0
174 197 0
175 198 0
175 198 0
174 197 0
176 199 0
172 197 0
174 198 0
174 198 0
175 198 0
174 198 0
175 198 0
175 198 0
174 197 0
174 198 0
174 198 0
174 198 0
174 198 0
176 199 0
173 197 0
174 198 0
173 197 0
175 198 0
173 197 0
175 198 0
175 198 0
174 198 0
174 198 0
174 197 0
175 198 0
174 198 0
173 197 0
174 198 0
174 198 0
174 197 0
175 198 0
176 198 0
172 196 0
175 198 0
173 197 0
175 198 0
175 198 0
174 198 0
174 198 0
174 197 0
174 197 0
174 197 0
174 198 0
174 198 0
176 198 0
173 197 0
176 199 0
173 197 0
172 196 0
175 198 0
173 197 0
176 198 0
173 197 0
173 197 0
174 198 0
174 198 0
173 197 0
174 198 0
175 198 0
176 198 0
175 198 0
175 198 0
173 197 0
172 197 0
174 197 0
175 198 0
175 198 0
175 198 0
173 197 0
175 198 0
175 198 0
174 197 0
175 198 0
176 199 0
174 198 0
174 197 0
174 197 0
174 197 0
174 197 0
173 197 0
175 198 0
175 198 0
176 198 0
174 198 0
176 199 0
176 199 0
175 198 0
174 198 0
175 198 0
175 198 0
175 198 0
174 197 0
175 198 0
175 198 0
176 198 0
175 198 0
173 197 0
174 198 0
173 196 0
175 198 0
175 198 0
175 198 0
174 197 0
174 197 0
175 198 0
175 198 0
174 198 0
173 197 0
172 197 0
175 197 0
174 197 0
175 198 0
172 196 0
175 198 0
174 197 0
173 196 0
173 197 0
176 199 0
173 197 0
175 198 0
174 197 0
174 198 0
174 198 0
172 196 0
173 197 0
173 197 0
174 197 0
173 197 0
174 197 0
172 196 0
174 198 0
172 195 0
174 197 0
172 197 0
174 197 0
173 197 0
175 198 0
173 197 0
174 198 0
174 197 0
173 197 0
173 197 0
174 198 0
173 197 0
172 196 0
174 197 0
173 196 0
173 196 0
174 197 0
173 197 0
174 197 0
175 198 0
172 197 0
174 197 0
173 196 0
172 195 0
172 196 0
169 192 0
174 197 0
173 196 0
172 196 0
169 193 0
173 197 0
171 195 0
175 198 0
174 197 0
173 196 0
171 195 0
169 194 0
173 196 0
170 194 0
174 197 0
170 194 0
170 193 0
169 193 0
172 195 0
174 197 0
172 196 0
172 195 0
172 195 0
173 197 0
173 197 0
172 195 36
169 193 25
172 194 0
173 195 25
172 193 25
170 192 51
177 198 44
177 199 0
179 199 76
177 198 44
176 197 76
177 198 67
176 197 67
175 196 95
174 194 51
170 191 51
174 195 57
170 191 67
168 189 36
165 187 36
166 189 0
168 191 0
160 184 0
168 190 0
168 190 0
164 186 25
162 185 0
159 182 0
165 187 0
160 183 0
150 173 0
157 180 0
162 184 0
158 181 0
156 179 0
162 185 0
158 180 0
161 184 0
159 182 0
164 186 0
162 185 0
163 185 0
165 188 0
167 188 0
161 184 0
157 179 0
162 186 0
163 187 0
165 188 0
162 185 0
166 189 0
162 186 0
164 188 0
166 188 0
168 191 0
164 188 0
167 191 0
161 183 0
168 190 0
169 191 0
160 184 0
165 189 0
165 189 0
168 191 0
164 188 0
163 186 0
168 191 0
169 193 0
169 193 0
169 192 0
171 193 0
169 193 0
169 193 0
169 193 0
169 192 0
172 196 0
169 192 0
170 193 0
171 195 0
169 191 0
170 194 0
170 194 0
166 189 0
171 195 0
171 193 0
173 196 0
169 192 0
170 194 0
171 195 0
172 195 0
172 195 0
171 194 0
172 196 0
173 196 0
171 194 0
174 197 0
173 197 0
171 193 0
172 195 0
172 196 0
175 197 0
171 195 0
169 192 0
172 195 0
174 197 0
173 195 0
173 197 0
171 195 0
173 197 0
175 197 0
173 196 0
172 196 0
172 196 0
173 196 0
172 196 0
176 198 0
171 194 0
174 197 0
172 196 0
172 195 0
174 198 0
174 198 0
173 196 0
175 198 0
174 197 0
174 197 0
172 195 0
175 198 0
174 197 0
173 196 0
175 198 0
176 198 0
174 198 0
175 198 0
173 196 0
173 197 0
174 197 0
173 197 0
175 198 0
174 197 0
175 198 0
172 196 0
176 199 0
174 197 0
174 197 0
173 196 0
173 197 0
173 196 0
173 196 0
176 199 0
174 197 0
172 196 0
175 198 0
173 196 0
174 197 0
174 197 0
175 198 0
175 198 0
174 197 0
175 198 0
175 198 0
173 197 0
174 197 0
175 198 0
175 198 0
174 198 0
174 197 0
173 197 0
176 199 0
174 198 0
174 198 0
174 198 0
176 199 0
174 197 0
173 197 0
172 196 0
176 198 0
174 197 0
174 197 0
175 198 0
173 197 0
173 197 0
173 197 0
175 198 0
175 198 0
175 198 0
174 198 0
175 198 0
175 198 0
174 197 0
175 198 0
174 198 0
175 198 0
176 198 0
175 198 0
174 198 0
172 196 0
174 197 0
176 199 0
173 197 0
175 198 0
174 198 0
175 198 0
173 197 0
174 198 0
174 197 0
174 197 0
174 198 0
175 198 0
174 198 0
175 198 0
175 198 0
175 198 0
175 198 0
173 197 0
174 198 0
174 198 0
175 198 0
174 198 0
174 197 0
175 198 0
173 197 0
175 198 0
173 197 0
175 198 0
175 198 0
174 198 0
176 199 0
174 197 0
174 198 0
176 199 0
174 198 0
174 198 0
175 198 0
173 197 0
175 198 0
177 199 0
173 197 0
175 198 0
175 198 0
172 197 0
175 198 0
174 197 0
173 197 0
173 197 0
175 198 0
174 198 0
175 198 0
174 198 0
174 198 0
175 198 0
174 198 0
175 198 0
174 198 0
174 197 0
176 199 0
174 198 0
175 198 0
175 198 0
173 197 0
175 198 0
175 198 0
174 198 0
174 197 0
175 198 0
174 198 0
173 197 0
175 198 0
176 198 0
174 198 0
174 198 0
173 197 0
175 198 0
173 197 0
174 197 0
174 197 0
175 198 0
173 197 0
175 198 0
173 197 0
175 198 0
174 198 0
174 198 0
175 198 0
175 198 0
175 198 0
172 197 0
173 197 0
172 197 0
175 198 0
174 197 0
175 198 0
174 198 0
176 198 0
173 197 0
173 197 0
174 198 0
174 198 0
175 198 0
174 197 0
174 198 0
175 198 0
174 198 0
173 197 0
175 198 0
175 198 0
174 198 0
172 196 0
174 198 0
172 196 0
175 198 0
174 198 0
174 198 0
174 198 0
174 197 0
174 198 0
174 197 0
173 197 0
174 198 0
173 197 0
176 199 0
174 197 0
174 197 0
173 197 0
175 198 0
176 198 0
175 198 0
172 196 0
174 198 0
173 197 0
173 197 0
172 196 0
174 198 0
172 196 0
175 198 0
174 197 0
173 197 0
174 197 0
174 198 0
175 198 0
173 196 0
173 197 0
173 197 0
174 197 0
172 196 0
172 196 0
174 197 0
174 198 0
173 197 0
172 196 0
174 198 0
174 197 0
173 196 0
176 198 0
172 196 0
175 198 0
173 197 0
173 196 0
173 196 0
174 197 0
174 198 0
173 197 0
172 196 0
173 197 0
172 196 0
173 196 0
174 197 0
172 196 0
172 196 0
172 195 0
173 196 0
173 197 0
171 195 0
174 197 0
172 196 0
170 193 0
172 195 0
175 198 0
174 197 0
170 194 0
173 196 0
171 194 0
172 196 0
172 196 0
171 195 0
172 196 0
173 196 0
174 197 0
173 196 0
173 197 0
168 193 0
172 195 0
172 195 0
173 196 0
170 192 0
171 194 0
172 195 0
171 194 0
172 195 0
175 198 0
174 197 0
175 198 0
173 195 25
172 195 18
171 192 36
170 192 44
173 195 54
173 196 72
176 197 44
179 199 57
174 195 62
176 196 51
175 195 57
175 197 57
170 192 57
171 193 44
172 193 25
166 188 36
172 194 51
167 190 0
172 194 0
165 189 0
164 187 0
166 189 0
167 190 0
166 188 0
164 186 0
156 178 0
158 181 0
167 190 0
160 182 0
165 188 0
166 188 0
160 184 0
159 182 0
164 187 0
165 188 0
164 187 0
168 190 0
161 185 0
156 179 0
157 180 0
162 185 0
162 185 0
165 188 0
161 184 0
166 190 0
162 187 0
163 186 0
165 187 0
161 184 0
163 187 0
169 191 0
168 191 0
170 193 0
168 190 0
165 186 0
164 187 0
167 189 0
164 187 0
164 187 0
173 196 0
166 189 0
166 189 0
169 191 0
168 189 0
165 188 0
171 194 0
173 195 0
166 188 0
169 192 0
169 193 0
169 191 0
169 191 0
171 193 0
168 191 0
173 195 0
171 193 0
170 194 0
170 193 0
170 193 0
167 189 0
169 192 0
171 194 0
172 195 0
170 193 0
172 196 0
169 193 0
166 188 0
170 193 0
173 197 0
172 194 0
174 197 0
174 197 0
174 196 0
174 197 0
173 197 0
175 197 0
173 196 0
174 197 0
171 195 0
172 195 0
174 197 0
173 196 0
175 197 0
171 194 0
174 197 0
173 197 0
172 196 0
173 197 0
174 196 0
171 195 0
174 197 0
173 196 0
174 198 0
171 194 0
172 196 0
174 197 0
172 196 0
175 197 0
173 196 0
174 197 0
174 198 0
174 197 0
175 198 0
173 197 0
173 196 0
173 197 0
174 197 0
172 196 0
174 197 0
173 196 0
172 195 0
176 199 0
171 195 0
175 198 0
174 198 0
176 198 0
173 196 0
173 197 0
173 196 0
173 197 0
173 197 0
174 197 0
171 195 0
172 196 0
172 196 0
174 198 0
176 199 0
175 198 0
174 198 0
173 196 0
174 197 0
174 198 0
175 198 0
174 197 0
174 197 0
174 197 0
174 196 0
172 196 0
175 198 0
176 199 0
174 197 0
174 198 0
174 198 0
172 195 0
174 197 0
175 198 0
175 198 0
174 197 0
175 198 0
174 197 0
174 197 0
174 198 0
173 197 0
174 197 0
175 198 0
175 198 0
174 198 0
174 197 0
175 198 0
174 198 0
175 198 0
172 197 0
175 198 0
174 197 0
175 198 0
173 197 0
175 198 0
175 198 0
175 198 0
174 198 0
173 197 0
173 197 0
174 198 0
174 197 0
174 197 0
173 197 0
174 197 0
174 197 0
173 197 0
176 199 0
174 197 0
174 197 0
175 198 0
174 197 0
173 197 0
174 198 0
175 198 0
175 198 0
174 198 0
173 196 0
173 197 0
173 197 0
174 198 0
175 198 0
175 198 0
174 198 0
175 198 0
175 198 0
174 197 0
174 198 0
175 198 0
174 198 0
173 197 0
174 198 0
175 198 0
174 198 0
176 199 0
174 198 0
175 198 0
174 198 0
175 198 0
173 197 0
174 198 0
174 197 0
176 198 0
176 198 0
171 196 0
173 197 0
173 197 0
174 198 0
174 198 0
175 198 0
174 198 0
172 197 0
173 197 0
172 196 0
175 198 0
173 197 0
174 198 0
174 198 0
174 198 0
174 197 0
174 197 0
175 198 0
175 198 0
175 198 0
173 197 0
175 198 0
175 198 0
174 198 0
177 199 0
174 198 0
173 197 0
175 198 0
176 198 0
175 198 0
174 198 0
175 198 0
174 198 0
174 198 0
174 198 0
174 198 0
172 196 0
174 198 0
174 198 0
174 198 0
175 198 0
174 198 0
174 197 0
175 198 0
173 197 0
174 197 0
176 199 0
175 198 0
174 198 0
174 197 0
174 197 0
174 198 0
174 198 0
173 197 0
175 198 0
173 197 0
174 198 0
174 198 0
175 198 0
174 198 0
174 197 0
172 196 0
175 198 0
173 197 0
173 197 0
174 198 0
174 198 0
174 198 0
173 197 0
173 197 0
175 198 0
172 196 0
176 199 0
175 198 0
175 198 0
174 198 0
175 198 0
174 197 0
174 197 0
175 198 0
173 197 0
176 198 0
174 198 0
174 198 0
174 197 0
175 198 0
175 198 0
173 197 0
174 197 0
175 198 0
174 198 0
173 197 0
175 198 0
174 198 0
175 198 0
174 198 0
173 196 0
175 198 0
174 197 0
173 197 0
174 197 0
175 198 0
174 197 0
173 197 0
172 196 0
174 198 0
175 198 0
174 197 0
175 198 0
174 197 0
175 198 0
176 199 0
175 198 0
174 197 0
173 197 0
176 199 0
174 198 0
174 198 0
174 198 0
175 198 0
173 197 0
174 198 0
172 195 0
173 196 0
173 197 0
174 198 0
172 196 0
175 198 0
174 198 0
174 198 0
174 197 0
171 196 0
171 195 0
171 194 0
173 196 0
173 196 0
174 197 0
171 195 0
170 193 0
174 197 0
173 196 0
174 198 0
173 196 0
169 192 0
173 196 0
172 195 0
173 197 0
172 196 0
171 195 0
173 196 0
173 196 0
173 196 0
172 195 0
174 197 0
171 195 0
167 190 0
174 197 0
174 196 0
173 196 0
171 194 0
175 198 0
172 196 0
173 196 0
170 193 0
169 193 0
172 195 0
172 194 36
171 194 36
170 192 31
175 197 36
175 197 44
169 191 36
174 195 44
176 197 51
170 193 51
173 195 25
174 196 25
173 194 44
173 196 0
171 194 0
170 192 0
165 188 0
168 191 0
166 188 0
166 188 0
166 187 25
161 182 0
154 176 0
163 183 0
164 186 0
162 185 0
160 182 0
160 182 0
165 188 0
168 190 0
167 191 0
165 187 0
163 187 0
165 188 0
160 183 0
166 188 0
163 186 0
167 189 0
162 185 0
167 190 0
164 186 0
163 186 0
167 190 0
165 188 0
165 188 0
167 190 0
167 190 0
164 187 0
165 189 0
164 188 0
168 191 0
165 189 0
166 190 0
165 189 0
170 193 0
169 191 0
168 190 0
163 187 0
165 189 0
170 193 0
169 192 0
168 192 0
171 194 0
168 190 0
169 194 0
169 192 0
169 193 0
167 190 0
166 188 0
169 193 0
171 194 0
172 195 0
167 190 0
169 193 0
173 195 0
170 194 0
171 195 0
170 192 0
172 195 0
172 195 0
168 191 0
169 193 0
170 193 0
170 193 0
171 193 0
169 193 0
172 196 0
172 196 0
171 194 0
173 195 0
170 193 0
174 198 0
171 194 0
173 197 0
171 194 0
173 196 0
173 196 0
172 196 0
174 198 0
171 195 0
172 195 0
174 196 0
173 196 0
172 195 0
172 194 0
175 198 0
173 197 0
173 197 0
173 196 0
174 196 0
172 196 0
171 194 0
174 198 0
173 196 0
175 198 0
174 197 0
175 198 0
172 195 0
172 195 0
174 197 0
172 196 0
176 198 0
173 196 0
176 198 0
173 196 0
173 197 0
173 197 0
173 197 0
175 198 0
175 198 0
173 197 0
177 199 0
173 197 0
172 196 0
173 197 0
174 197 0
174 197 0
174 198 0
173 197 0
173 197 0
173 196 0
172 196 0
173 196 0
174 198 0
174 197 0
174 197 0
172 196 0
173 196 0
174 197 0
175 198 0
173 196 0
174 197 0
175 198 0
176 198 0
173 196 0
175 198 0
174 197 0
174 198 0
173 197 0
174 197 0
174 197 0
174 197 0
174 198 0
172 195 0
176 198 0
173 197 0
175 198 0
173 197 0
175 198 0
175 198 0
175 198 0
174 197 0
174 198 0
175 198 0
174 197 0
174 198 0
173 197 0
174 197 0
172 196 0
175 198 0
176 199 0
175 198 0
175 198 0
175 198 0
175 197 0
175 198 0
175 198 0
175 198 0
175 198 0
172 196 0
175 198 0
175 198 0
174 198 0
174 198 0
175 198 0
174 198 0
173 197 0
177 199 0
173 197 0
173 197 0
175 198 0
175 198 0
173 197 0
174 197 0
174 197 0
175 198 0
174 198 0
176 199 0
174 198 0
174 198 0
173 197 0
173 197 0
174 197 0
174 197 0
175 198 0
175 198 0
175 198 0
175 198 0
176 198 0
173 197 0
174 197 0
177 199 0
176 199 0
175 198 0
175 198 0
173 197 0
174 198 0
174 197 0
174 198 0
175 198 0
175 198 0
174 198 0
175 198 0
174 197 0
174 198 0
175 198 0
175 198 0
174 198 0
174 197 0
175 198 0
175 198 0
174 198 0
174 198 0
176 199 0
173 197 0
174 197 0
175 198 0
175 198 0
173 197 0
175 198 0
174 198 0
176 199 0
175 198 0
173 197 0
174 197 0
173 197 0
173 197 0
175 198 0
174 197 0
174 198 0
173 197 0
174 197 0
176 198 0
174 198 0
176 199 0
173 197 0
175 198 0
174 197 0
174 198 0
173 197 0
175 198 0
173 197 0
175 198 0
173 197 0
173 197 0
173 197 0
176 198 0
176 198 0
173 197 0
174 198 0
176 198 0
175 198 0
175 198 0
174 198 0
176 199 0
174 198 0
174 198 0
174 198 0
175 198 0
174 198 0
174 198 0
175 198 0
175 198 0
174 198 0
174 198 0
174 197 0
173 197 0
175 198 0
173 197 0
173 197 0
175 198 0
174 197 0
174 198 0
176 198 0
174 198 0
172 197 0
173 197 0
173 197 0
174 197 0
176 199 0
175 198 0
176 199 0
174 197 0
174 198 0
176 198 0
173 197 0
176 198 0
173 196 0
174 197 0
173 197 0
172 196 0
175 198 0
175 198 0
174 197 0
174 198 0
175 198 0
174 197 0
173 197 0
175 198 0
174 198 0
175 198 0
177 199 0
174 198 0
173 197 0
173 197 0
175 198 0
174 198 0
172 195 0
173 197 0
174 198 0
173 196 0
174 198 0
174 198 0
176 198 0
175 198 0
174 198 0
175 198 0
175 198 0
173 196 0
173 196 0
174 198 0
172 195 0
174 197 0
172 197 0
173 197 0
174 197 0
174 197 0
174 197 0
174 197 0
174 197 0
174 197 0
173 197 0
175 198 0
174 197 0
173 196 0
174 197 0
172 196 0
171 195 0
173 197 0
174 197 0
172 195 0
171 194 0
174 198 0
170 194 0
172 196 0
171 195 0
171 195 0
170 193 0
173 197 0
172 196 0
173 197 0
172 195 0
172 196 0
170 194 0
171 194 0
172 195 0
173 196 0
170 193 0
171 195 0
173 196 0
175 197 0
171 194 0
171 194 0
173 196 0
171 193 0
172 195 0
172 195 0
175 198 0
176 198 0
172 195 0
173 196 0
172 196 0
174 197 0
175 198 36
172 195 0
172 195 0
174 196 0
173 195 0
173 195 36
170 193 0
171 194 0
172 195 0
173 195 0
175 197 0
170 193 0
169 191 0
170 192 0
170 192 0
169 192 0
168 190 0
168 190 0
167 190 0
160 182 0
168 190 0
165 188 0
166 188 0
162 185 0
166 189 0
166 190 0
163 187 0
170 191 0
164 187 0
162 186 0
167 189 0
163 186 0
162 186 0
168 191 0
164 188 0
168 191 0
168 191 0
161 184 0
163 187 0
163 187 0
162 186 0
165 188 0
161 184 0
168 192 0
167 191 0
168 190 0
167 191 0
170 193 0
167 191 0
161 184 0
168 191 0
168 192 0
163 187 0
166 189 0
170 193 0
172 196 0
168 192 0
167 190 0
167 190 0
169 192 0
171 194 0
167 190 0
171 195 0
168 191 0
170 193 0
171 195 0
165 189 0
166 189 0
170 193 0
169 193 0
171 195 0
168 191 0
169 193 0
171 194 0
171 195 0
169 192 0
169 193 0
173 197 0
172 194 0
168 191 0
171 194 0
173 196 0
170 193 0
172 196 0
168 192 0
173 196 0
174 196 0
171 194 0
172 195 0
167 191 0
174 197 0
172 195 0
173 195 0
173 196 0
170 193 0
173 196 0
172 196 0
175 198 0
172 196 0
171 194 0
173 196 0
175 198 0
173 196 0
173 197 0
174 197 0
174 196 0
172 195 0
175 198 0
173 197 0
175 198 0
173 196 0
173 196 0
173 197 0
174 197 0
176 198 0
175 198 0
174 197 0
173 196 0
173 197 0
173 196 0
174 197 0
174 198 0
177 199 0
175 197 0
172 196 0
174 197 0
174 197 0
174 197 0
172 196 0
173 197 0
171 194 0
172 196 0
175 198 0
175 198 0
174 197 0
174 197 0
175 197 0
175 198 0
172 197 0
174 198 0
173 197 0
172 197 0
174 198 0
172 196 0
175 198 0
173 196 0
175 198 0
173 196 0
174 197 0
173 196 0
173 196 0
173 197 0
173 197 0
173 197 0
174 197 0
173 197 0
174 198 0
174 197 0
175 198 0
175 198 0
175 198 0
174 198 0
174 197 0
174 197 0
174 198 0
175 198 0
174 197 0
175 198 0
174 197 0
174 198 0
174 198 0
176 198 0
174 198 0
173 197 0
174 198 0
175 198 0
174 198 0
172 196 0
175 198 0
173 197 0
173 197 0
175 197 0
175 198 0
173 197 0
174 197 0
174 197 0
172 196 0
174 198 0
174 197 0
174 197 0
174 197 0
175 198 0
176 198 0
175 198 0
175 198 0
175 198 0
175 198 0
175 198 0
175 198 0
174 197 0
175 198 0
174 198 0
174 198 0
174 197 0
174 198 0
174 198 0
174 198 0
175 198 0
175 198 0
175 198 0
173 197 0
174 198 0
174 198 0
175 198 0
173 197 0
174 198 0
174 197 0
173 197 0
175 198 0
175 198 0
175 198 0
173 197 0
173 197 0
175 198 0
176 198 0
174 197 0
175 198 0
174 197 0
175 198 0
176 199 0
174 198 0
175 198 0
175 198 0
173 197 0
175 198 0
173 197 0
174 198 0
174 198 0
176 199 0
174 197 0
175 198 0
176 199 0
176 199 0
175 198 0
176 198 0
176 199 0
175 198 0
173 197 0
174 197 0
176 199 0
173 197 0
174 198 0
174 198 0
175 198 0
174 198 0
175 198 0
173 197 0
173 197 0
174 198 0
174 197 0
173 197 0
175 198 0
173 197 0
173 196 0
175 198 0
174 198 0
173 197 0
174 198 0
174 198 0
175 198 0
176 198 0
174 198 0
175 198 0
175 198 0
175 198 0
175 198 0
175 198 0
176 199 0
174 198 0
175 198 0
175 198 0
174 198 0
174 197 0
175 198 0
175 198 0
173 197 0
174 198 0
174 198 0
172 197 0
172 196 0
175 198 0
173 197 0
172 197 0
173 197 0
173 197 0
174 198 0
172 196 0
172 195 0
174 198 0
174 197 0
174 197 0
173 197 0
175 198 0
174 197 0
174 197 0
175 198 0
174 197 0
175 198 0
174 198 0
174 198 0
173 197 0
173 197 0
175 198 0
174 197 0
175 198 0
174 197 0
174 198 0
173 197 0
175 198 0
175 198 0
172 196 0
174 197 0
172 196 0
171 195 0
172 197 0
174 198 0
173 197 0
174 197 0
175 198 0
173 197 0
173 196 0
173 197 0
174 197 0
175 198 0
174 197 0
174 197 0
173 196 0
174 197 0
173 197 0
173 197 0
175 198 0
173 197 0
175 198 0
174 197 0
173 197 0
175 198 0
175 198 0
173 196 0
175 198 0
171 195 0
174 198 0
173 196 0
173 196 0
175 198 0
174 197 0
172 196 0
173 197 0
172 196 0
173 197 0
175 198 0
172 195 0
173 197 0
170 194 0
174 197 0
172 196 0
175 198 0
174 197 0
173 197 0
172 195 0
174 198 0
173 196 0
171 195 0
171 195 0
170 194 0
173 196 0
173 196 0
170 194 0
173 196 0
172 196 0
173 196 0
174 197 0
170 194 0
172 196 0
173 196 0
170 193 0
170 194 0
174 197 0
171 194 0
173 196 0
169 192 0
173 196 0
172 194 0
170 192 0
172 195 0
171 195 0
171 194 0
173 197 0
172 195 0
170 192 0
173 195 0
173 196 0
172 196 0
172 195 0
175 197 0
172 195 0
172 195 0
172 195 0
169 192 0
170 192 0
172 195 0
174 195 0
169 192 0
169 192 0
166 189 0
167 188 25
165 187 0
157 178 0
166 189 0
171 193 0
167 189 0
159 182 0
167 190 0
165 188 0
167 190 0
159 182 0
168 191 0
163 186 0
169 193 0
165 188 0
161 185 0
165 189 0
167 191 0
167 190 0
161 184 0
169 193 0
166 189 0
165 189 0
159 182 0
159 183 0
167 190 0
168 191 0
167 190 0
164 187 0
169 191 0
166 189 0
170 193 0
166 189 0
165 188 0
168 191 0
165 188 0
167 191 0
165 188 0
166 190 0
172 194 0
163 187 0
169 192 0
168 191 0
166 190 0
172 195 0
168 192 0
168 190 0
169 192 0
167 190 0
172 195 0
170 193 0
167 191 0
166 190 0
172 195 0
171 194 0
165 188 0
171 195 0
168 191 0
169 192 0
169 192 0
171 194 0
172 195 0
172 195 0
172 195 0
173 196 0
170 193 0
170 193 0
171 193 0
169 193 0
174 197 0
172 195 0
174 197 0
172 195 0
171 195 0
173 197 0
171 194 0
172 195 0
171 194 0
173 197 0
174 197 0
173 196 0
175 198 0
173 197 0
176 198 0
172 195 0
174 196 0
173 196 0
173 196 0
175 198 0
173 196 0
175 198 0
174 197 0
172 196 0
173 196 0
174 197 0
174 198 0
171 195 0
175 198 0
173 197 0
172 197 0
173 196 0
174 197 0
174 197 0
174 197 0
173 197 0
172 196 0
173 197 0
172 195 0
173 196 0
174 197 0
173 197 0
176 199 0
173 196 0
177 199 0
174 197 0
173 196 0
173 196 0
174 197 0
174 198 0
175 198 0
175 198 0
174 197 0
173 196 0
175 198 0
174 197 0
175 198 0
173 197 0
174 198 0
173 197 0
173 196 0
174 197 0
175 198 0
173 197 0
172 196 0
175 198 0
175 198 0
173 196 0
176 199 0
173 197 0
174 197 0
175 198 0
175 197 0
175 198 0
174 197 0
174 198 0
174 198 0
174 198 0
174 198 0
172 196 0
174 197 0
173 197 0
173 197 0
176 198 0
174 197 0
173 197 0
173 197 0
174 198 0
174 197 0
176 198 0
175 198 0
172 197 0
174 197 0
176 199 0
174 197 0
173 197 0
172 196 0
173 197 0
174 197 0
174 197 0
173 197 0
175 198 0
175 198 0
175 198 0
175 198 0
175 198 0
175 198 0
171 196 0
175 198 0
174 198 0
173 197 0
173 197 0
175 198 0
175 198 0
174 198 0
174 197 0
174 198 0
174 197 0
176 198 0
174 198 0
174 198 0
175 198 0
174 197 0
175 198 0
174 197 0
174 198 0
176 199 0
173 197 0
174 198 0
175 198 0
173 197 0
175 198 0
175 198 0
175 198 0
175 198 0
175 198 0
174 197 0
175 198 0
174 198 0
173 197 0
174 197 0
175 198 0
174 197 0
173 197 0
172 197 0
175 198 0
173 197 0
174 198 0
175 198 0
174 197 0
173 197 0
172 197 0
172 197 0
175 198 0
172 197 0
175 198 0
174 198 0
175 198 0
173 197 0
174 197 0
173 197 0
176 199 0
176 199 0
175 198 0
173 197 0
174 198 0
175 198 0
176 199 0
174 198 0
176 199 0
175 198 0
175 198 0
177 199 0
173 197 0
174 198 0
176 198 0
173 197 0
176 198 0
174 198 0
175 198 0
173 197 0
173 197 0
175 198 0
175 198 0
175 198 0
176 199 0
174 197 0
174 198 0
174 197 0
174 198 0
174 198 0
175 198 0
173 197 0
176 199 0
173 197 0
174 198 0
174 198 0
176 199 0
174 197 0
173 196 0
174 198 0
176 198 0
175 198 0
175 198 0
174 197 0
174 197 0
175 198 0
174 198 0
175 198 0
175 198 0
174 198 0
173 197 0
176 198 0
175 198 0
173 197 0
173 197 0
174 198 0
174 198 0
173 197 0
174 198 0
174 198 0
174 197 0
173 197 0
174 198 0
174 197 0
174 198 0
174 198 0
173 196 0
172 196 0
174 198 0
174 198 0
174 198 0
174 197 0
173 196 0
174 198 0
176 199 0
175 198 0
172 196 0
172 196 0
175 198 0
173 197 0
175 197 0
174 198 0
174 198 0
172 195 0
173 197 0
175 198 0
174 198 0
173 197 0
174 197 0
174 198 0
174 197 0
173 196 0
173 197 0
175 198 0
173 197 0
173 197 0
173 196 0
174 197 0
173 197 0
173 196 0
172 196 0
173 197 0
175 198 0
172 196 0
174 197 0
173 197 0
174 197 0
172 196 0
174 197 0
174 198 0
173 197 0
175 198 0
173 196 0
175 198 0
173 197 0
174 197 0
174 197 0
173 197 0
174 197 0
172 195 0
173 195 0
173 196 0
174 197 0
173 196 0
174 197 0
172 196 0
173 196 0
174 197 0
173 197 0
173 196 0
171 195 0
173 196 0
172 196 0
172 195 0
173 197 0
171 195 0
173 196 0
170 194 0
172 196 0
173 195 0
171 195 0
172 195 0
172 196 0
175 198 0
171 194 0
172 195 0
172 195 0
170 193 0
174 196 0
173 196 0
173 196 0
174 195 0
174 197 0
175 196 0
173 194 0
172 194 0
176 198 0
173 196 0
172 195 0
173 196 0
173 196 0
172 194 0
175 197 0
173 195 0
169 191 0
171 192 0
170 192 0
172 193 0
170 192 0
168 189 25
171 192 0
171 192 0
167 189 0
165 186 0
163 185 0
166 188 0
164 186 0
171 193 0
167 189 0
165 188 0
164 186 0
167 189 0
166 188 0
160 183 0
167 191 0
167 190 0
164 187 0
165 188 0
166 188 0
168 192 0
172 195 0
164 187 0
163 185 0
162 185 0
166 188 0
165 188 0
161 184 0
170 192 0
165 187 0
167 190 0
168 191 0
167 191 0
164 187 0
169 192 0
169 192 0
165 188 0
169 192 0
162 186 0
165 188 0
169 192 0
166 190 0
167 190 0
167 190 0
166 190 0
166 190 0
171 193 0
170 194 0
168 191 0
171 193 0
167 189 0
171 194 0
170 194 0
169 192 0
168 191 0
170 193 0
166 190 0
171 194 0
169 191 0
172 195 0
169 193 0
171 194 0
171 194 0
170 194 0
170 193 0
171 194 0
172 195 0
173 197 0
170 193 0
173 197 0
171 194 0
172 195 0
173 196 0
171 195 0
173 196 0
173 196 0
171 194 0
174 197 0
173 197 0
172 196 0
174 196 0
171 194 0
172 196 0
172 195 0
168 191 0
173 197 0
174 197 0
170 193 0
173 196 0
172 196 0
172 195 0
173 196 0
173 196 0
173 197 0
172 195 0
174 197 0
174 197 0
172 196 0
169 193 0
173 197 0
173 197 0
175 198 0
172 195 0
176 198 0
174 197 0
173 197 0
174 198 0
174 198 0
173 196 0
172 196 0
172 196 0
174 197 0
174 198 0
174 197 0
174 198 0
175 198 0
173 196 0
175 198 0
175 198 0
174 198 0
173 196 0
173 197 0
174 197 0
174 198 0
174 197 0
172 196 0
172 196 0
174 197 0
175 197 0
171 195 0
172 195 0
175 198 0
172 196 0
174 197 0
174 197 0
173 197 0
176 198 0
174 197 0
174 198 0
175 198 0
174 198 0
174 197 0
175 198 0
174 197 0
174 198 0
173 197 0
174 198 0
173 196 0
172 196 0
174 197 0
175 198 0
175 198 0
173 197 0
174 197 0
173 197 0
174 197 0
173 197 0
174 198 0
174 197 0
174 197 0
173 197 0
174 198 0
174 197 0
173 197 0
173 197 0
174 197 0
175 198 0
174 197 0
175 198 0
174 198 0
175 198 0
174 198 0
175 198 0
173 197 0
175 198 0
175 198 0
174 197 0
174 198 0
174 198 0
173 197 0
175 198 0
173 197 0
175 198 0
176 199 0
173 197 0
176 199 0
173 197 0
174 197 0
173 197 0
174 198 0
175 198 0
175 198 0
174 197 0
175 198 0
174 198 0
176 198 0
174 197 0
176 199 0
173 197 0
174 198 0
175 198 0
175 198 0
175 198 0
173 197 0
174 198 0
173 197 0
174 197 0
174 198 0
175 198 0
175 198 0
174 197 0
173 197 0
174 198 0
175 198 0
174 197 0
174 198 0
174 198 0
174 198 0
173 197 0
175 198 0
174 198 0
174 198 0
176 198 0
175 198 0
174 198 0
174 197 0
175 198 0
175 198 0
175 198 0
175 198 0
175 198 0
175 198 0
173 197 0
174 198 0
174 197 0
175 198 0
175 198 0
175 198 0
175 198 0
174 197 0
175 198 0
174 197 0
176 198 0
176 198 0
175 198 0
174 198 0
176 198 0
176 199 0
173 197 0
174 198 0
175 198 0
173 197 0
175 198 0
172 196 0
174 197 0
173 197 0
173 197 0
174 198 0
174 198 0
175 198 0
174 198 0
174 197 0
175 198 0
174 198 0
174 197 0
174 197 0
173 197 0
175 198 0
174 197 0
174 197 0
176 199 0
174 197 0
175 198 0
175 198 0
175 198 0
174 198 0
174 198 0
173 197 0
176 199 0
173 197 0
175 198 0
173 197 0
172 196 0
173 197 0
175 198 0
172 196 0
173 197 0
174 198 0
175 198 0
176 199 0
175 198 0
174 198 0
174 198 0
175 198 0
174 198 0
174 198 0
174 198 0
174 198 0
173 197 0
175 198 0
174 198 0
173 197 0
174 198 0
173 197 0
174 198 0
173 197 0
173 196 0
172 196 0
174 197 0
174 197 0
174 198 0
175 198 0
175 198 0
173 197 0
172 196 0
174 198 0
175 198 0
172 196 0
173 197 0
172 197 0
176 199 0
173 197 0
174 198 0
174 197 0
174 197 0
173 197 0
172 196 0
175 198 0
175 197 0
174 198 0
172 196 0
173 197 0
175 197 0
174 197 0
174 198 0
174 197 0
174 197 0
174 198 0
174 197 0
173 197 0
173 196 0
173 197 0
173 197 0
174 197 0
173 197 0
175 198 0
172 196 0
174 198 0
171 195 0
174 197 0
175 198 0
171 195 0
172 195 0
173 197 0
172 195 0
171 195 0
170 193 0
173 196 0
172 196 0
172 195 0
171 194 0
173 197 0
172 195 0
172 195 0
174 197 0
175 197 0
173 197 0
174 196 0
172 196 0
174 197 0
172 196 0
174 197 0
172 195 0
173 196 0
174 197 0
172 195 0
173 196 0
173 195 0
174 197 0
175 198 0
174 196 0
171 193 0
173 195 0
169 191 0
174 197 0
177 198 0
171 193 0
175 197 0
174 196 0
175 196 0
171 192 0
175 197 0
173 195 0
169 190 0
174 196 0
173 194 0
171 193 0
173 195 0
169 190 0
173 194 0
174 195 0
170 191 0
172 194 0
167 190 0
173 194 0
169 189 0
168 189 0
165 188 0
165 188 0
165 188 0
168 190 0
165 188 0
167 190 0
164 186 0
165 188 0
167 190 0
168 191 0
165 189 0
165 188 0
170 193 0
159 183 0
171 194 0
170 194 0
165 188 0
169 191 0
166 190 0
163 186 0
165 188 0
167 191 0
167 190 0
169 192 0
164 187 0
169 193 0
163 186 0
166 189 0
166 189 0
168 192 0
170 193 0
165 189 0
166 189 0
164 187 0
170 193 0
168 191 0
169 193 0
169 192 0
167 191 0
168 191 0
169 193 0
168 191 0
171 194 0
172 194 0
171 194 0
169 193 0
170 194 0
172 196 0
172 195 0
170 194 0
171 194 0
171 194 0
172 196 0
170 193 0
172 195 0
169 192 0
171 195 0
171 195 0
172 195 0
172 196 0
170 194 0
171 195 0
169 193 0
172 195 0
171 195 0
174 197 0
173 196 0
170 193 0
171 195 0
172 195 0
171 195 0
174 197 0
173 196 0
173 196 0
172 195 0
172 195 0
173 197 0
173 197 0
169 193 0
173 196 0
172 196 0
173 196 0
175 198 0
172 195 0
170 193 0
173 196 0
172 196 0
173 196 0
172 195 0
174 197 0
172 197 0
173 195 0
174 197 0
172 196 0
174 198 0
170 193 0
171 194 0
173 195 0
174 196 0
175 198 0
173 197 0
174 198 0
173 197 0
175 198 0
173 197 0
175 198 0
174 198 0
175 198 0
174 197 0
175 198 0
173 197 0
174 197 0
174 197 0
175 198 0
174 197 0
174 197 0
173 197 0
173 197 0
173 197 0
173 197 0
174 198 0
175 198 0
174 197 0
172 196 0
175 198 0
175 198 0
174 198 0
174 197 0
173 197 0
175 198 0
174 198 0
175 198 0
174 197 0
172 196 0
174 197 0
172 196 0
173 197 0
176 199 0
174 198 0
174 198 0
174 198 0
174 197 0
172 196 0
175 198 0
175 198 0
176 198 0
172 197 0
175 198 0
176 199 0
176 198 0
175 198 0
175 198 0
172 196 0
174 198 0
174 197 0
175 198 0
174 198 0
175 198 0
175 198 0
175 198 0
173 197 0
174 197 0
175 198 0
176 199 0
174 198 0
174 198 0
174 197 0
175 198 0
176 198 0
174 198 0
174 198 0
174 197 0
173 197 0
174 198 0
174 198 0
174 198 0
173 197 0
173 197 0
174 197 0
174 198 0
174 198 0
174 197 0
173 196 0
175 198 0
176 199 0
172 196 0
175 198 0
174 198 0
173 197 0
175 198 0
174 198 0
174 198 0
173 197 0
175 198 0
175 198 0
176 199 0
174 197 0
173 197 0
175 198 0
176 198 0
175 198 0
175 198 0
173 197 0
176 199 0
174 198 0
173 197 0
175 198 0
174 198 0
175 198 0
175 198 0
176 198 0
174 198 0
175 198 0
173 197 0
175 198 0
174 197 0
175 198 0
175 198 0
176 199 0
175 198 0
175 198 0
174 197 0
174 197 0
175 198 0
175 198 0
174 198 0
173 197 0
173 197 0
174 197 0
174 198 0
175 198 0
174 198 0
174 198 0
175 198 0
174 198 0
175 198 0
175 198 0
174 198 0
175 198 0
173 197 0
175 198 0
175 198 0
175 198 0
174 198 0
175 198 0
173 197 0
175 198 0
174 198 0
176 199 0
174 197 0
174 198 0
175 198 0
176 199 0
175 198 0
174 197 0
174 198 0
172 197 0
175 198 0
175 198 0
174 198 0
174 198 0
175 198 0
173 197 0
176 199 0
174 198 0
174 198 0
174 198 0
175 198 0
174 197 0
175 198 0
175 198 0
175 198 0
174 197 0
174 197 0
174 197 0
175 198 0
173 197 0
174 197 0
173 197 0
175 198 0
175 198 0
173 197 0
175 198 0
175 198 0
172 196 0
173 197 0
174 198 0
174 197 0
176 198 0
173 197 0
174 197 0
173 197 0
174 198 0
175 198 0
175 198 0
172 197 0
174 197 0
174 197 0
173 197 0
175 198 0
173 197 0
173 197 0
173 197 0
174 198 0
173 197 0
174 198 0
174 197 0
174 198 0
172 196 0
174 197 0
174 197 0
174 197 0
173 197 0
174 198 0
174 198 0
173 197 0
176 199 0
172 196 0
177 199 0
173 197 0
175 198 0
174 197 0
174 197 0
174 197 0
175 198 0
175 198 0
173 196 0
173 197 0
174 198 0
172 196 0
174 197 0
174 198 0
173 197 0
174 197 0
172 196 0
172 196 0
175 198 0
173 197 0
172 196 0
174 197 0
174 198 0
170 195 0
173 196 0
173 197 0
173 197 0
171 195 0
172 195 0
173 197 0
173 196 0
172 196 0
173 197 0
172 195 0
172 196 0
174 197 0
171 196 0
170 194 0
174 198 0
173 197 0
172 195 0
171 194 0
172 195 0
171 195 0
172 195 0
176 198 0
172 195 0
173 196 0
172 195 0
174 197 0
172 195 0
171 194 0
174 197 0
175 198 0
170 193 0
175 197 0
173 196 0
170 192 0
169 192 0
175 197 0
172 194 0
172 194 0
172 195 0
172 193 0
177 198 0
175 197 0
167 189 0
174 195 0
173 194 0
174 195 0
171 192 0
170 191 0
166 188 0
175 196 0
173 195 0
169 190 0
170 192 0
164 186 0
169 190 0
170 193 0
171 193 0
173 196 0
165 187 0
168 191 0
169 192 0
168 191 0
167 189 0
167 190 0
166 190 0
165 188 0
167 191 0
165 188 0
161 185 0
170 194 0
168 191 0
160 184 0
168 191 0
167 190 0
168 192 0
163 187 0
163 186 0
168 191 0
164 188 0
166 190 0
166 189 0
165 189 0
169 191 0
169 192 0
170 193 0
171 194 0
168 191 0
169 193 0
166 190 0
171 195 0
169 192 0
169 192 0
167 191 0
169 192 0
168 191 0
168 191 0
170 193 0
170 194 0
170 194 0
168 192 0
168 191 0
168 191 0
168 192 0
168 191 0
171 194 0
169 191 0
172 195 0
170 193 0
166 189 0
170 194 0
172 194 0
169 193 0
171 193 0
171 194 0
169 193 0
170 192 0
171 194 0
174 197 0
171 194 0
170 192 0
172 195 0
170 194 0
171 194 0
173 196 0
170 193 0
170 193 0
172 195 0
174 198 0
173 196 0
172 196 0
173 197 0
175 198 0
173 196 0
174 197 0
172 195 0
174 197 0
174 197 0
175 197 0
174 197 0
172 195 0
172 195 0
175 198 0
174 198 0
170 193 0
173 196 0
175 198 0
174 197 0
174 197 0
174 197 0
173 195 0
173 197 0
174 197 0
173 196 0
177 199 0
174 197 0
174 197 0
173 196 0
174 197 0
172 196 0
175 198 0
173 196 0
173 196 0
173 197 0
172 195 0
172 196 0
174 198 0
174 197 0
174 197 0
173 197 0
174 198 0
173 197 0
173 197 0
173 196 0
173 196 0
172 196 0
175 198 0
174 197 0
174 197 0
176 199 0
173 197 0
173 197 0
175 198 0
173 197 0
172 197 0
174 197 0
175 197 0
174 197 0
173 197 0
173 197 0
174 197 0
174 197 0
175 198 0
174 196 0
174 197 0
174 197 0
177 199 0
173 197 0
174 197 0
173 197 0
175 198 0
174 198 0
174 197 0
174 197 0
177 199 0
174 198 0
176 199 0
175 198 0
175 198 0
176 199 0
175 198 0
173 196 0
172 196 0
174 198 0
174 197 0
172 196 0
173 197 0
173 197 0
174 197 0
174 198 0
175 198 0
174 198 0
174 197 0
175 198 0
174 197 0
173 197 0
175 198 0
175 198 0
171 196 0
174 198 0
175 198 0
175 198 0
175 198 0
173 197 0
174 198 0
174 197 0
174 197 0
174 197 0
175 198 0
174 198 0
174 198 0
173 196 0
176 199 0
174 197 0
175 198 0
174 197 0
175 198 0
173 197 0
175 198 0
175 198 0
175 198 0
175 198 0
174 198 0
175 198 0
175 198 0
175 198 0
174 197 0
174 197 0
173 197 0
175 198 0
174 198 0
175 198 0
175 198 0
173 197 0
174 198 0
175 198 0
174 198 0
173 197 0
175 198 0
176 199 0
175 198 0
175 198 0
174 198 0
175 198 0
175 198 0
175 198 0
174 198 0
174 198 0
174 198 0
173 197 0
174 197 0
174 198 0
175 198 0
175 198 0
174 198 0
174 198 0
173 197 0
174 197 0
174 198 0
173 197 0
175 198 0
175 198 0
174 198 0
175 198 0
173 197 0
173 197 0
174 198 0
174 197 0
174 198 0
174 197 0
175 198 0
174 197 0
173 197 0
175 198 0
174 198 0
175 198 0
174 198 0
175 198 0
175 198 0
174 198 0
175 198 0
174 198 0
174 198 0
173 197 0
175 198 0
175 198 0
175 198 0
174 198 0
175 198 0
176 199 0
175 198 0
174 198 0
173 197 0
175 198 0
175 198 0
174 197 0
176 199 0
175 198 0
176 199 0
172 197 0
174 198 0
174 198 0
174 198 0
175 198 0
174 197 0
175 198 0
174 197 0
173 197 0
175 198 0
174 198 0
174 198 0
176 199 0
174 197 0
174 198 0
172 197 0
174 198 0
175 198 0
175 198 0
175 198 0
171 196 0
175 198 0
174 197 0
174 198 0
175 198 0
173 197 0
175 198 0
173 197 0
174 198 0
173 197 0
173 197 0
175 198 0
176 199 0
175 198 0
174 198 0
175 198 0
173 197 0
175 198 0
174 197 0
174 197 0
174 197 0
174 198 0
174 198 0
174 198 0
173 197 0
173 196 0
174 197 0
173 196 0
173 197 0
173 195 0
172 196 0
174 198 0
173 197 0
172 196 0
173 197 0
174 197 0
174 197 0
175 198 0
174 197 0
173 197 0
174 197 0
174 198 0
174 198 0
172 197 0
172 195 0
174 197 0
170 194 0
175 198 0
173 196 0
172 196 0
171 195 0
173 197 0
170 194 0
173 196 0
175 198 0
174 197 0
172 196 0
174 197 0
173 197 0
175 198 0
172 196 0
174 198 0
172 196 0
171 195 0
173 196 0
170 194 0
169 193 0
173 197 0
173 196 0
171 195 0
173 196 0
174 197 0
172 195 0
174 196 0
174 197 0
172 195 0
173 196 0
173 196 0
173 196 0
172 195 0
173 196 0
174 196 0
172 194 0
173 196 0
175 197 0
173 194 0
172 195 0
171 193 0
173 195 0
173 195 0
174 196 0
175 197 0
176 197 0
173 194 0
176 198 0
174 196 0
173 194 0
170 192 0
171 193 0
172 192 0
172 194 0
172 194 0
171 193 0
171 192 0
174 196 0
169 191 0
170 192 0
172 194 0
166 189 0
168 191 0
166 189 0
168 192 0
168 191 0
166 189 0
166 189 0
162 186 0
166 190 0
163 186 0
166 189 0
167 191 0
163 186 0
170 194 0
167 190 0
165 189 0
172 195 0
166 190 0
166 189 0
165 189 0
166 190 0
169 192 0
167 190 0
170 193 0
170 193 0
165 188 0
167 190 0
167 190 0
172 195 0
167 191 0
169 192 0
169 192 0
167 191 0
169 192 0
168 191 0
169 192 0
169 192 0
170 193 0
171 194 0
172 195 0
169 193 0
170 193 0
169 193 0
170 193 0
171 194 0
170 194 0
170 193 0
171 194 0
174 198 0
169 192 0
171 194 0
171 194 0
171 193 0
169 192 0
169 191 0
171 196 0
171 192 0
170 193 0
173 196 0
171 195 0
171 194 0
167 191 0
171 193 0
174 197 0
171 194 0
172 196 0
170 193 0
170 193 0
172 195 0
172 195 0
173 197 0
175 198 0
173 196 0
171 196 0
174 197 0
173 196 0
172 196 0
173 196 0
171 195 0
172 195 0
173 196 0
173 195 0
172 197 0
175 198 0
174 196 0
174 197 0
174 196 0
175 198 0
174 197 0
172 195 0
174 196 0
175 198 0
174 197 0
173 197 0
173 196 0
173 196 0
171 194 0
173 196 0
173 196 0
172 195 0
173 196 0
175 197 0
173 197 0
172 196 0
174 198 0
173 196 0
173 197 0
175 197 0
172 196 0
173 197 0
173 197 0
174 197 0
172 196 0
174 197 0
173 197 0
175 198 0
172 196 0
174 197 0
174 197 0
175 198 0
173 197 0
176 199 0
174 197 0
172 196 0
172 196 0
174 198 0
174 197 0
175 198 0
174 198 0
174 197 0
171 194 0
174 198 0
175 198 0
175 198 0
173 197 0
173 196 0
173 197 0
174 197 0
174 197 0
174 197 0
174 197 0
174 197 0
176 198 0
173 197 0
175 198 0
173 197 0
174 198 0
174 198 0
173 197 0
174 198 0
173 197 0
175 198 0
174 198 0
175 198 0
175 198 0
174 198 0
174 197 0
176 199 0
174 197 0
175 197 0
172 196 0
175 198 0
174 197 0
174 198 0
174 197 0
172 197 0
174 198 0
175 198 0
174 198 0
173 197 0
174 198 0
173 197 0
174 197 0
175 198 0
175 198 0
174 198 0
175 198 0
175 198 0
174 197 0
174 198 0
174 198 0
174 197 0
174 198 0
175 198 0
174 197 0
173 197 0
175 198 0
172 196 0
173 197 0
173 196 0
174 198 0
175 198 0
173 197 0
174 198 0
175 198 0
173 197 0
174 197 0
173 197 0
175 197 0
175 198 0
174 198 0
174 198 0
174 198 0
175 198 0
174 198 0
174 198 0
173 197 0
173 197 0
175 198 0
174 197 0
175 198 0
174 198 0
174 198 0
173 197 0
174 198 0
172 196 0
175 198 0
174 198 0
174 198 0
175 198 0
174 197 0
176 199 0
175 198 0
175 198 0
175 198 0
176 199 0
174 197 0
175 198 0
175 198 0
174 197 0
174 197 0
174 198 0
175 198 0
175 198 0
174 197 0
175 198 0
174 198 0
176 199 0
174 198 0
174 197 0
175 198 0
176 198 0
175 198 0
176 199 0
174 198 0
173 197 0
174 198 0
174 198 0
175 198 0
174 198 0
175 198 0
174 198 0
175 198 0
173 197 0
173 197 0
174 198 0
175 198 0
174 197 0
174 198 0
174 198 0
174 198 0
174 197 0
176 198 0
174 197 0
175 198 0
176 198 0
174 197 0
175 198 0
175 198 0
172 197 0
173 197 0
175 198 0
175 198 0
174 197 0
175 198 0
174 198 0
175 198 0
175 198 0
174 197 0
175 198 0
175 198 0
175 198 0
174 197 0
173 196 0
174 198 0
174 197 0
173 197 0
176 198 0
175 198 0
174 198 0
174 197 0
173 197 0
174 198 0
173 197 0
174 198 0
174 197 0
175 198 0
173 197 0
174 197 0
175 198 0
173 197 0
175 198 0
174 198 0
176 198 0
174 198 0
175 198 0
174 198 0
172 196 0
174 198 0
172 196 0
175 198 0
174 197 0
176 199 0
174 197 0
174 198 0
175 198 0
175 198 0
175 198 0
174 198 0
174 198 0
175 198 0
175 198 0
174 198 0
172 195 0
173 197 0
175 198 0
173 196 0
174 197 0
175 198 0
172 196 0
174 198 0
172 196 0
175 198 0
173 196 0
175 197 0
173 197 0
172 196 0
175 198 0
174 197 0
172 196 0
174 197 0
174 197 0
173 197 0
172 196 0
173 195 0
172 196 0
174 197 0
175 198 0
173 196 0
174 197 0
173 197 0
173 196 0
174 198 0
173 197 0
172 196 0
175 198 0
172 196 0
174 197 0
174 197 0
173 196 0
172 195 0
174 197 0
173 196 0
176 199 0
172 195 0
173 197 0
173 196 0
170 193 0
170 193 0
172 196 0
170 193 0
169 193 0
175 197 0
175 197 0
174 197 0
173 195 0
175 197 0
171 194 0
174 196 0
169 192 0
171 193 0
172 194 0
171 193 0
171 192 0
174 196 0
172 193 0
174 196 0
174 195 0
172 194 0
172 194 0
171 192 0
175 197 0
174 196 0
173 194 0
172 194 0
172 194 0
170 192 0
170 193 0
169 192 0
171 192 0
170 193 0
167 189 0
170 193 0
162 185 0
165 188 0
169 192 0
164 187 0
167 189 0
164 187 0
167 190 0
168 192 0
166 189 0
163 186 0
163 185 0
174 197 0
165 189 0
167 190 0
168 192 0
166 190 0
170 194 0
166 190 0
168 192 0
168 190 0
170 193 0
166 190 0
170 193 0
169 192 0
170 194 0
169 192 0
167 190 0
172 194 0
171 193 0
171 194 0
170 193 0
169 192 0
165 189 0
171 195 0
167 191 0
172 195 0
169 191 0
169 192 0
168 192 0
167 191 0
172 195 0
169 192 0
168 191 0
169 191 0
173 195 0
171 195 0
172 195 0
169 193 0
168 191 0
172 194 0
169 192 0
167 190 0
170 194 0
169 193 0
172 195 0
170 194 0
170 193 0
171 194 0
173 196 0
171 194 0
171 194 0
172 194 0
173 195 0
172 194 0
175 197 0
174 196 0
170 193 0
173 197 0
172 195 0
171 194 0
172 196 0
171 193 0
169 192 0
174 197 0
173 197 0
175 198 0
175 198 0
170 194 0
172 196 0
176 198 0
175 198 0
174 197 0
174 197 0
173 195 0
173 197 0
175 198 0
173 197 0
173 196 0
172 195 0
174 197 0
171 195 0
174 197 0
174 197 0
174 197 0
173 196 0
172 197 0
171 194 0
172 196 0
173 196 0
173 196 0
173 196 0
173 197 0
173 196 0
174 197 0
172 196 0
173 196 0
174 197 0
174 197 0
173 196 0
173 197 0
174 197 0
174 197 0
174 197 0
174 197 0
173 197 0
174 197 0
175 198 0
174 198 0
175 198 0
174 198 0
173 196 0
174 197 0
175 198 0
174 198 0
175 197 0
173 197 0
174 197 0
175 198 0
173 197 0
175 198 0
175 198 0
173 197 0
172 195 0
174 197 0
174 197 0
174 198 0
174 197 0
174 198 0
174 198 0
175 198 0
174 198 0
174 198 0
174 198 0
174 197 0
175 198 0
174 198 0
174 197 0
174 197 0
173 197 0
173 197 0
173 197 0
174 197 0
175 198 0
176 198 0
174 198 0
176 199 0
176 199 0
173 197 0
175 198 0
174 198 0
174 197 0
173 196 0
172 196 0
174 198 0
173 196 0
174 197 0
175 198 0
173 197 0
174 197 0
174 198 0
174 198 0
174 198 0
175 198 0
174 197 0
173 197 0
174 198 0
173 197 0
174 198 0
176 199 0
174 198 0
174 198 0
174 197 0
174 197 0
174 197 0
174 197 0
175 198 0
174 197 0
173 196 0
175 198 0
175 198 0
174 197 0
175 198 0
174 197 0
173 197 0
173 197 0
173 197 0
175 198 0
174 197 0
174 198 0
173 197 0
173 197 0
174 198 0
175 198 0
174 197 0
176 199 0
174 198 0
173 197 0
174 198 0
175 198 0
174 198 0
174 198 0
174 198 0
174 197 0
175 198 0
175 197 0
175 198 0
175 198 0
174 198 0
173 197 0
175 198 0
173 197 0
176 198 0
173 197 0
174 198 0
175 198 0
175 198 0
176 198 0
176 199 0
175 198 0
173 197 0
174 198 0
175 198 0
173 197 0
174 198 0
175 198 0
175 198 0
176 199 0
173 197 0
174 197 0
174 198 0
174 198 0
173 197 0
173 197 0
175 198 0
175 198 0
174 197 0
174 198 0
173 197 0
174 197 0
174 198 0
175 198 0
174 198 0
176 199 0
175 198 0
173 197 0
173 197 0
174 197 0
176 199 0
173 196 0
176 198 0
173 197 0
176 198 0
176 199 0
176 198 0
174 197 0
174 197 0
174 198 0
174 198 0
175 198 0
172 196 0
175 198 0
174 198 0
175 198 0
175 198 0
173 197 0
174 197 0
175 198 0
176 198 0
174 197 0
175 198 0
174 198 0
176 199 0
175 198 0
174 198 0
175 198 0
174 198 0
175 198 0
173 197 0
174 198 0
174 197 0
173 197 0
174 197 0
174 198 0
173 197 0
175 198 0
173 197 0
173 197 0
176 199 0
173 197 0
174 198 0
174 198 0
174 198 0
175 198 0
173 197 0
172 196 0
174 197 0
175 198 0
173 196 0
174 198 0
176 198 0
176 199 0
174 198 0
174 197 0
174 197 0
174 197 0
173 197 0
174 197 0
173 197 0
174 198 0
174 197 0
175 198 0
172 196 0
176 199 0
174 197 0
174 197 0
174 197 0
173 197 0
174 197 0
173 196 0
173 196 0
173 196 0
173 196 0
175 198 0
173 196 0
175 198 0
173 197 0
174 197 0
173 197 0
174 197 0
174 198 0
171 196 0
174 198 0
172 196 0
175 198 0
175 198 0
175 197 0
173 197 0
170 194 0
173 196 0
172 196 0
172 196 0
173 196 0
170 193 0
172 196 0
173 196 0
171 195 0
174 197 0
171 194 0
171 195 0
174 197 0
172 196 0
173 196 0
171 195 0
170 194 0
174 197 0
173 197 0
174 197 0
172 196 0
173 196 0
173 196 0
174 197 0
171 194 0
172 195 0
171 194 0
172 195 0
173 196 0
173 194 0
174 196 0
175 197 0
174 196 0
173 196 0
173 195 0
173 195 0
171 193 0
172 195 0
171 193 0
173 195 0
171 193 0
172 195 0
170 191 0
172 194 0
169 193 0
173 196 0
172 194 0
174 197 0
165 188 0
167 190 0
168 190 0
166 188 0
169 193 0
170 192 0
168 192 0
166 189 0
168 190 0
170 193 0
165 188 0
165 188 0
172 194 0
164 187 0
169 191 0
167 189 0
168 192 0
166 189 0
170 193 0
167 190 0
171 194 0
168 192 0
167 190 0
164 187 0
170 194 0
171 194 0
167 191 0
167 190 0
169 193 0
165 187 0
171 194 0
164 187 0
169 192 0
170 194 0
166 188 0
172 196 0
167 191 0
170 192 0
172 195 0
167 190 0
168 192 0
173 195 0
171 195 0
168 191 0
170 194 0
169 192 0
172 194 0
171 194 0
168 192 0
171 193 0
171 195 0
170 193 0
172 195 0
173 197 0
165 189 0
167 190 0
171 193 0
170 192 0
171 193 0
172 194 0
170 193 0
173 196 0
170 193 0
172 196 0
169 191 0
170 193 0
171 194 0
175 198 0
171 195 0
173 195 0
174 197 0
170 194 0
169 194 0
174 197 0
171 195 0
174 197 0
174 197 0
172 195 0
173 195 0
174 197 0
173 196 0
171 194 0
169 192 0
172 196 0
170 194 0
174 197 0
170 193 0
173 197 0
172 195 0
173 197 0
173 196 0
175 197 0
173 195 0
175 198 0
170 193 0
174 197 0
173 196 0
174 197 0
172 196 0
170 193 0
173 197 0
172 196 0
174 197 0
173 197 0
174 197 0
173 197 0
173 197 0
174 197 0
175 198 0
174 197 0
174 196 0
172 196 0
173 197 0
175 198 0
171 195 0
175 198 0
174 198 0
172 195 0
173 197 0
172 195 0
175 197 0
175 198 0
172 195 0
174 198 0
171 195 0
173 196 0
175 198 0
174 197 0
174 197 0
173 197 0
174 198 0
173 197 0
173 196 0
173 197 0
174 197 0
173 197 0
174 197 0
175 198 0
174 197 0
173 197 0
175 198 0
176 199 0
175 198 0
173 197 0
174 198 0
173 197 0
174 198 0
175 198 0
176 198 0
171 196 0
172 196 0
174 197 0
174 198 0
174 198 0
174 198 0
174 197 0
176 199 0
175 198 0
175 198 0
173 197 0
175 198 0
174 197 0
174 198 0
176 198 0
175 198 0
173 197 0
174 198 0
174 198 0
174 197 0
174 197 0
175 198 0
174 198 0
175 198 0
175 198 0
173 197 0
174 197 0
174 198 0
174 197 0
173 197 0
174 197 0
176 198 0
175 198 0
176 198 0
174 197 0
174 198 0
174 198 0
175 198 0
174 198 0
175 198 0
174 197 0
173 197 0
177 199 0
174 198 0
173 197 0
174 197 0
175 198 0
175 198 0
175 198 0
173 197 0
175 198 0
173 197 0
173 197 0
175 198 0
174 198 0
175 198 0
174 198 0
174 198 0
173 197 0
174 197 0
173 197 0
174 198 0
174 198 0
174 198 0
174 197 0
174 198 0
173 197 0
173 197 0
174 198 0
174 197 0
174 198 0
173 197 0
174 198 0
173 197 0
174 197 0
173 197 0
176 199 0
175 198 0
174 197 0
175 198 0
175 198 0
175 198 0
173 197 0
175 198 0
173 197 0
173 197 0
174 198 0
175 198 0
175 198 0
174 198 0
174 198 0
175 198 0
174 197 0
173 197 0
175 198 0
174 197 0
174 197 0
176 199 0
174 198 0
174 198 0
173 197 0
175 198 0
175 198 0
174 198 0
175 198 0
175 198 0
173 197 0
173 197 0
175 198 0
174 198 0
175 197 0
176 198 0
173 197 0
174 198 0
173 197 0
174 198 0
175 198 0
176 199 0
174 198 0
177 199 0
173 197 0
175 198 0
174 198 0
175 198 0
174 198 0
173 197 0
175 198 0
173 197 0
175 198 0
175 198 0
174 198 0
173 197 0
173 197 0
175 198 0
174 198 0
175 198 0
175 198 0
174 198 0
174 197 0
173 197 0
174 197 0
175 198 0
174 197 0
175 198 0
172 196 0
175 198 0
174 198 0
174 197 0
172 196 0
175 198 0
174 198 0
174 197 0
175 198 0
173 197 0
175 198 0
174 197 0
175 198 0
175 198 0
175 197 0
174 197 0
174 197 0
175 198 0
173 197 0
173 197 0
173 197 0
174 197 0
175 198 0
175 198 0
173 197 0
175 197 0
174 197 0
173 196 0
174 197 0
173 197 0
174 197 0
174 198 0
174 198 0
176 198 0
173 197 0
172 195 0
173 196 0
173 197 0
171 195 0
174 197 0
173 196 0
174 197 0
174 198 0
173 197 0
172 196 0
173 196 0
173 197 0
173 197 0
173 197 0
174 198 0
174 198 0
171 195 0
173 197 0
172 196 0
173 197 0
173 196 0
175 198 0
172 197 0
172 196 0
173 197 0
174 197 0
175 198 0
174 197 0
171 194 0
173 196 0
172 196 0
174 197 0
172 197 0
174 197 0
171 194 0
174 198 0
176 199 0
173 196 0
172 196 0
173 196 0
173 196 0
172 195 0
174 197 0
171 195 0
171 195 0
173 196 0
174 196 0
175 197 0
174 197 0
171 194 0
174 197 0
172 195 0
175 197 0
177 199 0
173 196 0
174 197 0
169 191 0
174 197 0
173 196 0
175 197 0
172 195 0
171 194 0
173 195 0
172 195 0
172 195 0
167 189 0
173 195 0
172 194 0
169 191 0
169 192 0
174 197 0
171 194 0
171 193 0
168 191 0
169 192 0
171 193 0
172 195 0
171 194 0
169 192 0
166 189 0
168 191 0
172 194 0
169 191 0
164 188 0
168 192 0
171 194 0
165 189 0
169 193 0
166 189 0
167 189 0
171 195 0
167 190 0
170 193 0
168 190 0
171 194 0
170 193 0
169 193 0
166 189 0
162 185 0
170 192 0
170 193 0
169 192 0
167 191 0
170 194 0
170 193 0
173 195 0
167 191 0
170 194 0
167 190 0
171 194 0
169 191 0
167 190 0
171 194 0
169 193 0
170 194 0
171 193 0
169 193 0
172 195 0
171 194 0
169 192 0
171 195 0
170 194 0
171 195 0
169 192 0
171 194 0
169 192 0
171 194 0
171 195 0
170 193 0
171 195 0
172 196 0
169 193 0
173 196 0
172 195 0
171 194 0
172 196 0
170 193 0
172 195 0
175 197 0
170 193 0
172 195 0
175 198 0
173 197 0
170 194 0
171 194 0
171 194 0
172 195 0
172 195 0
172 195 0
171 195 0
173 195 0
173 196 0
174 197 0
170 195 0
173 196 0
173 197 0
175 198 0
174 198 0
172 195 0
173 196 0
173 197 0
172 196 0
174 197 0
174 198 0
172 196 0
172 196 0
172 196 0
172 196 0
174 197 0
172 194 0
172 195 0
173 196 0
174 197 0
174 197 0
173 197 0
171 195 0
174 198 0
173 197 0
173 197 0
173 196 0
173 196 0
173 196 0
172 196 0
174 198 0
176 199 0
174 198 0
175 198 0
174 197 0
175 198 0
175 198 0
175 198 0
174 198 0
173 197 0
173 197 0
175 198 0
173 197 0
176 198 0
174 197 0
173 197 0
175 198 0
175 198 0
175 198 0
174 197 0
175 197 0
173 196 0
173 197 0
175 198 0
175 198 0
175 198 0
174 197 0
174 197 0
173 197 0
175 198 0
174 197 0
174 198 0
173 197 0
175 198 0
173 197 0
174 198 0
173 197 0
174 197 0
174 197 0
172 196 0
175 197 0
175 198 0
174 198 0
174 198 0
175 198 0
174 197 0
175 198 0
175 198 0
175 198 0
174 197 0
176 198 0
173 197 0
173 197 0
175 198 0
173 197 0
173 197 0
176 199 0
175 198 0
174 197 0
174 197 0
175 198 0
174 198 0
174 197 0
175 198 0
173 197 0
174 197 0
176 199 0
176 198 0
174 197 0
175 198 0
174 197 0
175 198 0
173 197 0
175 198 0
175 198 0
174 197 0
175 198 0
171 196 0
174 198 0
175 198 0
174 197 0
175 198 0
173 197 0
174 197 0
174 197 0
174 198 0
176 198 0
173 197 0
174 198 0
176 199 0
176 198 0
175 198 0
175 198 0
175 198 0
174 198 0
175 198 0
173 197 0
175 198 0
176 199 0
175 198 0
175 198 0
175 198 0
175 198 0
172 197 0
175 198 0
173 197 0
175 198 0
174 198 0
175 198 0
175 198 0
175 198 0
175 198 0
175 198 0
175 198 0
176 199 0
174 198 0
174 198 0
173 197 0
173 197 0
173 197 0
175 198 0
175 198 0
173 197 0
175 198 0
175 198 0
174 198 0
174 197 0
175 198 0
175 198 0
177 199 0
175 198 0
174 198 0
173 197 0
176 199 0
173 197 0
175 198 0
175 198 0
173 197 0
174 198 0
172 196 0
176 199 0
175 198 0
175 198 0
175 198 0
173 197 0
173 197 0
173 197 0
175 198 0
176 198 0
175 198 0
174 197 0
174 197 0
173 197 0
174 197 0
175 198 0
175 198 0
173 197 0
175 198 0
174 198 0
176 199 0
174 197 0
173 197 0
175 198 0
174 198 0
173 197 0
175 198 0
174 198 0
175 198 0
174 198 0
175 198 0
175 198 0
174 198 0
174 198 0
174 198 0
173 197 0
173 197 0
175 198 0
176 198 0
174 198 0
174 197 0
176 199 0
174 197 0
174 198 0
174 198 0
174 197 0
175 198 0
174 198 0
174 197 0
175 198 0
175 198 0
173 197 0
175 198 0
175 198 0
173 197 0
173 196 0
173 197 0
173 197 0
175 198 0
172 196 0
174 198 0
174 198 0
172 196 0
173 197 0
174 198 0
174 198 0
175 198 0
173 197 0
173 197 0
172 196 0
173 197 0
175 198 0
174 197 0
174 197 0
174 198 0
173 197 0
174 197 0
174 198 0
171 195 0
174 198 0
172 196 0
174 197 0
176 199 0
172 196 0
172 196 0
175 198 0
172 196 0
172 196 0
173 196 0
171 195 0
174 197 0
173 197 0
176 199 0
175 198 0
175 198 0
174 197 0
174 197 0
173 197 0
174 197 0
173 197 0
174 198 0
170 194 0
173 197 0
174 197 0
174 197 0
173 196 0
173 197 0
171 195 0
173 197 0
174 197 0
173 196 0
172 195 0
173 197 0
175 197 0
171 195 0
173 197 0
174 197 0
172 196 0
175 198 0
173 196 0
173 197 0
175 198 0
172 195 0
174 198 0
172 195 0
173 195 0
173 197 0
174 197 0
174 197 0
173 196 0
174 197 0
173 196 0
172 195 0
172 194 0
172 194 0
172 195 0
171 192 0
174 196 0
176 197 0
173 195 0
174 196 0
169 192 0
166 190 0
171 194 0
174 195 0
172 195 0
175 197 0
168 190 0
171 193 0
172 195 0
172 195 0
169 192 0
172 194 0
171 193 0
171 194 0
169 192 0
168 191 0
166 189 0
168 192 0
167 190 0
168 191 0
170 194 0
171 194 0
166 190 0
168 191 0
170 192 0
168 192 0
166 190 0
168 192 0
171 193 0
162 185 0
169 192 0
167 191 0
168 192 0
172 195 0
169 192 0
167 191 0
171 194 0
170 194 0
166 189 0
171 194 0
168 191 0
169 193 0
168 192 0
171 194 0
173 196 0
168 191 0
171 194 0
169 193 0
172 195 0
171 194 0
169 193 0
171 195 0
171 194 0
172 195 0
171 195 0
174 197 0
170 193 0
170 194 0
169 193 0
170 192 0
169 193 0
172 195 0
171 194 0
172 195 0
173 197 0
170 193 0
174 197 0
174 196 0
171 195 0
172 193 0
173 195 0
172 195 0
170 194 0
174 197 0
168 191 0
172 195 0
170 194 0
173 196 0
172 196 0
172 195 0
170 195 0
173 197 0
171 195 0
175 198 0
174 196 0
173 196 0
173 196 0
174 198 0
173 196 0
173 197 0
172 196 0
174 198 0
172 196 0
173 196 0
174 197 0
171 194 0
173 196 0
175 198 0
172 196 0
174 197 0
173 197 0
176 198 0
173 197 0
174 197 0
174 196 0
174 197 0
173 196 0
173 196 0
173 196 0
173 196 0
175 198 0
174 196 0
173 197 0
174 197 0
174 196 0
173 197 0
173 197 0
175 198 0
173 197 0
172 196 0
173 197 0
174 197 0
174 197 0
174 197 0
173 197 0
174 198 0
174 197 0
175 198 0
173 196 0
174 197 0
173 197 0
172 196 0
173 196 0
174 197 0
172 197 0
174 198 0
173 197 0
174 198 0
174 198 0
174 197 0
173 197 0
173 196 0
174 198 0
173 197 0
175 198 0
175 198 0
174 198 0
174 197 0
173 197 0
175 198 0
174 198 0
173 197 0
174 197 0
174 198 0
176 198 0
175 198 0
173 196 0
174 198 0
174 198 0
173 196 0
173 197 0
175 198 0
173 197 0
174 197 0
175 198 0
173 197 0
175 198 0
175 198 0
173 197 0
174 198 0
173 197 0
175 198 0
174 198 0
174 198 0
173 197 0
175 198 0
174 198 0
176 199 0
177 199 0
174 197 0
175 198 0
174 197 0
175 198 0
174 198 0
174 198 0
175 198 0
173 197 0
174 198 0
174 197 0
175 198 0
174 198 0
175 198 0
175 198 0
174 197 0
174 198 0
175 198 0
175 198 0
174 198 0
175 198 0
175 198 0
172 196 0
175 197 0
175 198 0
174 198 0
173 197 0
174 198 0
174 198 0
174 198 0
175 198 0
175 198 0
175 198 0
174 198 0
173 197 0
174 197 0
174 198 0
175 198 0
174 198 0
175 198 0
176 199 0
176 199 0
173 197 0
175 197 0
172 196 0
175 198 0
174 198 0
175 198 0
175 198 0
175 198 0
173 197 0
174 198 0
174 198 0
174 198 0
174 198 0
175 198 0
174 198 0
173 197 0
174 197 0
173 197 0
174 198 0
174 198 0
174 197 0
174 197 0
174 197 0
176 198 0
174 197 0
173 197 0
174 198 0
174 198 0
173 197 0
175 198 0
176 198 0
176 199 0
174 198 0
175 198 0
174 198 0
176 199 0
175 198 0
175 198 0
175 198 0
174 197 0
175 198 0
175 198 0
173 197 0
175 198 0
175 198 0
174 197 0
173 197 0
175 198 0
174 197 0
173 197 0
175 198 0
173 197 0
173 197 0
173 197 0
175 198 0
175 198 0
174 197 0
174 198 0
174 197 0
172 197 0
175 198 0
176 198 0
175 198 0
173 197 0
173 197 0
175 198 0
174 198 0
173 197 0
174 198 0
176 198 0
174 198 0
174 197 0
174 198 0
173 197 0
173 197 0
176 198 0
174 197 0
174 198 0
174 198 0
174 198 0
174 198 0
174 197 0
176 198 0
175 198 0
175 198 0
174 198 0
175 198 0
174 197 0
173 197 0
173 197 0
175 198 0
174 197 0
174 198 0
174 198 0
175 198 0
175 198 0
175 198 0
174 197 0
174 198 0
174 197 0
174 197 0
176 199 0
174 197 0
174 197 0
174 197 0
174 197 0
174 198 0
173 197 0
176 199 0
173 196 0
174 197 0
174 198 0
175 198 0
173 196 0
174 197 0
175 197 0
174 197 0
172 196 0
174 198 0
174 198 0
175 198 0
175 198 0
172 196 0
174 197 0
173 197 0
174 197 0
174 197 0
174 197 0
173 197 0
174 198 0
171 195 0
174 197 0
170 194 0
172 196 0
173 196 0
172 196 0
172 196 0
172 196 0
173 197 0
173 197 0
174 197 0
176 199 0
173 197 0
173 197 0
175 198 0
173 197 0
172 196 0
176 199 0
175 198 0
173 196 0
174 197 0
173 196 0
174 197 0
174 197 0
173 196 0
173 196 0
173 197 0
173 197 0
174 198 0
173 196 0
173 196 0
172 196 0
172 195 0
174 197 0
173 196 0
173 195 0
172 195 0
173 196 0
173 196 0
172 195 0
172 195 0
175 197 0
175 197 0
172 194 0
174 197 0
174 196 0
172 195 0
170 193 0
171 193 0
174 196 0
171 194 0
173 195 0
170 193 0
171 193 0
172 195 0
172 195 0
169 191 0
172 195 0
174 197 0
171 194 0
170 194 0
172 195 0
169 192 0
168 191 0
168 191 0
171 193 0
168 191 0
166 190 0
165 188 0
168 191 0
170 193 0
170 194 0
170 194 0
168 191 0
171 194 0
169 192 0
170 193 0
171 195 0
171 194 0
166 190 0
166 190 0
170 194 0
168 191 0
167 191 0
171 194 0
166 188 0
167 190 0
166 190 0
172 196 0
168 192 0
171 194 0
169 192 0
170 194 0
172 195 0
173 196 0
169 192 0
174 197 0
168 192 0
169 193 0
172 195 0
168 192 0
172 195 0
171 194 0
168 191 0
171 194 0
170 194 0
173 196 0
165 189 0
173 197 0
170 193 0
171 194 0
172 195 0
171 193 0
170 194 0
171 194 0
170 194 0
171 194 0
170 193 0
170 193 0
171 194 0
172 196 0
173 195 0
172 195 0
171 195 0
169 193 0
171 195 0
172 196 0
173 196 0
173 196 0
172 196 0
173 196 0
171 194 0
172 195 0
172 195 0
172 195 0
174 197 0
174 197 0
174 197 0
173 197 0
175 198 0
175 198 0
173 197 0
172 196 0
173 197 0
173 197 0
171 195 0
173 196 0
172 195 0
171 195 0
174 197 0
175 198 0
174 198 0
173 197 0
171 195 0
175 198 0
174 197 0
170 194 0
173 197 0
173 196 0
173 196 0
172 196 0
175 197 0
173 196 0
174 197 0
174 197 0
173 197 0
174 198 0
174 197 0
172 197 0
173 197 0
174 197 0
173 197 0
175 198 0
172 196 0
172 196 0
173 197 0
174 197 0
173 196 0
175 198 0
172 196 0
173 197 0
174 197 0
174 197 0
174 197 0
174 198 0
174 198 0
175 198 0
175 198 0
174 198 0
173 197 0
175 198 0
175 198 0
173 197 0
174 198 0
176 199 0
174 197 0
175 198 0
173 197 0
174 198 0
175 198 0
173 196 0
175 198 0
172 196 0
173 197 0
174 197 0
175 198 0
176 199 0
174 198 0
175 198 0
174 198 0
175 198 0
173 197 0
176 199 0
173 197 0
174 198 0
175 198 0
173 197 0
175 198 0
175 197 0
174 198 0
175 198 0
174 198 0
173 197 0
174 198 0
174 198 0
173 197 0
174 198 0
173 197 0
174 197 0
174 197 0
173 197 0
175 198 0
174 198 0
175 198 0
173 197 0
174 197 0
172 196 0
175 198 0
175 198 0
174 198 0
173 197 0
174 197 0
174 197 0
176 199 0
175 198 0
175 198 0
175 198 0
174 198 0
174 197 0
175 198 0
173 197 0
174 197 0
173 197 0
174 198 0
174 198 0
174 197 0
174 197 0
174 198 0
173 197 0
174 198 0
175 198 0
173 197 0
175 198 0
173 197 0
174 198 0
174 197 0
174 198 0
174 198 0
175 198 0
172 197 0
176 198 0
174 198 0
174 198 0
174 198 0
174 198 0
174 198 0
172 196 0
173 197 0
173 197 0
175 198 0
175 198 0
174 197 0
174 198 0
175 198 0
177 199 0
175 198 0
175 198 0
173 197 0
175 198 0
175 198 0
174 198 0
174 198 0
175 198 0
174 198 0
174 197 0
175 198 0
173 197 0
175 198 0
175 198 0
175 198 0
174 198 0
175 198 0
174 197 0
175 198 0
174 198 0
174 198 0
174 198 0
173 197 0
174 197 0
174 197 0
175 198 0
174 198 0
175 198 0
173 197 0
175 198 0
175 198 0
175 198 0
175 198 0
175 198 0
173 197 0
175 198 0
174 198 0
173 197 0
175 198 0
175 198 0
175 198 0
173 197 0
174 198 0
175 198 0
175 198 0
174 197 0
174 197 0
174 198 0
173 197 0
174 198 0
175 198 0
174 198 0
172 196 0
173 197 0
173 197 0
174 197 0
173 197 0
174 197 0
173 197 0
172 196 0
174 197 0
174 197 0
173 197 0
175 198 0
174 198 0
175 198 0
174 198 0
174 198 0
175 198 0
172 196 0
174 198 0
173 197 0
173 197 0
176 199 0
174 197 0
174 197 0
175 198 0
173 197 0
176 199 0
175 198 0
175 198 0
172 196 0
174 197 0
175 198 0
175 198 0
172 197 0
174 198 0
175 198 0
175 198 0
175 198 0
171 195 0
174 198 0
176 198 0
173 197 0
171 196 0
174 197 0
174 197 0
174 198 0
173 197 0
174 198 0
175 198 0
173 196 0
176 198 0
174 198 0
173 197 0
175 198 0
172 196 0
173 197 0
172 195 0
173 196 0
174 198 0
173 196 0
175 198 0
174 198 0
174 198 0
172 196 0
173 197 0
174 197 0
174 197 0
172 196 0
172 196 0
174 197 0
174 197 0
173 197 0
175 198 0
173 197 0
172 196 0
174 197 0
173 196 0
172 196 0
173 196 0
174 197 0
171 196 0
173 197 0
173 196 0
173 197 0
174 197 0
173 196 0
173 196 0
174 198 0
173 197 0
171 195 0
172 196 0
172 196 0
173 197 0
173 196 0
172 195 0
171 194 0
173 196 0
172 195 0
172 196 0
172 195 0
171 194 0
172 195 0
174 196 0
173 196 0
170 194 0
175 198 0
172 195 0
171 194 0
174 196 0
170 193 0
170 194 0
172 194 0
171 194 0
173 197 0
170 192 0
169 192 0
169 191 0
171 195 0
174 196 0
168 191 0
171 192 0
167 191 0
174 196 0
169 192 0
168 191 0
172 195 0
167 191 0
174 197 0
166 189 0
171 194 0
169 193 0
168 191 0
166 189 0
171 194 0
171 195 0
171 195 0
167 190 0
167 190 0
172 195 0
168 192 0
167 190 0
169 192 0
167 191 0
167 190 0
170 194 0
168 192 0
169 193 0
166 189 0
169 193 0
171 194 0
172 195 0
170 193 0
168 191 0
171 194 0
172 195 0
171 194 0
167 190 0
173 196 0
168 190 0
170 194 0
171 194 0
172 196 0
170 193 0
168 191 0
173 195 0
167 191 0
169 192 0
173 196 0
169 194 0
170 194 0
171 194 0
170 194 0
171 194 0
172 195 0
172 195 0
175 198 0
174 197 0
173 196 0
173 196 0
173 196 0
173 197 0
171 194 0
167 191 0
170 194 0
171 194 0
173 196 0
174 197 0
170 194 0
173 196 0
173 197 0
169 193 0
171 194 0
174 196 0
173 196 0
174 197 0
173 196 0
171 195 0
173 197 0
172 196 0
172 196 0
174 197 0
171 194 0
175 198 0
171 194 0
172 196 0
171 193 0
173 196 0
172 195 0
172 196 0
174 197 0
171 195 0
175 198 0
172 195 0
175 198 0
171 196 0
174 197 0
173 196 0
172 196 0
173 196 0
173 197 0
172 196 0
171 195 0
173 196 0
173 196 0
172 196 0
173 196 0
174 197 0
173 195 0
172 195 0
174 197 0
176 198 0
174 197 0
176 198 0
173 197 0
176 198 0
173 197 0
176 198 0
173 197 0
173 196 0
174 198 0
174 197 0
174 197 0
175 198 0
173 197 0
174 198 0
174 197 0
174 198 0
174 197 0
173 197 0
174 198 0
174 197 0
173 196 0
172 196 0
172 196 0
174 197 0
174 198 0
174 198 0
173 197 0
173 196 0
174 198 0
174 197 0
174 197 0
175 198 0
172 196 0
174 197 0
173 197 0
174 197 0
175 198 0
174 197 0
173 197 0
172 196 0
173 197 0
175 198 0
175 198 0
174 197 0
175 198 0
174 198 0
173 197 0
174 197 0
174 198 0
175 198 0
175 198 0
173 197 0
175 198 0
174 197 0
174 198 0
173 197 0
174 198 0
174 197 0
174 198 0
174 198 0
173 197 0
175 198 0
174 197 0
175 198 0
174 198 0
173 197 0
175 198 0
173 197 0
174 197 0
174 197 0
174 197 0
175 198 0
173 197 0
175 198 0
175 198 0
174 198 0
174 198 0
174 198 0
170 194 0
174 198 0
174 197 0
174 197 0
175 198 0
175 198 0
175 198 0
175 198 0
175 198 0
173 197 0
174 197 0
175 198 0
175 198 0
173 197 0
173 197 0
174 198 0
175 197 0
174 198 0
175 198 0
175 198 0
175 198 0
172 197 0
175 198 0
173 197 0
176 199 0
175 198 0
174 198 0
173 197 0
173 197 0
174 198 0
173 197 0
176 198 0
175 198 0
173 197 0
173 197 0
173 197 0
173 197 0
176 198 0
175 198 0
175 198 0
175 198 0
174 198 0
173 197 0
174 198 0
173 197 0
174 198 0
172 197 0
176 198 0
176 199 0
174 197 0
175 198 0
174 198 0
173 197 0
175 198 0
174 197 0
175 198 0
174 198 0
175 198 0
174 197 0
175 198 0
174 198 0
175 198 0
174 197 0
175 198 0
175 198 0
174 198 0
174 197 0
175 198 0
173 197 0
177 199 0
174 198 0
173 197 0
174 198 0
176 199 0
175 198 0
173 197 0
174 197 0
174 198 0
174 198 0
175 198 0
175 198 0
174 198 0
174 198 0
174 198 0
174 197 0
175 198 0
175 198 0
174 198 0
174 198 0
173 197 0
175 198 0
175 198 0
174 197 0
173 197 0
174 197 0
173 197 0
174 197 0
174 198 0
173 197 0
174 197 0
174 198 0
175 198 0
175 198 0
172 197 0
175 198 0
174 197 0
173 197 0
172 197 0
173 197 0
175 198 0
173 197 0
175 198 0
174 198 0
174 197 0
174 197 0
175 198 0
173 196 0
174 198 0
174 198 0
175 198 0
174 198 0
174 197 0
174 197 0
173 197 0
174 198 0
174 198 0
174 198 0
174 198 0
173 197 0
174 197 0
173 197 0
174 198 0
173 197 0
176 198 0
173 197 0
175 198 0
173 197 0
173 197 0
172 195 0
172 196 0
175 198 0
172 196 0
174 198 0
175 198 0
174 198 0
173 197 0
175 198 0
174 197 0
175 198 0
173 197 0
173 197 0
174 197 0
175 198 0
173 196 0
174 197 0
170 195 0
172 196 0
174 197 0
171 194 0
173 197 0
171 195 0
174 198 0
175 198 0
171 195 0
173 196 0
173 197 0
172 196 0
172 196 0
172 196 0
173 197 0
173 195 0
174 197 0
173 197 0
174 197 0
175 198 0
173 197 0
173 197 0
172 195 0
169 193 0
172 197 0
175 198 0
175 198 0
175 198 0
173 196 0
172 196 0
172 195 0
172 196 0
172 195 0
173 196 0
172 195 0
173 196 0
177 199 0
172 195 0
173 196 0
176 198 0
174 196 0
175 198 0
172 195 0
174 197 0
173 195 0
172 195 0
174 197 0
172 195 0
172 195 0
171 194 0
173 196 0
173 196 0
172 193 0
173 196 0
173 196 0
174 197 0
174 196 0
171 195 0
172 195 0
168 192 0
169 191 0
171 194 0
168 191 0
171 194 0
173 195 0
170 193 0
170 194 0
169 192 0
171 194 0
167 191 0
170 193 0
169 193 0
166 189 0
168 192 0
166 190 0
170 194 0
168 192 0
164 188 0
170 193 0
170 194 0
169 193 0
166 189 0
170 193 0
167 190 0
171 194 0
170 193 0
169 192 0
168 191 0
165 189 0
173 196 0
168 192 0
170 194 0
171 193 0
169 192 0
170 194 0
169 192 0
170 194 0
172 195 0
171 195 0
172 195 0
173 196 0
168 192 0
173 196 0
171 194 0
174 197 0
170 193 0
169 193 0
170 193 0
172 195 0
167 190 0
170 194 0
173 196 0
169 192 0
170 193 0
171 195 0
172 195 0
170 194 0
175 197 0
172 195 0
174 197 0
174 197 0
171 194 0
173 196 0
173 195 0
171 195 0
172 195 0
170 195 0
173 197 0
175 198 0
169 193 0
174 197 0
171 195 0
170 193 0
173 197 0
170 194 0
173 196 0
173 196 0
174 197 0
171 195 0
173 197 0
174 196 0
173 197 0
175 196 0
174 198 0
173 196 0
173 197 0
169 192 0
173 197 0
173 197 0
174 197 0
173 196 0
173 197 0
173 196 0
173 195 0
171 195 0
173 197 0
175 198 0
174 197 0
173 196 0
173 196 0
172 195 0
173 196 0
175 197 0
172 196 0
174 197 0
175 198 0
175 198 0
173 197 0
172 196 0
173 197 0
174 197 0
173 197 0
173 197 0
174 197 0
173 196 0
174 197 0
173 197 0
174 198 0
175 198 0
171 195 0
175 198 0
175 198 0
174 197 0
173 196 0
174 197 0
174 198 0
174 197 0
175 198 0
176 199 0
174 197 0
173 197 0
174 197 0
174 197 0
174 198 0
175 198 0
174 197 0
176 198 0
174 198 0
174 197 0
173 197 0
174 197 0
173 196 0
176 199 0
174 198 0
174 197 0
174 197 0
175 198 0
175 198 0
174 197 0
176 199 0
177 199 0
175 198 0
173 197 0
174 197 0
174 198 0
175 198 0
174 198 0
175 198 0
173 197 0
175 198 0
175 198 0
174 198 0
175 198 0
173 197 0
175 198 0
174 197 0
175 198 0
175 198 0
174 198 0
175 198 0
173 197 0
175 198 0
175 198 0
173 197 0
173 197 0
174 197 0
175 198 0
175 198 0
174 197 0
174 197 0
175 198 0
175 198 0
175 198 0
174 197 0
172 197 0
175 198 0
175 198 0
173 197 0
175 198 0
173 197 0
175 198 0
174 197 0
172 196 0
174 197 0
175 198 0
174 198 0
174 198 0
174 198 0
174 197 0
174 198 0
175 198 0
175 198 0
173 197 0
176 199 0
175 198 0
174 197 0
175 198 0
175 198 0
175 198 0
174 198 0
173 197 0
173 197 0
173 197 0
174 198 0
175 198 0
173 197 0
176 199 0
174 197 0
173 197 0
175 198 0
174 197 0
175 198 0
176 198 0
175 198 0
175 198 0
174 198 0
174 197 0
174 198 0
175 198 0
174 198 0
172 197 0
176 199 0
175 198 0
174 197 0
175 198 0
174 197 0
174 198 0
175 198 0
173 197 0
175 198 0
174 197 0
174 198 0
174 198 0
173 197 0
175 198 0
174 198 0
173 197 0
176 198 0
174 198 0
174 198 0
175 198 0
173 197 0
173 197 0
174 197 0
176 198 0
176 198 0
174 197 0
173 197 0
174 197 0
173 197 0
174 197 0
176 198 0
172 196 0
175 198 0
175 198 0
176 198 0
175 198 0
174 198 0
174 198 0
172 197 0
175 198 0
173 197 0
172 197 0
173 197 0
174 198 0
174 198 0
173 197 0
175 197 0
174 198 0
176 198 0
175 198 0
176 198 0
174 197 0
175 198 0
173 197 0
175 198 0
173 197 0
175 198 0
174 198 0
175 198 0
175 198 0
174 198 0
174 198 0
176 198 0
174 198 0
175 198 0
173 197 0
174 197 0
175 198 0
173 197 0
175 198 0
173 197 0
173 197 0
173 197 0
173 197 0
175 198 0
173 197 0
174 198 0
174 197 0
175 198 0
174 198 0
174 198 0
174 197 0
174 197 0
175 198 0
174 197 0
175 198 0
173 197 0
173 196 0
172 195 0
173 197 0
175 198 0
175 198 0
174 198 0
174 197 0
175 198 0
174 198 0
173 197 0
172 196 0
172 196 0
174 197 0
173 197 0
172 196 0
173 197 0
174 197 0
172 196 0
173 197 0
175 198 0
174 198 0
174 198 0
174 198 0
170 194 0
174 198 0
172 197 0
173 197 0
173 196 0
174 197 0
173 197 0
175 197 0
173 197 0
173 197 0
170 194 0
173 197 0
171 195 0
173 196 0
172 196 0
172 196 0
174 197 0
173 196 0
174 197 0
171 195 0
174 197 0
173 196 0
172 195 0
173 196 0
172 196 0
173 197 0
172 196 0
171 195 0
175 198 0
170 194 0
174 198 0
170 193 0
175 198 0
174 197 0
174 197 0
173 196 0
170 193 0
173 196 0
172 194 0
172 195 0
173 197 0
174 197 0
171 195 0
173 196 0
170 193 0
171 193 0
172 195 0
171 195 0
174 197 0
174 196 0
174 196 0
173 195 0
171 194 0
169 191 0
171 194 0
171 194 0
172 195 0
166 190 0
171 194 0
169 192 0
173 196 0
171 195 0
166 190 0
171 194 0
168 191 0
171 194 0
167 191 0
170 193 0
168 191 0
166 190 0
169 193 0
168 192 0
172 195 0
167 190 0
166 189 0
166 190 0
170 194 0
172 195 0
169 193 0
168 192 0
169 192 0
173 195 0
166 189 0
173 195 0
170 194 0
173 195 0
171 195 0
169 193 0
167 191 0
170 195 0
167 191 0
168 192 0
170 194 0
169 192 0
172 196 0
170 193 0
171 195 0
167 191 0
168 192 0
172 195 0
168 192 0
170 193 0
169 192 0
172 195 0
173 196 0
171 195 0
170 194 0
172 195 0
173 196 0
170 194 0
170 193 0
170 194 0
169 192 0
174 197 0
173 196 0
172 195 0
172 195 0
171 195 0
169 193 0
172 195 0
170 193 0
173 196 0
170 193 0
172 195 0
172 196 0
173 196 0
173 196 0
172 195 0
174 197 0
171 194 0
172 196 0
171 195 0
174 197 0
172 195 0
173 196 0
172 195 0
172 195 0
174 197 0
172 196 0
172 196 0
174 197 0
173 196 0
173 196 0
173 197 0
171 195 0
173 195 0
173 197 0
174 197 0
172 195 0
172 196 0
172 196 0
174 197 0
173 197 0
173 196 0
173 196 0
170 193 0
173 196 0
173 196 0
171 195 0
174 196 0
174 197 0
172 196 0
173 196 0
174 197 0
173 196 0
173 196 0
173 197 0
173 196 0
175 198 0
174 197 0
172 196 0
171 194 0
174 197 0
173 196 0
175 198 0
175 197 0
176 198 0
174 198 0
174 198 0
172 196 0
173 197 0
174 198 0
175 198 0
176 199 0
173 197 0
175 198 0
175 198 0
175 198 0
174 197 0
174 198 0
176 198 0
173 197 0
173 197 0
173 197 0
173 197 0
175 198 0
173 197 0
172 197 0
176 199 0
172 196 0
172 196 0
173 197 0
173 196 0
174 198 0
175 198 0
177 199 0
175 198 0
173 196 0
174 198 0
172 196 0
173 197 0
173 197 0
173 197 0
173 197 0
173 197 0
173 197 0
172 196 0
175 198 0
174 197 0
173 197 0
175 198 0
175 198 0
173 197 0
175 198 0
175 198 0
174 198 0
174 198 0
174 198 0
176 198 0
174 197 0
176 198 0
175 198 0
175 198 0
175 198 0
172 196 0
176 199 0
173 197 0
174 198 0
175 198 0
174 198 0
173 197 0
173 197 0
175 198 0
174 198 0
172 196 0
175 198 0
174 197 0
175 198 0
175 198 0
174 198 0
173 196 0
174 198 0
175 198 0
173 197 0
173 197 0
174 198 0
175 198 0
174 198 0
174 198 0
176 199 0
174 198 0
174 198 0
175 198 0
172 196 0
175 198 0
174 197 0
174 198 0
174 198 0
174 197 0
175 198 0
174 198 0
173 197 0
174 197 0
175 198 0
175 198 0
174 198 0
175 198 0
175 198 0
174 198 0
174 198 0
174 197 0
175 198 0
174 197 0
175 198 0
174 197 0
173 197 0
176 199 0
174 198 0
173 197 0
175 198 0
175 198 0
173 197 0
175 198 0
174 198 0
174 197 0
175 198 0
174 198 0
175 198 0
173 197 0
175 198 0
176 199 0
175 198 0
175 198 0
175 198 0
174 197 0
174 198 0
174 198 0
174 198 0
174 198 0
175 198 0
174 197 0
173 197 0
175 198 0
176 199 0
174 197 0
176 199 0
176 199 0
175 198 0
174 197 0
175 198 0
174 198 0
174 198 0
174 197 0
173 197 0
175 198 0
175 198 0
172 196 0
173 197 0
172 196 0
174 197 0
174 198 0
175 198 0
175 198 0
173 197 0
176 199 0
172 196 0
175 198 0
174 198 0
174 198 0
174 198 0
173 197 0
174 198 0
174 198 0
172 197 0
173 197 0
175 198 0
175 198 0
176 198 0
173 197 0
173 197 0
174 198 0
173 197 0
176 198 0
174 197 0
172 197 0
175 198 0
174 198 0
172 196 0
174 197 0
173 197 0
173 197 0
175 198 0
172 196 0
173 197 0
174 198 0
173 197 0
174 198 0
172 196 0
174 198 0
172 196 0
174 197 0
171 195 0
174 197 0
174 197 0
173 197 0
174 197 0
174 197 0
173 197 0
171 195 0
172 197 0
173 196 0
174 197 0
175 197 0
174 198 0
172 196 0
174 197 0
173 197 0
174 198 0
175 198 0
176 199 0
173 196 0
174 197 0
175 198 0
171 196 0
174 197 0
173 196 0
173 197 0
174 198 0
173 197 0
173 197 0
174 198 0
173 197 0
174 198 0
173 197 0
175 198 0
173 197 0
174 197 0
176 198 0
171 195 0
175 198 0
173 197 0
173 197 0
172 196 0
172 196 0
172 196 0
172 196 0
173 196 0
172 196 0
173 196 0
171 194 0
174 197 0
172 196 0
173 197 0
174 197 0
172 196 0
174 198 0
173 196 0
173 197 0
173 196 0
170 193 0
173 196 0
173 196 0
175 198 0
173 196 0
173 196 0
171 194 0
171 195 0
174 197 0
172 196 0
173 196 0
172 195 0
174 197 0
173 196 0
174 197 0
175 198 0
173 196 0
172 195 0
174 197 0
175 198 0
175 197 0
171 194 0
171 194 0
171 194 0
173 196 0
169 192 0
170 193 0
172 195 0
173 197 0
170 194 0
169 192 0
171 194 0
170 193 0
169 192 0
172 195 0
168 192 0
171 194 0
173 197 0
174 197 0
168 191 0
167 191 0
170 192 0
172 194 0
172 196 0
168 192 0
169 193 0
169 193 0
173 196 0
170 194 0
172 196 0
166 189 0
170 194 0
169 192 0
172 196 0
170 194 0
170 194 0
169 193 0
170 194 0
172 195 0
171 194 0
169 193 0
169 192 0
171 195 0
170 194 0
171 195 0
170 193 0
170 194 0
170 193 0
171 195 0
172 194 0
172 195 0
172 195 0
171 193 0
173 196 0
168 191 0
170 194 0
171 195 0
168 191 0
171 193 0
171 194 0
170 194 0
172 195 0
169 193 0
169 192 0
174 197 0
174 197 0
169 193 0
174 197 0
172 194 0
172 195 0
172 195 0
174 197 0
172 196 0
172 195 0
173 196 0
172 195 0
172 195 0
171 195 0
172 195 0
173 195 0
172 196 0
174 197 0
172 195 0
172 195 0
173 197 0
173 197 0
172 196 0
174 197 0
173 196 0
172 195 0
173 197 0
172 196 0
174 197 0
173 196 0
173 197 0
172 194 0
172 195 0
174 198 0
174 198 0
175 198 0
173 197 0
172 195 0
172 196 0
173 195 0
174 197 0
174 197 0
173 197 0
173 196 0
172 195 0
174 197 0
174 197 0
174 198 0
174 198 0
174 198 0
175 198 0
172 196 0
172 196 0
173 197 0
175 198 0
172 196 0
174 197 0
172 196 0
175 198 0
171 195 0
174 197 0
174 198 0
173 197 0
173 197 0
173 196 0
175 198 0
175 198 0
174 197 0
174 197 0
174 198 0
173 197 0
172 196 0
175 198 0
174 197 0
175 198 0
174 198 0
174 197 0
174 198 0
173 197 0
174 198 0
175 198 0
176 198 0
175 197 0
173 197 0
174 198 0
176 198 0
176 199 0
174 198 0
175 198 0
175 198 0
174 197 0
174 197 0
174 198 0
175 198 0
175 198 0
174 198 0
174 198 0
175 198 0
174 198 0
175 198 0
174 198 0
176 199 0
175 198 0
174 197 0
174 198 0
173 197 0
174 198 0
174 198 0
174 197 0
175 198 0
174 197 0
173 197 0
176 198 0
176 199 0
175 198 0
174 198 0
175 198 0
176 198 0
174 198 0
173 196 0
174 197 0
174 197 0
173 197 0
173 197 0
175 198 0
173 197 0
175 198 0
175 198 0
175 198 0
175 198 0
175 198 0
173 197 0
175 198 0
173 197 0
174 198 0
174 197 0
174 198 0
173 197 0
175 198 0
173 197 0
172 197 0
176 198 0
174 197 0
175 198 0
173 197 0
175 198 0
174 198 0
175 198 0
174 198 0
174 198 0
176 198 0
174 198 0
174 198 0
174 198 0
174 197 0
175 198 0
174 197 0
177 199 0
174 197 0
174 197 0
175 198 0
173 197 0
173 197 0
177 199 0
175 198 0
174 197 0
172 196 0
176 199 0
176 199 0
174 198 0
176 199 0
173 197 0
174 197 0
175 198 0
175 198 0
175 198 0
175 198 0
176 199 0
174 198 0
174 197 0
175 198 0
175 198 0
174 198 0
173 197 0
173 197 0
175 198 0
173 197 0
173 197 0
171 196 0
175 198 0
174 198 0
174 198 0
174 198 0
174 198 0
175 198 0
175 198 0
175 198 0
174 197 0
175 198 0
174 198 0
175 198 0
174 198 0
175 198 0
174 198 0
173 197 0
174 198 0
173 197 0
174 198 0
175 198 0
174 198 0
175 198 0
174 198 0
175 198 0
175 198 0
174 198 0
173 197 0
173 197 0
172 196 0
175 198 0
174 197 0
173 197 0
175 198 0
173 197 0
174 198 0
175 198 0
173 197 0
176 198 0
176 199 0
174 198 0
174 197 0
174 197 0
174 198 0
175 198 0
175 198 0
173 197 0
174 198 0
174 197 0
175 198 0
174 198 0
175 198 0
174 197 0
175 198 0
174 198 0
174 197 0
173 197 0
174 197 0
174 198 0
172 196 0
174 197 0
173 196 0
175 198 0
174 198 0
174 197 0
174 197 0
173 197 0
173 197 0
173 197 0
174 197 0
175 198 0
173 197 0
173 197 0
175 198 0
176 199 0
175 198 0
173 196 0
173 197 0
174 198 0
173 197 0
175 198 0
174 198 0
174 197 0
175 198 0
174 197 0
173 197 0
174 197 0
174 197 0
174 197 0
173 197 0
173 197 0
174 198 0
174 197 0
173 196 0
175 198 0
172 196 0
175 198 0
173 197 0
174 198 0
172 196 0
175 198 0
174 198 0
173 196 0
172 196 0
172 195 0
174 197 0
172 196 0
173 197 0
171 195 0
173 196 0
171 195 0
173 197 0
171 195 0
176 199 0
174 197 0
174 197 0
174 197 0
176 198 0
173 197 0
174 198 0
173 196 0
172 196 0
173 196 0
172 195 0
174 197 0
173 197 0
175 198 0
173 196 0
170 193 0
173 196 0
174 197 0
173 196 0
172 195 0
173 197 0
171 195 0
173 196 0
173 196 0
173 196 0
172 196 0
172 194 0
173 196 0
174 197 0
173 196 0
174 196 0
173 196 0
171 195 0
175 197 0
175 197 0
169 191 0
173 195 0
173 197 0
172 195 0
168 190 0
172 194 0
171 194 0
173 196 0
164 188 0
172 196 0
170 194 0
168 192 0
172 195 0
173 196 0
169 192 0
168 191 0
170 194 0
170 194 0
170 194 0
171 195 0
167 190 0
168 192 0
169 192 0
173 196 0
171 194 0
165 190 0
169 192 0
167 191 0
168 191 0
169 192 0
172 195 0
171 194 0
171 195 0
171 194 0
171 194 0
172 195 0
171 193 0
170 193 0
168 191 0
170 193 0
171 194 0
169 192 0
170 194 0
170 193 0
172 196 0
171 195 0
167 192 0
170 194 0
174 198 0
168 191 0
168 191 0
173 196 0
170 194 0
170 193 0
172 196 0
172 196 0
172 195 0
169 193 0
170 193 0
173 196 0
171 194 0
167 190 0
171 195 0
169 193 0
174 197 0
170 193 0
173 195 0
173 197 0
172 196 0
173 196 0
173 196 0
170 194 0
171 194 0
172 196 0
173 196 0
175 198 0
172 196 0
171 195 0
173 196 0
176 198 0
173 196 0
174 197 0
175 197 0
175 198 0
172 196 0
172 195 0
176 199 0
172 195 0
171 195 0
172 195 0
173 197 0
174 198 0
174 197 0
172 197 0
172 195 0
174 197 0
172 196 0
173 195 0
174 197 0
171 195 0
173 196 0
173 197 0
174 198 0
173 197 0
175 198 0
173 196 0
173 196 0
172 196 0
173 197 0
173 196 0
174 197 0
174 197 0
174 197 0
173 196 0
174 197 0
174 196 0
174 197 0
172 196 0
173 196 0
174 197 0
173 197 0
173 197 0
175 197 0
175 198 0
174 197 0
174 197 0
175 198 0
173 197 0
175 198 0
174 197 0
175 198 0
174 197 0
175 198 0
173 197 0
175 198 0
173 197 0
173 196 0
175 198 0
173 196 0
174 197 0
171 195 0
172 195 0
173 197 0
175 198 0
173 197 0
173 196 0
172 196 0
174 197 0
175 198 0
173 196 0
175 198 0
174 197 0
173 197 0
173 197 0
174 197 0
173 197 0
176 199 0
174 197 0
174 197 0
174 197 0
174 197 0
173 196 0
174 198 0
176 199 0
174 197 0
172 196 0
175 198 0
172 195 0
175 198 0
173 197 0
175 198 0
175 198 0
175 198 0
174 197 0
173 196 0
175 198 0
176 199 0
175 198 0
174 198 0
175 198 0
174 198 0
175 198 0
174 198 0
175 198 0
177 199 0
173 197 0
174 197 0
175 198 0
174 198 0
174 197 0
176 198 0
173 197 0
174 198 0
175 198 0
174 198 0
175 198 0
175 198 0
175 198 0
174 197 0
175 198 0
176 198 0
174 197 0
173 197 0
174 198 0
173 197 0
175 198 0
174 198 0
175 198 0
174 198 0
175 198 0
172 197 0
173 196 0
174 198 0
173 197 0
176 199 0
174 197 0
176 199 0
174 198 0
173 197 0
175 198 0
175 198 0
175 198 0
175 198 0
176 199 0
175 198 0
175 198 0
174 197 0
174 198 0
173 197 0
174 198 0
174 198 0
177 199 0
173 197 0
176 199 0
175 198 0
175 198 0
175 198 0
175 198 0
174 198 0
174 198 0
172 197 0
175 198 0
175 198 0
174 198 0
174 198 0
174 198 0
174 198 0
175 198 0
174 198 0
174 197 0
176 198 0
174 197 0
173 197 0
174 198 0
174 197 0
176 199 0
175 198 0
174 198 0
175 198 0
174 198 0
174 197 0
173 197 0
173 197 0
173 197 0
174 198 0
174 198 0
175 198 0
173 197 0
174 198 0
174 198 0
175 198 0
173 197 0
175 198 0
176 199 0
176 199 0
176 198 0
175 198 0
175 198 0
174 198 0
174 198 0
175 198 0
174 198 0
175 198 0
174 198 0
174 198 0
174 197 0
174 198 0
174 198 0
175 198 0
175 198 0
173 197 0
174 198 0
174 198 0
174 197 0
175 198 0
172 196 0
173 196 0
175 198 0
174 197 0
174 198 0
175 198 0
174 197 0
176 199 0
173 197 0
176 199 0
172 197 0
174 198 0
175 198 0
175 198 0
174 197 0
174 198 0
171 195 0
174 198 0
174 198 0
174 197 0
175 198 0
173 197 0
172 197 0
174 198 0
173 197 0
172 196 0
172 196 0
175 198 0
173 197 0
174 198 0
172 196 0
173 197 0
173 197 0
174 197 0
175 198 0
174 198 0
175 198 0
173 197 0
173 196 0
175 198 0
174 198 0
173 196 0
174 198 0
173 197 0
173 197 0
174 198 0
173 196 0
175 198 0
173 196 0
172 196 0
174 198 0
172 196 0
174 197 0
173 197 0
174 198 0
173 197 0
173 197 0
171 195 0
175 198 0
172 196 0
173 196 0
174 197 0
172 196 0
174 197 0
175 197 0
173 197 0
172 196 0
173 196 0
173 196 0
174 197 0
174 198 0
171 195 0
173 197 0
176 198 0
174 197 0
174 197 0
171 196 0
174 198 0
172 196 0
173 197 0
173 197 0
172 196 0
173 196 0
172 196 0
173 196 0
174 197 0
175 197 0
173 197 0
173 196 0
172 196 0
174 197 0
174 197 0
174 197 0
175 198 0
173 197 0
172 195 0
173 196 0
171 195 0
172 195 0
176 198 0
173 197 0
169 193 0
173 196 0
175 197 0
174 197 0
170 194 0
169 193 0
171 195 0
171 195 0
173 195 0
173 195 0
170 194 0
170 193 0
172 195 0
168 192 0
174 197 0
170 193 0
171 195 0
173 196 0
169 193 0
172 195 0
167 190 0
171 195 0
171 195 0
169 192 0
168 192 0
172 196 0
170 194 0
170 194 0
171 194 0
173 196 0
167 191 0
170 194 0
170 194 0
168 190 0
168 191 0
169 192 0
170 194 0
170 194 0
173 196 0
173 196 0
170 194 0
168 192 0
170 194 0
168 192 0
171 195 0
169 192 0
172 194 0
172 195 0
169 192 0
172 195 0
171 194 0
174 198 0
169 192 0
175 198 0
172 195 0
172 195 0
170 194 0
168 191 0
175 198 0
171 195 0
171 195 0
173 196 0
172 195 0
173 195 0
172 195 0
172 195 0
171 194 0
174 197 0
172 195 0
172 196 0
174 196 0
173 196 0
173 196 0
172 196 0
172 196 0
174 197 0
174 197 0
170 194 0
173 196 0
173 196 0
171 195 0
173 197 0
172 195 0
173 197 0
171 194 0
170 193 0
173 195 0
172 196 0
170 194 0
174 197 0
173 197 0
173 197 0
173 197 0
173 197 0
173 196 0
176 198 0
172 195 0
172 197 0
174 197 0
173 197 0
173 196 0
170 193 0
174 198 0
174 198 0
173 195 0
174 197 0
173 197 0
173 196 0
173 196 0
174 197 0
174 197 0
173 197 0
174 197 0
172 196 0
175 198 0
173 197 0
172 195 0
174 198 0
172 195 0
173 197 0
174 197 0
174 197 0
173 196 0
174 198 0
175 198 0
172 196 0
174 197 0
174 197 0
171 194 0
174 198 0
174 197 0
172 196 0
173 197 0
172 196 0
176 199 0
174 197 0
173 197 0
171 195 0
173 196 0
174 198 0
173 197 0
173 197 0
174 198 0
173 197 0
174 197 0
174 196 0
174 197 0
173 197 0
175 198 0
175 197 0
173 196 0
174 197 0
174 197 0
175 198 0
174 198 0
174 197 0
173 197 0
175 198 0
174 197 0
176 199 0
175 198 0
175 198 0
177 199 0
174 198 0
173 197 0
173 197 0
175 198 0
175 198 0
174 198 0
172 196 0
176 199 0
174 197 0
174 198 0
175 198 0
174 198 0
175 198 0
175 198 0
174 198 0
174 197 0
174 198 0
175 198 0
173 197 0
175 198 0
173 196 0
174 198 0
174 197 0
174 197 0
176 199 0
174 198 0
174 197 0
173 197 0
173 197 0
175 198 0
173 196 0
174 197 0
174 197 0
175 198 0
175 198 0
173 197 0
175 198 0
174 198 0
173 197 0
173 197 0
175 198 0
173 197 0
173 197 0
175 198 0
175 198 0
174 198 0
173 197 0
175 198 0
174 198 0
174 197 0
175 198 0
174 198 0
174 198 0
176 198 0
174 197 0
173 197 0
174 198 0
175 198 0
175 198 0
175 198 0
175 198 0
175 198 0
174 198 0
176 198 0
175 198 0
175 198 0
176 199 0
175 198 0
175 198 0
174 197 0
175 198 0
174 198 0
175 198 0
174 198 0
175 198 0
174 198 0
175 198 0
174 197 0
174 198 0
175 198 0
174 198 0
175 198 0
175 198 0
175 198 0
174 197 0
175 198 0
173 197 0
175 198 0
173 197 0
174 198 0
174 198 0
175 198 0
174 198 0
175 198 0
173 197 0
175 198 0
176 199 0
175 198 0
175 198 0
172 196 0
174 197 0
173 197 0
175 198 0
174 197 0
174 197 0
174 198 0
175 198 0
174 198 0
175 198 0
175 198 0
175 198 0
174 198 0
173 197 0
173 197 0
174 197 0
174 198 0
173 197 0
174 198 0
175 198 0
174 197 0
172 196 0
177 199 0
174 197 0
173 197 0
174 198 0
174 197 0
176 199 0
174 197 0
175 198 0
176 199 0
174 198 0
172 196 0
175 198 0
174 197 0
173 197 0
173 197 0
175 198 0
174 198 0
175 198 0
175 198 0
173 197 0
175 198 0
174 198 0
174 198 0
175 198 0
174 198 0
172 196 0
174 198 0
175 198 0
174 198 0
175 198 0
175 198 0
173 197 0
174 197 0
174 197 0
175 198 0
175 198 0
174 197 0
175 198 0
174 198 0
173 197 0
174 197 0
173 197 0
174 197 0
172 196 0
173 197 0
174 197 0
175 198 0
174 197 0
174 198 0
174 198 0
172 196 0
173 197 0
174 197 0
175 198 0
175 198 0
174 197 0
174 198 0
175 198 0
173 196 0
174 198 0
173 196 0
173 197 0
173 196 0
174 197 0
173 196 0
173 197 0
174 197 0
173 197 0
174 197 0
175 197 0
171 195 0
176 198 0
172 196 0
173 197 0
173 197 0
175 198 0
173 197 0
175 198 0
174 197 0
174 198 0
172 195 0
173 196 0
172 197 0
173 197 0
174 197 0
172 196 0
173 197 0
174 198 0
174 198 0
172 196 0
173 197 0
172 196 0
172 196 0
173 197 0
172 196 0
172 196 0
173 196 0
173 196 0
174 197 0
172 196 0
174 197 0
172 195 0
174 198 0
174 197 0
171 195 0
173 196 0
174 197 0
172 195 0
173 196 0
172 196 0
172 196 0
175 197 0
173 197 0
174 198 0
173 196 0
174 197 0
171 195 0
169 193 0
173 196 0
172 196 0
171 195 0
171 193 0
173 197 0
175 198 0
172 196 0
173 196 0
173 196 0
174 196 0
171 195 0
171 194 0
170 193 0
173 196 0
172 195 0
168 191 0
169 192 0
171 195 0
171 194 0
170 193 0
169 193 0
169 192 0
170 193 0
168 192 0
171 195 0
170 194 0
169 192 0
166 190 0
171 195 0
165 189 0
167 191 0
170 193 0
173 196 0
169 192 0
170 193 0
171 194 0
171 194 0
169 193 0
172 195 0
173 196 0
173 196 0
174 197 0
171 194 0
172 195 0
170 194 0
173 196 0
172 195 0
172 194 0
171 194 0
171 194 0
169 192 0
170 194 0
174 198 0
172 196 0
173 196 0
171 194 0
174 196 0
174 197 0
170 193 0
173 196 0
170 194 0
171 194 0
173 196 0
172 195 0
173 196 0
171 195 0
173 196 0
173 196 0
170 194 0
170 193 0
170 194 0
169 193 0
174 197 0
169 192 0
172 195 0
170 195 0
172 194 0
169 192 0
170 194 0
173 197 0
174 197 0
173 197 0
172 195 0
170 193 0
172 195 0
174 197 0
171 194 0
173 196 0
173 196 0
174 197 0
171 195 0
173 196 0
172 196 0
174 198 0
170 195 0
173 196 0
173 197 0
175 198 0
174 197 0
173 197 0
175 198 0
172 195 0
175 198 0
173 196 0
172 195 0
172 196 0
172 196 0
173 197 0
174 197 0
174 198 0
174 197 0
173 197 0
174 197 0
171 194 0
170 194 0
172 196 0
172 194 0
172 196 0
173 197 0
175 198 0
173 196 0
170 193 0
176 198 0
173 196 0
174 197 0
172 195 0
174 198 0
174 197 0
175 198 0
173 197 0
174 197 0
174 198 0
173 196 0
171 196 0
175 198 0
173 195 0
173 196 0
174 197 0
175 198 0
175 198 0
175 198 0
175 198 0
174 197 0
173 197 0
175 198 0
175 198 0
174 197 0
174 197 0
174 197 0
173 196 0
173 197 0
174 197 0
174 197 0
174 197 0
174 198 0
174 198 0
174 198 0
175 198 0
174 198 0
174 197 0
177 199 0
175 198 0
173 197 0
174 197 0
175 198 0
174 197 0
175 198 0
174 197 0
175 198 0
173 197 0
174 196 0
175 198 0
175 198 0
175 198 0
176 199 0
176 198 0
173 197 0
173 197 0
174 198 0
174 198 0
175 198 0
174 197 0
175 198 0
175 198 0
175 198 0
176 199 0
176 199 0
173 197 0
175 198 0
175 198 0
175 198 0
175 198 0
174 197 0
175 198 0
175 198 0
173 197 0
175 198 0
175 197 0
174 197 0
174 198 0
175 198 0
175 198 0
174 198 0
174 198 0
174 197 0
176 199 0
173 197 0
174 197 0
175 198 0
175 198 0
175 198 0
174 198 0
174 198 0
173 197 0
173 197 0
175 198 0
175 198 0
175 198 0
175 198 0
173 197 0
173 197 0
174 198 0
173 197 0
175 198 0
174 198 0
175 198 0
176 198 0
176 199 0
175 198 0
173 197 0
175 198 0
176 199 0
174 198 0
175 198 0
175 198 0
175 198 0
172 197 0
176 199 0
173 197 0
174 198 0
174 198 0
176 199 0
175 198 0
174 197 0
174 197 0
174 198 0
174 197 0
175 198 0
176 198 0
173 197 0
174 198 0
174 198 0
174 198 0
174 198 0
175 198 0
174 198 0
175 198 0
175 198 0
175 198 0
175 198 0
174 198 0
174 197 0
175 198 0
173 197 0
176 199 0
174 198 0
173 197 0
175 198 0
176 199 0
176 199 0
175 198 0
173 197 0
174 198 0
172 196 0
174 198 0
175 198 0
175 198 0
174 197 0
173 197 0
174 198 0
174 198 0
175 198 0
174 198 0
173 197 0
174 198 0
173 197 0
174 198 0
175 198 0
176 199 0
173 196 0
174 198 0
173 196 0
174 197 0
174 198 0
175 198 0
172 196 0
176 199 0
174 197 0
175 198 0
174 197 0
175 198 0
174 198 0
176 199 0
174 197 0
174 198 0
174 198 0
176 198 0
175 198 0
175 198 0
176 198 0
173 197 0
174 198 0
174 197 0
174 197 0
175 198 0
174 197 0
175 198 0
175 198 0
173 197 0
173 197 0
173 197 0
172 196 0
173 197 0
174 198 0
174 198 0
174 198 0
176 199 0
175 198 0
174 197 0
173 197 0
173 197 0
173 197 0
173 197 0
172 195 0
172 196 0
174 197 0
175 198 0
174 197 0
173 196 0
173 197 0
173 196 0
174 198 0
174 198 0
174 197 0
174 197 0
174 198 0
171 196 0
175 198 0
172 196 0
174 197 0
173 197 0
173 196 0
173 196 0
175 198 0
173 196 0
174 197 0
172 196 0
173 197 0
173 197 0
174 198 0
171 195 0
173 197 0
172 197 0
171 195 0
175 198 0
173 196 0
172 196 0
170 194 0
172 196 0
174 197 0
172 196 0
173 196 0
172 196 0
172 196 0
172 196 0
174 197 0
174 197 0
173 196 0
174 197 0
172 195 0
169 193 0
175 198 0
171 195 0
170 194 0
170 194 0
172 196 0
174 197 0
171 195 0
174 197 0
172 195 0
173 196 0
173 196 0
173 197 0
171 194 0
171 195 0
170 193 0
171 194 0
174 197 0
170 193 0
173 197 0
172 195 0
173 196 0
176 198 0
174 197 0
174 197 0
173 196 0
175 198 0
173 196 0
174 197 0
169 193 0
172 195 0
174 196 0
172 197 0
171 194 0
171 194 0
167 190 0
170 194 0
170 194 0
171 194 0
170 194 0
172 195 0
167 190 0
172 195 0
170 193 0
171 195 0
170 193 0
170 193 0
170 193 0
170 194 0
173 196 0
167 191 0
170 194 0
171 195 0
167 191 0
168 192 0
171 194 0
171 195 0
170 195 0
170 194 0
173 197 0
170 193 0
171 195 0
170 194 0
170 193 0
171 195 0
172 196 0
168 190 0
171 193 0
169 192 0
167 190 0
169 193 0
171 194 0
169 192 0
172 195 0
169 192 0
174 197 0
170 194 0
173 197 0
172 196 0
170 195 0
171 194 0
175 198 0
172 195 0
172 195 0
171 195 0
171 194 0
171 194 0
175 198 0
174 197 0
170 193 0
173 197 0
174 197 0
172 196 0
172 195 0
172 196 0
172 196 0
168 192 0
171 194 0
172 196 0
172 195 0
174 196 0
172 195 0
171 194 0
174 197 0
171 195 0
174 198 0
173 196 0
175 198 0
173 196 0
175 198 0
174 197 0
175 198 0
172 195 0
173 197 0
171 195 0
172 196 0
175 198 0
174 197 0
171 194 0
174 198 0
173 196 0
172 196 0
174 198 0
172 196 0
175 198 0
174 197 0
173 197 0
173 196 0
173 197 0
174 197 0
173 197 0
173 197 0
175 198 0
175 198 0
174 197 0
174 197 0
173 196 0
175 198 0
173 197 0
175 198 0
174 198 0
172 196 0
173 197 0
172 195 0
172 196 0
173 197 0
175 198 0
173 197 0
174 198 0
176 198 0
173 196 0
174 197 0
173 197 0
174 197 0
174 197 0
174 197 0
172 195 0
173 196 0
176 198 0
175 198 0
174 198 0
173 197 0
175 198 0
175 198 0
174 197 0
173 197 0
174 197 0
171 194 0
174 198 0
175 198 0
175 198 0
173 197 0
175 198 0
176 199 0
175 198 0
173 196 0
173 197 0
173 196 0
174 198 0
174 197 0
174 197 0
174 197 0
174 197 0
174 197 0
174 197 0
174 197 0
173 197 0
174 197 0
174 197 0
174 197 0
173 197 0
176 198 0
175 198 0
172 197 0
175 198 0
174 197 0
173 197 0
174 197 0
175 198 0
174 197 0
172 196 0
174 198 0
174 197 0
174 197 0
173 197 0
174 197 0
176 199 0
174 197 0
175 198 0
175 198 0
174 198 0
172 196 0
173 197 0
174 198 0
173 197 0
175 198 0
174 197 0
175 198 0
175 198 0
176 199 0
172 196 0
173 197 0
173 197 0
176 198 0
175 198 0
175 198 0
174 197 0
175 198 0
175 198 0
173 197 0
174 198 0
173 197 0
175 198 0
175 198 0
174 198 0
175 198 0
174 198 0
175 198 0
173 197 0
172 197 0
173 197 0
175 198 0
176 199 0
176 199 0
175 198 0
175 198 0
174 198 0
175 198 0
174 198 0
172 196 0
175 198 0
174 198 0
175 198 0
173 197 0
174 197 0
175 198 0
174 197 0
175 198 0
174 198 0
174 198 0
172 197 0
176 199 0
173 197 0
176 199 0
172 196 0
174 197 0
175 198 0
174 198 0
175 198 0
173 197 0
176 199 0
175 198 0
173 197 0
176 199 0
174 197 0
173 197 0
175 198 0
175 198 0
175 198 0
176 198 0
174 197 0
175 198 0
174 198 0
175 198 0
174 197 0
174 197 0
174 198 0
175 198 0
175 198 0
174 198 0
174 198 0
174 196 0
174 198 0
175 198 0
174 197 0
173 197 0
173 197 0
173 197 0
176 198 0
173 197 0
174 198 0
175 198 0
174 198 0
174 198 0
174 197 0
174 197 0
176 198 0
173 197 0
175 198 0
175 198 0
174 198 0
175 198 0
175 198 0
174 198 0
174 197 0
175 198 0
174 197 0
174 198 0
174 197 0
174 198 0
173 197 0
175 198 0
176 199 0
175 198 0
173 197 0
173 197 0
174 197 0
174 197 0
174 198 0
174 198 0
174 198 0
174 198 0
173 197 0
173 197 0
176 198 0
173 197 0
174 197 0
174 197 0
174 197 0
174 197 0
174 198 0
174 198 0
174 198 0
173 196 0
174 198 0
173 197 0
176 198 0
174 197 0
176 198 0
174 197 0
173 197 0
173 197 0
173 196 0
174 197 0
174 197 0
174 197 0
175 198 0
174 197 0
174 198 0
174 198 0
173 196 0
175 198 0
174 198 0
175 198 0
174 198 0
172 195 0
175 198 0
173 197 0
174 197 0
175 198 0
174 197 0
174 198 0
173 197 0
173 197 0
173 196 0
173 197 0
172 196 0
171 195 0
174 198 0
174 197 0
174 198 0
174 197 0
173 196 0
172 196 0
174 197 0
172 196 0
173 197 0
171 195 0
174 197 0
173 196 0
172 196 0
172 196 0
173 196 0
173 197 0
174 197 0
170 193 0
173 197 0
172 195 0
172 196 0
172 196 0
173 196 0
172 196 0
176 198 0
176 198 0
173 197 0
173 195 0
170 194 0
171 195 0
175 197 0
171 195 0
170 193 0
173 197 0
173 196 0
173 196 0
171 195 0
174 196 0
172 195 0
173 197 0
173 196 0
171 195 0
173 197 0
170 194 0
170 193 0
172 196 0
170 193 0
173 196 0
171 194 0
171 195 0
171 195 0
171 194 0
172 195 0
170 193 0
169 191 0
171 195 0
172 194 0
170 194 0
171 195 0
172 196 0
173 197 0
170 193 0
172 196 0
175 198 0
171 194 0
168 190 0
172 195 0
173 196 0
173 196 0
169 192 0
172 196 0
170 193 0
173 196 0
169 192 0
171 194 0
170 194 0
170 193 0
170 192 0
171 195 0
168 192 0
171 195 0
171 194 0
171 194 0
171 194 0
168 191 0
172 195 0
174 196 0
174 197 0
171 195 0
172 195 0
173 196 0
170 194 0
169 192 0
167 191 0
170 192 0
174 197 0
173 197 0
171 196 0
175 198 0
170 194 0
170 194 0
172 195 0
172 195 0
173 196 0
171 194 0
172 195 0
170 195 0
172 195 0
174 197 0
170 194 0
174 197 0
174 197 0
172 195 0
171 194 0
171 194 0
170 195 0
172 195 0
173 197 0
173 196 0
173 196 0
168 192 0
173 197 0
174 197 0
172 196 0
177 199 0
173 196 0
172 195 0
173 197 0
172 196 0
171 194 0
172 196 0
172 196 0
175 198 0
173 197 0
171 194 0
174 197 0
171 195 0
173 197 0
175 197 0
172 195 0
173 197 0
172 196 0
173 197 0
172 195 0
173 196 0
173 196 0
174 197 0
173 197 0
172 196 0
173 197 0
174 197 0
173 196 0
170 195 0
171 195 0
172 196 0
174 197 0
172 196 0
173 196 0
174 197 0
173 197 0
174 198 0
174 197 0
173 197 0
171 196 0
174 197 0
174 197 0
173 197 0
173 197 0
171 195 0
174 198 0
173 196 0
176 198 0
174 198 0
173 197 0
172 197 0
175 198 0
174 197 0
174 197 0
172 196 0
174 197 0
174 197 0
173 196 0
174 198 0
174 197 0
174 197 0
173 197 0
175 198 0
175 198 0
173 196 0
175 198 0
175 198 0
175 198 0
173 196 0
172 196 0
174 197 0
174 197 0
174 197 0
175 198 0
172 196 0
174 197 0
175 198 0
173 197 0
173 197 0
176 198 0
175 198 0
176 199 0
175 198 0
177 199 0
175 198 0
173 197 0
174 197 0
173 197 0
175 197 0
176 198 0
175 198 0
173 197 0
174 198 0
175 198 0
174 197 0
174 197 0
175 198 0
174 197 0
173 197 0
174 197 0
175 198 0
176 199 0
173 197 0
172 197 0
173 197 0
172 196 0
174 197 0
174 197 0
174 197 0
174 198 0
173 197 0
173 197 0
174 198 0
175 198 0
175 198 0
175 198 0
174 198 0
175 198 0
174 198 0
173 197 0
175 198 0
175 198 0
175 198 0
175 198 0
175 198 0
176 199 0
173 197 0
173 197 0
174 198 0
175 198 0
174 198 0
175 198 0
174 197 0
174 197 0
174 197 0
174 198 0
175 198 0
175 198 0
175 198 0
176 199 0
173 197 0
173 196 0
172 196 0
174 197 0
177 199 0
173 196 0
174 197 0
174 198 0
174 197 0
173 197 0
174 198 0
175 198 0
173 197 0
175 198 0
176 199 0
173 197 0
174 198 0
174 198 0
174 198 0
174 197 0
174 197 0
176 199 0
174 198 0
174 198 0
174 198 0
173 197 0
174 198 0
175 198 0
175 198 0
176 199 0
174 198 0
174 198 0
175 198 0
172 196 0
174 198 0
175 198 0
173 197 0
174 198 0
176 199 0
174 197 0
173 197 0
174 198 0
172 196 0
174 198 0
174 197 0
175 198 0
173 197 0
174 197 0
175 198 0
173 197 0
175 198 0
173 197 0
174 198 0
173 197 0
172 196 0
174 198 0
174 198 0
175 198 0
175 198 0
175 198 0
174 198 0
174 198 0
172 196 0
175 198 0
172 196 0
175 198 0
173 197 0
173 197 0
174 197 0
174 198 0
175 198 0
175 198 0
175 198 0
175 198 0
173 197 0
173 197 0
172 196 0
175 198 0
173 196 0
174 197 0
175 198 0
175 198 0
175 197 0
175 198 0
177 199 0
175 198 0
175 198 0
174 198 0
175 198 0
176 199 0
173 197 0
175 198 0
175 198 0
174 198 0
173 197 0
174 198 0
174 197 0
176 199 0
173 196 0
175 198 0
172 197 0
174 197 0
174 198 0
175 198 0
174 198 0
175 198 0
174 198 0
174 198 0
174 197 0
173 197 0
173 197 0
174 197 0
174 197 0
172 196 0
174 197 0
174 198 0
174 197 0
174 197 0
172 196 0
174 197 0
175 198 0
173 197 0
174 197 0
172 197 0
173 197 0
173 197 0
174 197 0
172 196 0
174 198 0
173 197 0
173 196 0
174 197 0
172 196 0
172 196 0
173 197 0
174 197 0
174 196 0
171 195 0
172 197 0
173 196 0
175 198 0
175 198 0
172 196 0
173 197 0
173 197 0
171 195 0
174 197 0
173 197 0
172 196 0
173 196 0
172 196 0
173 197 0
173 196 0
175 198 0
173 196 0
172 196 0
173 196 0
175 198 0
173 196 0
171 195 0
170 194 0
174 198 0
172 196 0
170 194 0
174 197 0
173 196 0
173 196 0
174 197 0
174 198 0
176 198 0
174 197 0
170 194 0
174 196 0
174 198 0
173 195 0
173 196 0
172 196 0
173 196 0
173 197 0
171 194 0
171 195 0
168 191 0
172 195 0
170 194 0
173 196 0
170 194 0
171 194 0
176 198 0
171 194 0
169 192 0
171 194 0
172 195 0
170 193 0
173 197 0
171 195 0
172 195 0
173 197 0
169 192 0
169 193 0
171 194 0
169 192 0
171 195 0
173 196 0
172 195 0
171 194 0
174 197 0
173 196 0
170 193 0
171 194 0
169 193 0
172 195 0
171 195 0
170 193 0
174 197 0
172 194 0
167 190 0
171 194 0
171 194 0
171 194 0
172 195 0
174 197 0
171 195 0
172 195 0
172 195 0
169 193 0
170 193 0
173 195 0
172 195 0
170 194 0
170 194 0
172 196 0
170 193 0
173 196 0
173 196 0
173 196 0
171 196 0
173 196 0
175 197 0
169 192 0
172 195 0
171 195 0
171 194 0
170 194 0
173 195 0
173 197 0
174 197 0
173 196 0
172 196 0
174 197 0
172 196 0
172 195 0
172 196 0
171 194 0
171 194 0
174 198 0
171 195 0
174 196 0
172 195 0
173 197 0
171 194 0
175 198 0
171 195 0
175 198 0
173 196 0
174 197 0
172 195 0
172 196 0
173 196 0
172 195 0
173 197 0
172 195 0
173 197 0
173 197 0
172 196 0
173 197 0
173 196 0
171 195 0
173 196 0
174 197 0
174 197 0
172 196 0
173 196 0
173 197 0
173 196 0
171 194 0
174 197 0
172 195 0
173 196 0
174 198 0
174 198 0
173 197 0
173 196 0
172 196 0
173 196 0
173 197 0
173 196 0
174 198 0
176 198 0
172 196 0
175 198 0
172 195 0
174 197 0
173 196 0
174 197 0
173 197 0
175 197 0
175 198 0
173 197 0
175 198 0
174 198 0
175 198 0
174 198 0
172 196 0
174 197 0
175 198 0
175 198 0
175 198 0
175 198 0
175 198 0
173 197 0
174 198 0
174 197 0
174 198 0
176 198 0
174 197 0
175 198 0
173 197 0
173 197 0
172 196 0
176 198 0
173 197 0
173 196 0
172 196 0
175 198 0
173 197 0
174 197 0
173 197 0
174 197 0
173 197 0
174 197 0
171 195 0
174 197 0
174 198 0
175 198 0
174 198 0
174 197 0
174 197 0
174 198 0
174 197 0
174 198 0
173 197 0
173 197 0
174 197 0
176 199 0
173 197 0
174 198 0
174 198 0
176 198 0
176 199 0
175 198 0
174 198 0
172 196 0
175 198 0
174 197 0
173 197 0
175 198 0
172 196 0
174 197 0
174 197 0
173 197 0
174 198 0
174 197 0
172 197 0
175 198 0
174 198 0
174 197 0
173 197 0
175 198 0
175 198 0
173 197 0
174 197 0
174 198 0
174 198 0
173 196 0
175 198 0
174 198 0
174 198 0
174 197 0
173 197 0
173 197 0
174 198 0
175 198 0
175 198 0
174 198 0
175 198 0
174 198 0
174 198 0
174 198 0
174 198 0
173 196 0
175 198 0
174 197 0
173 197 0
174 198 0
174 198 0
174 197 0
174 198 0
174 198 0
174 198 0
174 198 0
175 198 0
175 198 0
175 198 0
175 198 0
174 198 0
175 198 0
175 198 0
173 197 0
174 198 0
175 198 0
174 197 0
173 197 0
172 196 0
175 198 0
174 198 0
175 198 0
175 198 0
177 199 0
175 198 0
175 198 0
175 198 0
173 197 0
174 197 0
173 197 0
173 197 0
173 197 0
175 198 0
174 198 0
175 198 0
174 198 0
173 197 0
174 197 0
175 198 0
176 199 0
174 198 0
175 198 0
175 198 0
174 198 0
176 198 0
174 198 0
176 198 0
175 198 0
174 198 0
175 198 0
174 197 0
175 198 0
174 197 0
174 197 0
175 198 0
174 198 0
175 198 0
174 198 0
175 198 0
174 197 0
174 198 0
175 198 0
175 198 0
175 198 0
173 197 0
174 198 0
173 197 0
173 197 0
173 197 0
175 198 0
173 197 0
172 197 0
174 198 0
174 198 0
172 196 0
174 197 0
175 198 0
174 198 0
175 198 0
175 198 0
172 196 0
175 198 0
175 198 0
174 198 0
174 197 0
173 197 0
175 198 0
174 197 0
172 196 0
175 198 0
172 196 0
176 198 0
174 197 0
175 198 0
172 196 0
173 197 0
174 198 0
175 198 0
173 197 0
173 197 0
175 198 0
174 197 0
174 197 0
175 198 0
173 197 0
175 198 0
174 198 0
175 198 0
174 197 0
173 197 0
174 197 0
174 198 0
174 197 0
174 198 0
174 198 0
173 197 0
173 197 0
172 196 0
172 196 0
173 197 0
175 198 0
173 197 0
174 197 0
175 198 0
174 198 0
174 198 0
175 198 0
175 198 0
174 197 0
173 197 0
173 196 0
175 198 0
173 196 0
172 196 0
175 198 0
176 199 0
174 197 0
173 197 0
175 198 0
175 198 0
175 198 0
175 198 0
173 196 0
174 198 0
171 195 0
173 197 0
174 197 0
172 196 0
175 198 0
173 197 0
175 198 0
174 198 0
174 197 0
174 197 0
174 197 0
174 197 0
174 197 0
172 195 0
173 196 0
174 197 0
171 195 0
174 197 0
174 197 0
172 196 0
172 195 0
172 196 0
174 197 0
173 196 0
172 195 0
171 195 0
174 197 0
174 197 0
175 198 0
175 198 0
174 196 0
172 196 0
173 196 0
170 194 0
174 197 0
173 197 0
170 194 0
172 195 0
172 196 0
172 196 0
173 196 0
173 197 0
172 195 0
171 194 0
170 193 0
171 195 0
171 194 0
170 194 0
173 196 0
172 195 0
172 195 0
173 196 0
172 196 0
174 197 0
171 195 0
170 194 0
169 192 0
171 195 0
171 194 0
169 193 0
173 197 0
168 192 0
171 194 0
173 196 0
171 194 0
171 195 0
174 197 0
172 195 0
171 194 0
171 194 0
169 193 0
170 193 0
169 193 0
168 192 0
170 194 0
174 197 0
171 194 0
170 193 0
172 195 0
167 191 0
172 195 0
173 197 0
172 195 0
172 196 0
174 197 0
173 196 0
173 196 0
170 194 0
171 195 0
174 197 0
171 194 0
171 195 0
171 194 0
173 196 0
173 196 0
173 196 0
171 195 0
172 195 0
171 194 0
170 194 0
171 195 0
174 197 0
173 197 0
173 196 0
172 194 0
172 196 0
172 196 0
171 194 0
173 195 0
172 196 0
172 196 0
173 197 0
172 195 0
172 196 0
172 196 0
172 195 0
172 196 0
172 196 0
173 196 0
172 195 0
173 197 0
170 193 0
174 197 0
172 196 0
174 197 0
172 196 0
173 196 0
173 196 0
173 197 0
173 197 0
172 196 0
172 196 0
174 198 0
173 197 0
175 198 0
174 197 0
173 197 0
174 198 0
173 197 0
174 197 0
172 196 0
174 197 0
175 198 0
173 196 0
173 196 0
172 196 0
172 195 0
174 197 0
172 195 0
175 198 0
173 197 0
174 197 0
175 198 0
174 198 0
172 196 0
173 197 0
174 198 0
175 198 0
173 197 0
173 197 0
174 198 0
176 198 0
173 196 0
175 198 0
174 197 0
174 197 0
176 198 0
173 196 0
175 198 0
174 197 0
175 198 0
172 196 0
174 197 0
175 197 0
174 197 0
174 197 0
174 198 0
173 197 0
174 197 0
174 197 0
175 198 0
176 199 0
173 197 0
173 197 0
174 198 0
175 198 0
173 197 0
174 198 0
174 198 0
175 198 0
173 197 0
174 197 0
174 198 0
172 196 0
174 197 0
174 198 0
173 197 0
174 198 0
176 198 0
174 198 0
175 198 0
174 198 0
173 197 0
174 198 0
175 198 0
176 199 0
173 197 0
173 197 0
175 198 0
173 196 0
175 198 0
175 198 0
173 197 0
173 197 0
174 198 0
175 198 0
174 198 0
176 199 0
174 197 0
173 197 0
174 197 0
173 197 0
176 198 0
173 197 0
175 198 0
173 197 0
176 199 0
174 198 0
174 198 0
175 198 0
175 198 0
174 197 0
173 197 0
174 198 0
172 196 0
174 198 0
173 197 0
172 197 0
173 197 0
175 198 0
174 198 0
174 198 0
174 197 0
174 198 0
174 197 0
174 198 0
175 198 0
174 198 0
177 199 0
175 198 0
176 199 0
173 197 0
174 198 0
177 199 0
173 197 0
175 198 0
173 197 0
174 198 0
176 199 0
173 197 0
175 198 0
174 198 0
174 198 0
173 197 0
174 197 0
174 198 0
174 197 0
175 198 0
174 197 0
174 197 0
174 198 0
175 198 0
175 198 0
175 198 0
175 198 0
175 198 0
173 197 0
174 197 0
174 197 0
174 198 0
175 198 0
174 198 0
175 198 0
173 197 0
174 198 0
173 197 0
175 198 0
174 198 0
174 197 0
174 197 0
174 197 0
174 197 0
175 198 0
173 197 0
173 197 0
173 197 0
175 198 0
176 199 0
174 198 0
174 198 0
173 196 0
173 197 0
174 198 0
172 197 0
177 199 0
174 198 0
174 198 0
175 198 0
176 198 0
173 197 0
173 197 0
173 197 0
173 197 0
173 197 0
174 198 0
173 196 0
174 197 0
175 198 0
175 198 0
176 198 0
175 198 0
175 198 0
174 197 0
175 198 0
173 197 0
172 196 0
176 199 0
173 197 0
174 197 0
174 198 0
173 197 0
172 197 0
174 197 0
174 198 0
174 197 0
172 196 0
174 198 0
175 198 0
174 198 0
174 198 0
175 198 0
173 197 0
175 198 0
173 197 0
175 198 0
173 197 0
175 198 0
175 198 0
174 198 0
174 198 0
174 198 0
174 198 0
175 198 0
173 197 0
173 197 0
173 197 0
176 199 0
174 197 0
173 196 0
176 198 0
175 198 0
172 196 0
173 197 0
175 198 0
174 197 0
173 197 0
172 196 0
172 196 0
175 198 0
174 198 0
174 198 0
174 198 0
175 198 0
173 197 0
174 198 0
174 198 0
174 197 0
175 198 0
172 196 0
174 197 0
173 197 0
175 198 0
173 197 0
174 198 0
173 197 0
174 198 0
172 196 0
172 195 0
175 198 0
174 197 0
174 197 0
173 197 0
174 197 0
175 198 0
175 198 0
172 196 0
176 198 0
175 198 0
175 198 0
173 196 0
173 197 0
174 197 0
172 195 0
176 198 0
172 196 0
174 197 0
174 197 0
173 196 0
176 199 0
174 197 0
173 196 0
174 197 0
173 197 0
174 198 0
174 197 0
173 196 0
170 194 0
174 197 0
174 197 0
174 197 0
173 197 0
175 197 0
174 196 0
171 194 0
173 197 0
172 196 0
170 193 0
172 195 0
172 195 0
172 196 0
173 196 0
173 197 0
170 193 0
170 194 0
171 195 0
172 196 0
172 196 0
172 195 0
170 193 0
173 196 0
170 193 0
171 194 0
173 196 0
172 196 0
170 194 0
171 195 0
170 194 0
169 192 0
167 191 0
167 190 0
170 194 0
171 195 0
172 196 0
172 195 0
172 196 0
173 196 0
172 196 0
171 195 0
173 197 0
168 192 0
173 196 0
170 194 0
170 194 0
173 196 0
170 194 0
171 195 0
172 195 0
171 194 0
171 195 0
171 195 0
171 194 0
169 192 0
173 197 0
169 193 0
175 197 0
172 196 0
172 195 0
170 193 0
169 192 0
169 193 0
171 194 0
173 197 0
173 197 0
171 195 0
170 194 0
171 195 0
172 195 0
172 196 0
169 193 0
174 197 0
172 197 0
170 194 0
171 195 0
173 196 0
172 195 0
173 196 0
171 193 0
171 195 0
172 195 0
171 195 0
173 197 0
171 194 0
174 197 0
171 194 0
174 197 0
170 193 0
174 196 0
174 197 0
174 198 0
174 197 0
172 196 0
172 195 0
171 194 0
174 198 0
174 198 0
174 197 0
174 197 0
172 196 0
173 197 0
173 197 0
173 196 0
173 197 0
173 196 0
174 197 0
171 194 0
171 194 0
172 196 0
174 197 0
175 198 0
173 196 0
175 198 0
173 197 0
172 196 0
173 197 0
175 198 0
173 196 0
172 195 0
173 197 0
174 197 0
173 196 0
173 197 0
174 198 0
174 197 0
175 197 0
175 198 0
175 198 0
175 198 0
174 198 0
173 197 0
171 196 0
174 197 0
175 198 0
173 196 0
175 198 0
174 198 0
172 195 0
175 198 0
175 198 0
173 197 0
173 197 0
173 197 0
172 196 0
171 195 0
174 198 0
172 196 0
174 197 0
174 197 0
175 198 0
172 196 0
172 197 0
174 197 0
174 197 0
173 197 0
173 197 0
175 198 0
175 198 0
175 198 0
174 197 0
174 197 0
174 198 0
175 198 0
175 198 0
172 196 0
173 197 0
172 196 0
173 197 0
174 198 0
176 198 0
173 197 0
175 198 0
174 197 0
175 198 0
173 197 0
174 198 0
173 197 0
174 198 0
175 198 0
175 198 0
173 197 0
175 198 0
173 197 0
176 199 0
175 198 0
174 198 0
173 197 0
174 198 0
174 198 0
175 198 0
176 198 0
174 198 0
174 198 0
174 197 0
174 198 0
175 198 0
174 198 0
175 198 0
174 197 0
175 198 0
174 197 0
176 198 0
174 197 0
174 197 0
174 198 0
173 197 0
174 198 0
174 197 0
174 197 0
174 197 0
174 198 0
175 198 0
174 198 0
174 198 0
174 198 0
174 198 0
174 197 0
174 198 0
176 198 0
175 198 0
175 198 0
174 198 0
174 197 0
175 198 0
175 198 0
175 198 0
175 198 0
174 198 0
173 197 0
175 198 0
174 197 0
175 198 0
176 198 0
174 198 0
173 197 0
175 198 0
175 198 0
176 198 0
175 198 0
175 198 0
174 197 0
174 198 0
174 198 0
175 198 0
174 197 0
174 198 0
174 198 0
175 198 0
175 198 0
174 197 0
174 198 0
175 198 0
173 197 0
174 198 0
174 198 0
174 198 0
174 197 0
175 198 0
174 198 0
173 197 0
176 198 0
175 198 0
174 197 0
173 197 0
175 198 0
173 197 0
175 198 0
174 198 0
172 197 0
173 197 0
174 198 0
173 197 0
175 198 0
173 197 0
174 197 0
174 198 0
176 199 0
173 197 0
174 198 0
174 198 0
174 198 0
176 198 0
175 198 0
174 197 0
175 198 0
173 197 0
175 198 0
176 199 0
176 199 0
174 197 0
175 198 0
173 197 0
174 198 0
174 197 0
175 198 0
173 197 0
176 198 0
177 199 0
174 197 0
174 198 0
173 197 0
174 197 0
173 197 0
173 197 0
175 198 0
173 197 0
173 197 0
175 198 0
175 198 0
175 198 0
175 198 0
174 198 0
173 197 0
175 198 0
171 196 0
175 198 0
173 197 0
173 196 0
175 198 0
174 198 0
176 198 0
174 197 0
175 198 0
173 197 0
174 198 0
175 198 0
173 196 0
174 197 0
174 198 0
174 198 0
175 198 0
174 198 0
174 198 0
174 197 0
175 198 0
172 197 0
176 199 0
173 196 0
175 198 0
175 198 0
175 198 0
173 197 0
173 197 0
174 197 0
174 198 0
170 195 0
174 197 0
173 197 0
173 197 0
172 196 0
174 197 0
176 198 0
172 196 0
174 198 0
173 197 0
176 198 0
174 197 0
173 196 0
175 198 0
173 196 0
176 199 0
174 197 0
174 197 0
172 195 0
171 195 0
175 198 0
172 196 0
174 198 0
173 197 0
175 198 0
173 197 0
175 198 0
175 198 0
173 197 0
174 198 0
172 196 0
175 198 0
173 197 0
173 197 0
171 196 0
172 196 0
174 197 0
174 197 0
175 197 0
172 196 0
173 197 0
172 196 0
172 196 0
170 195 0
170 194 0
174 197 0
175 198 0
175 197 0
173 197 0
175 198 0
170 194 0
174 197 0
171 194 0
174 198 0
170 194 0
173 197 0
173 197 0
173 197 0
169 193 0
173 196 0
172 195 0
174 196 0
172 196 0
173 196 0
173 197 0
174 197 0
170 194 0
172 195 0
173 196 0
171 195 0
174 196 0
174 197 0
173 196 0
171 195 0
170 193 0
172 195 0
173 196 0
170 193 0
172 195 0
170 194 0
169 193 0
170 193 0
175 197 0
173 196 0
172 196 0
172 195 0
171 194 0
173 197 0
170 194 0
171 195 0
170 193 0
170 193 0
171 195 0
172 196 0
173 197 0
169 193 0
170 194 0
175 197 0
172 195 0
171 195 0
171 194 0
169 193 0
171 195 0
169 192 0
172 196 0
172 196 0
170 192 0
172 195 0
169 192 0
172 196 0
172 195 0
170 193 0
172 196 0
172 196 0
172 196 0
172 196 0
169 193 0
170 194 0
172 196 0
169 193 0
171 195 0
172 195 0
174 196 0
173 196 0
176 199 0
171 195 0
173 196 0
173 196 0
172 196 0
172 196 0
174 197 0
176 198 0
171 195 0
172 196 0
174 198 0
169 193 0
171 194 0
173 196 0
171 195 0
173 196 0
173 196 0
172 195 0
173 196 0
173 195 0
171 196 0
171 194 0
170 194 0
173 196 0
174 196 0
170 194 0
170 194 0
172 196 0
173 197 0
172 195 0
173 197 0
172 196 0
173 197 0
174 198 0
171 195 0
175 198 0
171 194 0
174 198 0
172 196 0
171 195 0
171 195 0
172 196 0
173 196 0
174 197 0
173 197 0
174 197 0
175 197 0
173 197 0
171 194 0
171 195 0
173 195 0
172 196 0
173 197 0
173 197 0
174 197 0
173 196 0
173 196 0
173 196 0
174 197 0
173 197 0
172 196 0
171 195 0
172 195 0
173 197 0
174 198 0
173 197 0
173 197 0
175 198 0
174 198 0
175 197 0
172 196 0
173 196 0
175 198 0
175 198 0
174 197 0
173 197 0
174 197 0
174 198 0
174 198 0
173 197 0
175 198 0
173 196 0
173 197 0
175 197 0
172 196 0
174 197 0
173 197 0
174 197 0
175 198 0
175 198 0
175 198 0
173 197 0
174 198 0
172 197 0
175 198 0
176 199 0
175 198 0
174 198 0
174 198 0
175 198 0
173 197 0
175 198 0
175 198 0
173 197 0
173 197 0
175 198 0
174 196 0
175 198 0
173 197 0
176 198 0
174 197 0
176 198 0
174 198 0
175 198 0
173 197 0
174 198 0
175 198 0
175 198 0
174 198 0
175 198 0
174 198 0
171 196 0
173 197 0
174 197 0
175 198 0
175 198 0
175 198 0
175 198 0
173 197 0
174 198 0
173 197 0
175 198 0
174 198 0
173 197 0
174 197 0
175 198 0
175 198 0
174 198 0
176 198 0
174 197 0
174 198 0
174 198 0
174 198 0
173 197 0
174 197 0
175 198 0
176 198 0
174 198 0
174 197 0
174 198 0
176 199 0
175 198 0
175 198 0
174 198 0
174 198 0
174 198 0
174 198 0
174 197 0
176 199 0
174 198 0
174 197 0
174 197 0
175 198 0
175 198 0
174 198 0
175 198 0
175 198 0
175 198 0
174 197 0
174 198 0
175 198 0
174 197 0
174 198 0
175 198 0
174 197 0
175 198 0
174 198 0
175 198 0
174 198 0
175 198 0
174 198 0
174 197 0
175 198 0
175 198 0
174 198 0
173 197 0
174 198 0
173 197 0
173 197 0
175 198 0
174 197 0
174 198 0
174 198 0
173 197 0
176 199 0
174 197 0
175 198 0
175 198 0
173 197 0
175 198 0
175 198 0
174 198 0
174 198 0
173 197 0
175 198 0
174 197 0
175 198 0
172 196 0
175 198 0
173 197 0
175 198 0
173 197 0
174 197 0
173 197 0
174 198 0
175 198 0
174 198 0
174 198 0
176 199 0
175 198 0
175 198 0
176 199 0
171 195 0
175 198 0
173 197 0
174 197 0
175 198 0
173 197 0
174 198 0
174 198 0
173 197 0
175 198 0
173 197 0
174 197 0
174 197 0
174 198 0
175 198 0
175 198 0
176 199 0
173 197 0
174 198 0
173 196 0
173 197 0
174 198 0
175 198 0
174 198 0
175 198 0
174 197 0
174 197 0
174 198 0
174 198 0
175 198 0
173 197 0
174 198 0
174 197 0
172 196 0
174 198 0
173 196 0
175 198 0
174 198 0
176 199 0
174 198 0
175 198 0
176 198 0
175 198 0
173 197 0
172 197 0
173 196 0
174 198 0
175 198 0
174 198 0
173 197 0
173 197 0
174 197 0
173 196 0
174 198 0
174 197 0
174 197 0
173 196 0
173 197 0
176 198 0
174 197 0
173 197 0
174 197 0
174 198 0
174 198 0
173 197 0
174 197 0
175 198 0
172 196 0
172 196 0
173 196 0
174 198 0
174 197 0
174 198 0
174 197 0
175 198 0
174 198 0
174 198 0
173 196 0
173 196 0
175 198 0
172 196 0
173 197 0
173 197 0
175 198 0
173 197 0
174 198 0
173 197 0
173 197 0
175 198 0
174 197 0
174 197 0
172 196 0
173 196 0
175 198 0
173 197 0
174 197 0
174 197 0
175 198 0
174 197 0
173 197 0
173 196 0
173 197 0
171 195 0
173 197 0
172 196 0
173 197 0
173 195 0
172 196 0
172 196 0
172 196 0
174 197 0
172 195 0
170 193 0
173 196 0
174 198 0
173 195 0
172 196 0
172 195 0
175 198 0
171 193 0
171 194 0
174 197 0
172 196 0
172 196 0
173 196 0
172 196 0
174 197 0
172 196 0
173 196 0
172 196 0
172 195 0
171 195 0
170 193 0
170 194 0
171 195 0
171 195 0
173 196 0
171 195 0
172 195 0
171 195 0
170 193 0
172 196 0
174 197 0
169 193 0
172 196 0
173 196 0
171 195 0
173 197 0
169 192 0
175 198 0
172 196 0
174 198 0
171 195 0
172 196 0
169 193 0
171 195 0
173 196 0
175 197 0
169 193 0
170 193 0
171 194 0
172 195 0
171 194 0
168 192 0
172 196 0
171 195 0
172 195 0
172 196 0
170 194 0
170 193 0
172 196 0
170 194 0
173 197 0
172 196 0
172 195 0
171 195 0
174 197 0
172 195 0
172 195 0
172 196 0
173 197 0
172 195 0
171 195 0
174 197 0
171 194 0
173 196 0
171 194 0
172 195 0
171 194 0
172 195 0
172 196 0
174 198 0
170 194 0
171 195 0
172 196 0
173 196 0
173 197 0
172 196 0
172 196 0
173 196 0
172 196 0
174 197 0
174 197 0
173 196 0
171 195 0
174 198 0
175 197 0
172 196 0
174 198 0
169 193 0
174 197 0
172 196 0
173 196 0
175 198 0
172 195 0
173 196 0
173 197 0
172 196 0
173 197 0
172 196 0
173 197 0
175 198 0
174 197 0
174 197 0
172 195 0
173 196 0
172 196 0
175 198 0
174 197 0
170 193 0
172 196 0
176 198 0
172 196 0
175 197 0
174 197 0
174 197 0
173 197 0
174 198 0
174 197 0
175 198 0
174 197 0
173 197 0
173 197 0
173 197 0
174 197 0
173 196 0
174 197 0
173 196 0
173 197 0
174 197 0
173 197 0
173 196 0
172 195 0
174 197 0
172 195 0
175 198 0
175 198 0
174 198 0
175 198 0
174 198 0
173 197 0
174 197 0
174 197 0
173 197 0
173 197 0
174 198 0
176 199 0
175 198 0
173 197 0
175 198 0
174 198 0
174 197 0
174 198 0
174 197 0
175 198 0
174 197 0
174 197 0
173 197 0
175 198 0
175 198 0
175 198 0
173 197 0
176 198 0
173 197 0
175 198 0
173 197 0
174 197 0
173 197 0
174 198 0
174 197 0
174 198 0
174 198 0
174 197 0
174 198 0
175 198 0
174 197 0
174 197 0
175 198 0
176 199 0
174 198 0
174 197 0
175 198 0
173 197 0
174 197 0
173 197 0
174 198 0
175 198 0
173 197 0
173 197 0
174 198 0
174 198 0
174 197 0
173 197 0
175 198 0
175 198 0
174 197 0
174 198 0
174 197 0
174 197 0
174 197 0
174 198 0
174 198 0
173 197 0
175 198 0
175 198 0
174 198 0
174 198 0
175 198 0
173 197 0
174 197 0
174 197 0
175 198 0
174 197 0
175 198 0
174 198 0
175 197 0
176 198 0
175 198 0
174 198 0
174 197 0
174 198 0
174 197 0
175 198 0
174 197 0
175 198 0
173 197 0
176 199 0
174 197 0
174 198 0
174 198 0
175 198 0
174 198 0
174 198 0
174 197 0
175 198 0
176 198 0
175 198 0
176 199 0
173 197 0
174 197 0
176 199 0
174 197 0
174 198 0
172 197 0
175 198 0
174 198 0
174 198 0
174 198 0
174 197 0
175 198 0
175 198 0
174 198 0
174 198 0
175 198 0
174 198 0
175 198 0
174 198 0
173 197 0
176 199 0
175 198 0
175 198 0
174 198 0
175 198 0
176 199 0
173 197 0
176 199 0
176 199 0
175 198 0
177 199 0
173 197 0
174 198 0
173 197 0
174 198 0
176 198 0
174 197 0
175 198 0
174 198 0
173 197 0
174 197 0
174 198 0
172 197 0
175 198 0
174 198 0
175 198 0
173 197 0
173 197 0
174 198 0
176 198 0
177 199 0
175 198 0
173 196 0
175 198 0
174 197 0
175 198 0
173 197 0
173 197 0
173 197 0
174 197 0
175 198 0
174 198 0
173 196 0
174 197 0
173 197 0
174 198 0
175 198 0
173 197 0
175 198 0
173 197 0
173 197 0
174 198 0
172 197 0
175 198 0
171 195 0
171 195 0
175 198 0
173 197 0
176 199 0
174 197 0
176 198 0
175 197 0
175 198 0
174 197 0
175 198 0
174 197 0
174 197 0
173 197 0
175 198 0
175 198 0
175 198 0
175 198 0
175 198 0
175 198 0
174 198 0
174 197 0
174 197 0
174 197 0
173 196 0
173 197 0
174 198 0
175 198 0
174 198 0
174 197 0
176 198 0
175 198 0
174 198 0
174 198 0
175 198 0
174 198 0
172 196 0
174 197 0
172 196 0
171 195 0
173 197 0
174 197 0
173 197 0
172 196 0
173 196 0
173 196 0
171 195 0
174 198 0
174 197 0
171 195 0
174 197 0
173 197 0
174 198 0
173 196 0
174 198 0
173 197 0
173 197 0
171 195 0
173 196 0
175 198 0
174 197 0
174 198 0
172 196 0
174 197 0
174 197 0
173 197 0
173 197 0
175 198 0
175 198 0
175 198 0
172 195 0
172 196 0
175 198 0
173 196 0
171 196 0
174 197 0
172 195 0
172 196 0
173 197 0
173 196 0
171 196 0
174 198 0
173 196 0
170 195 0
174 197 0
174 197 0
173 197 0
174 197 0
173 197 0
172 195 0
172 196 0
172 195 0
173 196 0
172 195 0
172 196 0
171 194 0
173 197 0
172 196 0
172 196 0
174 197 0
171 196 0
172 196 0
173 196 0
170 194 0
172 195 0
169 193 0
173 197 0
172 195 0
172 195 0
170 194 0
171 195 0
172 195 0
171 194 0
171 194 0
172 196 0
169 192 0
172 196 0
173 196 0
170 193 0
170 194 0
169 192 0
171 195 0
172 195 0
169 192 0
174 196 0
173 196 0
171 194 0
171 194 0
172 195 0
173 196 0
171 194 0
171 195 0
169 193 0
171 195 0
171 194 0
173 197 0
173 196 0
168 192 0
174 197 0
171 195 0
172 194 0
171 194 0
172 195 0
170 194 0
171 195 0
171 194 0
172 196 0
171 194 0
174 196 0
170 194 0
169 192 0
172 195 0
171 194 0
173 196 0
173 196 0
172 196 0
171 195 0
172 196 0
171 195 0
170 193 0
171 195 0
173 197 0
173 196 0
174 198 0
172 195 0
173 196 0
170 193 0
171 194 0
173 197 0
173 197 0
174 198 0
173 197 0
174 198 0
174 197 0
173 196 0
172 195 0
171 195 0
173 197 0
174 197 0
172 195 0
170 194 0
173 197 0
171 194 0
174 197 0
175 198 0
174 198 0
171 195 0
170 195 0
172 196 0
173 196 0
174 198 0
171 194 0
171 194 0
175 198 0
172 196 0
172 196 0
172 196 0
174 198 0
173 197 0
173 196 0
171 195 0
174 198 0
173 197 0
174 198 0
174 197 0
176 199 0
172 195 0
173 196 0
172 196 0
173 196 0
173 197 0
173 197 0
173 196 0
173 197 0
174 197 0
174 198 0
173 197 0
173 197 0
173 196 0
173 196 0
173 197 0
175 198 0
173 196 0
173 197 0
174 197 0
175 198 0
174 198 0
175 198 0
172 195 0
173 197 0
173 197 0
174 197 0
174 197 0
173 196 0
173 197 0
173 197 0
173 196 0
172 196 0
173 196 0
175 198 0
173 197 0
173 197 0
175 198 0
173 197 0
174 197 0
174 197 0
176 198 0
173 196 0
174 198 0
173 197 0
172 197 0
175 197 0
172 197 0
173 197 0
175 198 0
175 198 0
174 198 0
174 198 0
176 198 0
173 197 0
173 197 0
174 197 0
175 198 0
174 197 0
175 197 0
173 197 0
174 197 0
174 197 0
173 197 0
175 198 0
175 198 0
172 196 0
173 197 0
174 197 0
173 197 0
175 198 0
174 198 0
176 199 0
174 197 0
175 198 0
174 198 0
173 197 0
176 199 0
175 198 0
175 198 0
173 197 0
176 199 0
175 198 0
174 198 0
176 199 0
174 197 0
175 198 0
174 197 0
175 198 0
174 198 0
175 198 0
175 198 0
175 198 0
174 198 0
176 199 0
174 197 0
173 197 0
173 197 0
175 198 0
173 197 0
175 198 0
175 198 0
173 197 0
175 198 0
176 199 0
174 198 0
173 197 0
175 198 0
175 198 0
174 198 0
175 198 0
173 197 0
175 198 0
175 198 0
175 198 0
173 197 0
174 197 0
174 198 0
175 198 0
174 198 0
172 197 0
174 198 0
175 198 0
175 198 0
173 197 0
175 198 0
174 198 0
172 197 0
175 198 0
176 199 0
174 198 0
176 199 0
175 198 0
174 198 0
175 198 0
173 197 0
174 198 0
175 198 0
174 197 0
173 197 0
173 197 0
174 197 0
176 198 0
175 198 0
174 197 0
175 198 0
172 196 0
172 196 0
174 197 0
173 197 0
173 197 0
175 198 0
175 198 0
175 198 0
175 198 0
174 197 0
173 197 0
175 198 0
173 197 0
174 198 0
174 198 0
172 196 0
174 198 0
175 198 0
175 198 0
176 198 0
174 198 0
175 198 0
174 198 0
174 197 0
174 198 0
173 196 0
174 197 0
174 198 0
175 198 0
174 197 0
174 198 0
174 197 0
173 196 0
174 198 0
175 198 0
175 198 0
174 197 0
174 197 0
173 197 0
173 197 0
175 198 0
173 197 0
173 197 0
175 198 0
174 198 0
174 198 0
175 198 0
173 197 0
174 198 0
174 198 0
174 197 0
174 197 0
174 197 0
173 197 0
176 199 0
173 197 0
173 197 0
175 198 0
173 196 0
173 197 0
174 198 0
174 198 0
173 196 0
175 198 0
174 197 0
173 197 0
174 197 0
173 197 0
173 196 0
173 197 0
173 197 0
175 198 0
175 198 0
173 197 0
174 197 0
173 197 0
175 198 0
173 197 0
172 197 0
173 197 0
174 197 0
173 197 0
174 198 0
174 197 0
174 198 0
172 196 0
175 198 0
174 197 0
174 197 0
174 198 0
175 198 0
174 197 0
174 197 0
173 197 0
174 197 0
174 197 0
173 196 0
174 197 0
174 197 0
172 196 0
176 199 0
172 196 0
174 197 0
174 197 0
172 196 0
172 196 0
174 197 0
173 197 0
174 197 0
173 197 0
173 195 0
173 196 0
172 196 0
175 198 0
173 196 0
173 196 0
174 197 0
173 196 0
173 196 0
174 197 0
173 196 0
174 197 0
175 198 0
171 194 0
172 196 0
171 195 0
170 194 0
173 196 0
173 197 0
172 196 0
173 197 0
173 197 0
172 195 0
172 196 0
170 194 0
174 197 0
170 194 0
172 195 0
173 197 0
171 195 0
172 195 0
171 195 0
173 197 0
173 197 0
171 195 0
171 194 0
174 197 0
173 196 0
171 195 0
173 196 0
175 197 0
171 194 0
172 195 0
172 196 0
173 196 0
174 197 0
173 196 0
172 196 0
169 193 0
172 196 0
171 195 0
173 196 0
172 196 0
172 195 0
172 195 0
171 194 0
172 195 0
175 197 0
172 195 0
169 192 0
171 195 0
170 193 0
169 193 0
169 193 0
170 194 0
173 196 0
171 195 0
172 195 0
173 196 0
171 194 0
173 196 0
171 195 0
172 196 0
174 197 0
170 193 0
171 194 0
172 196 0
173 195 0
173 196 0
171 194 0
172 196 0
173 196 0
172 196 0
172 196 0
172 196 0
172 194 0
172 195 0
173 197 0
171 194 0
172 196 0
173 197 0
174 198 0
173 196 0
173 197 0
172 196 0
173 197 0
172 195 0
172 195 0
172 195 0
171 195 0
171 195 0
171 194 0
173 197 0
172 195 0
174 197 0
173 197 0
173 195 0
172 196 0
174 197 0
171 195 0
173 197 0
172 195 0
173 197 0
176 198 0
176 198 0
174 197 0
175 198 0
173 197 0
174 197 0
173 196 0
173 196 0
173 196 0
173 196 0
175 197 0
173 197 0
173 196 0
171 194 0
173 196 0
173 196 0
170 194 0
174 197 0
173 196 0
174 198 0
174 198 0
173 197 0
174 197 0
173 196 0
175 198 0
171 195 0
173 196 0
173 197 0
173 197 0
172 196 0
176 198 0
173 196 0
174 197 0
174 197 0
173 197 0
175 198 0
175 198 0
175 198 0
173 196 0
172 196 0
174 198 0
174 197 0
174 197 0
174 197 0
172 195 0
175 198 0
174 197 0
175 198 0
172 196 0
173 197 0
174 197 0
172 196 0
175 197 0
172 197 0
174 198 0
176 198 0
173 196 0
174 198 0
174 198 0
174 197 0
174 197 0
173 197 0
174 197 0
175 198 0
175 198 0
174 197 0
172 195 0
174 197 0
172 195 0
174 198 0
174 197 0
174 197 0
174 197 0
174 198 0
172 196 0
175 198 0
175 198 0
174 197 0
175 198 0
174 197 0
174 198 0
174 198 0
174 198 0
172 195 0
172 196 0
174 197 0
172 196 0
174 197 0
174 197 0
174 197 0
175 198 0
175 198 0
174 197 0
173 197 0
176 199 0
175 198 0
175 197 0
174 198 0
174 198 0
175 197 0
174 197 0
173 197 0
176 198 0
173 197 0
174 198 0
174 198 0
174 198 0
174 198 0
174 197 0
174 197 0
174 198 0
175 198 0
172 196 0
174 198 0
174 198 0
173 197 0
175 198 0
175 198 0
175 198 0
175 198 0
173 197 0
172 197 0
174 197 0
173 197 0
174 197 0
174 198 0
174 198 0
173 197 0
174 197 0
175 198 0
174 198 0
175 198 0
175 198 0
174 198 0
176 198 0
174 198 0
173 197 0
175 198 0
174 198 0
175 198 0
174 198 0
175 198 0
174 198 0
174 198 0
173 196 0
173 197 0
175 198 0
174 198 0
171 196 0
175 198 0
174 198 0
176 199 0
175 198 0
172 196 0
173 197 0
173 197 0
174 197 0
174 198 0
175 198 0
174 198 0
174 198 0
173 196 0
174 198 0
175 198 0
173 197 0
174 198 0
175 198 0
174 197 0
176 198 0
174 197 0
175 198 0
175 198 0
173 197 0
174 198 0
175 198 0
175 198 0
175 198 0
175 198 0
174 198 0
174 198 0
174 198 0
173 197 0
173 197 0
176 199 0
175 198 0
174 197 0
175 198 0
175 198 0
174 197 0
172 196 0
174 197 0
174 198 0
173 197 0
174 197 0
174 197 0
176 199 0
174 197 0
175 198 0
174 198 0
175 198 0
174 197 0
174 198 0
174 197 0
174 197 0
174 198 0
173 197 0
174 198 0
176 198 0
175 198 0
174 197 0
175 198 0
174 197 0
174 198 0
175 198 0
175 198 0
174 197 0
175 198 0
176 199 0
173 197 0
174 198 0
174 197 0
173 197 0
174 197 0
175 198 0
174 197 0
175 198 0
174 198 0
174 198 0
173 197 0
174 198 0
175 198 0
172 196 0
174 197 0
173 197 0
175 198 0
176 198 0
172 196 0
174 198 0
173 197 0
173 197 0
176 199 0
175 198 0
173 197 0
176 199 0
174 197 0
174 198 0
173 197 0
175 198 0
174 197 0
173 197 0
174 198 0
174 198 0
175 198 0
174 198 0
174 198 0
175 198 0
174 198 0
175 198 0
174 197 0
173 196 0
173 197 0
175 198 0
174 197 0
174 197 0
175 198 0
174 197 0
175 198 0
173 197 0
172 196 0
173 197 0
175 198 0
172 196 0
171 195 0
173 197 0
175 198 0
173 197 0
175 198 0
177 199 0
172 196 0
176 199 0
173 197 0
174 197 0
174 198 0
170 193 0
170 194 0
172 196 0
173 196 0
174 197 0
172 196 0
174 197 0
172 196 0
173 197 0
173 196 0
174 198 0
173 196 0
174 197 0
173 196 0
174 197 0
173 196 0
174 197 0
174 197 0
174 197 0
175 198 0
173 197 0
174 197 0
173 197 0
173 197 0
170 194 0
170 194 0
174 197 0
173 196 0
172 195 0
171 194 0
171 195 0
171 195 0
173 196 0
172 195 0
174 197 0
171 195 0
172 196 0
172 196 0
173 197 0
172 195 0
170 193 0
174 198 0
169 193 0
170 194 0
173 196 0
172 195 0
170 194 0
170 194 0
170 193 0
173 196 0
170 194 0
173 197 0
172 196 0
174 198 0
170 193 0
172 196 0
171 195 0
171 195 0
172 196 0
171 195 0
170 193 0
172 196 0
170 193 0
174 197 0
172 196 0
172 195 0
172 196 0
175 198 0
172 196 0
173 196 0
171 195 0
172 195 0
173 196 0
167 191 0
173 196 0
172 196 0
172 196 0
171 194 0
172 195 0
173 197 0
174 197 0
172 195 0
172 196 0
172 196 0
173 195 0
169 192 0
172 195 0
172 195 0
171 195 0
170 193 0
174 197 0
172 196 0
171 194 0
170 194 0
173 196 0
172 196 0
171 195 0
169 193 0
171 195 0
175 198 0
169 193 0
172 195 0
172 195 0
170 193 0
172 196 0
174 198 0
172 196 0
173 197 0
175 198 0
172 196 0
173 197 0
172 196 0
173 196 0
174 197 0
173 196 0
172 196 0
174 197 0
170 194 0
171 194 0
173 196 0
172 195 0
173 195 0
173 196 0
175 198 0
174 197 0
175 198 0
173 197 0
175 197 0
174 198 0
173 197 0
173 196 0
173 196 0
173 197 0
173 196 0
173 197 0
175 198 0
174 197 0
174 198 0
173 197 0
173 197 0
175 197 0
171 195 0
174 197 0
175 198 0
172 195 0
175 198 0
173 197 0
174 197 0
174 198 0
173 197 0
174 197 0
175 198 0
174 198 0
172 195 0
173 195 0
174 197 0
173 197 0
174 197 0
174 197 0
172 196 0
173 196 0
172 196 0
173 197 0
171 195 0
175 198 0
174 197 0
173 197 0
174 197 0
174 198 0
175 198 0
175 198 0
176 199 0
173 197 0
174 197 0
172 195 0
175 198 0
175 198 0
174 197 0
173 197 0
172 196 0
176 198 0
174 197 0
173 197 0
174 198 0
172 196 0
173 197 0
174 196 0
174 197 0
174 197 0
173 196 0
173 197 0
176 199 0
175 198 0
175 198 0
172 197 0
174 198 0
174 198 0
174 197 0
174 198 0
177 199 0
173 197 0
174 198 0
175 198 0
172 197 0
174 197 0
174 198 0
175 198 0
174 197 0
173 197 0
174 197 0
175 198 0
173 197 0
175 198 0
173 196 0
174 197 0
173 197 0
175 198 0
174 198 0
174 197 0
174 197 0
175 198 0
172 196 0
174 197 0
175 198 0
175 198 0
175 198 0
175 198 0
174 197 0
174 198 0
174 198 0
174 197 0
174 198 0
174 198 0
174 198 0
173 197 0
173 197 0
173 197 0
174 198 0
175 198 0
174 198 0
174 198 0
175 198 0
175 198 0
175 198 0
171 196 0
174 198 0
173 197 0
173 197 0
174 198 0
176 198 0
174 198 0
174 198 0
175 198 0
175 198 0
174 198 0
173 197 0
176 199 0
175 198 0
174 197 0
175 198 0
174 197 0
173 197 0
174 198 0
175 198 0
175 198 0
175 198 0
174 198 0
174 198 0
173 197 0
176 199 0
173 197 0
173 197 0
175 198 0
173 197 0
174 198 0
175 198 0
174 198 0
173 197 0
175 198 0
173 197 0
174 198 0
175 198 0
174 197 0
173 197 0
175 198 0
176 198 0
174 197 0
176 198 0
174 197 0
175 198 0
174 197 0
175 198 0
174 197 0
174 197 0
173 197 0
176 199 0
175 198 0
175 198 0
174 197 0
173 197 0
174 197 0
175 198 0
172 197 0
174 198 0
174 197 0
173 197 0
173 197 0
175 198 0
173 197 0
174 197 0
174 198 0
173 197 0
174 198 0
174 197 0
176 198 0
176 198 0
173 197 0
174 197 0
174 197 0
174 198 0
174 198 0
172 196 0
176 199 0
174 198 0
174 198 0
176 199 0
173 197 0
174 197 0
175 198 0
173 197 0
174 198 0
173 197 0
174 197 0
173 197 0
175 198 0
174 197 0
174 197 0
175 198 0
174 198 0
174 198 0
173 197 0
175 198 0
175 198 0
174 198 0
174 198 0
175 198 0
174 197 0
174 198 0
174 197 0
175 198 0
174 197 0
174 198 0
174 198 0
173 197 0
173 197 0
175 198 0
174 197 0
175 198 0
173 196 0
175 198 0
174 198 0
176 198 0
175 198 0
172 196 0
173 197 0
173 197 0
175 198 0
175 198 0
174 197 0
175 198 0
174 197 0
174 197 0
174 196 0
173 197 0
173 197 0
175 198 0
174 197 0
173 197 0
173 197 0
175 198 0
172 196 0
174 197 0
174 198 0
173 197 0
174 197 0
173 197 0
174 198 0
174 197 0
172 196 0
173 196 0
175 198 0
175 198 0
173 196 0
174 197 0
173 196 0
172 196 0
174 197 0
173 197 0
174 197 0
174 197 0
172 196 0
172 196 0
172 196 0
173 197 0
172 196 0
172 196 0
173 196 0
174 197 0
176 198 0
172 196 0
172 196 0
174 197 0
169 192 0
174 197 0
174 197 0
172 196 0
175 198 0
173 197 0
173 197 0
171 195 0
170 194 0
172 195 0
174 197 0
174 197 0
175 198 0
172 196 0
173 196 0
172 195 0
172 195 0
170 194 0
171 195 0
170 194 0
171 195 0
171 195 0
175 198 0
172 195 0
169 194 0
171 194 0
175 198 0
173 196 0
173 197 0
172 195 0
173 197 0
173 197 0
173 196 0
173 196 0
173 196 0
173 196 0
170 194 0
172 196 0
172 195 0
174 197 0
169 192 0
172 196 0
172 196 0
173 196 0
169 194 0
171 194 0
171 195 0
169 192 0
170 194 0
174 197 0
172 195 0
169 193 0
172 195 0
171 195 0
172 195 0
173 197 0
172 195 0
173 197 0
172 195 0
171 194 0
171 195 0
171 195 0
172 195 0
171 194 0
171 195 0
170 194 0
170 192 0
173 196 0
173 196 0
170 193 0
168 192 0
172 196 0
174 196 0
172 195 0
173 196 0
174 196 0
172 195 0
174 198 0
172 195 0
171 194 0
171 194 0
174 197 0
172 196 0
175 198 0
171 195 0
170 193 0
174 197 0
174 197 0
174 197 0
170 194 0
172 196 0
172 194 0
175 198 0
174 197 0
173 196 0
173 196 0
170 194 0
174 197 0
173 196 0
171 194 0
172 196 0
171 195 0
174 197 0
172 196 0
174 197 0
171 195 0
174 198 0
173 197 0
173 196 0
172 196 0
174 198 0
172 194 0
174 197 0
174 197 0
176 198 0
175 198 0
174 198 0
171 195 0
174 197 0
174 197 0
174 197 0
173 197 0
174 197 0
175 197 0
173 196 0
174 197 0
175 198 0
174 197 0
173 196 0
174 198 0
173 196 0
176 199 0
173 197 0
174 198 0
173 197 0
174 198 0
173 197 0
173 196 0
174 197 0
174 197 0
174 198 0
173 197 0
174 197 0
172 195 0
175 198 0
174 198 0
174 197 0
174 197 0
174 198 0
175 197 0
174 197 0
173 196 0
173 197 0
172 196 0
173 197 0
172 196 0
174 197 0
174 197 0
174 197 0
172 195 0
174 197 0
174 198 0
175 198 0
172 196 0
173 196 0
174 198 0
175 198 0
173 197 0
174 197 0
173 197 0
175 198 0
175 198 0
175 198 0
174 197 0
173 197 0
173 196 0
173 196 0
175 198 0
173 197 0
172 197 0
173 197 0
173 197 0
173 197 0
172 196 0
173 197 0
175 198 0
174 197 0
174 198 0
173 197 0
175 198 0
175 198 0
176 198 0
174 198 0
172 197 0
174 197 0
174 197 0
175 198 0
175 198 0
174 197 0
176 198 0
175 198 0
173 197 0
174 197 0
176 198 0
174 198 0
174 197 0
174 197 0
173 197 0
174 197 0
175 198 0
175 198 0
174 198 0
173 197 0
173 197 0
175 198 0
175 198 0
174 198 0
174 198 0
175 198 0
175 198 0
174 197 0
173 196 0
174 198 0
174 198 0
173 197 0
172 196 0
175 198 0
175 198 0
175 198 0
173 197 0
174 198 0
175 198 0
175 198 0
174 197 0
173 197 0
175 198 0
173 197 0
175 198 0
175 198 0
176 199 0
174 198 0
174 198 0
173 197 0
173 197 0
174 198 0
174 198 0
174 197 0
174 198 0
176 199 0
173 197 0
177 199 0
176 199 0
175 198 0
174 198 0
174 198 0
174 197 0
173 197 0
175 198 0
174 197 0
175 198 0
174 197 0
174 197 0
175 198 0
175 198 0
172 196 0
175 198 0
174 198 0
175 198 0
173 197 0
175 198 0
174 197 0
174 198 0
175 198 0
175 198 0
176 198 0
174 198 0
173 197 0
174 198 0
174 198 0
174 197 0
175 198 0
175 198 0
174 197 0
175 198 0
175 198 0
174 197 0
174 198 0
172 197 0
174 198 0
176 199 0
173 197 0
174 197 0
173 197 0
171 196 0
172 196 0
173 197 0
174 197 0
174 197 0
174 197 0
175 198 0
174 198 0
174 198 0
173 197 0
172 196 0
173 197 0
173 197 0
174 198 0
176 199 0
172 196 0
175 198 0
174 197 0
175 198 0
175 198 0
173 197 0
173 197 0
173 197 0
173 197 0
175 198 0
175 198 0
176 198 0
174 197 0
174 197 0
174 197 0
175 198 0
177 199 0
174 197 0
174 197 0
174 198 0
175 198 0
174 198 0
174 197 0
176 199 0
175 198 0
173 197 0
174 198 0
173 196 0
174 197 0
172 196 0
175 198 0
174 197 0
175 198 0
174 198 0
175 198 0
173 197 0
174 198 0
172 196 0
175 198 0
174 198 0
175 198 0
174 197 0
173 197 0
173 196 0
176 199 0
174 197 0
175 198 0
175 198 0
173 197 0
174 197 0
174 198 0
173 196 0
173 197 0
174 197 0
175 198 0
173 197 0
174 197 0
172 196 0
175 198 0
174 197 0
174 197 0
174 198 0
175 198 0
172 196 0
174 197 0
173 197 0
172 196 0
176 198 0
174 197 0
174 197 0
174 197 0
171 195 0
173 197 0
173 196 0
173 197 0
173 197 0
172 196 0
174 197 0
174 197 0
174 197 0
174 198 0
172 196 0
174 198 0
174 197 0
171 196 0
175 198 0
172 196 0
172 195 0
172 196 0
174 198 0
173 197 0
174 197 0
171 195 0
173 196 0
173 196 0
171 195 0
173 196 0
173 197 0
174 198 0
172 196 0
173 197 0
171 196 0
173 197 0
173 197 0
171 194 0
174 196 0
171 195 0
172 195 0
171 195 0
171 194 0
173 196 0
174 197 0
171 194 0
173 196 0
172 196 0
173 196 0
172 196 0
172 196 0
173 196 0
173 197 0
174 197 0
171 194 0
174 197 0
172 196 0
172 195 0
169 193 0
168 191 0
172 196 0
174 197 0
170 194 0
173 196 0
172 196 0
173 196 0
170 194 0
168 191 0
171 194 0
172 195 0
172 196 0
172 196 0
170 193 0
169 194 0
171 195 0
172 195 0
171 195 0
172 196 0
173 196 0
174 197 0
170 193 0
171 195 0
170 193 0
172 195 0
173 196 0
168 192 0
171 194 0
172 195 0
171 196 0
172 196 0
171 195 0
173 196 0
172 196 0
170 194 0
172 195 0
173 196 0
170 194 0
172 196 0
171 196 0
170 193 0
172 195 0
172 194 0
169 193 0
169 194 0
175 198 0
173 197 0
176 198 0
171 195 0
173 196 0
174 197 0
171 195 0
173 197 0
173 196 0
174 197 0
172 195 0
171 194 0
173 196 0
176 198 0
172 196 0
173 196 0
172 195 0
172 196 0
173 196 0
171 195 0
171 195 0
173 197 0
174 197 0
173 197 0
175 198 0
172 195 0
172 196 0
172 196 0
173 197 0
174 197 0
173 196 0
173 197 0
172 196 0
171 194 0
173 196 0
174 198 0
172 195 0
173 197 0
176 199 0
175 197 0
173 197 0
175 198 0
175 198 0
174 197 0
172 196 0
172 196 0
173 197 0
172 195 0
174 197 0
174 198 0
175 198 0
174 198 0
172 196 0
173 197 0
171 195 0
175 198 0
175 198 0
173 196 0
174 197 0
172 196 0
174 197 0
173 197 0
173 197 0
172 196 0
175 198 0
174 197 0
175 198 0
172 196 0
171 195 0
173 196 0
172 196 0
173 197 0
175 198 0
175 198 0
175 198 0
175 198 0
174 197 0
175 198 0
175 198 0
174 197 0
175 198 0
175 198 0
175 198 0
173 197 0
173 196 0
175 197 0
174 197 0
174 198 0
176 199 0
172 195 0
174 197 0
174 197 0
173 197 0
174 197 0
173 197 0
174 198 0
175 198 0
173 196 0
174 197 0
175 198 0
174 198 0
174 197 0
172 196 0
174 198 0
174 197 0
172 196 0
173 196 0
174 198 0
174 197 0
173 197 0
176 199 0
174 197 0
174 198 0
175 198 0
173 197 0
174 198 0
174 197 0
176 199 0
175 198 0
174 198 0
175 198 0
174 197 0
174 198 0
173 197 0
175 198 0
175 198 0
174 198 0
174 197 0
175 198 0
175 198 0
174 197 0
174 198 0
174 198 0
174 198 0
174 197 0
175 198 0
174 197 0
174 197 0
173 197 0
174 197 0
173 197 0
174 198 0
173 197 0
173 197 0
173 197 0
173 196 0
175 198 0
174 198 0
174 198 0
175 198 0
175 198 0
176 199 0
173 197 0
175 198 0
173 196 0
175 198 0
173 197 0
173 196 0
175 198 0
172 197 0
174 198 0
173 197 0
174 197 0
173 197 0
175 198 0
175 198 0
173 197 0
174 197 0
176 199 0
175 198 0
175 198 0
177 199 0
175 198 0
175 198 0
175 198 0
173 197 0
173 197 0
175 198 0
173 197 0
174 198 0
175 198 0
174 198 0
174 198 0
174 198 0
174 198 0
176 199 0
174 198 0
175 198 0
176 198 0
174 198 0
174 197 0
175 198 0
174 197 0
173 197 0
175 198 0
174 198 0
175 198 0
175 198 0
175 198 0
173 197 0
176 199 0
173 197 0
173 197 0
173 197 0
176 199 0
175 198 0
175 198 0
175 198 0
176 199 0
175 198 0
173 197 0
174 198 0
175 198 0
174 198 0
171 195 0
172 197 0
175 198 0
176 199 0
175 198 0
174 197 0
174 197 0
174 197 0
174 198 0
174 198 0
174 197 0
175 198 0
174 197 0
174 198 0
174 198 0
175 198 0
175 198 0
175 197 0
173 197 0
176 199 0
174 198 0
175 198 0
176 198 0
175 198 0
174 198 0
174 197 0
176 198 0
173 197 0
174 198 0
173 197 0
174 198 0
172 196 0
174 198 0
174 197 0
174 197 0
175 198 0
175 198 0
173 197 0
174 197 0
173 197 0
175 198 0
174 198 0
174 197 0
175 198 0
175 198 0
174 198 0
176 199 0
174 197 0
174 197 0
174 198 0
175 198 0
173 197 0
177 199 0
174 197 0
174 198 0
174 197 0
175 198 0
175 198 0
175 198 0
174 197 0
175 198 0
174 197 0
174 197 0
173 197 0
175 198 0
176 198 0
174 197 0
173 197 0
175 198 0
174 197 0
175 198 0
175 198 0
173 197 0
175 198 0
174 197 0
173 197 0
174 197 0
174 197 0
173 196 0
173 196 0
175 198 0
174 197 0
173 196 0
174 196 0
174 198 0
174 197 0
173 197 0
172 197 0
174 198 0
173 197 0
173 196 0
174 198 0
173 196 0
174 197 0
172 196 0
175 198 0
172 195 0
172 196 0
170 194 0
173 196 0
175 198 0
170 194 0
175 198 0
173 196 0
174 197 0
174 197 0
174 197 0
174 197 0
173 197 0
172 195 0
171 195 0
172 196 0
172 195 0
173 197 0
172 196 0
174 197 0
174 197 0
173 196 0
173 197 0
173 196 0
170 194 0
172 196 0
172 195 0
173 197 0
172 196 0
171 195 0
175 198 0
171 194 0
174 197 0
174 197 0
172 196 0
170 193 0
172 195 0
171 196 0
173 197 0
169 193 0
174 197 0
170 194 0
172 195 0
171 195 0
170 194 0
169 193 0
172 195 0
172 196 0
175 197 0
171 195 0
170 194 0
172 196 0
173 197 0
172 195 0
173 196 0
171 194 0
174 198 0
175 198 0
171 195 0
172 195 0
174 197 0
173 197 0
173 197 0
171 194 0
173 196 0
173 196 0
172 194 0
171 195 0
171 194 0
173 196 0
171 195 0
170 194 0
173 197 0
172 196 0
171 195 0
172 195 0
174 198 0
174 197 0
174 197 0
173 197 0
174 197 0
173 197 0
171 194 0
170 194 0
174 197 0
171 194 0
172 196 0
171 195 0
173 197 0
173 196 0
171 195 0
169 193 0
174 198 0
169 193 0
172 195 0
173 197 0
172 196 0
172 196 0
172 196 0
171 194 0
172 195 0
173 197 0
175 198 0
173 196 0
173 196 0
173 197 0
174 198 0
171 195 0
172 196 0
174 197 0
175 198 0
174 197 0
176 199 0
173 197 0
171 195 0
173 196 0
174 197 0
172 196 0
173 196 0
174 197 0
173 196 0
172 196 0
175 198 0
171 195 0
173 197 0
172 195 0
174 198 0
173 197 0
173 196 0
174 197 0
175 198 0
173 196 0
172 195 0
172 196 0
171 195 0
174 196 0
173 197 0
173 197 0
174 197 0
172 196 0
172 196 0
174 197 0
174 198 0
173 197 0
173 196 0
175 198 0
174 196 0
175 198 0
173 197 0
173 197 0
174 197 0
171 195 0
174 197 0
172 196 0
175 197 0
174 197 0
174 196 0
176 198 0
175 198 0
175 198 0
173 196 0
172 195 0
174 197 0
175 198 0
175 198 0
175 197 0
174 197 0
173 197 0
173 197 0
174 197 0
174 197 0
173 197 0
173 197 0
174 197 0
176 198 0
172 196 0
174 197 0
174 197 0
174 197 0
174 197 0
174 197 0
174 198 0
176 199 0
173 197 0
175 198 0
173 196 0
174 197 0
173 197 0
175 198 0
175 198 0
172 196 0
172 196 0
174 197 0
173 195 0
173 197 0
174 197 0
173 197 0
174 197 0
176 199 0
175 198 0
175 198 0
175 198 0
174 197 0
175 198 0
176 198 0
174 197 0
174 198 0
174 198 0
173 197 0
174 197 0
173 196 0
174 198 0
175 198 0
174 197 0
174 198 0
173 197 0
174 197 0
174 198 0
174 198 0
175 198 0
174 197 0
175 198 0
174 198 0
174 197 0
174 198 0
175 198 0
175 198 0
175 198 0
174 197 0
172 196 0
174 197 0
173 197 0
175 198 0
176 198 0
174 198 0
174 197 0
174 197 0
175 198 0
174 198 0
174 197 0
174 197 0
175 198 0
176 198 0
174 198 0
176 199 0
175 198 0
174 197 0
175 198 0
174 197 0
176 198 0
174 198 0
175 198 0
175 198 0
175 198 0
174 197 0
175 198 0
174 197 0
175 198 0
177 199 0
174 197 0
173 197 0
174 198 0
174 198 0
175 198 0
173 197 0
174 197 0
174 198 0
173 197 0
174 198 0
175 198 0
176 199 0
176 199 0
173 197 0
174 198 0
174 198 0
175 198 0
174 198 0
176 199 0
175 198 0
174 198 0
173 197 0
173 197 0
175 198 0
173 197 0
173 197 0
174 198 0
176 199 0
173 197 0
174 198 0
174 198 0
174 197 0
175 198 0
174 197 0
175 198 0
174 198 0
174 198 0
174 198 0
174 197 0
174 198 0
175 198 0
175 198 0
174 197 0
175 198 0
174 198 0
173 197 0
174 198 0
174 197 0
175 198 0
176 198 0
174 198 0
174 197 0
174 197 0
173 197 0
173 197 0
173 197 0
174 198 0
176 198 0
175 198 0
174 197 0
172 197 0
173 197 0
175 198 0
174 198 0
175 198 0
175 198 0
173 196 0
174 198 0
175 198 0
175 198 0
176 199 0
173 196 0
173 197 0
175 198 0
176 199 0
174 197 0
175 198 0
174 197 0
173 197 0
173 197 0
174 198 0
173 197 0
174 197 0
175 198 0
175 198 0
176 198 0
173 197 0
174 198 0
174 197 0
173 197 0
172 196 0
173 197 0
173 197 0
176 199 0
174 197 0
174 197 0
173 197 0
173 197 0
173 197 0
175 198 0
174 197 0
174 197 0
170 195 0
172 196 0
175 198 0
174 198 0
175 198 0
173 197 0
173 197 0
175 198 0
173 197 0
175 198 0
172 196 0
175 198 0
174 198 0
174 197 0
173 197 0
174 197 0
173 196 0
175 198 0
174 198 0
172 196 0
173 197 0
172 196 0
174 197 0
174 198 0
172 196 0
175 198 0
174 198 0
174 197 0
172 196 0
174 198 0
176 199 0
173 197 0
174 198 0
174 197 0
171 195 0
172 195 0
172 196 0
173 196 0
173 197 0
176 199 0
177 199 0
174 198 0
172 196 0
174 197 0
172 195 0
171 195 0
173 196 0
174 197 0
172 196 0
172 196 0
175 198 0
173 197 0
172 196 0
173 196 0
172 196 0
174 197 0
173 197 0
174 197 0
173 196 0
173 197 0
173 197 0
173 196 0
174 198 0
172 196 0
172 196 0
173 197 0
171 194 0
172 196 0
173 196 0
172 195 0
174 197 0
171 194 0
173 196 0
169 192 0
173 196 0
173 196 0
173 197 0
174 197 0
173 197 0
172 196 0
170 194 0
174 198 0
172 195 0
173 196 0
170 193 0
174 197 0
173 196 0
172 195 0
171 196 0
173 196 0
170 194 0
174 197 0
171 195 0
174 197 0
174 196 0
172 196 0
173 196 0
171 195 0
171 195 0
172 195 0
172 196 0
172 196 0
172 195 0
168 192 0
169 192 0
173 196 0
171 195 0
172 196 0
171 194 0
173 196 0
169 193 0
174 197 0
173 196 0
172 196 0
173 196 0
175 198 0
173 196 0
172 196 0
172 195 0
174 197 0
171 193 0
172 197 0
172 195 0
171 194 0
172 196 0
174 198 0
174 197 0
170 194 0
173 196 0
173 196 0
169 193 0
172 195 0
173 197 0
170 194 0
170 194 0
174 197 0
172 196 0
170 194 0
170 194 0
173 196 0
173 197 0
175 197 0
174 197 0
173 196 0
173 197 0
174 198 0
175 198 0
172 196 0
173 197 0
174 197 0
173 196 0
173 197 0
174 198 0
172 196 0
174 197 0
174 198 0
174 197 0
175 197 0
174 197 0
171 194 0
173 195 0
173 197 0
172 195 0
173 196 0
174 197 0
174 197 0
175 198 0
171 194 0
173 197 0
174 198 0
174 197 0
174 197 0
175 198 0
171 195 0
170 194 0
175 198 0
174 198 0
173 197 0
173 196 0
174 198 0
173 197 0
174 197 0
172 195 0
171 196 0
174 198 0
173 196 0
175 198 0
175 198 0
174 198 0
173 197 0
172 196 0
173 197 0
174 197 0
175 198 0
173 196 0
173 197 0
174 197 0
173 196 0
173 197 0
172 195 0
173 197 0
174 198 0
174 197 0
173 196 0
173 197 0
174 197 0
175 198 0
173 197 0
173 196 0
174 197 0
173 197 0
174 198 0
175 198 0
174 197 0
175 198 0
174 197 0
172 195 0
176 199 0
173 196 0
173 196 0
173 197 0
174 197 0
174 197 0
175 197 0
174 197 0
176 198 0
173 197 0
173 197 0
172 197 0
175 198 0
174 197 0
173 197 0
175 198 0
175 198 0
174 197 0
172 196 0
173 197 0
176 198 0
174 198 0
177 199 0
175 198 0
173 197 0
173 196 0
173 197 0
175 198 0
174 197 0
175 198 0
172 196 0
175 198 0
172 196 0
174 198 0
173 197 0
175 198 0
175 198 0
175 198 0
174 198 0
176 199 0
175 198 0
175 198 0
175 198 0
174 197 0
175 198 0
176 199 0
173 197 0
173 197 0
172 197 0
174 198 0
174 197 0
173 197 0
175 198 0
173 197 0
173 197 0
173 196 0
174 197 0
175 198 0
174 198 0
175 198 0
173 197 0
175 197 0
173 197 0
174 198 0
174 198 0
174 198 0
174 198 0
173 197 0
174 198 0
175 198 0
176 198 0
175 198 0
174 198 0
175 198 0
173 197 0
174 198 0
174 198 0
175 198 0
175 198 0
174 198 0
175 198 0
174 198 0
175 198 0
174 198 0
175 198 0
173 197 0
173 197 0
174 197 0
174 198 0
173 197 0
174 197 0
174 197 0
176 199 0
175 198 0
173 197 0
174 198 0
173 197 0
175 198 0
173 196 0
175 198 0
175 198 0
175 198 0
172 197 0
176 198 0
174 198 0
172 196 0
176 199 0
176 199 0
176 199 0
174 197 0
176 198 0
174 197 0
174 198 0
174 197 0
174 197 0
174 198 0
173 197 0
173 197 0
173 197 0
175 198 0
173 196 0
173 197 0
174 198 0
174 198 0
175 198 0
174 197 0
174 198 0
175 198 0
174 198 0
174 197 0
173 197 0
173 197 0
175 198 0
176 199 0
174 198 0
175 198 0
174 197 0
173 197 0
172 196 0
174 198 0
174 197 0
173 197 0
175 198 0
174 198 0
175 198 0
174 198 0
173 197 0
173 197 0
172 196 0
174 198 0
174 198 0
174 198 0
173 197 0
174 197 0
174 197 0
173 197 0
175 198 0
175 198 0
174 198 0
174 197 0
175 198 0
173 197 0
174 198 0
172 196 0
173 197 0
177 199 0
176 199 0
173 197 0
174 198 0
174 197 0
175 198 0
175 198 0
175 198 0
175 198 0
176 199 0
174 197 0
176 199 0
173 197 0
173 197 0
175 198 0
177 199 0
175 198 0
177 199 0
175 198 0
174 197 0
174 197 0
175 198 0
175 198 0
173 196 0
174 198 0
173 197 0
174 197 0
174 197 0
173 197 0
172 196 0
173 197 0
173 196 0
175 198 0
175 198 0
176 198 0
174 197 0
174 197 0
172 196 0
174 197 0
174 196 0
173 197 0
174 198 0
174 198 0
175 198 0
173 197 0
175 198 0
173 196 0
176 198 0
173 196 0
175 198 0
173 196 0
172 195 0
175 198 0
173 197 0
174 197 0
173 197 0
174 197 0
174 198 0
174 197 0
174 197 0
174 198 0
173 197 0
170 194 0
172 197 0
174 197 0
173 196 0
173 197 0
173 196 0
172 196 0
174 197 0
174 198 0
173 196 0
173 196 0
174 197 0
171 195 0
173 196 0
173 197 0
172 196 0
174 197 0
173 196 0
172 195 0
172 195 0
174 197 0
173 196 0
173 197 0
172 196 0
174 198 0
171 195 0
172 196 0
172 195 0
171 196 0
173 196 0
173 196 0
170 193 0
172 195 0
174 197 0
173 196 0
173 195 0
172 195 0
172 196 0
172 195 0
172 196 0
172 196 0
171 196 0
171 195 0
173 197 0
172 196 0
173 197 0
173 197 0
172 195 0
173 195 0
170 195 0
173 196 0
171 194 0
172 196 0
171 195 0
173 196 0
174 197 0
171 195 0
173 196 0
174 197 0
169 193 0
173 197 0
171 194 0
169 193 0
172 195 0
172 195 0
174 197 0
172 196 0
172 196 0
174 197 0
173 196 0
174 198 0
172 195 0
172 195 0
170 194 0
172 196 0
173 196 0
172 195 0
173 196 0
172 196 0
173 197 0
175 198 0
171 195 0
170 194 0
173 196 0
172 196 0
172 196 0
174 197 0
174 197 0
174 197 0
172 195 0
173 196 0
172 195 0
173 196 0
174 197 0
174 197 0
175 198 0
172 195 0
173 197 0
171 194 0
173 196 0
173 197 0
172 196 0
172 196 0
171 194 0
175 198 0
175 198 0
174 198 0
172 196 0
171 195 0
174 197 0
171 195 0
171 195 0
175 198 0
171 195 0
174 198 0
171 194 0
174 197 0
174 198 0
172 196 0
175 198 0
174 198 0
173 197 0
173 197 0
176 198 0
173 197 0
172 196 0
171 194 0
173 196 0
173 196 0
173 196 0
170 194 0
173 197 0
176 198 0
174 197 0
170 195 0
173 197 0
174 197 0
174 197 0
173 197 0
174 198 0
175 198 0
174 197 0
174 198 0
174 197 0
174 197 0
173 197 0
174 197 0
174 197 0
173 197 0
172 196 0
174 197 0
173 196 0
173 196 0
173 197 0
174 197 0
174 197 0
173 197 0
173 197 0
174 197 0
174 197 0
174 198 0
175 198 0
172 196 0
173 197 0
173 197 0
174 197 0
175 197 0
174 198 0
175 198 0
173 197 0
174 198 0
173 196 0
175 198 0
172 195 0
174 197 0
175 198 0
172 195 0
175 198 0
174 197 0
172 196 0
175 198 0
174 197 0
173 197 0
174 198 0
175 198 0
174 197 0
171 195 0
174 197 0
174 198 0
174 197 0
175 198 0
174 197 0
174 198 0
174 198 0
175 198 0
174 197 0
175 198 0
173 197 0
173 197 0
175 198 0
175 198 0
175 198 0
175 198 0
174 197 0
176 198 0
174 197 0
174 198 0
175 198 0
175 198 0
175 198 0
174 198 0
173 197 0
174 197 0
174 198 0
173 197 0
174 197 0
174 198 0
173 197 0
174 198 0
174 197 0
175 198 0
175 198 0
175 198 0
175 198 0
174 197 0
174 197 0
174 197 0
174 198 0
174 197 0
173 197 0
175 198 0
173 197 0
175 198 0
173 197 0
175 198 0
174 198 0
174 198 0
173 197 0
175 198 0
174 198 0
173 197 0
173 197 0
175 198 0
174 198 0
173 197 0
174 198 0
174 198 0
173 197 0
172 196 0
175 198 0
175 198 0
174 198 0
176 199 0
174 197 0
175 198 0
174 197 0
174 198 0
175 198 0
175 198 0
174 198 0
174 198 0
175 198 0
175 198 0
176 199 0
174 197 0
173 197 0
173 197 0
174 197 0
174 198 0
174 197 0
174 198 0
175 198 0
176 199 0
175 198 0
174 198 0
175 198 0
174 197 0
174 198 0
175 198 0
175 198 0
174 198 0
176 198 0
174 198 0
173 197 0
175 198 0
174 197 0
173 197 0
172 196 0
174 198 0
174 197 0
175 198 0
176 198 0
173 197 0
175 198 0
175 198 0
172 197 0
174 198 0
176 199 0
173 197 0
175 198 0
175 198 0
175 198 0
175 198 0
175 198 0
174 198 0
174 197 0
175 198 0
173 197 0
176 198 0
173 197 0
174 197 0
174 198 0
173 197 0
173 197 0
175 198 0
174 198 0
175 198 0
175 198 0
175 198 0
175 198 0
173 197 0
171 194 0
175 198 0
175 198 0
174 197 0
176 199 0
173 197 0
174 197 0
175 198 0
174 198 0
174 197 0
175 198 0
175 198 0
175 198 0
174 198 0
176 199 0
174 198 0
176 199 0
173 197 0
174 198 0
174 198 0
174 198 0
171 196 0
174 198 0
174 197 0
174 197 0
171 195 0
174 198 0
173 197 0
174 198 0
173 196 0
173 197 0
171 193 0
173 197 0
175 198 0
173 197 0
170 194 0
173 197 0
173 196 0
175 198 0
172 196 0
173 197 0
173 197 0
174 198 0
174 197 0
174 197 0
175 198 0
172 196 0
174 197 0
173 197 0
172 196 0
172 196 0
173 196 0
175 198 0
174 197 0
173 197 0
171 195 0
172 196 0
174 197 0
176 198 0
174 197 0
173 196 0
173 197 0
173 197 0
174 198 0
174 198 0
173 197 0
172 196 0
172 195 0
173 197 0
175 198 0
173 197 0
174 197 0
175 198 0
174 197 0
173 197 0
173 196 0
172 195 0
174 198 0
173 196 0
172 196 0
173 197 0
174 197 0
172 196 0
174 197 0
173 196 0
173 197 0
173 196 0
172 195 0
175 198 0
172 196 0
174 197 0
173 196 0
171 195 0
171 195 0
171 196 0
173 196 0
173 197 0
173 197 0
172 196 0
175 198 0
174 198 0
171 195 0
173 196 0
172 195 0
174 197 0
173 196 0
170 194 0
172 196 0
173 196 0
171 194 0
174 198 0
173 196 0
172 195 0
174 198 0
172 196 0
173 197 0
170 195 0
170 194 0
172 195 0
171 195 0
173 196 0
171 195 0
173 197 0
169 193 0
171 194 0
172 195 0
171 195 0
172 196 0
172 195 0
172 196 0
172 195 0
174 196 0
172 196 0
171 194 0
172 196 0
172 195 0
172 195 0
174 197 0
173 196 0
173 195 0
171 195 0
172 195 0
172 195 0
169 193 0
170 193 0
174 197 0
172 195 0
173 197 0
171 196 0
172 196 0
174 198 0
170 194 0
172 195 0
173 196 0
173 197 0
174 197 0
173 196 0
171 195 0
172 196 0
171 194 0
174 197 0
170 194 0
173 196 0
173 197 0
173 196 0
172 196 0
172 195 0
174 197 0
171 194 0
171 195 0
172 195 0
171 195 0
172 195 0
174 197 0
174 197 0
174 197 0
171 195 0
172 196 0
173 196 0
172 195 0
173 196 0
173 197 0
173 197 0
173 197 0
172 196 0
173 196 0
172 196 0
174 197 0
172 195 0
173 196 0
174 197 0
173 197 0
175 197 0
172 196 0
172 195 0
173 197 0
174 197 0
176 198 0
172 196 0
173 196 0
174 196 0
174 196 0
175 198 0
174 197 0
174 197 0
175 198 0
172 196 0
173 197 0
175 198 0
176 198 0
173 196 0
174 198 0
172 197 0
173 197 0
173 196 0
173 197 0
173 197 0
173 196 0
174 197 0
173 197 0
171 195 0
175 198 0
174 197 0
174 197 0
174 197 0
174 198 0
173 197 0
174 197 0
172 196 0
174 197 0
172 196 0
174 198 0
174 197 0
173 196 0
174 198 0
173 197 0
174 197 0
172 196 0
172 196 0
176 199 0
174 197 0
174 197 0
174 197 0
174 197 0
175 197 0
177 199 0
175 198 0
175 198 0
175 198 0
175 198 0
174 197 0
175 198 0
174 197 0
175 198 0
175 198 0
173 197 0
174 198 0
174 198 0
173 196 0
172 196 0
174 198 0
174 198 0
173 197 0
174 198 0
174 197 0
174 197 0
174 198 0
173 197 0
175 198 0
173 197 0
175 198 0
174 197 0
176 198 0
174 198 0
172 196 0
175 198 0
175 198 0
175 198 0
176 199 0
173 197 0
175 198 0
174 198 0
173 197 0
174 198 0
173 197 0
173 197 0
176 199 0
173 197 0
174 197 0
173 196 0
176 198 0
176 199 0
174 198 0
174 197 0
174 198 0
174 198 0
175 198 0
175 198 0
174 198 0
174 197 0
174 197 0
175 198 0
172 196 0
174 198 0
174 198 0
175 198 0
173 197 0
177 199 0
173 197 0
174 198 0
175 198 0
176 198 0
175 198 0
173 197 0
174 198 0
174 198 0
175 198 0
172 196 0
175 198 0
175 198 0
174 197 0
174 197 0
175 198 0
174 198 0
175 198 0
175 198 0
175 198 0
173 197 0
175 198 0
175 198 0
174 198 0
174 197 0
174 198 0
173 197 0
173 197 0
174 198 0
174 198 0
176 198 0
175 198 0
174 198 0
176 199 0
173 197 0
175 198 0
176 199 0
173 197 0
173 197 0
173 197 0
173 197 0
174 197 0
175 198 0
174 198 0
174 197 0
174 198 0
175 198 0
176 199 0
172 197 0
175 198 0
175 198 0
173 197 0
174 198 0
173 197 0
175 198 0
174 198 0
174 198 0
175 198 0
174 197 0
174 198 0
172 196 0
174 198 0
175 198 0
175 198 0
174 197 0
172 197 0
175 198 0
175 198 0
174 198 0
175 198 0
173 197 0
174 198 0
173 197 0
174 197 0
174 198 0
176 199 0
174 198 0
175 198 0
175 198 0
173 197 0
175 198 0
174 197 0
174 198 0
173 197 0
175 198 0
174 197 0
174 198 0
173 197 0
175 198 0
174 197 0
174 197 0
174 197 0
173 197 0
173 197 0
175 198 0
174 197 0
176 199 0
175 198 0
174 198 0
174 198 0
173 197 0
174 197 0
173 197 0
173 196 0
174 197 0
174 197 0
174 197 0
175 198 0
175 198 0
175 198 0
175 198 0
174 197 0
176 199 0
173 197 0
173 197 0
174 198 0
174 197 0
173 197 0
173 197 0
174 197 0
176 199 0
176 199 0
173 197 0
174 197 0
174 198 0
174 197 0
174 198 0
174 198 0
171 195 0
173 197 0
175 198 0
174 198 0
174 198 0
173 197 0
174 198 0
174 197 0
173 196 0
174 198 0
173 197 0
175 198 0
174 198 0
175 198 0
172 196 0
173 197 0
175 198 0
174 197 0
175 197 0
175 198 0
173 197 0
174 197 0
176 198 0
175 198 0
174 197 0
171 195 0
174 198 0
173 196 0
175 198 0
172 195 0
175 198 0
172 196 0
171 195 0
176 198 0
174 197 0
174 197 0
175 198 0
172 196 0
173 197 0
173 197 0
172 195 0
173 197 0
173 196 0
173 196 0
171 195 0
174 198 0
174 197 0
173 197 0
172 194 0
173 196 0
173 197 0
173 196 0
171 194 0
173 197 0
172 195 0
174 197 0
173 197 0
173 197 0
174 198 0
175 198 0
173 197 0
173 197 0
174 196 0
176 198 0
172 196 0
173 196 0
171 194 0
174 198 0
173 196 0
174 197 0
173 197 0
173 196 0
171 195 0
174 197 0
174 197 0
173 197 0
175 198 0
172 195 0
174 197 0
171 195 0
173 197 0
172 196 0
172 195 0
172 195 0
173 197 0
171 194 0
173 196 0
172 196 0
174 197 0
173 196 0
171 194 0
173 197 0
173 196 0
169 193 0
173 196 0
172 195 0
172 196 0
172 196 0
173 196 0
172 195 0
171 195 0
173 197 0
173 197 0
170 194 0
175 198 0
174 196 0
173 196 0
172 195 0
172 196 0
170 194 0
169 193 0
172 196 0
172 196 0
171 194 0
172 195 0
171 194 0
173 197 0
173 196 0
174 197 0
171 195 0
175 198 0
172 196 0
173 197 0
171 194 0
171 194 0
172 196 0
173 197 0
174 197 0
173 196 0
172 196 0
173 197 0
174 197 0
172 195 0
170 194 0
173 196 0
173 196 0
172 195 0
171 194 0
172 196 0
172 196 0
174 197 0
174 198 0
175 197 0
171 194 0
171 194 0
174 197 0
173 196 0
176 198 0
174 197 0
173 197 0
173 195 0
174 197 0
173 197 0
173 196 0
171 195 0
171 194 0
172 195 0
173 196 0
174 197 0
174 198 0
174 197 0
173 196 0
174 197 0
174 198 0
174 198 0
172 195 0
174 198 0
174 197 0
173 197 0
172 196 0
174 197 0
175 197 0
173 196 0
173 196 0
173 196 0
175 197 0
174 197 0
173 196 0
175 198 0
173 196 0
173 196 0
173 197 0
174 197 0
174 197 0
175 198 0
173 197 0
174 197 0
173 197 0
172 195 0
174 198 0
175 198 0
172 196 0
172 196 0
173 197 0
173 197 0
173 196 0
173 196 0
174 197 0
174 197 0
173 197 0
173 196 0
173 197 0
174 197 0
175 198 0
174 197 0
173 197 0
173 196 0
174 197 0
174 197 0
175 198 0
173 197 0
173 197 0
174 197 0
171 195 0
175 198 0
174 197 0
174 197 0
173 197 0
174 197 0
172 196 0
174 197 0
174 198 0
174 198 0
174 198 0
175 198 0
175 198 0
174 197 0
174 198 0
174 198 0
175 198 0
174 198 0
176 198 0
173 197 0
174 197 0
174 198 0
175 198 0
174 197 0
173 197 0
173 197 0
176 199 0
172 196 0
174 197 0
174 198 0
174 197 0
175 198 0
173 197 0
173 197 0
176 199 0
175 198 0
176 198 0
173 197 0
174 198 0
173 197 0
174 198 0
174 198 0
173 197 0
174 198 0
172 196 0
174 197 0
174 198 0
172 196 0
174 198 0
173 197 0
174 197 0
174 197 0
174 198 0
174 198 0
173 197 0
175 198 0
173 197 0
175 198 0
172 196 0
175 198 0
173 197 0
175 198 0
173 197 0
174 198 0
174 198 0
175 198 0
174 197 0
175 198 0
174 198 0
173 197 0
174 198 0
176 199 0
173 197 0
174 198 0
175 198 0
173 197 0
175 198 0
174 198 0
175 198 0
173 197 0
173 197 0
175 198 0
174 198 0
174 198 0
173 197 0
174 198 0
174 197 0
173 197 0
175 198 0
174 198 0
175 198 0
175 198 0
174 198 0
174 197 0
175 198 0
176 198 0
175 198 0
175 198 0
175 198 0
172 197 0
174 198 0
175 198 0
173 197 0
175 198 0
175 198 0
175 198 0
175 198 0
173 197 0
176 198 0
175 198 0
175 198 0
175 198 0
173 197 0
174 198 0
174 198 0
176 198 0
176 198 0
175 198 0
172 196 0
175 198 0
174 197 0
175 198 0
173 197 0
176 199 0
174 198 0
174 198 0
174 197 0
174 198 0
174 198 0
174 198 0
175 198 0
173 197 0
173 197 0
175 198 0
173 197 0
174 198 0
172 196 0
172 196 0
172 196 0
175 198 0
173 197 0
174 198 0
174 198 0
174 197 0
175 198 0
175 198 0
173 197 0
175 198 0
173 197 0
174 198 0
173 197 0
174 198 0
172 197 0
175 198 0
173 197 0
172 196 0
175 198 0
174 198 0
174 197 0
174 197 0
173 197 0
173 197 0
173 197 0
174 197 0
173 197 0
175 198 0
173 197 0
173 196 0
172 197 0
174 197 0
173 197 0
174 198 0
175 198 0
174 198 0
174 198 0
174 197 0
174 197 0
172 196 0
174 197 0
174 198 0
173 197 0
174 198 0
176 198 0
176 199 0
174 197 0
173 196 0
175 198 0
175 198 0
174 197 0
173 197 0
174 198 0
174 198 0
174 198 0
175 198 0
173 197 0
172 196 0
175 198 0
174 197 0
174 197 0
175 198 0
174 197 0
173 196 0
174 198 0
173 196 0
175 198 0
176 199 0
173 197 0
173 197 0
173 197 0
174 198 0
173 196 0
172 196 0
173 197 0
174 197 0
173 197 0
173 197 0
174 197 0
174 198 0
173 197 0
175 197 0
172 196 0
173 197 0
172 196 0
171 195 0
175 198 0
174 197 0
173 197 0
175 198 0
172 195 0
174 197 0
173 197 0
174 198 0
172 196 0
174 198 0
172 196 0
173 197 0
173 197 0
174 197 0
175 198 0
173 197 0
172 195 0
175 198 0
175 198 0
173 197 0
175 198 0
174 197 0
174 197 0
171 195 0
175 198 0
174 197 0
174 198 0
173 197 0
176 199 0
172 195 0
172 195 0
173 197 0
175 198 0
174 197 0
174 197 0
171 195 0
174 197 0
174 196 0
174 197 0
171 195 0
169 192 0
175 198 0
171 195 0
174 197 0
173 196 0
172 195 0
170 193 0
174 198 0
171 194 0
169 194 0
173 195 0
174 196 0
174 197 0
171 194 0
173 196 0
173 196 0
172 196 0
172 195 0
173 196 0
169 192 0
171 195 0
174 197 0
172 196 0
171 194 0
173 196 0
173 196 0
173 197 0
174 197 0
172 196 0
170 193 0
171 194 0
172 195 0
170 195 0
173 197 0
174 197 0
173 196 0
173 196 0
173 197 0
172 196 0
171 195 0
171 195 0
170 194 0
174 198 0
172 195 0
174 197 0
172 196 0
173 197 0
171 195 0
171 193 0
174 198 0
171 195 0
172 196 0
172 196 0
171 194 0
172 196 0
175 198 0
170 193 0
173 197 0
173 197 0
173 196 0
176 198 0
172 195 0
173 197 0
173 196 0
172 196 0
171 195 0
172 196 0
172 195 0
174 197 0
172 195 0
172 195 0
171 194 0
172 195 0
173 196 0
174 197 0
172 196 0
173 197 0
172 195 0
173 196 0
172 195 0
173 197 0
174 197 0
174 197 0
172 195 0
174 197 0
173 197 0
173 196 0
173 197 0
173 197 0
174 197 0
175 198 0
173 197 0
175 198 0
175 198 0
172 197 0
173 196 0
174 196 0
171 195 0
172 196 0
173 197 0
173 197 0
174 197 0
172 196 0
174 197 0
175 198 0
174 197 0
174 197 0
174 197 0
172 196 0
174 197 0
174 197 0
173 196 0
175 198 0
173 197 0
173 196 0
174 197 0
174 197 0
174 197 0
173 196 0
173 197 0
173 197 0
173 197 0
173 197 0
173 196 0
173 196 0
174 198 0
173 197 0
175 198 0
174 197 0
173 197 0
173 197 0
173 197 0
173 197 0
173 197 0
173 197 0
174 197 0
173 197 0
173 197 0
173 197 0
175 198 0
174 198 0
172 196 0
174 197 0
174 198 0
175 198 0
174 198 0
172 196 0
173 197 0
174 197 0
175 198 0
173 197 0
174 198 0
174 197 0
173 197 0
173 197 0
175 198 0
174 198 0
173 197 0
173 197 0
175 198 0
174 198 0
174 198 0
173 197 0
175 198 0
174 198 0
173 197 0
175 198 0
172 196 0
174 197 0
174 197 0
174 198 0
174 197 0
174 197 0
174 197 0
176 198 0
175 198 0
174 197 0
174 197 0
172 196 0
174 198 0
175 198 0
175 198 0
174 198 0
174 197 0
174 197 0
173 196 0
176 199 0
173 197 0
173 197 0
174 197 0
173 197 0
174 198 0
173 197 0
174 198 0
174 197 0
175 198 0
175 198 0
174 198 0
175 198 0
175 198 0
175 198 0
175 198 0
176 199 0
173 197 0
174 198 0
173 197 0
173 197 0
173 197 0
174 198 0
174 197 0
176 199 0
174 198 0
173 197 0
174 198 0
174 198 0
172 197 0
175 198 0
174 197 0
174 198 0
174 198 0
174 198 0
174 198 0
176 198 0
176 198 0
173 197 0
175 198 0
173 197 0
174 197 0
175 198 0
175 198 0
173 196 0
173 197 0
174 198 0
173 197 0
175 198 0
173 197 0
174 197 0
173 197 0
176 198 0
173 197 0
175 198 0
172 197 0
173 197 0
173 197 0
175 198 0
174 197 0
176 199 0
175 198 0
171 195 0
175 198 0
175 198 0
174 197 0
176 198 0
175 198 0
175 198 0
174 197 0
176 198 0
173 197 0
174 198 0
175 198 0
175 198 0
173 197 0
174 198 0
174 198 0
173 197 0
175 198 0
175 198 0
174 197 0
174 197 0
174 197 0
175 198 0
174 198 0
174 198 0
176 199 0
173 197 0
174 197 0
174 198 0
173 197 0
174 198 0
173 197 0
175 198 0
174 198 0
173 196 0
175 198 0
175 198 0
174 198 0
176 198 0
175 198 0
174 197 0
175 198 0
175 198 0
173 196 0
174 198 0
174 198 0
174 198 0
174 197 0
175 198 0
176 199 0
174 198 0
174 197 0
174 198 0
174 197 0
172 197 0
174 197 0
175 198 0
172 196 0
174 198 0
174 197 0
173 197 0
173 197 0
175 198 0
174 197 0
173 196 0
174 197 0
174 197 0
173 197 0
174 198 0
171 195 0
174 198 0
173 197 0
173 197 0
174 197 0
174 197 0
173 197 0
173 197 0
174 198 0
175 198 0
174 197 0
173 197 0
174 197 0
174 198 0
174 198 0
174 197 0
174 198 0
174 197 0
175 198 0
174 198 0
174 197 0
172 196 0
174 198 0
175 198 0
175 198 0
173 197 0
173 197 0
176 198 0
173 197 0
175 198 0
172 196 0
174 197 0
175 198 0
175 198 0
173 197 0
171 195 0
174 197 0
174 197 0
174 197 0
173 197 0
174 197 0
175 198 0
174 198 0
172 196 0
173 196 0
174 197 0
174 197 0
173 196 0
174 197 0
173 196 0
173 197 0
173 196 0
173 196 0
173 196 0
174 197 0
175 197 0
174 198 0
174 197 0
173 197 0
170 194 0
174 197 0
173 197 0
175 198 0
173 196 0
172 196 0
174 197 0
174 198 0
173 196 0
173 197 0
172 196 0
171 195 0
174 196 0
171 194 0
171 195 0
173 197 0
173 196 0
171 196 0
174 197 0
172 196 0
176 199 0
172 196 0
172 196 0
174 197 0
173 196 0
174 196 0
171 195 0
171 195 0
173 197 0
171 195 0
173 196 0
173 196 0
173 196 0
170 193 0
172 195 0
172 196 0
172 196 0
171 196 0
174 197 0
172 196 0
173 196 0
174 198 0
170 194 0
170 194 0
171 194 0
171 194 0
173 196 0
171 195 0
173 196 0
172 195 0
172 196 0
172 196 0
170 194 0
172 195 0
173 197 0
174 197 0
172 195 0
172 196 0
170 195 0
175 198 0
175 198 0
172 196 0
170 194 0
171 195 0
171 195 0
173 195 0
170 193 0
173 196 0
173 196 0
173 196 0
170 194 0
173 196 0
170 194 0
172 196 0
172 195 0
172 196 0
172 195 0
173 196 0
171 195 0
173 196 0
171 195 0
174 197 0
171 194 0
173 196 0
175 198 0
170 194 0
174 197 0
174 197 0
172 195 0
173 196 0
173 197 0
172 197 0
175 198 0
173 196 0
173 196 0
173 196 0
172 196 0
172 196 0
172 195 0
174 197 0
174 197 0
173 197 0
175 198 0
173 196 0
175 198 0
173 197 0
172 197 0
173 197 0
174 198 0
174 197 0
173 197 0
174 196 0
173 197 0
173 196 0
175 198 0
173 196 0
174 197 0
175 198 0
173 196 0
172 196 0
173 196 0
174 198 0
175 198 0
174 197 0
174 197 0
174 197 0
172 196 0
176 199 0
174 198 0
174 198 0
173 196 0
173 197 0
173 197 0
175 198 0
176 199 0
173 197 0
176 198 0
175 198 0
173 196 0
173 197 0
174 198 0
174 197 0
175 198 0
174 198 0
175 197 0
174 198 0
173 197 0
173 197 0
173 197 0
176 198 0
173 197 0
174 197 0
174 197 0
173 197 0
173 197 0
175 198 0
171 195 0
175 198 0
172 195 0
173 196 0
174 198 0
172 195 0
174 198 0
174 198 0
175 198 0
175 198 0
174 198 0
175 198 0
174 197 0
173 197 0
174 198 0
175 198 0
174 198 0
173 197 0
174 197 0
174 197 0
173 197 0
174 197 0
175 198 0
175 198 0
174 197 0
173 197 0
174 197 0
174 198 0
173 196 0
174 198 0
174 198 0
175 198 0
174 197 0
173 197 0
173 197 0
174 198 0
173 197 0
174 198 0
175 198 0
176 198 0
174 198 0
173 197 0
174 198 0
173 197 0
174 197 0
174 197 0
176 198 0
173 197 0
175 198 0
176 198 0
175 198 0
174 198 0
175 198 0
176 198 0
173 197 0
175 198 0
173 197 0
175 198 0
174 197 0
173 197 0
175 198 0
175 198 0
175 198 0
172 197 0
175 198 0
174 198 0
176 199 0
174 198 0
173 197 0
174 198 0
175 198 0
175 198 0
174 198 0
175 198 0
174 197 0
175 198 0
174 197 0
173 197 0
176 199 0
172 196 0
173 197 0
173 197 0
173 197 0
174 197 0
174 197 0
175 198 0
176 199 0
173 197 0
175 198 0
175 198 0
175 198 0
174 198 0
174 197 0
175 198 0
174 197 0
174 198 0
175 198 0
174 197 0
172 196 0
174 198 0
175 198 0
175 198 0
174 198 0
174 198 0
174 198 0
177 199 0
175 198 0
175 198 0
175 198 0
174 198 0
173 197 0
174 198 0
174 197 0
175 198 0
175 198 0
173 197 0
175 198 0
173 197 0
174 198 0
175 198 0
173 197 0
175 198 0
174 198 0
174 197 0
172 197 0
174 198 0
174 198 0
174 197 0
176 199 0
173 197 0
174 197 0
173 197 0
174 198 0
175 198 0
175 198 0
175 198 0
175 198 0
174 197 0
175 198 0
174 198 0
177 199 0
175 198 0
174 197 0
175 198 0
174 197 0
173 196 0
175 198 0
173 197 0
175 198 0
172 197 0
175 198 0
174 197 0
175 198 0
173 197 0
175 198 0
172 197 0
174 198 0
176 199 0
174 197 0
175 198 0
174 197 0
174 197 0
174 197 0
176 198 0
172 195 0
175 198 0
175 198 0
175 198 0
173 197 0
173 197 0
174 198 0
173 197 0
174 197 0
175 198 0
174 197 0
174 197 0
175 198 0
175 198 0
173 197 0
175 198 0
174 197 0
175 198 0
173 197 0
175 198 0
174 197 0
176 199 0
175 198 0
175 198 0
175 198 0
176 199 0
174 198 0
174 198 0
175 198 0
173 197 0
174 198 0
174 197 0
174 198 0
174 198 0
174 197 0
173 197 0
173 196 0
174 197 0
174 198 0
173 197 0
175 198 0
175 198 0
175 198 0
172 196 0
175 198 0
173 197 0
172 196 0
172 197 0
174 198 0
173 197 0
173 197 0
172 196 0
173 197 0
173 196 0
172 196 0
172 196 0
174 198 0
175 198 0
174 198 0
174 198 0
174 197 0
175 198 0
175 198 0
173 197 0
170 194 0
173 197 0
172 196 0
172 196 0
173 197 0
173 197 0
173 196 0
174 197 0
174 197 0
173 196 0
173 197 0
174 198 0
174 198 0
173 196 0
172 196 0
172 195 0
171 195 0
173 197 0
172 196 0
171 195 0
173 196 0
174 198 0
173 197 0
173 196 0
172 196 0
175 198 0
175 198 0
174 196 0
174 197 0
175 198 0
169 193 0
173 197 0
174 197 0
174 197 0
174 197 0
169 193 0
174 197 0
173 197 0
172 196 0
174 197 0
174 197 0
175 197 0
171 195 0
172 196 0
175 198 0
172 196 0
173 196 0
173 196 0
174 197 0
172 196 0
171 194 0
171 196 0
171 195 0
172 195 0
175 197 0
176 199 0
169 192 0
175 198 0
171 195 0
171 195 0
172 195 0
173 196 0
172 196 0
170 194 0
173 196 0
171 195 0
172 196 0
171 195 0
172 196 0
172 195 0
172 195 0
173 197 0
172 195 0
173 196 0
173 196 0
173 196 0
172 196 0
172 195 0
174 197 0
173 196 0
171 195 0
170 195 0
173 197 0
171 195 0
172 196 0
171 195 0
171 194 0
175 198 0
171 195 0
173 197 0
174 198 0
173 196 0
175 198 0
173 197 0
173 197 0
174 197 0
171 194 0
172 196 0
171 195 0
172 195 0
174 197 0
173 196 0
174 198 0
174 197 0
171 195 0
174 198 0
172 196 0
173 197 0
171 195 0
174 198 0
176 198 0
173 196 0
174 196 0
174 197 0
174 198 0
173 196 0
170 193 0
175 198 0
174 197 0
172 196 0
173 196 0
174 198 0
173 196 0
173 197 0
172 195 0
175 198 0
175 198 0
174 197 0
173 197 0
171 194 0
171 195 0
172 195 0
173 197 0
173 196 0
174 197 0
174 197 0
174 198 0
173 196 0
175 198 0
174 198 0
174 197 0
175 198 0
172 195 0
173 197 0
174 198 0
173 196 0
173 197 0
174 197 0
175 198 0
176 198 0
175 198 0
176 199 0
173 197 0
175 198 0
175 198 0
175 198 0
173 197 0
177 199 0
173 197 0
172 196 0
175 198 0
174 198 0
172 197 0
172 196 0
172 195 0
175 198 0
174 198 0
174 198 0
174 197 0
174 197 0
172 196 0
174 197 0
172 196 0
175 198 0
174 198 0
174 197 0
176 199 0
174 197 0
172 196 0
174 197 0
175 198 0
172 196 0
175 198 0
174 198 0
175 198 0
175 198 0
174 198 0
173 197 0
176 199 0
174 198 0
173 197 0
175 198 0
175 198 0
174 198 0
174 197 0
175 198 0
175 198 0
172 196 0
174 197 0
174 197 0
175 198 0
174 197 0
175 198 0
174 197 0
172 196 0
174 197 0
173 197 0
174 197 0
176 199 0
174 197 0
174 197 0
175 198 0
173 197 0
173 196 0
174 197 0
175 198 0
174 197 0
172 196 0
175 198 0
175 198 0
176 199 0
174 198 0
175 198 0
175 198 0
174 197 0
173 197 0
175 198 0
176 198 0
174 198 0
174 197 0
172 197 0
174 197 0
174 198 0
175 198 0
174 198 0
173 196 0
172 196 0
174 198 0
174 198 0
173 197 0
176 198 0
175 198 0
175 198 0
175 198 0
175 197 0
174 198 0
173 197 0
175 198 0
175 198 0
174 198 0
174 197 0
176 199 0
173 197 0
174 197 0
175 198 0
173 197 0
173 197 0
175 198 0
174 197 0
174 197 0
174 197 0
173 197 0
173 197 0
173 197 0
174 198 0
175 198 0
173 197 0
175 198 0
173 197 0
173 197 0
174 197 0
172 197 0
175 198 0
174 198 0
174 198 0
174 197 0
175 198 0
174 197 0
172 197 0
175 198 0
175 198 0
176 199 0
174 198 0
174 198 0
174 197 0
176 199 0
175 198 0
175 198 0
174 197 0
174 198 0
175 198 0
175 198 0
175 198 0
175 198 0
174 197 0
175 198 0
173 197 0
173 197 0
174 198 0
172 197 0
173 197 0
175 198 0
175 198 0
174 198 0
174 198 0
175 198 0
176 199 0
173 196 0
174 198 0
174 198 0
173 197 0
176 198 0
175 198 0
173 197 0
173 197 0
174 197 0
176 198 0
175 198 0
173 197 0
174 198 0
173 197 0
174 198 0
174 198 0
175 198 0
175 198 0
176 199 0
173 197 0
176 198 0
173 197 0
175 198 0
175 198 0
173 197 0
175 198 0
174 197 0
173 197 0
170 195 0
173 197 0
172 196 0
174 197 0
173 197 0
175 198 0
174 197 0
173 197 0
176 198 0
176 199 0
174 198 0
173 197 0
173 197 0
173 197 0
174 197 0
174 198 0
175 198 0
175 198 0
175 198 0
174 197 0
173 197 0
174 197 0
174 198 0
173 197 0
173 197 0
173 196 0
173 197 0
173 197 0
174 197 0
173 197 0
176 199 0
173 197 0
175 198 0
175 198 0
175 198 0
175 198 0
174 197 0
175 198 0
173 196 0
175 198 0
173 197 0
174 198 0
173 197 0
172 196 0
172 197 0
175 198 0
173 197 0
172 196 0
173 197 0
172 196 0
172 196 0
175 198 0
173 197 0
173 197 0
175 198 0
172 197 0
174 198 0
174 197 0
175 198 0
175 198 0
174 198 0
174 197 0
173 197 0
173 196 0
174 197 0
174 197 0
176 198 0
174 197 0
174 198 0
175 198 0
174 198 0
173 197 0
173 197 0
174 198 0
174 197 0
173 197 0
172 196 0
175 198 0
176 198 0
172 196 0
174 197 0
173 196 0
175 198 0
174 197 0
174 197 0
174 198 0
175 198 0
172 195 0
173 196 0
175 198 0
174 197 0
175 197 0
173 197 0
175 198 0
172 196 0
173 196 0
173 197 0
173 196 0
171 195 0
175 198 0
174 197 0
171 194 0
173 197 0
173 196 0
173 197 0
175 198 0
172 196 0
174 197 0
171 194 0
172 196 0
170 194 0
171 195 0
172 196 0
172 196 0
176 198 0
170 195 0
174 197 0
170 194 0
172 195 0
172 195 0
174 197 0
172 196 0
175 198 0
173 197 0
173 196 0
173 197 0
171 194 0
174 197 0
173 197 0
171 195 0
175 198 0
173 196 0
173 196 0
173 195 0
173 196 0
171 195 0
174 197 0
172 196 0
172 196 0
173 196 0
175 198 0
174 196 0
174 197 0
173 196 0
172 195 0
172 196 0
172 195 0
173 196 0
172 196 0
172 196 0
172 195 0
172 196 0
173 197 0
171 195 0
173 196 0
172 196 0
173 197 0
174 197 0
171 195 0
170 194 0
173 197 0
172 196 0
170 194 0
173 197 0
172 196 0
173 196 0
172 196 0
173 197 0
172 195 0
175 198 0
173 196 0
173 196 0
174 196 0
173 197 0
174 197 0
172 195 0
172 196 0
174 198 0
174 197 0
171 196 0
174 197 0
173 197 0
172 196 0
172 196 0
170 194 0
173 196 0
173 197 0
173 196 0
173 197 0
173 197 0
173 197 0
173 197 0
174 197 0
172 195 0
174 197 0
173 196 0
173 197 0
173 197 0
175 198 0
173 197 0
175 198 0
175 198 0
172 196 0
174 197 0
174 197 0
174 198 0
173 197 0
174 196 0
174 197 0
177 199 0
174 197 0
175 198 0
175 198 0
174 198 0
173 197 0
175 198 0
173 197 0
174 198 0
172 195 0
173 196 0
174 197 0
172 196 0
175 198 0
172 196 0
175 198 0
174 197 0
171 195 0
175 198 0
174 197 0
175 198 0
173 197 0
174 197 0
174 198 0
175 198 0
173 196 0
174 198 0
173 196 0
174 198 0
173 197 0
173 197 0
174 198 0
173 196 0
174 197 0
173 197 0
173 196 0
174 197 0
173 196 0
173 197 0
173 196 0
175 198 0
176 199 0
175 198 0
174 197 0
173 196 0
173 197 0
174 198 0
175 198 0
175 198 0
174 198 0
175 198 0
174 198 0
175 198 0
174 197 0
174 197 0
174 198 0
173 197 0
175 198 0
174 198 0
174 197 0
173 196 0
174 197 0
175 198 0
176 199 0
174 198 0
173 197 0
173 197 0
176 199 0
170 195 0
175 198 0
175 198 0
175 197 0
176 199 0
174 197 0
175 198 0
175 198 0
174 197 0
175 198 0
174 198 0
173 197 0
174 197 0
176 199 0
176 199 0
174 198 0
175 198 0
174 197 0
173 197 0
174 198 0
173 197 0
174 198 0
174 197 0
174 198 0
173 197 0
174 197 0
173 197 0
175 198 0
173 197 0
173 197 0
173 197 0
175 198 0
173 197 0
174 197 0
175 198 0
175 198 0
173 197 0
175 198 0
175 198 0
173 197 0
173 197 0
174 197 0
174 198 0
173 197 0
174 198 0
175 198 0
172 196 0
174 197 0
175 198 0
174 197 0
174 198 0
175 198 0
175 198 0
175 198 0
175 198 0
174 197 0
175 198 0
175 198 0
173 197 0
174 197 0
173 197 0
175 198 0
173 197 0
172 196 0
175 198 0
173 197 0
173 197 0
172 196 0
174 198 0
175 198 0
175 198 0
174 197 0
174 197 0
175 198 0
174 198 0
176 198 0
172 196 0
174 198 0
173 197 0
174 198 0
174 198 0
174 198 0
175 198 0
174 198 0
175 198 0
175 198 0
174 198 0
175 198 0
173 197 0
176 198 0
174 197 0
173 197 0
174 198 0
173 197 0
174 197 0
173 197 0
173 197 0
175 198 0
174 198 0
173 197 0
174 197 0
173 197 0
174 197 0
174 197 0
174 198 0
173 197 0
174 198 0
174 198 0
175 198 0
174 198 0
173 197 0
175 198 0
174 198 0
174 197 0
174 197 0
174 197 0
174 197 0
175 198 0
174 197 0
175 198 0
174 197 0
175 198 0
175 198 0
174 197 0
175 198 0
174 198 0
173 197 0
174 197 0
174 198 0
173 197 0
176 198 0
174 198 0
173 197 0
174 198 0
174 197 0
173 197 0
174 197 0
175 198 0
175 198 0
175 198 0
174 198 0
174 198 0
174 198 0
174 198 0
173 197 0
173 197 0
174 197 0
174 198 0
176 199 0
174 198 0
174 197 0
175 198 0
175 198 0
175 198 0
174 197 0
175 198 0
174 197 0
174 197 0
174 197 0
173 197 0
175 198 0
175 198 0
176 198 0
173 197 0
172 196 0
173 197 0
174 198 0
173 197 0
174 197 0
174 198 0
174 198 0
174 197 0
173 197 0
173 197 0
174 198 0
172 196 0
174 197 0
174 197 0
173 197 0
173 196 0
174 198 0
173 197 0
174 198 0
174 198 0
171 195 0
175 198 0
175 198 0
172 195 0
174 198 0
173 197 0
174 197 0
175 198 0
174 197 0
173 196 0
173 196 0
173 197 0
175 198 0
174 197 0
173 197 0
172 196 0
174 197 0
174 197 0
173 197 0
173 196 0
174 197 0
174 198 0
175 198 0
175 198 0
173 197 0
174 198 0
174 197 0
175 198 0
173 196 0
173 197 0
173 197 0
172 195 0
172 196 0
173 197 0
172 196 0
174 197 0
175 198 0
173 196 0
173 196 0
173 196 0
174 197 0
173 197 0
175 198 0
173 197 0
172 196 0
173 196 0
171 194 0
174 197 0
175 198 0
173 197 0
172 196 0
171 194 0
173 197 0
173 197 0
171 194 0
174 197 0
173 196 0
174 197 0
171 195 0
174 197 0
174 197 0
171 195 0
170 194 0
171 195 0
171 195 0
173 197 0
174 196 0
171 195 0
173 195 0
173 196 0
173 197 0
172 195 0
173 196 0
173 196 0
171 196 0
170 194 0
174 197 0
174 197 0
170 193 0
171 195 0
173 197 0
174 198 0
173 196 0
172 196 0
173 196 0
171 195 0
173 197 0
171 195 0
172 196 0
174 197 0
173 196 0
175 198 0
174 197 0
171 194 0
171 194 0
173 197 0
173 196 0
173 196 0
172 196 0
175 198 0
172 196 0
172 195 0
174 197 0
173 196 0
171 195 0
172 196 0
175 198 0
173 197 0
172 196 0
172 196 0
173 197 0
173 196 0
173 196 0
175 198 0
174 197 0
174 198 0
173 197 0
173 197 0
174 198 0
171 194 0
172 195 0
171 195 0
174 197 0
172 196 0
173 196 0
173 197 0
172 196 0
171 195 0
173 196 0
173 197 0
173 196 0
174 197 0
175 198 0
172 196 0
174 197 0
173 197 0
170 195 0
173 196 0
175 198 0
171 194 0
172 195 0
173 197 0
172 196 0
172 196 0
175 197 0
173 196 0
175 198 0
174 197 0
175 198 0
175 197 0
175 198 0
174 197 0
174 197 0
172 195 0
174 197 0
172 196 0
173 197 0
174 198 0
174 197 0
173 197 0
175 198 0
174 198 0
174 197 0
175 197 0
172 195 0
173 196 0
174 198 0
175 198 0
172 196 0
175 198 0
175 198 0
174 197 0
173 197 0
175 198 0
175 197 0
175 198 0
174 197 0
174 197 0
174 198 0
172 195 0
175 198 0
174 197 0
172 196 0
174 197 0
175 197 0
174 197 0
175 198 0
172 196 0
175 198 0
174 197 0
174 198 0
174 197 0
175 198 0
173 197 0
174 197 0
174 197 0
172 197 0
173 197 0
176 199 0
176 198 0
173 197 0
174 197 0
172 196 0
174 198 0
174 198 0
173 197 0
176 198 0
176 199 0
173 197 0
175 198 0
173 197 0
175 198 0
173 197 0
174 197 0
176 199 0
175 198 0
174 198 0
174 198 0
175 198 0
174 198 0
174 198 0
175 198 0
175 198 0
175 198 0
175 198 0
174 198 0
173 197 0
175 198 0
174 197 0
175 198 0
173 197 0
176 199 0
176 199 0
174 197 0
173 197 0
174 197 0
173 196 0
175 198 0
175 198 0
173 197 0
174 198 0
175 198 0
175 198 0
175 198 0
175 198 0
173 197 0
174 198 0
175 198 0
177 199 0
175 198 0
174 198 0
175 198 0
175 198 0
174 198 0
173 197 0
174 198 0
173 197 0
175 198 0
174 198 0
174 197 0
175 198 0
174 198 0
174 197 0
173 197 0
174 198 0
174 197 0
175 198 0
175 198 0
175 198 0
174 197 0
171 196 0
174 198 0
173 197 0
175 198 0
174 198 0
175 198 0
174 197 0
176 199 0
175 198 0
173 197 0
174 198 0
174 198 0
176 198 0
177 199 0
175 198 0
173 197 0
175 198 0
174 198 0
174 197 0
173 197 0
174 198 0
174 197 0
173 197 0
174 197 0
173 197 0
174 197 0
173 197 0
174 197 0
174 197 0
175 198 0
175 198 0
175 198 0
174 198 0
175 198 0
175 198 0
173 197 0
175 198 0
175 198 0
173 197 0
175 198 0
174 197 0
174 198 0
173 197 0
175 198 0
174 198 0
175 198 0
175 198 0
174 198 0
175 198 0
173 196 0
175 198 0
174 197 0
176 198 0
174 198 0
173 197 0
175 198 0
174 197 0
174 197 0
174 197 0
176 199 0
174 197 0
174 198 0
175 198 0
171 196 0
174 197 0
175 198 0
173 196 0
173 197 0
174 198 0
175 198 0
173 197 0
174 198 0
174 198 0
175 198 0
174 198 0
174 198 0
174 197 0
175 198 0
173 197 0
174 198 0
174 198 0
174 198 0
175 198 0
174 198 0
172 196 0
176 199 0
174 197 0
174 197 0
174 198 0
176 198 0
172 196 0
175 198 0
173 197 0
173 197 0
174 198 0
173 197 0
176 198 0
173 197 0
175 198 0
173 197 0
175 198 0
173 197 0
172 196 0
173 197 0
175 198 0
174 198 0
174 198 0
175 198 0
174 197 0
175 197 0
175 198 0
174 198 0
174 197 0
174 197 0
174 197 0
173 197 0
174 197 0
173 197 0
175 198 0
174 198 0
175 198 0
175 198 0
173 197 0
174 198 0
174 198 0
174 198 0
175 198 0
174 197 0
176 199 0
172 196 0
173 197 0
173 196 0
175 198 0
174 197 0
172 196 0
175 198 0
172 196 0
174 198 0
174 197 0
172 196 0
174 197 0
172 195 0
175 198 0
170 194 0
176 198 0
173 197 0
171 195 0
173 197 0
175 198 0
173 197 0
172 196 0
173 197 0
172 195 0
174 197 0
174 198 0
171 196 0
175 198 0
176 198 0
172 196 0
171 195 0
171 195 0
173 196 0
174 197 0
173 197 0
173 196 0
172 196 0
171 195 0
174 197 0
175 198 0
174 197 0
173 195 0
173 196 0
172 195 0
170 194 0
172 196 0
174 197 0
173 197 0
172 196 0
173 196 0
174 197 0
172 196 0
174 196 0
171 194 0
173 197 0
172 195 0
171 194 0
170 194 0
174 197 0
172 196 0
174 198 0
172 196 0
172 195 0
172 196 0
172 195 0
172 196 0
173 196 0
175 198 0
172 195 0
170 195 0
174 197 0
173 196 0
174 197 0
170 194 0
172 196 0
174 197 0
172 196 0
175 198 0
172 195 0
173 196 0
171 196 0
172 196 0
172 195 0
173 196 0
172 196 0
172 196 0
171 195 0
173 196 0
169 193 0
171 195 0
173 196 0
172 196 0
171 195 0
171 195 0
173 196 0
172 195 0
171 195 0
174 197 0
172 196 0
173 196 0
172 196 0
173 196 0
171 196 0
174 197 0
174 198 0
170 194 0
173 197 0
170 194 0
174 197 0
171 195 0
175 198 0
175 197 0
171 194 0
172 195 0
171 195 0
172 196 0
173 197 0
171 195 0
173 196 0
172 196 0
172 196 0
174 197 0
174 197 0
173 197 0
173 197 0
174 197 0
172 196 0
171 195 0
174 198 0
174 197 0
174 197 0
174 197 0
175 198 0
175 198 0
173 197 0
172 196 0
175 198 0
174 197 0
174 197 0
173 196 0
173 197 0
173 197 0
171 196 0
173 197 0
175 197 0
174 197 0
172 196 0
174 197 0
174 196 0
174 197 0
174 197 0
175 198 0
173 197 0
172 196 0
175 198 0
175 198 0
174 197 0
172 195 0
175 198 0
173 196 0
173 197 0
174 197 0
173 197 0
174 198 0
172 195 0
174 197 0
172 196 0
174 198 0
173 197 0
175 197 0
173 197 0
175 198 0
174 198 0
174 197 0
175 198 0
174 198 0
173 196 0
174 197 0
173 197 0
172 197 0
175 198 0
173 197 0
174 197 0
175 198 0
173 196 0
175 198 0
175 198 0
175 197 0
173 197 0
174 197 0
174 197 0
174 197 0
174 197 0
173 197 0
174 198 0
175 198 0
174 197 0
174 197 0
175 198 0
174 198 0
175 198 0
172 196 0
174 197 0
173 197 0
173 197 0
174 197 0
173 197 0
173 197 0
174 198 0
173 197 0
174 197 0
174 197 0
173 197 0
173 196 0
174 198 0
175 198 0
175 198 0
174 198 0
174 198 0
174 197 0
175 198 0
173 196 0
174 198 0
173 197 0
175 198 0
173 196 0
175 198 0
173 196 0
173 197 0
173 197 0
175 198 0
176 198 0
175 198 0
174 198 0
176 198 0
175 198 0
175 198 0
173 197 0
173 197 0
176 199 0
175 198 0
174 198 0
173 197 0
175 198 0
173 197 0
176 198 0
176 198 0
173 197 0
174 198 0
175 198 0
172 196 0
172 196 0
173 196 0
174 197 0
175 198 0
174 198 0
176 199 0
174 198 0
176 199 0
174 197 0
173 197 0
175 198 0
173 197 0
175 198 0
174 198 0
175 198 0
175 198 0
173 197 0
174 198 0
173 197 0
173 197 0
175 198 0
174 198 0
173 197 0
175 198 0
174 198 0
173 197 0
173 197 0
174 198 0
175 198 0
174 198 0
174 198 0
175 198 0
176 198 0
173 197 0
173 196 0
176 198 0
175 198 0
175 198 0
174 198 0
175 198 0
174 197 0
173 197 0
174 198 0
174 198 0
173 197 0
173 197 0
176 199 0
175 198 0
173 197 0
173 197 0
173 197 0
175 198 0
176 199 0
175 198 0
174 198 0
174 198 0
174 197 0
174 197 0
175 198 0
174 197 0
174 197 0
174 198 0
175 198 0
174 198 0
175 198 0
173 197 0
176 198 0
174 198 0
173 197 0
174 198 0
175 198 0
174 197 0
174 198 0
174 197 0
174 198 0
174 197 0
175 198 0
174 197 0
174 198 0
172 196 0
174 198 0
175 198 0
176 199 0
174 198 0
176 198 0
174 197 0
174 197 0
174 198 0
173 197 0
174 198 0
175 198 0
174 197 0
174 198 0
174 197 0
173 197 0
174 198 0
175 198 0
173 197 0
175 198 0
174 197 0
173 197 0
174 198 0
173 197 0
171 195 0
173 197 0
174 198 0
174 197 0
174 197 0
174 198 0
175 198 0
173 197 0
174 198 0
174 198 0
173 197 0
174 198 0
173 197 0
175 198 0
173 197 0
174 198 0
173 197 0
173 196 0
174 197 0
176 198 0
174 197 0
174 197 0
175 198 0
175 198 0
172 197 0
174 197 0
174 198 0
175 198 0
173 196 0
172 197 0
174 197 0
174 198 0
174 198 0
173 197 0
173 197 0
174 197 0
173 197 0
174 198 0
174 197 0
173 197 0
174 197 0
174 197 0
176 199 0
175 198 0
174 197 0
175 198 0
170 194 0
173 196 0
172 197 0
174 197 0
173 197 0
174 197 0
173 196 0
171 195 0
175 198 0
174 198 0
174 198 0
173 196 0
173 196 0
173 197 0
174 198 0
173 197 0
172 196 0
174 198 0
176 199 0
174 197 0
173 197 0
175 198 0
174 197 0
173 196 0
171 195 0
173 197 0
175 198 0
173 196 0
175 198 0
175 197 0
175 198 0
176 199 0
173 196 0
171 195 0
175 198 0
172 196 0
174 197 0
171 194 0
173 197 0
171 195 0
173 197 0
173 197 0
174 197 0
172 196 0
176 199 0
172 195 0
174 197 0
172 196 0
170 194 0
175 197 0
175 198 0
173 196 0
173 196 0
173 196 0
173 196 0
174 197 0
173 197 0
172 196 0
174 197 0
173 196 0
172 195 0
173 196 0
173 196 0
175 197 0
170 194 0
173 196 0
173 196 0
170 194 0
172 196 0
172 196 0
173 196 0
172 194 0
173 196 0
173 197 0
175 198 0
169 194 0
173 195 0
175 198 0
173 197 0
172 196 0
173 196 0
173 196 0
171 195 0
172 196 0
171 195 0
172 196 0
174 197 0
174 197 0
172 195 0
172 196 0
173 197 0
170 194 0
172 196 0
172 195 0
172 196 0
171 194 0
171 195 0
174 198 0
173 196 0
172 195 0
172 195 0
173 197 0
174 197 0
173 196 0
174 198 0
173 196 0
171 195 0
173 196 0
171 195 0
175 198 0
173 196 0
171 195 0
173 196 0
175 198 0
172 196 0
173 196 0
173 196 0
174 197 0
172 195 0
172 196 0
172 196 0
173 196 0
173 196 0
172 195 0
173 196 0
173 197 0
175 198 0
175 198 0
174 197 0
174 197 0
172 195 0
174 198 0
174 198 0
173 196 0
174 197 0
172 196 0
174 197 0
173 195 0
172 196 0
174 197 0
173 196 0
173 197 0
175 198 0
173 196 0
172 196 0
173 197 0
172 196 0
174 198 0
173 197 0
174 197 0
174 197 0
171 195 0
174 197 0
174 198 0
173 197 0
173 197 0
174 197 0
173 196 0
172 196 0
174 197 0
175 197 0
174 197 0
174 198 0
173 196 0
174 198 0
173 197 0
174 197 0
172 196 0
174 197 0
173 197 0
174 197 0
173 196 0
174 197 0
173 196 0
174 197 0
173 197 0
174 198 0
174 198 0
175 198 0
173 197 0
173 197 0
174 197 0
174 197 0
174 198 0
174 198 0
175 198 0
173 196 0
174 198 0
173 197 0
176 199 0
173 196 0
172 196 0
173 197 0
174 197 0
173 197 0
172 196 0
175 198 0
173 197 0
172 196 0
174 198 0
174 197 0
175 198 0
175 198 0
172 196 0
172 196 0
173 197 0
175 197 0
173 197 0
173 196 0
174 198 0
173 197 0
172 196 0
173 196 0
173 197 0
174 197 0
173 197 0
174 197 0
174 197 0
173 197 0
175 198 0
173 197 0
173 197 0
175 198 0
175 197 0
173 197 0
174 198 0
173 197 0
173 196 0
173 197 0
176 199 0
175 198 0
174 198 0
176 199 0
175 198 0
173 197 0
175 198 0
173 197 0
173 197 0
175 198 0
175 198 0
174 198 0
175 198 0
174 198 0
177 199 0
175 198 0
174 198 0
174 197 0
175 198 0
174 197 0
174 198 0
174 198 0
174 197 0
174 198 0
175 198 0
173 197 0
176 198 0
174 197 0
174 198 0
173 197 0
174 196 0
175 198 0
174 198 0
174 198 0
174 198 0
175 198 0
174 198 0
176 199 0
173 197 0
175 198 0
175 198 0
175 198 0
174 198 0
176 199 0
174 198 0
174 197 0
174 198 0
175 198 0
175 198 0
173 197 0
172 196 0
175 198 0
175 198 0
172 197 0
175 198 0
174 197 0
173 197 0
174 198 0
175 198 0
174 198 0
174 198 0
175 198 0
174 198 0
176 199 0
173 197 0
175 198 0
175 198 0
174 198 0
174 198 0
176 198 0
175 198 0
175 198 0
176 199 0
175 198 0
174 197 0
174 197 0
175 198 0
176 199 0
174 197 0
176 198 0
175 198 0
175 198 0
174 197 0
176 199 0
175 198 0
174 198 0
173 197 0
174 198 0
175 198 0
174 198 0
175 198 0
174 198 0
174 198 0
174 197 0
174 197 0
174 198 0
174 197 0
175 198 0
174 198 0
173 197 0
174 198 0
174 198 0
175 198 0
174 198 0
174 197 0
175 198 0
173 197 0
175 198 0
174 198 0
175 198 0
175 198 0
173 197 0
175 198 0
175 198 0
175 198 0
172 195 0
175 198 0
174 197 0
173 197 0
174 198 0
174 198 0
175 198 0
172 196 0
176 199 0
173 197 0
174 197 0
173 197 0
174 197 0
173 197 0
174 198 0
174 198 0
175 198 0
175 198 0
172 195 0
173 196 0
174 197 0
173 197 0
175 198 0
174 198 0
174 198 0
173 197 0
174 198 0
174 198 0
174 197 0
172 196 0
173 197 0
173 197 0
173 197 0
173 197 0
173 197 0
173 197 0
171 195 0
174 197 0
174 198 0
173 197 0
174 198 0
174 197 0
171 195 0
176 199 0
173 197 0
174 198 0
174 198 0
173 196 0
174 197 0
172 196 0
174 197 0
174 197 0
171 195 0
175 197 0
172 196 0
173 196 0
173 197 0
174 198 0
174 197 0
175 198 0
172 196 0
172 195 0
175 198 0
174 197 0
174 198 0
173 197 0
171 196 0
174 197 0
173 196 0
173 196 0
173 197 0
173 197 0
171 195 0
174 197 0
174 197 0
171 196 0
173 196 0
175 198 0
175 198 0
173 197 0
175 198 0
172 196 0
173 197 0
170 194 0
174 198 0
172 195 0
172 196 0
171 195 0
173 196 0
172 196 0
174 198 0
173 197 0
173 196 0
174 197 0
173 197 0
175 198 0
172 196 0
174 197 0
171 195 0
173 196 0
171 194 0
172 196 0
172 196 0
173 196 0
172 195 0
172 196 0
174 197 0
173 197 0
175 198 0
172 195 0
172 196 0
174 197 0
172 195 0
171 194 0
169 193 0
172 195 0
174 198 0
173 196 0
171 195 0
172 196 0
171 194 0
174 197 0
173 197 0
172 196 0
172 196 0
173 196 0
173 196 0
172 195 0
173 197 0
172 195 0
173 196 0
175 197 0
170 194 0
172 196 0
175 197 0
174 197 0
171 195 0
172 195 0
172 196 0
173 196 0
171 195 0
172 195 0
172 196 0
173 197 0
172 195 0
173 197 0
171 195 0
173 197 0
173 196 0
174 197 0
174 197 0
172 196 0
172 195 0
172 196 0
171 195 0
173 197 0
172 196 0
173 196 0
173 196 0
174 197 0
172 195 0
170 193 0
173 196 0
174 197 0
174 197 0
171 194 0
175 198 0
173 196 0
170 193 0
172 196 0
172 195 0
172 195 0
174 197 0
174 197 0
174 197 0
174 197 0
172 196 0
174 197 0
173 197 0
176 198 0
173 196 0
173 196 0
174 197 0
173 197 0
174 197 0
171 195 0
174 196 0
172 196 0
172 196 0
172 196 0
175 197 0
172 196 0
172 196 0
175 198 0
174 197 0
174 198 0
172 196 0
175 198 0
173 197 0
173 197 0
172 196 0
173 197 0
172 196 0
175 198 0
175 198 0
175 197 0
172 196 0
176 199 0
174 198 0
175 198 0
174 197 0
173 196 0
173 197 0
172 195 0
170 195 0
175 198 0
176 198 0
174 198 0
174 197 0
173 197 0
172 196 0
173 197 0
173 196 0
175 198 0
174 197 0
174 198 0
173 197 0
175 198 0
175 198 0
174 197 0
172 196 0
174 198 0
173 197 0
174 197 0
173 196 0
173 197 0
173 197 0
174 197 0
174 197 0
174 197 0
175 198 0
172 196 0
173 197 0
173 196 0
174 197 0
174 198 0
173 196 0
176 199 0
174 197 0
173 197 0
173 197 0
174 197 0
171 196 0
175 198 0
174 197 0
173 196 0
176 199 0
174 197 0
175 198 0
174 198 0
174 197 0
175 198 0
174 198 0
172 197 0
173 197 0
173 197 0
173 197 0
175 198 0
173 197 0
172 197 0
173 196 0
175 198 0
173 197 0
175 198 0
174 198 0
174 197 0
173 196 0
174 198 0
175 198 0
174 197 0
176 198 0
175 198 0
175 198 0
175 198 0
176 199 0
174 197 0
175 198 0
174 197 0
172 196 0
175 198 0
173 197 0
175 198 0
175 198 0
174 197 0
174 196 0
174 198 0
174 197 0
175 198 0
174 198 0
175 198 0
173 197 0
174 198 0
174 198 0
175 198 0
174 198 0
173 197 0
174 198 0
173 197 0
175 198 0
175 198 0
173 197 0
174 198 0
174 197 0
174 197 0
174 197 0
175 198 0
175 198 0
174 198 0
174 197 0
173 197 0
174 198 0
174 198 0
174 197 0
174 198 0
175 198 0
175 198 0
174 198 0
175 198 0
175 198 0
173 197 0
175 198 0
174 198 0
177 199 0
175 198 0
174 197 0
174 197 0
175 198 0
175 198 0
174 198 0
173 197 0
174 197 0
173 197 0
173 197 0
174 197 0
174 197 0
174 198 0
175 198 0
175 198 0
174 197 0
176 199 0
173 196 0
175 198 0
175 198 0
172 197 0
174 197 0
175 198 0
174 198 0
175 198 0
174 197 0
176 198 0
174 198 0
174 198 0
175 198 0
175 198 0
174 197 0
175 198 0
174 198 0
174 198 0
175 198 0
175 198 0
174 198 0
173 196 0
175 198 0
174 198 0
174 198 0
174 198 0
175 198 0
175 198 0
176 198 0
175 198 0
174 198 0
174 197 0
174 198 0
174 198 0
174 198 0
175 198 0
174 197 0
175 198 0
175 198 0
176 198 0
175 198 0
174 197 0
173 197 0
173 197 0
174 197 0
174 198 0
175 198 0
176 199 0
173 197 0
175 198 0
173 197 0
173 197 0
173 197 0
174 198 0
174 197 0
174 198 0
172 196 0
174 197 0
172 196 0
173 197 0
172 196 0
175 198 0
174 198 0
175 198 0
174 197 0
175 198 0
174 198 0
173 197 0
174 198 0
175 198 0
175 198 0
174 197 0
173 197 0
175 198 0
174 197 0
174 198 0
174 198 0
173 196 0
172 196 0
174 197 0
174 197 0
174 198 0
173 197 0
174 198 0
173 197 0
174 198 0
176 199 0
172 197 0
174 198 0
174 198 0
174 198 0
174 197 0
171 195 0
173 196 0
175 198 0
174 197 0
175 198 0
173 196 0
174 197 0
173 197 0
176 198 0
173 197 0
175 198 0
174 197 0
175 198 0
172 196 0
174 198 0
174 197 0
175 198 0
173 196 0
172 196 0
174 198 0
174 198 0
174 197 0
172 196 0
174 198 0
173 197 0
172 196 0
172 195 0
173 197 0
174 198 0
175 198 0
174 197 0
174 197 0
173 197 0
174 197 0
174 197 0
173 197 0
173 197 0
173 197 0
173 196 0
173 197 0
172 195 0
174 197 0
173 197 0
174 198 0
174 198 0
173 197 0
169 193 0
173 196 0
173 196 0
173 197 0
173 197 0
174 197 0
172 195 0
174 197 0
173 197 0
174 198 0
173 197 0
173 197 0
172 196 0
172 196 0
175 198 0
173 196 0
173 196 0
172 195 0
174 197 0
175 197 0
174 197 0
172 195 0
174 197 0
174 197 0
172 195 0
173 197 0
171 195 0
172 196 0
172 195 0
174 197 0
173 196 0
172 196 0
172 196 0
171 195 0
171 195 0
173 197 0
173 197 0
174 197 0
173 196 0
173 196 0
171 195 0
172 196 0
169 193 0
173 197 0
173 197 0
174 197 0
172 195 0
171 195 0
174 198 0
175 198 0
172 195 0
174 196 0
172 196 0
171 195 0
174 198 0
171 195 0
174 197 0
171 195 0
171 195 0
172 197 0
172 195 0
169 193 0
173 197 0
175 197 0
173 197 0
175 198 0
174 197 0
173 196 0
171 195 0
175 198 0
173 197 0
171 195 0
171 195 0
173 196 0
174 197 0
174 197 0
172 196 0
173 196 0
172 196 0
174 198 0
174 197 0
172 196 0
173 196 0
173 197 0
173 197 0
174 197 0
174 197 0
172 195 0
175 198 0
176 199 0
175 197 0
174 197 0
174 197 0
174 197 0
172 197 0
173 197 0
174 197 0
174 197 0
172 196 0
173 197 0
174 198 0
175 198 0
174 197 0
174 197 0
176 199 0
173 197 0
174 197 0
174 197 0
175 198 0
173 197 0
173 197 0
173 197 0
175 198 0
173 197 0
174 197 0
173 196 0
171 196 0
173 196 0
175 197 0
173 197 0
173 197 0
174 198 0
176 198 0
173 197 0
174 197 0
173 197 0
173 197 0
174 198 0
171 195 0
176 198 0
175 197 0
173 197 0
173 196 0
174 197 0
174 197 0
175 198 0
175 198 0
174 198 0
175 198 0
174 197 0
174 197 0
175 197 0
175 198 0
174 197 0
175 197 0
174 197 0
175 198 0
175 198 0
175 198 0
174 198 0
175 198 0
174 197 0
172 196 0
174 197 0
174 198 0
174 197 0
175 198 0
174 198 0
175 198 0
176 199 0
174 197 0
174 197 0
175 198 0
173 197 0
173 197 0
174 197 0
173 196 0
175 198 0
174 198 0
174 198 0
173 197 0
173 197 0
173 197 0
174 197 0
175 198 0
175 197 0
173 197 0
176 199 0
175 198 0
175 198 0
175 198 0
174 198 0
173 197 0
174 198 0
173 197 0
174 197 0
174 197 0
174 197 0
174 198 0
174 198 0
174 198 0
173 197 0
173 197 0
174 198 0
174 197 0
174 198 0
173 197 0
174 198 0
173 197 0
174 197 0
173 196 0
175 198 0
174 197 0
179 200 0
173 197 0
175 198 0
175 198 0
173 197 0
174 198 0
174 198 0
175 198 0
175 198 0
173 196 0
175 198 0
173 196 0
174 198 0
175 198 0
174 197 0
175 198 0
174 197 0
175 198 0
174 197 0
175 198 0
174 197 0
176 198 0
173 197 0
173 197 0
174 197 0
175 198 0
176 198 0
173 197 0
174 197 0
172 197 0
175 198 0
174 197 0
175 198 0
173 197 0
174 198 0
173 197 0
173 197 0
175 198 0
174 198 0
174 198 0
174 198 0
175 198 0
175 198 0
175 198 0
173 197 0
172 196 0
173 197 0
174 197 0
174 198 0
175 198 0
173 197 0
174 197 0
175 198 0
174 198 0
176 199 0
176 199 0
174 197 0
175 198 0
176 199 0
174 198 0
174 198 0
174 198 0
174 198 0
173 197 0
174 197 0
174 197 0
175 198 0
175 198 0
174 197 0
173 197 0
175 198 0
173 197 0
173 197 0
176 198 0
174 197 0
174 198 0
173 197 0
175 198 0
175 198 0
173 197 0
173 197 0
176 199 0
173 197 0
175 198 0
175 198 0
174 197 0
174 197 0
175 198 0
173 197 0
173 197 0
175 198 0
172 196 0
174 197 0
173 197 0
175 198 0
174 198 0
174 197 0
174 198 0
173 197 0
173 197 0
174 197 0
174 198 0
175 198 0
174 197 0
175 198 0
176 199 0
173 197 0
174 198 0
172 196 0
172 196 0
176 199 0
172 196 0
174 197 0
176 199 0
175 198 0
174 198 0
174 198 0
174 198 0
174 197 0
175 198 0
173 197 0
174 197 0
175 198 0
175 198 0
173 197 0
176 199 0
175 198 0
174 198 0
173 196 0
172 197 0
174 197 0
175 198 0
174 198 0
174 198 0
173 197 0
175 198 0
173 197 0
173 197 0
173 197 0
172 196 0
172 197 0
175 198 0
174 198 0
173 197 0
175 198 0
175 198 0
174 197 0
173 197 0
174 198 0
175 198 0
174 198 0
173 196 0
174 197 0
174 197 0
175 198 0
175 198 0
174 198 0
174 197 0
174 197 0
172 197 0
174 198 0
175 198 0
175 198 0
173 196 0
175 198 0
174 198 0
175 198 0
173 196 0
175 198 0
173 197 0
174 198 0
175 198 0
171 195 0
175 197 0
173 197 0
175 198 0
172 195 0
175 198 0
172 196 0
173 197 0
173 197 0
173 196 0
176 198 0
173 197 0
173 196 0
173 197 0
173 197 0
174 197 0
174 197 0
172 196 0
173 196 0
174 197 0
172 196 0
174 198 0
175 198 0
173 197 0
172 196 0
174 197 0
173 197 0
175 198 0
173 197 0
173 197 0
174 198 0
173 196 0
173 197 0
174 197 0
174 197 0
174 198 0
173 195 0
173 197 0
172 196 0
173 197 0
172 195 0
173 197 0
172 195 0
173 197 0
172 195 0
174 197 0
173 196 0
172 195 0
173 197 0
173 196 0
172 196 0
173 197 0
170 194 0
174 197 0
170 195 0
171 195 0
172 196 0
171 195 0
174 197 0
176 198 0
174 198 0
172 196 0
173 196 0
172 195 0
174 197 0
173 196 0
171 195 0
173 195 0
174 197 0
172 195 0
175 198 0
173 196 0
174 197 0
171 195 0
172 195 0
174 198 0
173 197 0
174 198 0
173 197 0
174 197 0
174 197 0
173 197 0
172 195 0
173 196 0
173 196 0
172 196 0
171 195 0
174 197 0
173 196 0
173 197 0
173 197 0
171 195 0
174 198 0
174 198 0
175 198 0
171 194 0
175 198 0
174 198 0
172 196 0
174 197 0
173 197 0
171 194 0
174 197 0
173 197 0
172 196 0
173 197 0
173 196 0
172 196 0
173 196 0
175 198 0
170 195 0
173 196 0
173 197 0
173 197 0
172 195 0
172 196 0
174 197 0
173 197 0
173 196 0
174 198 0
173 197 0
173 196 0
173 196 0
173 197 0
176 199 0
173 197 0
172 196 0
173 197 0
172 196 0
173 196 0
175 198 0
174 197 0
175 198 0
173 196 0
173 197 0
172 195 0
173 197 0
174 197 0
173 197 0
174 197 0
175 198 0
173 196 0
170 195 0
172 196 0
175 198 0
174 197 0
173 197 0
175 198 0
174 197 0
174 197 0
175 197 0
173 196 0
172 196 0
174 198 0
174 198 0
175 198 0
171 195 0
174 198 0
174 197 0
173 197 0
174 197 0
174 197 0
175 198 0
173 196 0
173 197 0
174 198 0
173 197 0
171 195 0
172 197 0
174 198 0
175 198 0
174 197 0
173 197 0
174 197 0
175 198 0
173 197 0
174 197 0
173 196 0
175 198 0
173 196 0
175 198 0
174 197 0
173 196 0
174 198 0
174 198 0
173 197 0
172 196 0
174 197 0
173 196 0
173 197 0
174 198 0
174 197 0
174 197 0
177 199 0
174 197 0
175 198 0
174 197 0
173 197 0
174 198 0
175 198 0
174 198 0
172 196 0
174 197 0
175 198 0
174 198 0
176 198 0
175 198 0
173 197 0
175 198 0
174 198 0
173 196 0
174 197 0
174 197 0
174 197 0
173 197 0
174 197 0
174 197 0
174 198 0
174 197 0
175 198 0
176 199 0
173 197 0
175 198 0
176 198 0
174 197 0
174 198 0
174 198 0
174 198 0
175 198 0
174 197 0
174 198 0
176 198 0
174 198 0
176 199 0
175 198 0
175 198 0
176 199 0
172 196 0
175 198 0
175 198 0
174 198 0
173 197 0
175 198 0
174 198 0
175 198 0
174 197 0
175 198 0
176 198 0
174 197 0
174 198 0
174 197 0
173 197 0
174 198 0
175 198 0
174 198 0
173 197 0
175 198 0
175 198 0
173 197 0
174 198 0
174 198 0
174 197 0
173 197 0
175 198 0
175 198 0
174 198 0
174 197 0
175 198 0
173 197 0
172 197 0
173 197 0
174 197 0
175 198 0
173 197 0
173 197 0
174 197 0
177 199 0
174 198 0
173 197 0
175 198 0
175 198 0
173 197 0
175 198 0
173 197 0
174 198 0
174 198 0
173 197 0
174 198 0
173 197 0
175 198 0
175 198 0
174 197 0
172 196 0
174 198 0
173 197 0
174 197 0
176 199 0
173 197 0
173 197 0
174 198 0
172 196 0
173 197 0
175 198 0
175 198 0
173 197 0
175 198 0
171 196 0
175 198 0
173 197 0
174 198 0
174 198 0
174 197 0
174 198 0
174 198 0
173 197 0
174 197 0
174 198 0
174 198 0
174 198 0
174 198 0
174 198 0
174 198 0
174 197 0
173 197 0
175 198 0
174 197 0
172 196 0
173 197 0
174 198 0
175 198 0
174 198 0
174 198 0
173 197 0
175 198 0
173 197 0
175 198 0
175 198 0
176 198 0
173 197 0
174 197 0
174 198 0
173 197 0
173 197 0
176 199 0
175 198 0
175 198 0
173 197 0
174 198 0
174 197 0
175 198 0
174 197 0
174 198 0
175 198 0
175 198 0
176 199 0
173 197 0
174 197 0
173 197 0
174 197 0
172 197 0
174 198 0
173 196 0
173 196 0
176 198 0
174 197 0
174 198 0
175 198 0
175 198 0
173 196 0
172 196 0
174 198 0
174 197 0
173 197 0
175 198 0
174 198 0
174 198 0
174 197 0
175 198 0
175 198 0
174 198 0
172 196 0
174 197 0
171 195 0
172 196 0
174 197 0
173 197 0
174 198 0
174 198 0
173 197 0
174 197 0
173 196 0
173 197 0
173 197 0
175 198 0
174 197 0
172 196 0
172 196 0
173 196 0
171 195 0
172 196 0
175 198 0
173 197 0
175 198 0
174 197 0
172 195 0
172 196 0
174 197 0
173 197 0
174 197 0
175 197 0
174 197 0
171 195 0
173 197 0
175 198 0
173 196 0
173 197 0
173 197 0
173 197 0
175 197 0
174 197 0
172 196 0
175 198 0
174 197 0
174 197 0
174 197 0
172 196 0
173 196 0
174 197 0
174 198 0
172 196 0
172 195 0
173 196 0
172 196 0
173 196 0
174 197 0
173 196 0
173 196 0
173 197 0
174 197 0
171 195 0
173 196 0
170 195 0
174 197 0
172 195 0
174 197 0
173 196 0
171 195 0
170 194 0
175 197 0
172 196 0
172 195 0
171 196 0
174 197 0
174 197 0
170 193 0
173 197 0
175 198 0
175 198 0
172 196 0
174 197 0
174 197 0
173 197 0
174 197 0
173 196 0
172 196 0
174 197 0
171 195 0
173 196 0
172 195 0
174 197 0
172 196 0
174 197 0
175 197 0
172 196 0
173 196 0
171 195 0
174 196 0
173 197 0
175 197 0
173 197 0
172 196 0
172 196 0
174 198 0
172 196 0
175 198 0
174 197 0
172 195 0
172 195 0
171 195 0
173 197 0
172 195 0
172 196 0
172 197 0
173 197 0
173 196 0
173 197 0
170 194 0
174 197 0
173 196 0
174 197 0
173 195 0
174 197 0
173 197 0
173 196 0
174 197 0
172 196 0
173 197 0
172 195 0
173 197 0
173 196 0
172 196 0
175 198 0
174 197 0
173 196 0
175 198 0
175 198 0
174 197 0
172 195 0
174 197 0
173 196 0
173 196 0
174 197 0
172 197 0
172 197 0
174 197 0
173 196 0
173 197 0
172 196 0
173 196 0
173 196 0
175 198 0
172 196 0
172 196 0
173 197 0
173 196 0
170 195 0
174 196 0
175 198 0
172 196 0
172 195 0
173 197 0
172 197 0
173 197 0
174 198 0
175 197 0
174 198 0
174 197 0
174 198 0
173 197 0
175 198 0
174 197 0
174 198 0
175 198 0
172 196 0
172 196 0
174 197 0
175 198 0
176 199 0
173 196 0
174 196 0
174 197 0
172 196 0
173 197 0
173 196 0
175 198 0
174 197 0
175 198 0
174 198 0
174 197 0
175 198 0
173 197 0
172 196 0
175 198 0
173 197 0
174 197 0
173 197 0
174 197 0
175 198 0
174 197 0
173 196 0
175 198 0
174 196 0
172 196 0
175 198 0
175 198 0
173 197 0
174 198 0
174 197 0
173 197 0
174 198 0
175 198 0
174 197 0
175 198 0
174 198 0
175 198 0
173 197 0
171 195 0
174 197 0
173 197 0
175 198 0
175 198 0
172 196 0
173 197 0
175 198 0
174 197 0
175 198 0
173 197 0
174 198 0
173 197 0
174 198 0
174 198 0
175 198 0
174 197 0
173 197 0
174 198 0
175 198 0
174 197 0
175 198 0
175 198 0
174 198 0
173 197 0
176 198 0
175 197 0
173 197 0
173 197 0
173 197 0
173 197 0
173 197 0
174 198 0
175 198 0
172 196 0
173 197 0
173 197 0
175 197 0
173 197 0
173 197 0
175 198 0
172 197 0
174 198 0
174 198 0
174 197 0
174 197 0
177 199 0
173 197 0
174 198 0
175 198 0
175 198 0
175 198 0
176 199 0
175 198 0
174 198 0
174 197 0
174 198 0
175 198 0
174 197 0
175 198 0
173 197 0
173 197 0
176 199 0
174 197 0
174 197 0
174 198 0
173 197 0
175 198 0
174 198 0
174 198 0
175 198 0
176 198 0
176 198 0
174 198 0
175 198 0
175 198 0
174 198 0
175 198 0
174 197 0
174 197 0
176 198 0
174 197 0
175 198 0
173 197 0
174 198 0
175 198 0
177 199 0
176 199 0
174 198 0
174 198 0
174 198 0
174 198 0
175 198 0
175 198 0
175 198 0
175 198 0
174 198 0
174 198 0
173 197 0
173 197 0
174 198 0
175 198 0
174 198 0
175 198 0
175 198 0
174 197 0
174 198 0
174 198 0
174 198 0
174 198 0
175 198 0
175 198 0
174 198 0
174 198 0
174 198 0
174 198 0
175 198 0
173 197 0
173 197 0
175 198 0
175 198 0
175 198 0
174 197 0
175 198 0
172 197 0
174 197 0
173 197 0
174 198 0
174 198 0
174 198 0
174 198 0
175 198 0
174 197 0
175 198 0
175 198 0
174 198 0
176 199 0
173 197 0
176 199 0
175 198 0
174 198 0
173 197 0
174 198 0
174 198 0
174 198 0
175 198 0
175 198 0
175 198 0
173 197 0
173 197 0
173 197 0
175 198 0
174 198 0
173 197 0
174 198 0
175 198 0
175 198 0
173 197 0
175 198 0
175 198 0
174 197 0
174 198 0
176 199 0
175 198 0
174 197 0
174 198 0
173 197 0
174 197 0
174 197 0
174 198 0
174 197 0
174 197 0
173 196 0
170 194 0
174 197 0
174 197 0
175 198 0
174 198 0
174 198 0
174 197 0
172 196 0
174 198 0
175 198 0
174 197 0
174 197 0
174 198 0
173 197 0
175 198 0
174 198 0
174 197 0
175 198 0
174 198 0
173 196 0
172 197 0
175 198 0
174 197 0
173 197 0
174 198 0
171 194 0
174 197 0
173 196 0
174 197 0
174 197 0
172 196 0
174 198 0
173 197 0
173 196 0
174 197 0
174 197 0
173 197 0
173 197 0
173 196 0
174 197 0
172 195 0
173 197 0
173 197 0
173 196 0
174 197 0
174 197 0
175 198 0
175 198 0
173 196 0
173 196 0
175 198 0
172 196 0
174 196 0
172 195 0
173 197 0
174 198 0
172 196 0
171 195 0
173 197 0
171 194 0
172 197 0
174 198 0
171 195 0
175 198 0
175 198 0
173 197 0
174 197 0
173 196 0
176 198 0
172 196 0
173 196 0
172 195 0
171 195 0
172 195 0
174 197 0
174 197 0
172 196 0
173 196 0
173 197 0
172 195 0
173 196 0
171 195 0
171 195 0
173 197 0
173 197 0
173 196 0
173 196 0
173 196 0
173 197 0
173 196 0
175 198 0
172 195 0
171 195 0
171 195 0
174 197 0
172 196 0
170 194 0
173 196 0
174 197 0
172 196 0
173 196 0
174 197 0
175 198 0
172 195 0
171 195 0
173 197 0
172 195 0
174 197 0
174 197 0
170 194 0
175 198 0
170 194 0
172 196 0
173 196 0
175 198 0
170 194 0
173 196 0
173 197 0
171 195 0
173 197 0
173 197 0
173 197 0
172 196 0
172 195 0
173 196 0
172 196 0
173 196 0
170 194 0
171 195 0
174 197 0
172 196 0
172 195 0
174 197 0
171 195 0
173 196 0
174 197 0
172 196 0
173 197 0
172 196 0
171 195 0
171 194 0
174 197 0
173 197 0
174 197 0
173 197 0
174 197 0
171 195 0
173 197 0
171 195 0
172 196 0
171 194 0
173 197 0
172 196 0
174 197 0
173 197 0
174 197 0
174 197 0
174 198 0
174 197 0
174 198 0
173 196 0
172 195 0
172 196 0
174 197 0
175 198 0
176 198 0
173 197 0
173 197 0
172 196 0
174 197 0
173 197 0
173 197 0
173 197 0
173 196 0
175 198 0
174 198 0
174 197 0
174 197 0
175 198 0
172 196 0
174 197 0
173 197 0
175 198 0
173 197 0
175 198 0
174 198 0
173 196 0
173 196 0
175 198 0
174 197 0
172 196 0
174 197 0
174 198 0
175 198 0
174 198 0
174 196 0
175 198 0
174 197 0
175 198 0
173 196 0
175 198 0
173 197 0
172 196 0
175 198 0
171 195 0
176 199 0
174 198 0
174 198 0
174 197 0
174 198 0
173 197 0
174 198 0
172 196 0
174 198 0
175 198 0
173 196 0
174 197 0
172 196 0
172 196 0
175 198 0
173 197 0
174 198 0
173 196 0
173 197 0
174 197 0
174 197 0
174 197 0
173 197 0
174 198 0
174 197 0
174 196 0
174 198 0
173 197 0
174 198 0
174 197 0
175 198 0
173 197 0
175 198 0
173 197 0
175 198 0
173 197 0
174 198 0
174 197 0
175 198 0
173 197 0
175 198 0
174 197 0
175 198 0
175 198 0
175 198 0
175 198 0
173 197 0
174 197 0
175 198 0
176 199 0
175 198 0
175 198 0
174 198 0
174 197 0
175 198 0
175 197 0
176 198 0
175 198 0
174 197 0
174 197 0
174 198 0
176 199 0
175 198 0
175 198 0
174 198 0
176 198 0
173 197 0
173 196 0
173 197 0
174 198 0
175 198 0
175 198 0
176 198 0
175 198 0
173 197 0
175 198 0
175 198 0
174 197 0
176 198 0
172 196 0
174 198 0
172 196 0
173 197 0
173 197 0
174 198 0
173 197 0
174 198 0
174 197 0
173 197 0
175 198 0
174 197 0
174 197 0
174 197 0
175 198 0
175 198 0
173 197 0
174 198 0
175 198 0
174 198 0
172 196 0
175 198 0
174 198 0
175 198 0
176 199 0
175 198 0
175 198 0
175 198 0
175 198 0
176 198 0
175 198 0
174 197 0
174 197 0
173 197 0
174 198 0
174 198 0
174 197 0
174 198 0
175 198 0
173 197 0
173 197 0
175 198 0
174 198 0
174 198 0
175 198 0
173 197 0
174 198 0
175 198 0
174 197 0
175 198 0
173 196 0
175 198 0
174 197 0
174 197 0
174 198 0
173 196 0
173 197 0
173 197 0
175 198 0
176 198 0
174 198 0
173 197 0
175 198 0
176 199 0
173 197 0
175 198 0
175 198 0
175 198 0
174 198 0
175 198 0
173 197 0
174 198 0
174 197 0
175 198 0
175 198 0
174 198 0
174 197 0
175 198 0
174 198 0
174 198 0
175 198 0
175 198 0
174 198 0
175 198 0
174 197 0
175 198 0
176 198 0
174 198 0
174 197 0
174 198 0
174 198 0
174 197 0
174 197 0
175 198 0
175 198 0
172 196 0
174 197 0
175 198 0
174 198 0
173 197 0
176 199 0
174 197 0
173 197 0
173 197 0
173 197 0
174 197 0
173 197 0
174 198 0
174 198 0
173 197 0
173 197 0
175 198 0
172 196 0
173 197 0
173 197 0
173 197 0
175 198 0
173 197 0
173 197 0
174 197 0
174 197 0
173 197 0
173 197 0
174 198 0
174 198 0
174 198 0
173 197 0
174 197 0
174 197 0
173 196 0
174 197 0
173 197 0
174 197 0
173 197 0
175 198 0
173 196 0
173 197 0
172 196 0
174 198 0
171 195 0
173 197 0
172 196 0
172 196 0
174 198 0
174 198 0
174 197 0
174 198 0
173 196 0
175 198 0
172 197 0
174 197 0
174 197 0
175 198 0
172 197 0
172 196 0
174 197 0
173 197 0
173 197 0
173 196 0
175 198 0
172 196 0
174 197 0
173 197 0
173 196 0
173 197 0
174 198 0
173 197 0
173 197 0
173 197 0
172 196 0
175 198 0
172 196 0
173 197 0
173 197 0
173 196 0
171 196 0
173 197 0
172 196 0
173 196 0
172 196 0
175 198 0
173 197 0
173 197 0
173 197 0
173 197 0
174 197 0
173 197 0
171 195 0
173 197 0
173 196 0
171 194 0
173 197 0
175 198 0
173 197 0
173 196 0
172 196 0
172 196 0
172 196 0
173 197 0
173 196 0
173 196 0
175 198 0
172 196 0
175 198 0
173 197 0
174 198 0
171 195 0
172 196 0
175 198 0
172 197 0
174 198 0
172 196 0
171 194 0
171 195 0
173 197 0
172 195 0
175 198 0
174 197 0
174 197 0
169 193 0
172 196 0
173 197 0
172 196 0
172 196 0
171 195 0
174 197 0
173 197 0
174 198 0
173 197 0
174 197 0
173 197 0
174 197 0
171 195 0
172 196 0
174 198 0
172 195 0
172 196 0
172 196 0
171 194 0
173 196 0
170 193 0
173 197 0
172 196 0
172 196 0
173 196 0
175 197 0
174 198 0
173 197 0
176 198 0
172 195 0
169 192 0
174 197 0
174 197 0
173 197 0
172 196 0
172 196 0
171 195 0
174 197 0
173 196 0
172 196 0
174 198 0
173 197 0
174 197 0
173 197 0
172 196 0
174 197 0
176 199 0
173 197 0
172 196 0
173 196 0
172 196 0
173 197 0
174 198 0
175 198 0
176 198 0
174 197 0
172 196 0
174 197 0
174 198 0
174 197 0
173 195 0
174 197 0
174 198 0
174 197 0
172 195 0
175 198 0
174 197 0
176 199 0
174 198 0
174 197 0
173 197 0
171 195 0
176 198 0
170 194 0
172 196 0
174 198 0
174 197 0
173 196 0
175 198 0
173 197 0
173 197 0
173 197 0
173 197 0
172 197 0
172 196 0
174 198 0
174 197 0
176 198 0
174 197 0
174 197 0
174 197 0
171 195 0
174 197 0
175 198 0
174 197 0
175 198 0
174 197 0
173 197 0
173 197 0
175 198 0
176 199 0
173 197 0
173 197 0
176 199 0
175 198 0
175 198 0
174 197 0
175 198 0
174 197 0
175 198 0
174 197 0
174 197 0
173 197 0
175 198 0
173 197 0
172 196 0
174 198 0
175 198 0
176 198 0
174 198 0
174 197 0
175 198 0
175 198 0
175 198 0
175 198 0
173 197 0
175 197 0
172 196 0
175 197 0
175 198 0
176 199 0
172 196 0
175 198 0
175 198 0
172 196 0
175 198 0
175 198 0
175 198 0
174 198 0
174 198 0
175 198 0
174 198 0
172 197 0
174 198 0
174 197 0
174 198 0
174 198 0
175 198 0
174 198 0
174 198 0
174 198 0
174 198 0
174 198 0
174 198 0
175 198 0
173 197 0
172 197 0
172 195 0
174 197 0
172 196 0
174 198 0
174 197 0
176 198 0
174 197 0
174 197 0
174 198 0
174 198 0
173 196 0
175 198 0
174 198 0
174 197 0
173 197 0
174 198 0
174 198 0
175 198 0
175 198 0
174 197 0
175 198 0
173 197 0
174 197 0
172 196 0
174 198 0
175 198 0
175 198 0
174 197 0
175 198 0
174 198 0
173 197 0
174 198 0
174 198 0
175 198 0
173 197 0
172 196 0
173 197 0
175 198 0
174 198 0
173 197 0
174 197 0
174 197 0
174 198 0
173 197 0
176 199 0
175 198 0
174 198 0
174 197 0
174 197 0
173 197 0
175 198 0
175 198 0
175 198 0
175 198 0
175 198 0
174 197 0
174 198 0
175 198 0
175 198 0
174 197 0
173 197 0
174 197 0
174 197 0
174 198 0
173 197 0
174 198 0
174 198 0
175 198 0
175 198 0
174 198 0
175 198 0
174 198 0
175 198 0
174 198 0
172 197 0
176 198 0
174 197 0
174 198 0
174 198 0
175 198 0
174 197 0
173 197 0
174 198 0
173 197 0
173 197 0
176 199 0
173 197 0
175 198 0
174 198 0
174 197 0
174 197 0
176 199 0
174 197 0
174 198 0
175 198 0
174 198 0
175 198 0
175 198 0
174 198 0
174 197 0
174 197 0
174 198 0
173 197 0
174 197 0
174 197 0
176 198 0
174 198 0
174 198 0
173 197 0
173 197 0
175 198 0
174 197 0
174 198 0
175 198 0
174 198 0
174 197 0
174 198 0
173 197 0
174 197 0
173 196 0
177 199 0
175 198 0
174 198 0
173 197 0
174 198 0
173 197 0
174 197 0
172 196 0
175 198 0
174 197 0
173 196 0
173 197 0
173 197 0
173 197 0
174 197 0
174 197 0
174 197 0
174 198 0
174 197 0
174 198 0
173 197 0
174 198 0
175 198 0
174 197 0
172 196 0
174 198 0
174 197 0
173 197 0
171 195 0
174 198 0
174 198 0
174 198 0
173 197 0
174 198 0
174 197 0
171 194 0
173 197 0
173 197 0
174 197 0
173 196 0
175 198 0
172 196 0
174 198 0
173 197 0
174 197 0
176 199 0
172 196 0
174 197 0
173 197 0
174 197 0
176 199 0
173 197 0
172 197 0
173 196 0
176 199 0
172 197 0
174 197 0
173 196 0
172 195 0
175 198 0
175 197 0
172 196 0
173 197 0
176 198 0
174 198 0
171 194 0
177 199 0
174 198 0
172 196 0
174 197 0
171 195 0
173 197 0
175 198 0
173 196 0
174 197 0
173 196 0
174 197 0
175 198 0
174 198 0
173 197 0
173 197 0
175 198 0
173 197 0
173 196 0
173 196 0
174 198 0
174 197 0
175 198 0
172 195 0
172 196 0
171 195 0
173 197 0
169 194 0
171 195 0
173 196 0
175 198 0
171 194 0
170 194 0
170 193 0
174 197 0
174 197 0
174 198 0
175 198 0
172 197 0
173 196 0
172 196 0
173 196 0
172 196 0
173 197 0
173 197 0
174 198 0
172 196 0
174 197 0
174 197 0
172 196 0
174 197 0
172 196 0
171 195 0
171 195 0
173 197 0
171 195 0
173 197 0
171 195 0
175 198 0
174 197 0
173 196 0
172 196 0
173 197 0
171 194 0
173 197 0
171 194 0
174 197 0
175 198 0
172 195 0
174 196 0
175 198 0
170 194 0
175 198 0
172 195 0
173 197 0
171 195 0
173 196 0
172 195 0
173 197 0
173 196 0
173 197 0
175 197 0
172 195 0
173 196 0
175 198 0
172 195 0
171 195 0
175 198 0
171 195 0
175 197 0
174 197 0
171 195 0
172 196 0
172 196 0
173 197 0
172 196 0
176 198 0
173 196 0
171 195 0
174 197 0
171 195 0
174 198 0
174 197 0
174 197 0
174 197 0
175 198 0
173 196 0
173 197 0
175 198 0
175 198 0
174 197 0
174 197 0
173 197 0
174 197 0
172 196 0
175 198 0
174 198 0
173 197 0
174 197 0
173 196 0
176 198 0
174 197 0
174 197 0
175 198 0
174 197 0
176 199 0
172 195 0
173 197 0
173 197 0
174 198 0
175 198 0
174 197 0
175 197 0
176 199 0
173 196 0
173 195 0
176 198 0
175 198 0
174 197 0
175 198 0
173 196 0
172 195 0
176 199 0
174 198 0
172 196 0
173 196 0
174 197 0
172 196 0
173 197 0
175 198 0
175 198 0
171 195 0
173 197 0
175 198 0
172 196 0
174 197 0
174 198 0
173 197 0
174 197 0
175 198 0
174 197 0
174 198 0
174 198 0
173 196 0
174 197 0
174 198 0
173 197 0
172 196 0
174 197 0
175 198 0
174 197 0
173 197 0
173 197 0
174 198 0
175 198 0
173 197 0
175 198 0
174 197 0
173 197 0
175 198 0
175 198 0
174 198 0
173 197 0
175 198 0
174 197 0
174 197 0
172 196 0
174 197 0
175 198 0
174 197 0
173 197 0
175 198 0
174 197 0
174 198 0
174 198 0
174 198 0
173 197 0
173 197 0
173 196 0
174 198 0
173 197 0
174 198 0
174 197 0
172 196 0
175 198 0
173 196 0
175 198 0
174 198 0
175 198 0
174 197 0
176 198 0
175 198 0
176 198 0
174 198 0
174 196 0
173 196 0
175 198 0
174 198 0
175 198 0
173 197 0
175 198 0
174 197 0
175 198 0
173 197 0
175 198 0
175 198 0
174 197 0
173 197 0
175 198 0
175 197 0
173 196 0
173 196 0
174 197 0
173 197 0
174 198 0
175 198 0
174 198 0
175 198 0
175 198 0
176 199 0
176 199 0
175 198 0
173 197 0
174 198 0
174 197 0
176 199 0
175 198 0
174 197 0
173 197 0
174 197 0
176 199 0
175 198 0
176 199 0
175 198 0
175 198 0
175 198 0
174 197 0
175 198 0
174 197 0
174 198 0
175 198 0
174 198 0
174 198 0
174 198 0
176 199 0
174 197 0
173 197 0
173 197 0
175 198 0
173 197 0
174 197 0
174 198 0
172 196 0
175 198 0
175 198 0
174 197 0
176 198 0
175 198 0
174 197 0
174 198 0
174 197 0
175 198 0
174 198 0
175 198 0
173 197 0
175 198 0
175 198 0
174 197 0
174 197 0
174 198 0
176 199 0
174 198 0
174 197 0
174 198 0
175 198 0
175 198 0
174 198 0
174 197 0
174 198 0
172 196 0
175 198 0
175 198 0
175 198 0
173 197 0
174 198 0
173 197 0
174 198 0
173 197 0
174 197 0
175 198 0
173 197 0
173 197 0
175 198 0
172 196 0
174 198 0
174 197 0
174 198 0
174 197 0
175 198 0
175 198 0
176 198 0
174 198 0
173 197 0
175 198 0
175 198 0
174 198 0
174 198 0
173 197 0
173 197 0
173 197 0
174 198 0
175 198 0
173 196 0
173 197 0
173 197 0
174 198 0
175 198 0
174 197 0
174 198 0
174 197 0
172 197 0
174 198 0
174 197 0
174 197 0
174 198 0
174 198 0
173 196 0
174 197 0
172 196 0
175 198 0
174 197 0
176 198 0
173 197 0
176 199 0
174 197 0
173 197 0
175 198 0
174 198 0
173 197 0
172 196 0
175 198 0
173 197 0
175 198 0
173 197 0
174 198 0
176 199 0
173 196 0
175 198 0
173 197 0
175 198 0
176 199 0
173 197 0
173 196 0
172 196 0
175 198 0
173 197 0
174 197 0
172 196 0
173 197 0
175 198 0
175 198 0
174 197 0
175 197 0
174 197 0
174 197 0
174 197 0
174 198 0
174 197 0
172 195 0
173 197 0
174 197 0
173 197 0
174 197 0
173 197 0
174 198 0
173 196 0
172 195 0
173 197 0
175 198 0
174 197 0
175 198 0
173 196 0
174 197 0
173 197 0
174 198 0
175 198 0
173 196 0
172 196 0
172 195 0
173 196 0
174 198 0
174 198 0
173 196 0
173 197 0
172 195 0
172 195 0
173 197 0
171 195 0
173 197 0
174 197 0
170 194 0
173 196 0
173 197 0
171 194 0
173 197 0
174 197 0
172 195 0
175 197 0
172 195 0
174 197 0
172 196 0
174 197 0
173 197 0
174 197 0
176 199 0
173 197 0
173 197 0
172 196 0
173 196 0
171 195 0
172 195 0
172 195 0
174 197 0
173 196 0
176 199 0
172 195 0
173 196 0
175 197 0
174 197 0
173 196 0
172 196 0
173 197 0
173 196 0
172 195 0
175 198 0
174 197 0
172 195 0
173 197 0
173 196 0
175 197 0
173 196 0
175 198 0
172 195 0
173 197 0
173 196 0
173 196 0
174 197 0
172 195 0
173 197 0
172 195 0
173 197 0
172 196 0
173 197 0
172 195 0
173 197 0
171 195 0
174 197 0
173 197 0
174 197 0
176 199 0
171 195 0
174 197 0
173 196 0
174 197 0
175 198 0
172 195 0
173 197 0
172 196 0
173 197 0
174 197 0
175 198 0
174 198 0
174 197 0
169 194 0
174 197 0
176 199 0
175 198 0
173 196 0
173 197 0
174 197 0
173 196 0
175 198 0
174 198 0
174 198 0
174 197 0
172 195 0
171 196 0
177 199 0
174 198 0
173 196 0
174 197 0
175 198 0
176 198 0
174 197 0
174 197 0
172 196 0
172 196 0
173 197 0
174 197 0
172 195 0
173 196 0
172 196 0
174 198 0
173 197 0
174 198 0
174 197 0
176 198 0
173 196 0
172 195 0
172 196 0
174 198 0
174 198 0
172 195 0
172 196 0
175 198 0
171 195 0
173 197 0
172 196 0
173 197 0
173 196 0
173 197 0
172 196 0
173 197 0
174 197 0
175 198 0
174 197 0
175 198 0
174 197 0
175 198 0
175 198 0
175 197 0
175 198 0
174 198 0
173 196 0
173 196 0
173 197 0
174 197 0
173 196 0
174 197 0
174 197 0
174 197 0
176 199 0
173 197 0
175 198 0
172 197 0
175 198 0
175 198 0
174 198 0
174 198 0
175 198 0
174 197 0
174 198 0
174 197 0
175 198 0
175 198 0
174 198 0
174 197 0
174 197 0
175 198 0
173 197 0
173 197 0
175 198 0
174 198 0
175 198 0
174 197 0
174 197 0
172 196 0
173 197 0
172 197 0
175 198 0
175 198 0
175 198 0
173 195 0
174 197 0
174 198 0
170 194 0
174 197 0
175 198 0
171 196 0
175 198 0
173 197 0
174 197 0
175 198 0
174 198 0
175 198 0
174 198 0
175 198 0
174 197 0
174 197 0
175 198 0
172 196 0
174 197 0
173 197 0
174 198 0
173 197 0
174 198 0
174 197 0
174 198 0
173 197 0
175 198 0
176 198 0
173 197 0
174 198 0
175 198 0
174 198 0
173 197 0
176 198 0
174 197 0
175 198 0
175 198 0
175 198 0
174 198 0
174 198 0
172 197 0
175 198 0
175 198 0
175 198 0
174 197 0
175 198 0
175 198 0
173 197 0
175 198 0
175 198 0
173 197 0
174 197 0
174 197 0
174 197 0
175 198 0
173 197 0
175 198 0
175 198 0
174 198 0
174 198 0
174 198 0
175 198 0
175 198 0
174 198 0
174 198 0
174 198 0
173 197 0
175 198 0
175 198 0
174 197 0
175 198 0
174 197 0
173 197 0
176 198 0
174 198 0
174 198 0
174 197 0
174 198 0
173 197 0
175 198 0
175 198 0
172 197 0
174 198 0
174 198 0
175 198 0
175 198 0
174 197 0
175 198 0
173 197 0
172 196 0
174 198 0
177 199 0
175 198 0
174 198 0
174 197 0
174 197 0
173 197 0
175 198 0
173 197 0
174 198 0
175 198 0
175 198 0
173 197 0
174 198 0
173 197 0
175 198 0
175 198 0
174 197 0
174 197 0
175 198 0
173 197 0
174 198 0
173 197 0
175 198 0
174 197 0
175 198 0
174 198 0
174 198 0
174 197 0
175 198 0
175 198 0
175 198 0
174 198 0
173 197 0
174 198 0
172 196 0
175 198 0
174 197 0
175 198 0
174 197 0
173 197 0
174 198 0
173 197 0
173 197 0
174 197 0
173 197 0
174 197 0
173 196 0
173 197 0
174 198 0
174 198 0
174 198 0
176 199 0
172 196 0
173 197 0
173 197 0
174 197 0
173 197 0
176 198 0
175 198 0
175 198 0
175 198 0
174 198 0
174 198 0
172 196 0
175 198 0
173 197 0
175 198 0
174 197 0
172 196 0
174 198 0
173 197 0
174 198 0
174 197 0
174 198 0
174 197 0
174 197 0
174 197 0
174 198 0
173 197 0
173 197 0
175 198 0
176 199 0
174 198 0
174 197 0
172 196 0
173 197 0
175 198 0
174 198 0
176 199 0
174 197 0
174 197 0
175 198 0
173 197 0
171 196 0
173 197 0
172 196 0
174 197 0
172 196 0
174 197 0
174 198 0
172 196 0
173 196 0
174 197 0
173 197 0
174 197 0
174 197 0
174 198 0
173 197 0
174 198 0
173 197 0
174 197 0
176 199 0
173 196 0
173 196 0
174 197 0
172 196 0
173 196 0
174 197 0
175 198 0
171 195 0
172 196 0
172 196 0
176 198 0
175 198 0
172 196 0
173 196 0
175 198 0
175 198 0
173 197 0
172 196 0
175 198 0
174 197 0
175 198 0
174 198 0
172 195 0
173 196 0
174 196 0
174 197 0
171 195 0
173 196 0
176 198 0
175 198 0
173 197 0
172 195 0
173 196 0
172 196 0
173 197 0
174 197 0
173 197 0
173 196 0
172 196 0
169 193 0
172 197 0
173 196 0
174 197 0
173 197 0
173 196 0
173 196 0
174 197 0
170 194 0
172 196 0
170 193 0
174 197 0
172 195 0
171 195 0
174 197 0
172 196 0
174 197 0
172 196 0
171 196 0
174 197 0
174 197 0
174 197 0
172 195 0
174 197 0
172 196 0
172 195 0
172 196 0
174 197 0
172 195 0
172 196 0
175 198 0
174 198 0
173 197 0
173 197 0
174 198 0
174 197 0
175 198 0
173 197 0
173 196 0
172 196 0
172 195 0
173 196 0
174 197 0
172 196 0
173 197 0
172 195 0
174 197 0
172 196 0
174 197 0
174 197 0
172 195 0
174 197 0
173 197 0
174 198 0
174 197 0
173 197 0
172 196 0
175 198 0
174 197 0
173 197 0
174 198 0
174 197 0
174 198 0
174 198 0
173 197 0
173 196 0
175 198 0
172 195 0
173 196 0
173 196 0
173 196 0
173 196 0
174 197 0
174 198 0
174 197 0
175 198 0
172 196 0
173 196 0
176 199 0
173 197 0
171 195 0
173 197 0
174 197 0
173 197 0
174 197 0
174 198 0
173 197 0
173 196 0
173 197 0
175 197 0
175 198 0
174 198 0
175 198 0
173 197 0
173 196 0
173 196 0
176 198 0
174 197 0
175 198 0
174 197 0
174 197 0
174 197 0
174 197 0
174 197 0
174 197 0
175 198 0
174 198 0
173 196 0
171 195 0
174 198 0
175 198 0
174 197 0
172 196 0
174 197 0
173 197 0
173 196 0
175 198 0
174 197 0
173 197 0
173 197 0
171 196 0
176 199 0
175 198 0
173 197 0
175 198 0
175 198 0
175 198 0
174 197 0
173 196 0
177 199 0
173 197 0
174 198 0
174 198 0
174 197 0
174 198 0
173 195 0
173 197 0
175 198 0
175 198 0
175 198 0
174 197 0
173 197 0
174 198 0
173 196 0
174 197 0
172 197 0
174 197 0
174 198 0
174 198 0
174 197 0
173 197 0
174 197 0
174 197 0
173 197 0
174 197 0
175 198 0
174 197 0
172 196 0
172 196 0
175 198 0
174 197 0
174 198 0
175 198 0
173 196 0
175 198 0
173 197 0
175 198 0
173 197 0
175 198 0
175 198 0
174 198 0
175 198 0
174 197 0
173 196 0
174 198 0
177 199 0
173 197 0
174 197 0
174 197 0
176 199 0
174 197 0
173 196 0
175 198 0
173 197 0
174 198 0
175 198 0
175 198 0
175 198 0
174 198 0
174 198 0
176 199 0
174 198 0
173 196 0
174 198 0
173 197 0
174 197 0
174 198 0
175 198 0
175 198 0
173 197 0
175 198 0
174 198 0
175 198 0
173 197 0
173 197 0
174 198 0
175 198 0
174 198 0
175 198 0
173 197 0
173 197 0
176 198 0
175 198 0
175 198 0
174 197 0
174 197 0
174 198 0
176 198 0
173 197 0
173 197 0
174 198 0
175 198 0
175 198 0
174 198 0
174 198 0
173 197 0
173 197 0
174 198 0
173 197 0
174 197 0
175 198 0
173 197 0
174 198 0
174 198 0
176 198 0
173 196 0
175 198 0
175 198 0
174 197 0
173 197 0
174 198 0
174 198 0
175 198 0
175 198 0
173 197 0
174 198 0
174 197 0
174 198 0
175 198 0
173 196 0
174 197 0
175 198 0
174 197 0
175 198 0
172 197 0
173 197 0
174 198 0
175 198 0
175 198 0
174 198 0
174 197 0
174 198 0
175 198 0
175 198 0
172 196 0
174 198 0
174 198 0
174 197 0
173 197 0
174 198 0
175 198 0
174 198 0
173 197 0
173 197 0
175 198 0
172 197 0
175 198 0
174 197 0
175 198 0
174 197 0
175 198 0
174 198 0
175 198 0
175 198 0
172 195 0
174 198 0
176 199 0
175 198 0
174 197 0
174 198 0
174 198 0
175 198 0
173 196 0
174 198 0
175 198 0
174 197 0
174 197 0
173 197 0
174 197 0
174 197 0
174 198 0
175 198 0
173 196 0
174 198 0
176 198 0
175 198 0
174 198 0
174 198 0
173 197 0
175 198 0
173 197 0
174 197 0
173 196 0
174 197 0
175 198 0
175 198 0
173 197 0
176 198 0
172 196 0
174 198 0
172 196 0
174 198 0
176 198 0
174 197 0
176 198 0
176 199 0
174 198 0
176 198 0
173 197 0
174 197 0
173 197 0
173 196 0
175 198 0
174 198 0
173 197 0
174 197 0
173 197 0
175 198 0
174 198 0
174 197 0
173 197 0
173 196 0
172 195 0
173 197 0
174 197 0
173 197 0
172 197 0
173 196 0
173 197 0
174 198 0
173 197 0
173 197 0
171 195 0
171 195 0
174 198 0
175 198 0
174 198 0
173 197 0
173 197 0
171 195 0
173 197 0
176 198 0
174 197 0
173 196 0
174 197 0
174 198 0
175 198 0
174 197 0
172 196 0
173 197 0
173 196 0
171 195 0
173 197 0
172 196 0
173 197 0
173 197 0
175 198 0
175 198 0
175 198 0
174 198 0
174 197 0
173 196 0
171 195 0
174 198 0
173 197 0
175 198 0
173 196 0
175 198 0
172 195 0
173 197 0
173 196 0
173 196 0
173 197 0
174 197 0
174 197 0
174 197 0
173 196 0
174 197 0
175 198 0
172 195 0
171 195 0
173 197 0
173 197 0
172 195 0
174 197 0
172 196 0
172 196 0
175 198 0
173 197 0
173 197 0
170 194 0
174 197 0
173 197 0
172 196 0
171 196 0
173 196 0
171 195 0
172 195 0
173 197 0
174 197 0
172 196 0
174 196 0
172 196 0
173 197 0
174 197 0
174 198 0
174 197 0
173 196 0
174 197 0
175 197 0
174 197 0
175 198 0
174 197 0
174 197 0
175 198 0
173 197 0
175 198 0
174 198 0
174 197 0
174 196 0
173 197 0
175 197 0
173 196 0
173 197 0
172 195 0
173 197 0
174 197 0
175 198 0
173 197 0
175 198 0
174 198 0
173 196 0
174 198 0
173 197 0
173 196 0
174 198 0
174 197 0
173 197 0
173 196 0
172 196 0
175 198 0
173 197 0
172 196 0
175 197 0
173 197 0
173 197 0
174 197 0
173 197 0
173 196 0
172 196 0
173 196 0
172 196 0
175 198 0
173 197 0
173 196 0
175 197 0
171 195 0
173 196 0
174 197 0
172 196 0
174 198 0
173 197 0
174 198 0
172 195 0
175 198 0
174 197 0
173 196 0
172 196 0
174 197 0
174 197 0
175 198 0
175 198 0
174 197 0
172 196 0
174 197 0
175 198 0
173 197 0
173 196 0
174 197 0
175 198 0
174 198 0
174 197 0
175 198 0
175 198 0
173 197 0
174 198 0
174 197 0
174 197 0
173 197 0
171 196 0
174 197 0
174 197 0
174 198 0
173 197 0
174 197 0
173 196 0
174 197 0
173 197 0
175 198 0
175 198 0
175 198 0
174 197 0
175 198 0
175 198 0
174 198 0
173 197 0
173 197 0
175 198 0
174 197 0
175 198 0
174 198 0
172 196 0
173 197 0
174 197 0
174 197 0
173 197 0
174 197 0
175 198 0
172 196 0
174 197 0
174 197 0
172 196 0
175 198 0
176 199 0
173 197 0
173 197 0
173 197 0
172 196 0
173 197 0
172 196 0
173 197 0
173 197 0
175 198 0
174 198 0
173 197 0
174 197 0
174 198 0
174 198 0
173 197 0
174 197 0
174 197 0
173 196 0
175 198 0
173 197 0
174 197 0
175 198 0
176 199 0
174 198 0
176 199 0
174 198 0
176 199 0
173 197 0
175 198 0
174 197 0
173 197 0
174 198 0
175 198 0
175 198 0
174 198 0
173 197 0
172 196 0
173 197 0
174 198 0
174 198 0
174 197 0
175 198 0
175 198 0
175 198 0
175 198 0
174 197 0
175 198 0
175 198 0
174 197 0
174 197 0
175 198 0
174 197 0
175 198 0
173 197 0
174 197 0
175 198 0
173 197 0
173 197 0
174 198 0
174 198 0
174 197 0
173 197 0
172 197 0
174 198 0
175 198 0
175 198 0
176 199 0
175 198 0
172 196 0
174 198 0
175 198 0
173 197 0
174 198 0
175 198 0
175 198 0
175 198 0
174 198 0
173 197 0
174 198 0
176 199 0
174 197 0
174 198 0
174 197 0
174 198 0
174 198 0
175 198 0
175 198 0
173 197 0
175 198 0
173 197 0
175 198 0
175 198 0
174 198 0
173 197 0
174 198 0
175 198 0
175 198 0
173 197 0
175 198 0
175 198 0
174 198 0
174 198 0
174 198 0
173 197 0
175 198 0
174 197 0
175 198 0
174 197 0
175 198 0
173 197 0
175 198 0
173 197 0
174 197 0
174 197 0
175 198 0
177 199 0
175 198 0
174 197 0
174 197 0
173 197 0
174 198 0
175 198 0
174 198 0
174 198 0
176 198 0
173 197 0
173 197 0
175 198 0
175 198 0
174 198 0
175 198 0
174 198 0
174 198 0
173 197 0
174 198 0
175 198 0
173 197 0
176 198 0
174 198 0
174 197 0
174 198 0
174 197 0
176 198 0
175 198 0
174 197 0
175 198 0
175 198 0
173 197 0
172 196 0
175 198 0
173 197 0
174 197 0
174 198 0
172 196 0
173 197 0
174 197 0
175 198 0
175 198 0
175 197 0
175 198 0
173 196 0
174 198 0
175 198 0
173 197 0
174 198 0
175 198 0
176 198 0
174 198 0
173 197 0
174 197 0
175 198 0
173 197 0
175 198 0
174 197 0
175 198 0
174 197 0
173 197 0
174 198 0
175 198 0
173 197 0
173 197 0
175 198 0
175 198 0
173 197 0
173 197 0
173 196 0
174 197 0
173 197 0
174 197 0
173 197 0
175 198 0
173 197 0
174 197 0
173 196 0
174 198 0
173 197 0
173 197 0
175 198 0
173 197 0
174 198 0
174 197 0
174 197 0
173 196 0
174 197 0
173 197 0
173 197 0
174 198 0
174 198 0
173 197 0
174 197 0
173 196 0
173 197 0
174 197 0
174 198 0
175 198 0
175 198 0
173 197 0
173 197 0
175 198 0
173 197 0
173 197 0
173 197 0
174 197 0
172 196 0
174 196 0
173 197 0
172 196 0
174 197 0
174 198 0
174 197 0
173 196 0
173 197 0
174 198 0
174 197 0
174 197 0
175 198 0
173 196 0
169 193 0
174 197 0
172 196 0
171 195 0
175 198 0
175 198 0
174 197 0
173 197 0
172 195 0
173 196 0
173 196 0
174 197 0
174 198 0
173 197 0
174 197 0
173 197 0
172 196 0
172 196 0
174 198 0
173 197 0
171 195 0
174 197 0
173 196 0
172 195 0
174 198 0
172 196 0
174 197 0
171 195 0
173 196 0
173 196 0
170 194 0
172 195 0
173 196 0
173 196 0
170 194 0
173 197 0
172 195 0
173 196 0
172 196 0
174 198 0
173 197 0
173 197 0
174 197 0
174 197 0
174 197 0
174 198 0
172 195 0
173 197 0
172 196 0
173 196 0
170 194 0
174 197 0
173 196 0
173 197 0
173 196 0
168 193 0
174 197 0
175 198 0
173 197 0
173 196 0
174 198 0
172 195 0
173 196 0
173 196 0
174 197 0
172 196 0
174 196 0
173 196 0
175 198 0
173 197 0
173 197 0
172 195 0
174 197 0
174 197 0
175 198 0
173 197 0
171 195 0
174 198 0
172 195 0
173 197 0
175 197 0
175 198 0
175 198 0
173 197 0
175 198 0
172 196 0
172 196 0
172 196 0
174 197 0
173 196 0
175 198 0
174 197 0
172 195 0
174 197 0
173 196 0
173 197 0
174 197 0
173 196 0
174 198 0
175 198 0
173 196 0
174 197 0
175 198 0
172 196 0
176 198 0
172 196 0
176 199 0
171 195 0
174 197 0
171 194 0
174 198 0
172 196 0
174 197 0
174 197 0
174 198 0
175 198 0
175 198 0
174 198 0
175 198 0
171 194 0
175 198 0
174 197 0
171 195 0
172 196 0
174 198 0
175 198 0
174 197 0
175 198 0
174 198 0
174 197 0
174 198 0
173 197 0
174 198 0
172 196 0
174 198 0
175 198 0
173 196 0
173 197 0
174 198 0
173 197 0
173 196 0
174 197 0
174 198 0
175 198 0
174 198 0
176 198 0
174 198 0
174 197 0
173 197 0
173 197 0
172 196 0
174 198 0
174 197 0
175 198 0
174 197 0
174 198 0
174 197 0
174 197 0
175 198 0
175 198 0
174 198 0
174 198 0
174 197 0
175 198 0
174 198 0
174 197 0
176 198 0
174 197 0
175 198 0
173 197 0
175 198 0
173 196 0
172 196 0
174 198 0
173 197 0
175 198 0
174 198 0
174 197 0
173 197 0
175 198 0
175 198 0
172 196 0
174 198 0
173 197 0
175 198 0
175 198 0
173 197 0
175 198 0
175 197 0
173 197 0
174 197 0
174 198 0
174 197 0
174 197 0
174 198 0
173 197 0
173 197 0
173 197 0
175 198 0
174 198 0
172 196 0
173 197 0
174 198 0
173 197 0
176 199 0
174 198 0
175 198 0
173 197 0
175 198 0
174 197 0
176 198 0
174 197 0
174 198 0
174 197 0
174 198 0
174 198 0
173 197 0
175 198 0
173 197 0
176 199 0
174 198 0
175 198 0
174 198 0
173 197 0
175 198 0
175 198 0
173 197 0
174 198 0
172 197 0
175 198 0
173 197 0
175 198 0
176 198 0
174 198 0
175 198 0
175 198 0
174 197 0
173 197 0
174 198 0
174 198 0
174 198 0
173 197 0
175 198 0
175 198 0
173 197 0
174 198 0
174 198 0
174 198 0
173 197 0
174 197 0
173 197 0
175 198 0
174 197 0
173 197 0
172 196 0
174 197 0
175 198 0
175 198 0
173 197 0
172 197 0
173 197 0
174 198 0
174 198 0
174 197 0
175 198 0
174 198 0
174 197 0
174 198 0
175 198 0
176 199 0
175 198 0
172 197 0
176 199 0
174 198 0
173 197 0
175 198 0
175 198 0
173 197 0
175 198 0
174 198 0
175 198 0
174 198 0
175 198 0
174 198 0
173 197 0
175 198 0
174 198 0
173 197 0
173 197 0
174 198 0
174 197 0
174 198 0
174 197 0
175 198 0
176 198 0
174 197 0
175 198 0
174 197 0
175 198 0
174 198 0
173 197 0
174 197 0
174 198 0
174 198 0
174 198 0
174 198 0
173 197 0
175 198 0
174 198 0
174 198 0
174 197 0
174 197 0
174 197 0
174 197 0
175 198 0
176 199 0
173 197 0
174 198 0
175 198 0
173 197 0
176 199 0
175 198 0
175 198 0
175 198 0
174 198 0
175 198 0
175 198 0
175 198 0
174 198 0
173 197 0
171 196 0
174 198 0
172 196 0
172 196 0
174 198 0
173 197 0
174 198 0
174 198 0
173 196 0
173 197 0
174 198 0
174 197 0
173 197 0
175 198 0
174 198 0
175 198 0
175 198 0
175 198 0
172 196 0
174 197 0
174 198 0
174 198 0
173 197 0
174 198 0
175 198 0
174 198 0
175 198 0
171 195 0
173 197 0
173 196 0
176 198 0
173 197 0
172 196 0
173 197 0
175 198 0
173 196 0
175 198 0
174 197 0
175 198 0
172 196 0
174 197 0
174 198 0
174 197 0
173 196 0
174 198 0
172 196 0
174 198 0
173 196 0
170 194 0
175 198 0
174 197 0
173 197 0
174 197 0
173 196 0
173 196 0
173 197 0
174 197 0
172 196 0
174 198 0
170 195 0
174 198 0
175 197 0
175 198 0
173 197 0
175 198 0
173 196 0
170 194 0
174 198 0
176 198 0
175 198 0
175 197 0
172 196 0
174 197 0
174 197 0
174 197 0
174 198 0
173 197 0
172 195 0
172 196 0
174 198 0
173 197 0
177 199 0
172 196 0
173 197 0
172 196 0
172 195 0
172 197 0
175 198 0
172 196 0
173 196 0
173 196 0
174 198 0
173 196 0
175 198 0
172 196 0
173 197 0
173 196 0
173 197 0
172 196 0
173 196 0
174 197 0
174 198 0
173 197 0
173 197 0
171 194 0
173 197 0
173 197 0
174 197 0
174 197 0
174 197 0
172 196 0
173 197 0
173 196 0
173 196 0
173 196 0
171 195 0
173 197 0
174 197 0
173 196 0
172 196 0
172 196 0
172 195 0
174 197 0
172 196 0
172 196 0
173 197 0
172 196 0
173 197 0
173 196 0
174 198 0
173 196 0
174 197 0
173 197 0
172 197 0
173 197 0
174 197 0
171 195 0
173 197 0
170 194 0
171 194 0
172 196 0
173 195 0
174 198 0
171 195 0
174 197 0
173 197 0
173 196 0
174 197 0
172 196 0
173 197 0
171 195 0
171 194 0
173 197 0
173 197 0
175 197 0
173 197 0
174 197 0
173 197 0
174 198 0
174 198 0
174 197 0
172 196 0
173 197 0
171 195 0
175 198 0
173 196 0
172 195 0
173 197 0
175 198 0
174 198 0
174 198 0
176 199 0
174 197 0
174 197 0
175 198 0
173 197 0
173 197 0
175 198 0
173 196 0
172 196 0
174 197 0
173 196 0
174 197 0
174 197 0
174 197 0
175 198 0
175 198 0
172 196 0
174 197 0
172 196 0
174 197 0
174 198 0
175 198 0
175 198 0
173 197 0
174 197 0
174 197 0
175 198 0
173 197 0
174 198 0
175 198 0
173 197 0
172 196 0
174 197 0
175 198 0
172 197 0
172 196 0
174 198 0
174 197 0
174 197 0
173 197 0
174 198 0
174 197 0
175 198 0
172 195 0
175 198 0
173 196 0
174 197 0
175 198 0
172 196 0
173 196 0
173 197 0
174 197 0
173 197 0
173 196 0
173 196 0
175 198 0
173 196 0
174 197 0
174 198 0
174 198 0
175 198 0
173 196 0
175 198 0
173 197 0
175 198 0
172 196 0
174 197 0
174 197 0
173 197 0
174 197 0
175 198 0
171 195 0
174 198 0
175 198 0
175 198 0
176 199 0
173 196 0
173 197 0
173 196 0
173 197 0
175 198 0
174 197 0
176 198 0
175 198 0
173 196 0
175 198 0
174 198 0
175 198 0
173 197 0
175 198 0
176 198 0
173 197 0
174 198 0
176 198 0
175 198 0
173 197 0
175 198 0
174 197 0
175 198 0
174 198 0
175 198 0
176 199 0
175 198 0
174 198 0
175 198 0
176 198 0
174 197 0
176 199 0
175 198 0
175 198 0
174 198 0
173 197 0
176 198 0
176 198 0
174 198 0
174 197 0
174 198 0
173 197 0
175 198 0
174 198 0
174 198 0
175 198 0
175 198 0
174 198 0
172 196 0
174 197 0
174 198 0
174 197 0
175 198 0
175 198 0
173 197 0
175 198 0
176 199 0
173 197 0
175 198 0
175 198 0
174 198 0
174 198 0
173 197 0
174 197 0
173 197 0
174 198 0
175 198 0
174 198 0
174 197 0
172 196 0
174 197 0
175 198 0
175 198 0
174 197 0
174 198 0
176 199 0
174 197 0
176 199 0
175 198 0
174 197 0
174 198 0
176 199 0
175 198 0
175 198 0
174 197 0
175 198 0
176 198 0
174 198 0
174 198 0
176 199 0
175 198 0
174 198 0
174 197 0
174 198 0
175 198 0
173 196 0
175 198 0
174 198 0
175 198 0
174 198 0
174 197 0
174 198 0
173 197 0
173 197 0
176 199 0
175 198 0
176 199 0
174 197 0
174 198 0
174 197 0
174 197 0
173 196 0
174 198 0
174 198 0
174 198 0
174 198 0
176 198 0
174 198 0
173 197 0
174 198 0
174 198 0
175 198 0
173 197 0
174 197 0
172 197 0
173 197 0
173 197 0
172 196 0
173 197 0
174 197 0
176 198 0
175 198 0
175 198 0
173 197 0
174 197 0
175 198 0
174 198 0
174 198 0
175 198 0
174 197 0
173 197 0
173 197 0
174 197 0
173 197 0
173 197 0
175 198 0
175 198 0
173 196 0
174 197 0
172 197 0
174 197 0
173 197 0
174 198 0
175 198 0
173 197 0
173 197 0
174 197 0
173 197 0
175 198 0
176 199 0
173 197 0
175 198 0
174 198 0
175 198 0
174 198 0
173 196 0
170 194 0
174 197 0
174 197 0
173 197 0
175 198 0
174 197 0
175 198 0
175 198 0
174 198 0
175 198 0
174 198 0
174 197 0
172 196 0
172 196 0
174 198 0
174 197 0
174 197 0
172 196 0
173 196 0
172 196 0
174 198 0
173 197 0
175 198 0
173 196 0
173 197 0
174 197 0
174 197 0
173 197 0
176 199 0
174 198 0
173 197 0
174 198 0
173 197 0
174 198 0
175 198 0
174 197 0
174 197 0
173 196 0
174 197 0
173 197 0
175 198 0
173 196 0
175 198 0
174 198 0
174 197 0
175 198 0
171 195 0
174 197 0
172 196 0
172 195 0
174 197 0
171 194 0
175 198 0
172 196 0
175 198 0
173 197 0
173 197 0
172 196 0
175 198 0
174 197 0
171 194 0
174 197 0
172 196 0
175 198 0
175 197 0
173 196 0
173 197 0
174 197 0
173 196 0
173 196 0
174 197 0
172 195 0
172 196 0
174 197 0
173 196 0
174 197 0
174 197 0
175 198 0
171 194 0
172 196 0
173 197 0
173 197 0
172 196 0
171 194 0
173 196 0
175 198 0
174 196 0
174 197 0
173 196 0
171 194 0
174 197 0
174 197 0
173 196 0
171 195 0
172 196 0
172 196 0
175 198 0
175 197 0
172 196 0
175 197 0
175 198 0
174 197 0
173 197 0
173 197 0
172 196 0
173 196 0
174 198 0
173 196 0
173 196 0
172 196 0
175 198 0
173 197 0
172 195 0
174 197 0
173 197 0
172 196 0
174 197 0
174 197 0
172 196 0
171 194 0
174 197 0
171 194 0
172 195 0
175 198 0
175 197 0
174 197 0
173 196 0
173 197 0
173 196 0
175 198 0
174 197 0
175 198 0
174 198 0
174 197 0
173 196 0
174 197 0
174 198 0
173 197 0
173 197 0
173 197 0
172 196 0
174 198 0
174 197 0
173 196 0
172 196 0
173 197 0
171 195 0
174 197 0
171 194 0
174 197 0
174 198 0
175 198 0
172 196 0
174 198 0
172 196 0
175 197 0
173 197 0
174 197 0
173 196 0
172 195 0
174 197 0
173 197 0
172 196 0
174 198 0
175 198 0
173 197 0
175 198 0
173 197 0
174 197 0
173 197 0
174 197 0
174 197 0
172 196 0
174 197 0
174 198 0
173 196 0
173 197 0
173 197 0
173 197 0
173 197 0
173 197 0
173 196 0
174 198 0
174 197 0
173 196 0
174 197 0
174 197 0
173 197 0
174 197 0
174 197 0
175 198 0
174 197 0
174 198 0
174 197 0
175 198 0
174 198 0
174 197 0
174 197 0
174 198 0
175 198 0
175 198 0
174 198 0
175 198 0
174 197 0
175 198 0
174 197 0
177 199 0
175 198 0
173 197 0
173 197 0
172 196 0
174 198 0
176 199 0
172 196 0
175 198 0
174 198 0
175 198 0
174 198 0
176 199 0
173 197 0
175 198 0
174 197 0
175 198 0
175 198 0
173 197 0
174 197 0
173 197 0
175 198 0
171 195 0
172 196 0
176 198 0
174 197 0
175 198 0
173 197 0
174 197 0
175 198 0
176 199 0
172 196 0
173 197 0
174 197 0
175 198 0
174 197 0
175 198 0
175 198 0
173 197 0
176 199 0
175 198 0
174 198 0
174 197 0
174 198 0
174 198 0
173 197 0
176 199 0
176 198 0
174 197 0
174 197 0
174 197 0
176 198 0
173 197 0
174 197 0
174 198 0
175 198 0
174 197 0
174 197 0
177 199 0
173 197 0
173 197 0
176 199 0
172 197 0
173 197 0
174 198 0
174 197 0
175 198 0
175 198 0
174 198 0
174 198 0
175 198 0
175 198 0
173 197 0
175 198 0
175 198 0
174 197 0
173 197 0
174 198 0
173 197 0
175 198 0
174 198 0
175 198 0
173 197 0
175 198 0
175 198 0
173 197 0
176 198 0
174 197 0
174 198 0
173 196 0
174 198 0
174 197 0
175 198 0
174 198 0
173 197 0
174 197 0
175 198 0
175 198 0
175 198 0
174 197 0
172 197 0
173 197 0
173 197 0
172 196 0
176 199 0
174 197 0
174 198 0
174 198 0
173 197 0
174 198 0
173 197 0
174 198 0
174 198 0
173 197 0
175 198 0
175 198 0
172 196 0
174 198 0
174 197 0
173 197 0
174 197 0
173 197 0
174 198 0
174 198 0
174 198 0
176 199 0
175 198 0
174 197 0
172 196 0
175 198 0
175 198 0
174 197 0
174 197 0
174 198 0
175 198 0
173 197 0
176 199 0
176 198 0
175 198 0
174 197 0
174 198 0
175 198 0
174 198 0
174 197 0
175 198 0
175 198 0
174 198 0
173 197 0
172 196 0
173 196 0
172 196 0
174 198 0
174 198 0
174 198 0
175 198 0
175 198 0
175 198 0
174 198 0
174 197 0
174 197 0
174 197 0
175 198 0
175 198 0
172 196 0
174 198 0
173 196 0
173 197 0
175 198 0
176 199 0
173 197 0
175 198 0
175 198 0
174 197 0
175 198 0
174 198 0
173 197 0
174 197 0
174 197 0
173 197 0
175 198 0
175 198 0
174 198 0
173 197 0
175 198 0
173 197 0
173 197 0
173 197 0
175 198 0
173 196 0
174 198 0
173 196 0
173 197 0
175 198 0
175 198 0
173 196 0
176 198 0
173 197 0
173 197 0
173 197 0
175 198 0
174 198 0
175 198 0
174 197 0
174 198 0
175 198 0
174 197 0
175 198 0
174 198 0
174 197 0
174 197 0
173 197 0
175 198 0
173 197 0
176 199 0
175 198 0
174 197 0
173 197 0
175 198 0
172 197 0
174 197 0
174 197 0
172 196 0
171 196 0
175 198 0
175 198 0
174 198 0
174 198 0
173 197 0
172 196 0
172 196 0
171 196 0
173 197 0
174 197 0
174 197 0
174 197 0
173 197 0
174 197 0
175 198 0
174 198 0
173 197 0
175 198 0
174 197 0
173 197 0
172 196 0
173 196 0
175 198 0
173 196 0
173 197 0
173 196 0
172 197 0
173 196 0
172 196 0
173 197 0
172 196 0
175 198 0
173 197 0
172 196 0
172 195 0
175 198 0
174 197 0
173 196 0
173 197 0
172 195 0
171 195 0
173 197 0
172 196 0
172 196 0
174 197 0
173 197 0
172 195 0
173 196 0
174 197 0
169 192 0
173 197 0
173 196 0
173 196 0
175 197 0
174 198 0
175 198 0
173 197 0
173 197 0
175 198 0
174 197 0
173 197 0
174 197 0
175 198 0
174 198 0
173 196 0
172 196 0
172 196 0
172 195 0
174 197 0
171 195 0
172 197 0
173 197 0
175 198 0
174 198 0
172 195 0
174 197 0
174 197 0
173 196 0
175 198 0
175 198 0
174 197 0
174 197 0
174 198 0
173 197 0
173 197 0
173 197 0
172 196 0
173 197 0
171 196 0
174 198 0
173 197 0
171 194 0
173 196 0
174 197 0
171 195 0
175 198 0
172 196 0
171 194 0
173 196 0
173 197 0
175 198 0
176 198 0
173 197 0
174 197 0
174 197 0
174 197 0
173 197 0
172 196 0
173 196 0
173 197 0
174 198 0
174 198 0
174 196 0
171 195 0
169 193 0
175 198 0
175 198 0
174 198 0
173 196 0
172 196 0
174 197 0
174 198 0
173 197 0
174 197 0
174 197 0
174 197 0
173 196 0
174 196 0
173 197 0
174 198 0
173 196 0
174 197 0
173 196 0
172 195 0
175 198 0
174 197 0
173 197 0
174 197 0
175 198 0
175 198 0
171 195 0
173 196 0
173 197 0
173 197 0
174 198 0
173 196 0
173 196 0
174 197 0
172 196 0
175 197 0
173 196 0
174 197 0
173 197 0
173 197 0
175 197 0
172 195 0
173 197 0
175 198 0
173 196 0
175 198 0
175 198 0
173 197 0
174 197 0
174 197 0
175 198 0
173 197 0
175 198 0
173 197 0
175 198 0
173 197 0
175 198 0
174 197 0
174 198 0
177 199 0
175 198 0
171 195 0
173 197 0
174 197 0
176 198 0
176 198 0
173 196 0
174 197 0
174 197 0
175 198 0
175 198 0
174 197 0
174 197 0
176 199 0
174 197 0
174 198 0
174 198 0
173 196 0
175 198 0
173 197 0
174 198 0
175 198 0
175 198 0
173 197 0
173 197 0
175 198 0
173 196 0
174 197 0
174 197 0
175 198 0
174 197 0
174 197 0
173 197 0
173 197 0
174 197 0
175 198 0
176 199 0
175 198 0
173 197 0
173 197 0
172 197 0
173 197 0
175 198 0
174 197 0
174 197 0
172 196 0
174 198 0
173 197 0
173 197 0
175 198 0
175 198 0
175 198 0
173 197 0
174 197 0
173 197 0
176 198 0
175 198 0
175 198 0
175 198 0
174 197 0
175 198 0
175 198 0
173 197 0
174 198 0
174 198 0
175 198 0
174 198 0
173 197 0
175 198 0
176 199 0
173 197 0
175 198 0
174 198 0
175 198 0
171 196 0
174 197 0
174 197 0
174 198 0
175 198 0
175 198 0
174 197 0
173 197 0
172 196 0
174 198 0
173 197 0
175 198 0
173 197 0
174 198 0
173 197 0
173 197 0
173 197 0
175 198 0
174 198 0
174 197 0
175 198 0
174 197 0
173 197 0
173 197 0
175 198 0
174 198 0
176 199 0
173 197 0
174 197 0
173 197 0
174 197 0
173 197 0
174 198 0
174 198 0
174 198 0
174 198 0
173 197 0
176 199 0
172 196 0
175 198 0
175 198 0
174 198 0
174 197 0
174 198 0
173 197 0
173 197 0
174 197 0
173 197 0
174 198 0
175 198 0
175 198 0
174 198 0
175 198 0
174 198 0
173 197 0
173 197 0
175 198 0
175 198 0
175 198 0
174 197 0
176 199 0
174 198 0
174 198 0
173 197 0
174 197 0
175 198 0
174 197 0
175 198 0
175 198 0
174 198 0
173 197 0
175 198 0
174 198 0
174 197 0
174 198 0
174 198 0
174 198 0
173 197 0
173 197 0
174 198 0
175 198 0
174 198 0
175 198 0
173 197 0
174 197 0
173 197 0
173 197 0
174 198 0
176 199 0
175 198 0
174 197 0
174 198 0
175 198 0
173 197 0
175 198 0
174 197 0
175 198 0
173 197 0
175 198 0
173 197 0
173 197 0
174 197 0
172 196 0
173 197 0
174 198 0
175 198 0
173 197 0
176 198 0
175 198 0
175 198 0
174 197 0
175 198 0
174 197 0
176 198 0
174 198 0
173 197 0
175 198 0
175 198 0
173 197 0
174 197 0
172 196 0
173 197 0
174 198 0
176 199 0
173 197 0
175 198 0
173 197 0
175 198 0
174 198 0
174 197 0
173 196 0
173 197 0
174 198 0
174 198 0
174 197 0
172 196 0
173 197 0
174 197 0
174 197 0
174 197 0
174 198 0
174 197 0
174 198 0
175 198 0
172 196 0
175 198 0
174 197 0
174 197 0
172 196 0
172 196 0
172 196 0
173 197 0
174 197 0
173 197 0
174 198 0
173 197 0
172 196 0
174 197 0
174 198 0
176 199 0
174 198 0
174 198 0
175 198 0
173 197 0
173 196 0
172 196 0
172 196 0
173 197 0
172 195 0
172 195 0
172 196 0
175 198 0
173 197 0
173 197 0
173 196 0
175 198 0
174 198 0
174 197 0
172 196 0
173 196 0
174 197 0
171 195 0
172 196 0
173 197 0
177 199 0
172 195 0
174 197 0
175 198 0
173 196 0
174 198 0
174 197 0
174 197 0
172 194 0
174 198 0
172 196 0
173 197 0
174 197 0
173 197 0
173 197 0
173 197 0
175 197 0
175 197 0
172 196 0
174 197 0
173 196 0
173 197 0
172 195 0
172 195 0
174 198 0
174 197 0
174 196 0
171 195 0
169 194 0
174 198 0
176 198 0
171 195 0
174 198 0
174 198 0
173 197 0
175 198 0
173 197 0
171 195 0
174 197 0
173 197 0
172 196 0
173 197 0
174 198 0
174 197 0
175 198 0
174 197 0
173 197 0
174 198 0
173 197 0
172 196 0
174 197 0
174 197 0
175 197 0
172 196 0
171 195 0
174 197 0
173 197 0
174 198 0
171 195 0
175 198 0
173 197 0
173 196 0
173 196 0
173 197 0
174 196 0
173 196 0
173 196 0
173 197 0
174 197 0
172 195 0
172 195 0
175 198 0
172 195 0
173 196 0
171 195 0
173 197 0
173 196 0
173 197 0
173 196 0
174 197 0
174 198 0
174 197 0
173 197 0
170 194 0
173 196 0
174 197 0
174 197 0
176 199 0
171 195 0
173 197 0
173 197 0
173 196 0
173 197 0
174 197 0
171 196 0
175 198 0
175 198 0
173 196 0
173 196 0
176 198 0
172 195 0
174 198 0
173 197 0
174 198 0
175 198 0
175 198 0
173 197 0
172 195 0
174 197 0
174 198 0
173 197 0
174 197 0
174 198 0
174 197 0
174 197 0
173 197 0
175 198 0
175 198 0
174 197 0
172 196 0
172 195 0
174 198 0
174 197 0
170 194 0
173 197 0
173 196 0
173 197 0
175 197 0
173 197 0
175 198 0
173 196 0
170 194 0
173 197 0
171 195 0
173 197 0
174 197 0
173 197 0
173 197 0
172 196 0
177 199 0
173 197 0
173 197 0
175 198 0
174 198 0
174 197 0
173 195 0
175 198 0
174 198 0
174 197 0
174 197 0
173 196 0
174 198 0
174 198 0
173 197 0
174 198 0
174 197 0
174 197 0
172 196 0
174 198 0
175 198 0
174 197 0
173 197 0
175 198 0
174 198 0
176 199 0
174 197 0
175 198 0
175 198 0
175 198 0
174 198 0
174 197 0
176 199 0
174 197 0
173 197 0
174 197 0
176 199 0
173 197 0
173 197 0
175 198 0
172 196 0
173 197 0
173 197 0
174 198 0
173 197 0
174 198 0
174 198 0
176 198 0
174 198 0
174 197 0
175 198 0
175 198 0
175 198 0
174 198 0
175 198 0
174 197 0
173 197 0
175 198 0
174 197 0
174 197 0
175 198 0
174 197 0
173 197 0
175 198 0
174 197 0
175 198 0
175 198 0
174 197 0
174 197 0
173 196 0
174 198 0
173 197 0
175 198 0
175 197 0
173 197 0
176 198 0
174 198 0
175 198 0
174 198 0
174 197 0
175 198 0
173 197 0
175 198 0
176 199 0
174 198 0
174 198 0
174 198 0
173 197 0
174 198 0
177 199 0
174 198 0
174 197 0
173 197 0
173 196 0
175 198 0
175 198 0
174 197 0
175 198 0
173 197 0
174 197 0
174 198 0
175 198 0
175 198 0
172 197 0
175 198 0
174 198 0
175 198 0
175 198 0
175 198 0
174 198 0
174 198 0
175 198 0
174 198 0
175 198 0
174 198 0
173 197 0
172 196 0
174 197 0
176 198 0
175 198 0
174 197 0
175 198 0
175 198 0
174 198 0
173 197 0
174 198 0
174 197 0
174 198 0
173 197 0
173 197 0
174 198 0
175 198 0
172 196 0
176 198 0
174 198 0
175 198 0
174 197 0
176 199 0
173 197 0
175 198 0
175 198 0
175 198 0
174 197 0
174 197 0
174 197 0
175 198 0
175 198 0
172 197 0
175 198 0
175 198 0
174 197 0
174 198 0
174 198 0
174 197 0
175 198 0
175 198 0
172 195 0
174 198 0
174 198 0
175 198 0
175 198 0
175 198 0
172 196 0
174 198 0
174 198 0
176 198 0
174 196 0
173 197 0
175 198 0
175 198 0
173 197 0
174 198 0
174 198 0
175 198 0
175 198 0
172 197 0
174 198 0
174 197 0
175 197 0
173 197 0
175 198 0
175 198 0
172 196 0
173 196 0
174 198 0
174 197 0
174 197 0
174 198 0
173 197 0
173 197 0
174 198 0
174 197 0
175 198 0
175 198 0
175 198 0
173 197 0
175 198 0
174 198 0
174 197 0
175 198 0
172 196 0
173 197 0
174 198 0
175 198 0
173 197 0
174 197 0
173 197 0
173 197 0
174 197 0
174 197 0
175 198 0
174 198 0
174 197 0
174 198 0
175 198 0
175 198 0
174 197 0
174 198 0
174 197 0
174 197 0
172 195 0
174 197 0
175 198 0
173 196 0
174 197 0
174 198 0
172 196 0
175 198 0
173 197 0
173 197 0
174 197 0
175 198 0
174 197 0
173 197 0
174 197 0
173 197 0
173 197 0
172 196 0
172 195 0
175 198 0
172 196 0
174 198 0
175 198 0
172 197 0
172 196 0
175 198 0
174 198 0
175 198 0
173 196 0
175 198 0
172 195 0
175 198 0
171 195 0
174 198 0
172 196 0
172 197 0
173 196 0
175 198 0
173 197 0
174 198 0
172 196 0
174 197 0
175 197 0
171 195 0
172 196 0
172 195 0
174 197 0
173 197 0
173 197 0
170 193 0
174 197 0
174 197 0
173 196 0
175 198 0
174 197 0
172 196 0
173 197 0
173 197 0
174 197 0
175 198 0
172 196 0
172 196 0
172 196 0
173 197 0
171 194 0
175 198 0
173 197 0
172 196 0
174 197 0
171 195 0
174 197 0
174 197 0
173 196 0
172 195 0
172 196 0
172 195 0
174 197 0
171 195 0
172 196 0
174 197 0
171 195 0
171 194 0
174 197 0
172 196 0
174 197 0
171 195 0
173 196 0
173 196 0
173 196 0
172 195 0
172 196 0
173 197 0
173 196 0
172 196 0
174 197 0
174 197 0
173 197 0
175 198 0
173 197 0
172 196 0
173 197 0
173 197 0
175 198 0
175 198 0
175 198 0
172 196 0
174 197 0
173 196 0
174 197 0
172 196 0
171 195 0
172 196 0
173 197 0
171 194 0
172 196 0
172 196 0
174 198 0
175 198 0
173 197 0
172 196 0
173 197 0
173 196 0
172 196 0
173 197 0
173 196 0
175 198 0
175 198 0
173 197 0
173 197 0
171 195 0
173 196 0
173 197 0
173 196 0
175 197 0
172 195 0
175 198 0
174 198 0
170 194 0
173 197 0
174 197 0
173 196 0
172 196 0
174 198 0
171 195 0
174 197 0
174 197 0
173 197 0
172 195 0
171 195 0
173 197 0
173 196 0
176 198 0
175 198 0
175 198 0
174 198 0
175 198 0
173 197 0
174 197 0
172 196 0
174 198 0
175 198 0
173 197 0
174 197 0
174 197 0
173 197 0
176 199 0
173 197 0
174 197 0
174 198 0
173 197 0
174 197 0
172 195 0
174 197 0
174 198 0
173 197 0
173 197 0
173 197 0
173 197 0
173 197 0
173 196 0
172 196 0
174 197 0
175 198 0
173 197 0
172 196 0
175 198 0
174 198 0
173 196 0
174 197 0
174 198 0
173 196 0
175 198 0
173 196 0
173 197 0
172 196 0
173 196 0
175 198 0
175 198 0
171 196 0
171 196 0
175 198 0
174 197 0
175 198 0
174 197 0
174 198 0
174 197 0
174 198 0
173 197 0
175 198 0
175 198 0
174 198 0
174 197 0
175 197 0
174 198 0
175 198 0
175 198 0
175 198 0
174 197 0
174 197 0
175 198 0
174 197 0
174 197 0
174 197 0
172 197 0
173 197 0
174 197 0
174 198 0
176 198 0
174 197 0
174 198 0
173 196 0
173 197 0
174 197 0
175 198 0
173 197 0
175 198 0
174 197 0
174 198 0
174 197 0
173 197 0
174 198 0
175 198 0
176 199 0
174 197 0
173 197 0
175 198 0
175 198 0
174 198 0
175 198 0
175 198 0
174 198 0
174 197 0
175 198 0
175 198 0
175 198 0
175 198 0
173 197 0
175 198 0
173 197 0
176 198 0
173 197 0
173 197 0
174 197 0
174 198 0
174 197 0
173 197 0
174 198 0
175 198 0
175 198 0
174 197 0
174 197 0
174 198 0
174 198 0
175 198 0
175 198 0
174 198 0
174 197 0
174 197 0
173 197 0
176 199 0
173 197 0
175 198 0
174 198 0
173 197 0
174 197 0
173 196 0
174 198 0
175 198 0
174 197 0
174 198 0
173 197 0
175 198 0
172 197 0
175 198 0
174 198 0
175 198 0
173 197 0
173 197 0
175 198 0
173 197 0
174 197 0
173 197 0
175 198 0
175 198 0
175 198 0
173 197 0
174 197 0
176 198 0
175 198 0
175 198 0
174 197 0
175 198 0
175 198 0
174 198 0
173 197 0
175 198 0
176 198 0
172 196 0
173 197 0
175 198 0
172 196 0
173 197 0
174 198 0
174 197 0
173 197 0
174 197 0
174 197 0
174 198 0
175 198 0
173 196 0
175 198 0
174 197 0
174 198 0
173 197 0
175 198 0
174 197 0
175 198 0
174 198 0
172 197 0
175 198 0
173 196 0
174 197 0
173 196 0
174 197 0
175 198 0
176 198 0
174 196 0
174 197 0
174 198 0
173 197 0
174 198 0
172 196 0
174 198 0
176 199 0
176 199 0
174 197 0
173 197 0
173 197 0
174 198 0
174 198 0
174 197 0
175 198 0
175 198 0
175 198 0
173 197 0
174 198 0
174 198 0
175 198 0
172 196 0
174 198 0
174 197 0
172 197 0
173 197 0
172 197 0
173 197 0
172 196 0
173 197 0
172 196 0
173 197 0
176 198 0
174 198 0
172 196 0
174 197 0
175 198 0
172 196 0
174 198 0
175 197 0
173 196 0
172 196 0
173 197 0
176 199 0
175 198 0
174 197 0
174 197 0
173 197 0
174 198 0
174 198 0
173 197 0
174 198 0
174 197 0
174 198 0
175 198 0
174 197 0
173 197 0
172 196 0
174 197 0
175 198 0
173 197 0
173 197 0
172 195 0
173 197 0
174 198 0
176 199 0
173 197 0
172 195 0
173 196 0
172 197 0
172 195 0
173 196 0
175 198 0
174 197 0
174 197 0
175 198 0
175 198 0
175 198 0
172 196 0
173 197 0
175 198 0
172 196 0
173 197 0
173 197 0
171 195 0
174 197 0
173 197 0
173 196 0
174 197 0
172 196 0
174 198 0
172 196 0
175 198 0
173 197 0
174 196 0
175 198 0
174 197 0
172 196 0
172 196 0
176 199 0
174 197 0
173 197 0
171 195 0
173 196 0
173 196 0
175 198 0
173 196 0
174 197 0
175 198 0
170 194 0
174 197 0
172 196 0
173 197 0
174 197 0
173 197 0
174 198 0
172 196 0
174 197 0
172 196 0
173 197 0
174 198 0
172 196 0
173 197 0
174 197 0
172 196 0
175 198 0
174 197 0
170 194 0
173 197 0
174 197 0
174 197 0
172 196 0
173 196 0
173 197 0
173 196 0
173 196 0
174 198 0
175 198 0
173 197 0
172 196 0
174 197 0
175 198 0
173 196 0
175 198 0
174 197 0
172 195 0
172 196 0
174 197 0
174 197 0
173 197 0
174 198 0
172 196 0
173 197 0
172 196 0
175 198 0
173 197 0
172 195 0
173 197 0
176 198 0
174 198 0
174 198 0
174 197 0
175 197 0
172 195 0
173 197 0
175 198 0
173 197 0
176 198 0
174 197 0
174 198 0
174 198 0
173 197 0
173 197 0
172 196 0
174 197 0
173 196 0
172 196 0
173 197 0
174 197 0
173 196 0
175 198 0
175 198 0
174 197 0
174 197 0
173 197 0
174 198 0
175 198 0
173 197 0
172 196 0
173 196 0
172 196 0
175 198 0
174 196 0
173 197 0
175 197 0
174 197 0
174 198 0
172 196 0
172 195 0
172 196 0
174 198 0
172 196 0
173 197 0
173 197 0
172 196 0
174 198 0
173 197 0
174 197 0
174 197 0
174 197 0
173 196 0
175 198 0
174 198 0
174 197 0
175 198 0
173 196 0
174 197 0
174 197 0
173 196 0
176 199 0
176 199 0
173 197 0
175 197 0
175 197 0
175 198 0
173 196 0
173 197 0
175 198 0
173 197 0
174 197 0
173 197 0
173 197 0
174 198 0
174 198 0
173 197 0
173 197 0
174 198 0
175 198 0
173 197 0
175 197 0
174 198 0
174 197 0
175 198 0
173 196 0
172 196 0
174 198 0
175 198 0
174 197 0
174 197 0
173 197 0
174 198 0
176 198 0
173 197 0
175 198 0
173 196 0
177 199 0
173 196 0
173 197 0
174 198 0
175 198 0
172 196 0
175 198 0
175 198 0
174 197 0
175 198 0
174 198 0
176 199 0
175 198 0
172 196 0
176 198 0
175 198 0
175 198 0
174 198 0
174 198 0
175 198 0
174 198 0
174 197 0
173 197 0
175 198 0
174 198 0
172 196 0
172 195 0
175 198 0
173 197 0
176 198 0
173 197 0
172 196 0
173 197 0
174 198 0
173 197 0
175 198 0
174 197 0
174 197 0
175 198 0
175 198 0
176 199 0
174 198 0
175 198 0
175 198 0
173 197 0
175 198 0
173 196 0
173 197 0
175 198 0
175 198 0
175 198 0
174 197 0
174 198 0
174 198 0
174 197 0
175 198 0
176 198 0
172 197 0
175 198 0
175 198 0
174 197 0
175 198 0
175 198 0
177 199 0
174 198 0
175 198 0
175 198 0
174 198 0
173 197 0
170 195 0
173 197 0
175 198 0
175 198 0
173 197 0
173 197 0
175 198 0
174 198 0
174 198 0
175 198 0
173 197 0
173 197 0
175 198 0
174 198 0
173 197 0
173 197 0
175 198 0
173 197 0
173 197 0
175 197 0
174 198 0
174 197 0
174 198 0
173 197 0
174 198 0
175 198 0
174 198 0
175 198 0
175 198 0
175 198 0
174 197 0
173 197 0
176 198 0
173 197 0
174 197 0
175 198 0
175 198 0
175 198 0
174 197 0
173 197 0
174 198 0
174 198 0
175 198 0
174 197 0
174 198 0
175 198 0
174 198 0
175 198 0
174 198 0
174 197 0
174 198 0
175 198 0
176 198 0
174 197 0
175 198 0
173 197 0
174 197 0
174 198 0
174 198 0
174 197 0
173 197 0
175 198 0
175 198 0
174 198 0
171 195 0
173 197 0
174 198 0
177 199 0
174 198 0
175 198 0
173 197 0
174 198 0
173 196 0
173 197 0
174 197 0
175 198 0
174 197 0
174 198 0
173 197 0
176 199 0
174 197 0
174 198 0
175 198 0
172 197 0
175 198 0
174 198 0
174 198 0
174 198 0
174 197 0
173 197 0
175 198 0
175 198 0
174 198 0
174 197 0
174 198 0
172 196 0
175 198 0
175 198 0
173 197 0
175 198 0
175 198 0
175 198 0
175 198 0
174 197 0
173 197 0
174 198 0
174 198 0
173 197 0
174 197 0
173 197 0
174 197 0
173 197 0
175 198 0
173 196 0
172 196 0
175 198 0
175 198 0
173 197 0
174 197 0
173 197 0
172 196 0
170 194 0
174 197 0
175 198 0
171 195 0
173 196 0
173 196 0
173 196 0
173 197 0
173 197 0
174 197 0
174 197 0
175 198 0
174 197 0
174 197 0
174 198 0
173 197 0
175 198 0
175 198 0
174 197 0
174 197 0
175 198 0
172 196 0
176 198 0
174 196 0
173 197 0
175 198 0
172 196 0
175 198 0
171 195 0
175 198 0
173 196 0
173 196 0
171 195 0
173 196 0
174 198 0
173 197 0
173 197 0
172 196 0
173 197 0
175 198 0
174 198 0
173 197 0
173 197 0
174 197 0
174 197 0
174 197 0
174 198 0
173 197 0
173 196 0
176 198 0
174 197 0
173 196 0
174 198 0
172 196 0
172 196 0
173 197 0
172 197 0
173 197 0
175 198 0
172 196 0
171 195 0
173 197 0
174 197 0
172 195 0
174 197 0
174 197 0
173 196 0
173 196 0
173 196 0
176 199 0
174 197 0
171 196 0
170 194 0
171 196 0
174 198 0
172 197 0
174 198 0
173 196 0
172 196 0
173 197 0
173 197 0
172 196 0
173 197 0
172 196 0
173 197 0
172 195 0
173 197 0
172 196 0
173 197 0
172 196 0
173 196 0
174 197 0
173 197 0
169 193 0
172 195 0
171 195 0
172 196 0
172 195 0
176 198 0
174 198 0
175 198 0
172 196 0
173 197 0
172 196 0
174 197 0
172 196 0
172 196 0
176 198 0
173 197 0
173 196 0
174 197 0
173 197 0
175 198 0
175 198 0
175 198 0
175 198 0
173 197 0
174 197 0
175 198 0
173 196 0
173 197 0
175 198 0
174 196 0
174 197 0
172 196 0
172 196 0
172 195 0
172 196 0
174 198 0
173 197 0
174 198 0
175 198 0
173 197 0
172 195 0
173 197 0
174 198 0
174 197 0
176 199 0
173 196 0
173 196 0
174 198 0
174 197 0
175 198 0
173 197 0
175 198 0
172 196 0
172 195 0
175 198 0
172 196 0
173 197 0
175 197 0
174 197 0
174 198 0
174 197 0
173 197 0
172 196 0
173 197 0
172 196 0
171 195 0
174 197 0
173 197 0
174 197 0
174 197 0
174 198 0
173 197 0
173 197 0
172 196 0
173 196 0
175 198 0
175 198 0
174 197 0
176 198 0
174 198 0
173 197 0
173 197 0
173 197 0
174 197 0
175 198 0
175 198 0
173 196 0
173 197 0
175 198 0
175 198 0
175 198 0
173 197 0
174 197 0
173 197 0
174 197 0
173 196 0
174 198 0
175 198 0
173 197 0
173 197 0
174 198 0
174 198 0
173 196 0
175 198 0
174 198 0
172 195 0
174 198 0
175 198 0
173 197 0
175 198 0
174 198 0
173 197 0
173 197 0
174 198 0
173 197 0
173 197 0
174 198 0
174 198 0
175 198 0
173 197 0
173 197 0
173 197 0
174 197 0
174 198 0
173 197 0
174 198 0
174 198 0
173 197 0
175 198 0
173 197 0
174 198 0
175 198 0
173 197 0
174 198 0
176 198 0
175 198 0
174 197 0
173 197 0
173 197 0
174 197 0
175 198 0
174 198 0
173 197 0
175 198 0
174 198 0
173 197 0
174 197 0
173 197 0
176 198 0
173 197 0
174 197 0
173 197 0
175 198 0
174 197 0
174 198 0
174 197 0
174 197 0
173 197 0
173 196 0
174 197 0
173 197 0
174 198 0
175 198 0
174 198 0
174 197 0
174 198 0
175 198 0
176 199 0
173 197 0
175 198 0
173 197 0
175 198 0
175 198 0
174 197 0
175 198 0
175 198 0
173 197 0
175 198 0
172 197 0
173 197 0
173 197 0
177 199 0
176 198 0
172 197 0
173 197 0
174 198 0
173 197 0
175 198 0
174 197 0
173 196 0
174 198 0
174 197 0
176 198 0
173 197 0
175 198 0
175 198 0
174 198 0
175 198 0
175 198 0
174 198 0
173 197 0
174 198 0
175 198 0
174 197 0
173 197 0
174 197 0
173 197 0
174 198 0
174 198 0
173 197 0
174 197 0
173 196 0
173 197 0
174 198 0
174 197 0
174 197 0
175 198 0
174 198 0
174 198 0
173 197 0
174 197 0
174 198 0
175 198 0
175 198 0
174 198 0
175 198 0
174 197 0
174 197 0
173 197 0
174 197 0
175 198 0
173 197 0
172 197 0
173 197 0
172 196 0
173 197 0
174 197 0
174 197 0
174 198 0
174 198 0
174 197 0
175 198 0
175 198 0
172 197 0
174 197 0
175 198 0
174 198 0
173 197 0
173 197 0
175 198 0
175 198 0
175 198 0
173 197 0
173 197 0
175 198 0
174 198 0
175 198 0
173 197 0
175 198 0
174 198 0
172 196 0
175 198 0
173 197 0
174 198 0
176 199 0
173 197 0
174 198 0
173 197 0
174 198 0
173 196 0
174 197 0
174 197 0
173 197 0
175 198 0
175 198 0
175 198 0
174 198 0
174 197 0
175 198 0
175 198 0
173 197 0
176 198 0
174 197 0
172 196 0
175 198 0
175 198 0
172 196 0
175 198 0
174 197 0
173 197 0
176 198 0
176 198 0
175 198 0
174 198 0
172 196 0
173 197 0
174 198 0
174 197 0
174 197 0
173 196 0
174 197 0
173 197 0
173 197 0
173 197 0
172 196 0
174 197 0
174 197 0
175 198 0
175 198 0
173 197 0
174 197 0
174 198 0
173 197 0
174 198 0
174 198 0
175 198 0
175 198 0
174 197 0
173 197 0
173 197 0
174 197 0
174 197 0
173 197 0
174 197 0
174 198 0
172 196 0
174 197 0
173 196 0
173 197 0
175 198 0
173 197 0
173 197 0
175 198 0
174 197 0
173 197 0
174 198 0
174 198 0
173 196 0
172 196 0
175 198 0
174 198 0
175 198 0
172 196 0
176 198 0
174 198 0
174 197 0
173 197 0
173 197 0
174 197 0
176 199 0
174 197 0
175 198 0
174 198 0
171 196 0
172 196 0
173 197 0
174 197 0
173 197 0
173 197 0
172 195 0
171 195 0
175 198 0
174 198 0
174 197 0
174 197 0
172 196 0
174 197 0
173 197 0
173 196 0
173 197 0
174 197 0
174 197 0
172 195 0
170 194 0
173 197 0
172 195 0
174 197 0
173 196 0
174 197 0
173 197 0
177 199 0
174 198 0
174 197 0
173 196 0
174 197 0
172 196 0
171 194 0
174 198 0
173 196 0
174 197 0
172 195 0
173 197 0
171 195 0
174 198 0
174 197 0
173 196 0
173 196 0
174 197 0
172 196 0
173 196 0
170 195 0
172 195 0
174 197 0
172 196 0
170 195 0
174 197 0
174 196 0
174 197 0
170 194 0
173 197 0
172 196 0
174 197 0
172 196 0
173 197 0
174 197 0
172 196 0
174 197 0
173 197 0
174 197 0
174 197 0
171 195 0
173 196 0
174 198 0
174 198 0
175 198 0
172 196 0
173 197 0
173 196 0
175 197 0
174 198 0
173 196 0
173 197 0
171 194 0
173 197 0
175 198 0
173 197 0
172 196 0
174 197 0
172 195 0
173 196 0
174 197 0
175 198 0
174 197 0
175 198 0
172 195 0
174 198 0
173 197 0
174 197 0
174 198 0
175 197 0
171 195 0
172 195 0
174 197 0
174 197 0
175 198 0
173 197 0
174 198 0
175 198 0
173 197 0
174 197 0
174 198 0
173 197 0
175 198 0
171 196 0
173 197 0
175 198 0
172 196 0
174 197 0
175 198 0
175 198 0
173 197 0
175 198 0
173 197 0
174 197 0
173 196 0
175 198 0
175 198 0
174 198 0
173 197 0
172 196 0
172 196 0
173 196 0
173 197 0
174 198 0
173 197 0
175 198 0
175 198 0
175 198 0
174 197 0
174 198 0
171 195 0
175 198 0
174 198 0
175 198 0
174 197 0
176 199 0
173 197 0
174 198 0
175 198 0
175 198 0
172 195 0
173 197 0
174 198 0
172 196 0
174 197 0
174 197 0
176 199 0
172 197 0
176 199 0
174 198 0
174 197 0
172 196 0
173 197 0
174 197 0
174 197 0
174 198 0
175 198 0
173 197 0
173 197 0
173 197 0
174 197 0
174 197 0
174 198 0
175 198 0
175 197 0
175 198 0
174 198 0
173 197 0
173 197 0
175 198 0
175 198 0
174 198 0
173 197 0
174 197 0
175 198 0
174 198 0
173 197 0
174 198 0
174 198 0
173 197 0
175 198 0
174 197 0
174 198 0
174 198 0
175 198 0
173 197 0
174 198 0
173 197 0
174 198 0
175 198 0
174 198 0
173 197 0
175 198 0
174 197 0
174 197 0
172 197 0
173 196 0
172 196 0
175 198 0
174 197 0
172 196 0
174 198 0
176 198 0
174 198 0
175 198 0
174 198 0
175 198 0
175 198 0
175 198 0
174 197 0
173 197 0
175 198 0
172 196 0
174 197 0
174 197 0
174 197 0
174 198 0
174 197 0
175 198 0
175 198 0
175 198 0
174 198 0
174 198 0
175 198 0
174 198 0
173 197 0
175 198 0
175 198 0
175 198 0
176 199 0
175 198 0
174 198 0
175 198 0
175 198 0
173 197 0
175 198 0
174 198 0
174 197 0
173 197 0
173 197 0
174 198 0
174 198 0
176 199 0
174 198 0
174 198 0
174 197 0
173 197 0
175 198 0
173 197 0
176 199 0
173 197 0
174 197 0
175 198 0
174 197 0
175 198 0
175 198 0
175 198 0
175 198 0
173 197 0
174 198 0
173 197 0
176 198 0
174 198 0
175 198 0
174 198 0
175 198 0
175 198 0
177 199 0
174 197 0
173 197 0
174 197 0
174 198 0
174 197 0
173 197 0
173 197 0
174 197 0
174 198 0
173 197 0
173 197 0
173 197 0
175 198 0
174 198 0
173 197 0
175 198 0
175 198 0
172 196 0
174 197 0
176 198 0
176 199 0
173 197 0
175 198 0
175 198 0
175 198 0
175 198 0
174 197 0
175 198 0
174 198 0
173 197 0
175 198 0
176 199 0
175 198 0
175 198 0
174 197 0
175 198 0
172 196 0
175 198 0
173 197 0
174 197 0
174 197 0
173 197 0
174 198 0
173 196 0
174 198 0
174 197 0
175 198 0
175 198 0
174 198 0
174 198 0
173 197 0
174 198 0
175 198 0
175 198 0
173 197 0
175 198 0
175 198 0
174 198 0
174 197 0
175 198 0
173 197 0
172 196 0
175 198 0
174 197 0
172 196 0
175 198 0
175 198 0
175 198 0
174 198 0
173 197 0
175 198 0
174 198 0
173 197 0
173 197 0
174 198 0
171 195 0
174 198 0
172 196 0
174 197 0
172 196 0
173 197 0
173 197 0
174 198 0
174 198 0
174 197 0
175 198 0
177 199 0
175 198 0
173 197 0
173 197 0
174 197 0
174 197 0
175 198 0
173 197 0
173 196 0
172 195 0
172 196 0
173 196 0
173 197 0
173 197 0
174 197 0
174 197 0
172 196 0
173 197 0
173 197 0
174 197 0
174 197 0
174 197 0
175 198 0
176 198 0
174 197 0
174 197 0
173 197 0
174 197 0
173 197 0
174 197 0
173 197 0
175 198 0
174 197 0
171 196 0
173 197 0
173 196 0
173 197 0
174 197 0
173 197 0
174 196 0
174 197 0
173 196 0
172 196 0
174 198 0
172 195 0
170 194 0
172 195 0
175 198 0
173 196 0
174 198 0
173 196 0
175 198 0
173 196 0
172 196 0
173 197 0
173 196 0
174 197 0
173 196 0
174 198 0
174 197 0
172 196 0
174 197 0
173 197 0
173 197 0
174 197 0
175 198 0
173 197 0
174 197 0
173 197 0
175 198 0
173 196 0
172 196 0
173 196 0
172 196 0
170 194 0
173 197 0
174 197 0
174 198 0
172 195 0
172 195 0
174 198 0
173 196 0
173 196 0
174 198 0
174 197 0
173 197 0
169 192 0
169 194 0
174 196 0
173 197 0
175 198 0
174 197 0
172 196 0
174 197 0
172 196 0
174 197 0
173 196 0
175 198 0
173 196 0
172 195 0
174 196 0
172 195 0
173 197 0
172 196 0
174 197 0
174 197 0
172 195 0
173 196 0
174 197 0
172 196 0
174 198 0
174 197 0
175 198 0
172 196 0
171 196 0
173 197 0
173 197 0
173 197 0
175 198 0
173 197 0
174 197 0
171 194 0
173 197 0
174 198 0
172 196 0
174 197 0
173 197 0
172 196 0
175 198 0
175 198 0
174 198 0
174 197 0
172 196 0
174 198 0
176 199 0
174 197 0
175 198 0
171 195 0
174 198 0
172 195 0
174 198 0
172 196 0
173 196 0
173 197 0
172 196 0
174 197 0
174 197 0
173 197 0
174 197 0
173 197 0
175 198 0
174 198 0
174 196 0
174 198 0
173 197 0
173 197 0
173 197 0
171 195 0
175 197 0
174 198 0
173 197 0
173 196 0
172 196 0
173 197 0
173 197 0
175 198 0
174 198 0
173 197 0
174 197 0
175 198 0
174 198 0
174 198 0
174 197 0
175 198 0
174 197 0
172 196 0
175 198 0
176 199 0
175 198 0
173 196 0
174 197 0
173 197 0
173 197 0
173 197 0
173 197 0
173 196 0
175 198 0
175 197 0
175 197 0
174 197 0
175 198 0
174 197 0
174 198 0
173 197 0
172 196 0
173 197 0
174 198 0
174 198 0
174 198 0
174 197 0
175 197 0
175 198 0
174 198 0
173 197 0
172 197 0
174 198 0
174 197 0
173 197 0
173 197 0
173 197 0
174 198 0
173 197 0
175 198 0
172 196 0
175 198 0
174 197 0
174 198 0
175 198 0
173 197 0
173 197 0
173 196 0
175 198 0
174 197 0
173 197 0
174 198 0
174 197 0
173 197 0
175 198 0
174 197 0
174 197 0
174 198 0
174 196 0
174 198 0
175 198 0
175 198 0
172 196 0
175 198 0
174 198 0
175 198 0
172 196 0
173 196 0
174 198 0
175 198 0
174 197 0
175 198 0
174 197 0
174 198 0
175 198 0
173 196 0
174 198 0
175 198 0
175 198 0
176 198 0
173 197 0
174 198 0
174 198 0
174 198 0
176 198 0
175 198 0
172 197 0
172 196 0
174 197 0
174 197 0
175 198 0
173 196 0
175 198 0
175 198 0
173 197 0
174 198 0
176 198 0
175 198 0
174 197 0
175 198 0
175 198 0
174 198 0
174 197 0
175 198 0
174 198 0
177 199 0
174 198 0
175 198 0
174 197 0
173 197 0
174 197 0
174 197 0
173 196 0
173 197 0
175 198 0
176 198 0
175 198 0
174 197 0
174 197 0
175 198 0
174 198 0
176 199 0
175 198 0
175 198 0
174 197 0
176 199 0
175 198 0
174 197 0
173 197 0
174 198 0
173 197 0
173 197 0
173 197 0
173 197 0
174 197 0
174 198 0
174 197 0
176 199 0
175 198 0
174 197 0
173 197 0
174 198 0
175 198 0
175 198 0
173 197 0
174 198 0
174 198 0
174 197 0
175 198 0
173 197 0
174 198 0
174 198 0
174 198 0
176 198 0
174 198 0
175 198 0
173 197 0
175 198 0
174 198 0
174 198 0
175 198 0
174 197 0
176 198 0
174 198 0
173 197 0
174 197 0
174 197 0
173 197 0
173 196 0
175 198 0
175 198 0
173 197 0
173 197 0
176 199 0
176 198 0
175 198 0
173 197 0
174 197 0
174 197 0
173 197 0
174 197 0
174 198 0
175 198 0
173 197 0
175 197 0
173 197 0
172 196 0
173 197 0
175 198 0
176 199 0
174 198 0
174 198 0
173 197 0
175 198 0
175 198 0
174 197 0
174 198 0
173 197 0
173 197 0
173 197 0
174 198 0
175 198 0
174 197 0
172 196 0
171 196 0
174 197 0
173 197 0
175 198 0
172 196 0
175 198 0
175 198 0
175 198 0
174 198 0
175 198 0
173 197 0
173 197 0
175 198 0
176 199 0
172 196 0
173 196 0
175 198 0
173 197 0
172 196 0
172 196 0
174 197 0
173 197 0
174 198 0
174 197 0
172 196 0
172 196 0
176 198 0
173 197 0
173 196 0
175 198 0
174 197 0
176 199 0
173 197 0
174 197 0
172 196 0
172 196 0
172 196 0
174 198 0
174 197 0
174 197 0
173 196 0
174 197 0
174 197 0
174 197 0
174 198 0
174 198 0
172 196 0
174 198 0
173 197 0
174 198 0
174 198 0
173 196 0
172 197 0
174 197 0
174 197 0
172 196 0
173 197 0
174 197 0
172 196 0
174 198 0
173 197 0
172 196 0
173 196 0
173 197 0
173 196 0
174 197 0
173 197 0
174 197 0
173 197 0
172 196 0
173 196 0
174 197 0
172 196 0
174 197 0
174 198 0
173 196 0
171 194 0
173 197 0
172 196 0
175 198 0
171 195 0
175 198 0
174 198 0
173 197 0
173 196 0
173 197 0
174 197 0
173 197 0
173 197 0
173 196 0
174 197 0
172 196 0
173 197 0
174 197 0
174 197 0
173 196 0
173 196 0
174 197 0
174 197 0
176 198 0
172 196 0
172 196 0
174 197 0
174 197 0
174 198 0
172 195 0
173 197 0
172 196 0
173 197 0
172 196 0
172 195 0
174 197 0
173 196 0
174 197 0
171 195 0
173 197 0
174 198 0
173 196 0
173 196 0
173 196 0
173 196 0
173 197 0
173 196 0
174 198 0
174 198 0
173 196 0
173 196 0
174 197 0
174 198 0
173 196 0
172 196 0
174 197 0
173 196 0
171 194 0
171 195 0
173 197 0
176 198 0
173 197 0
173 197 0
174 197 0
173 197 0
173 197 0
174 197 0
172 196 0
174 198 0
172 196 0
173 197 0
173 197 0
172 196 0
173 197 0
174 197 0
173 197 0
175 198 0
174 198 0
175 198 0
172 196 0
175 198 0
174 198 0
173 197 0
176 199 0
175 198 0
172 197 0
174 198 0
172 196 0
174 197 0
172 197 0
172 196 0
174 198 0
175 198 0
172 196 0
174 197 0
174 197 0
174 197 0
173 197 0
175 198 0
173 197 0
173 196 0
174 197 0
172 196 0
172 196 0
173 197 0
176 198 0
174 197 0
173 197 0
175 198 0
172 196 0
173 197 0
175 198 0
175 198 0
174 198 0
173 197 0
174 198 0
173 197 0
176 198 0
174 198 0
174 197 0
174 198 0
175 198 0
174 197 0
175 198 0
174 198 0
174 197 0
173 197 0
172 196 0
173 197 0
174 197 0
173 197 0
175 198 0
176 199 0
175 198 0
175 198 0
173 197 0
173 197 0
172 196 0
173 196 0
175 198 0
173 197 0
175 198 0
173 197 0
174 197 0
174 197 0
173 197 0
175 198 0
175 198 0
175 198 0
175 198 0
175 198 0
174 197 0
174 197 0
174 197 0
173 197 0
174 198 0
175 198 0
174 197 0
174 198 0
174 197 0
174 197 0
175 198 0
176 199 0
173 197 0
174 197 0
173 196 0
174 197 0
174 197 0
174 198 0
174 198 0
174 197 0
174 197 0
174 198 0
175 198 0
174 197 0
173 197 0
171 195 0
173 197 0
173 197 0
174 197 0
174 197 0
175 198 0
175 198 0
174 198 0
174 197 0
174 197 0
173 197 0
173 196 0
177 199 0
173 197 0
174 198 0
174 198 0
174 198 0
172 196 0
174 197 0
175 198 0
173 197 0
175 198 0
173 197 0
174 198 0
174 197 0
173 197 0
174 198 0
175 198 0
174 198 0
174 197 0
175 198 0
174 197 0
173 197 0
175 198 0
173 197 0
173 197 0
175 198 0
175 198 0
173 197 0
174 198 0
174 198 0
175 198 0
174 198 0
174 198 0
175 198 0
174 198 0
175 198 0
175 198 0
174 197 0
176 198 0
173 197 0
175 198 0
175 198 0
174 197 0
175 198 0
174 198 0
174 198 0
176 199 0
174 198 0
173 197 0
174 198 0
175 198 0
175 198 0
175 198 0
173 197 0
174 198 0
174 198 0
174 198 0
177 199 0
175 198 0
175 198 0
175 198 0
174 198 0
172 196 0
174 197 0
174 197 0
173 197 0
175 198 0
173 196 0
175 198 0
176 199 0
174 197 0
175 198 0
174 197 0
175 198 0
173 196 0
175 198 0
173 197 0
173 197 0
173 197 0
175 198 0
175 198 0
175 198 0
173 197 0
173 196 0
176 198 0
174 198 0
175 198 0
175 198 0
173 197 0
173 197 0
174 198 0
173 197 0
174 198 0
175 198 0
177 199 0
174 198 0
175 198 0
173 197 0
174 198 0
173 197 0
175 198 0
174 197 0
176 199 0
174 197 0
175 198 0
172 196 0
174 198 0
174 197 0
172 196 0
174 197 0
174 197 0
174 198 0
174 198 0
172 197 0
174 197 0
173 197 0
172 197 0
175 198 0
174 198 0
172 197 0
174 197 0
174 198 0
176 199 0
174 197 0
175 198 0
175 198 0
174 197 0
173 196 0
174 197 0
175 198 0
174 197 0
173 197 0
172 196 0
174 198 0
174 198 0
174 198 0
173 197 0
174 197 0
175 198 0
173 196 0
174 198 0
174 198 0
174 198 0
175 198 0
173 197 0
170 195 0
172 196 0
175 198 0
172 196 0
174 197 0
174 197 0
174 197 0
175 198 0
173 196 0
174 198 0
174 198 0
173 197 0
174 197 0
174 198 0
176 198 0
173 197 0
175 198 0
173 197 0
172 196 0
173 197 0
174 198 0
174 198 0
174 197 0
173 197 0
174 197 0
172 196 0
173 197 0
174 197 0
173 197 0
174 198 0
174 198 0
174 196 0
174 197 0
174 197 0
176 199 0
174 198 0
174 197 0
174 197 0
173 196 0
174 197 0
176 199 0
172 196 0
175 198 0
174 197 0
173 197 0
174 197 0
174 197 0
173 197 0
173 196 0
172 197 0
174 198 0
173 197 0
171 195 0
174 198 0
173 196 0
173 197 0
174 198 0
174 198 0
174 198 0
171 195 0
174 197 0
172 196 0
173 197 0
174 197 0
174 197 0
174 197 0
173 197 0
174 197 0
175 197 0
173 197 0
174 197 0
175 198 0
173 196 0
172 195 0
174 198 0
173 197 0
176 199 0
172 195 0
174 198 0
174 197 0
175 198 0
172 195 0
172 196 0
175 198 0
175 198 0
174 198 0
174 197 0
172 196 0
174 197 0
173 197 0
174 197 0
173 196 0
172 196 0
170 194 0
173 197 0
175 197 0
173 197 0
171 196 0
172 196 0
171 194 0
173 197 0
174 196 0
172 196 0
174 198 0
174 197 0
171 195 0
175 198 0
173 197 0
171 194 0
173 197 0
173 197 0
172 196 0
174 198 0
174 197 0
172 196 0
173 196 0
173 196 0
174 197 0
174 198 0
175 198 0
173 196 0
172 196 0
175 198 0
174 198 0
174 197 0
174 197 0
173 196 0
173 197 0
174 197 0
176 199 0
174 198 0
174 197 0
172 196 0
174 197 0
174 197 0
174 197 0
172 197 0
173 197 0
174 197 0
174 197 0
173 196 0
173 196 0
174 197 0
173 197 0
174 198 0
175 198 0
174 198 0
173 197 0
174 197 0
174 197 0
175 198 0
174 197 0
173 196 0
174 197 0
176 198 0
175 198 0
176 199 0
173 197 0
172 196 0
174 197 0
172 196 0
173 196 0
174 198 0
173 196 0
175 198 0
174 197 0
173 196 0
174 197 0
174 198 0
175 198 0
174 198 0
174 196 0
171 195 0
173 196 0
173 197 0
175 198 0
175 198 0
175 198 0
173 197 0
173 196 0
175 198 0
173 197 0
174 197 0
174 197 0
174 197 0
176 198 0
174 197 0
173 197 0
174 198 0
174 197 0
174 197 0
175 198 0
175 198 0
172 196 0
174 198 0
174 196 0
175 198 0
171 195 0
173 197 0
175 198 0
172 196 0
173 197 0
173 197 0
173 197 0
176 199 0
175 198 0
171 195 0
174 198 0
176 198 0
174 197 0
175 198 0
173 197 0
174 198 0
174 198 0
172 196 0
175 198 0
176 198 0
176 198 0
174 197 0
175 198 0
174 197 0
176 198 0
174 197 0
176 199 0
176 198 0
173 197 0
175 198 0
173 197 0
173 197 0
174 197 0
174 197 0
174 198 0
172 196 0
173 197 0
175 198 0
172 195 0
175 198 0
175 198 0
175 198 0
174 198 0
174 197 0
174 197 0
173 196 0
173 197 0
175 198 0
172 197 0
174 198 0
174 198 0
173 197 0
172 196 0
174 197 0
175 198 0
174 197 0
172 196 0
175 198 0
174 197 0
175 198 0
174 197 0
175 198 0
174 198 0
172 196 0
175 198 0
174 198 0
176 199 0
175 198 0
174 198 0
174 198 0
174 197 0
175 198 0
175 198 0
173 197 0
173 197 0
175 198 0
174 197 0
175 198 0
174 198 0
174 197 0
175 198 0
175 198 0
176 198 0
175 198 0
175 198 0
175 198 0
173 197 0
175 198 0
174 198 0
174 197 0
175 198 0
175 198 0
174 198 0
175 198 0
175 198 0
175 198 0
175 198 0
174 197 0
175 198 0
174 198 0
173 197 0
174 197 0
175 198 0
175 198 0
174 198 0
174 197 0
175 198 0
174 197 0
175 198 0
176 199 0
174 198 0
174 198 0
174 198 0
174 198 0
174 197 0
174 198 0
173 197 0
175 198 0
175 198 0
176 199 0
174 198 0
175 198 0
174 198 0
174 198 0
176 198 0
174 198 0
174 198 0
176 198 0
176 199 0
175 198 0
174 198 0
174 198 0
172 197 0
177 199 0
174 198 0
174 198 0
173 197 0
174 197 0
174 197 0
175 198 0
176 199 0
174 198 0
174 198 0
174 197 0
175 198 0
173 197 0
174 198 0
176 198 0
175 198 0
174 198 0
173 197 0
174 198 0
174 198 0
174 197 0
173 197 0
174 197 0
177 199 0
175 198 0
175 198 0
174 197 0
174 197 0
175 198 0
173 197 0
175 198 0
174 197 0
173 197 0
174 198 0
176 198 0
173 197 0
171 196 0
175 198 0
173 197 0
173 197 0
173 197 0
173 197 0
173 196 0
173 197 0
172 195 0
174 197 0
175 198 0
174 197 0
175 198 0
173 196 0
173 197 0
174 198 0
176 199 0
174 198 0
173 197 0
175 198 0
174 198 0
173 196 0
174 198 0
175 198 0
173 197 0
174 198 0
175 198 0
174 197 0
174 197 0
175 198 0
175 198 0
173 197 0
176 198 0
174 197 0
174 198 0
173 197 0
173 197 0
173 197 0
174 197 0
175 198 0
174 197 0
175 198 0
172 196 0
175 198 0
172 196 0
173 197 0
174 198 0
174 197 0
174 198 0
174 197 0
174 198 0
174 198 0
174 197 0
174 198 0
173 196 0
173 197 0
174 198 0
174 197 0
173 197 0
172 195 0
170 195 0
174 198 0
174 197 0
174 197 0
173 196 0
174 197 0
173 197 0
175 198 0
175 198 0
174 198 0
173 197 0
172 196 0
174 197 0
172 196 0
174 198 0
173 197 0
175 198 0
172 196 0
173 197 0
171 195 0
176 198 0
173 197 0
171 195 0
173 197 0
173 197 0
176 198 0
173 197 0
171 195 0
174 197 0
174 197 0
172 196 0
175 198 0
173 196 0
174 197 0
174 197 0
173 196 0
174 197 0
174 197 0
173 196 0
175 198 0
170 194 0
173 197 0
174 197 0
175 198 0
172 196 0
171 195 0
172 196 0
176 199 0
173 196 0
174 198 0
173 196 0
173 197 0
174 197 0
173 197 0
174 197 0
174 198 0
173 196 0
173 197 0
174 197 0
171 195 0
174 197 0
176 199 0
175 198 0
174 198 0
174 198 0
174 197 0
172 196 0
174 198 0
173 196 0
176 199 0
173 197 0
175 198 0
174 197 0
172 195 0
173 196 0
173 197 0
174 197 0
174 197 0
175 198 0
174 197 0
174 198 0
172 196 0
175 198 0
173 197 0
172 196 0
174 198 0
175 198 0
174 197 0
174 198 0
175 198 0
175 198 0
175 198 0
175 197 0
173 197 0
174 197 0
174 198 0
174 198 0
171 195 0
175 198 0
173 196 0
175 198 0
175 198 0
173 196 0
171 194 0
176 199 0
174 198 0
173 197 0
174 197 0
173 197 0
173 197 0
174 197 0
174 198 0
174 197 0
172 197 0
173 197 0
175 198 0
173 197 0
170 194 0
175 198 0
174 197 0
174 197 0
174 197 0
174 198 0
173 197 0
173 197 0
172 196 0
175 198 0
172 196 0
177 199 0
173 196 0
173 196 0
173 197 0
173 196 0
173 196 0
172 195 0
176 198 0
174 197 0
173 196 0
173 196 0
173 197 0
176 198 0
171 195 0
173 197 0
174 198 0
173 197 0
172 196 0
175 198 0
174 197 0
174 197 0
174 197 0
174 197 0
174 197 0
173 197 0
175 198 0
175 198 0
175 198 0
174 197 0
173 197 0
174 198 0
173 197 0
174 198 0
174 197 0
172 196 0
174 197 0
174 197 0
175 198 0
175 198 0
175 198 0
175 198 0
173 197 0
172 195 0
174 198 0
172 196 0
173 197 0
172 196 0
173 196 0
173 196 0
173 197 0
175 198 0
172 195 0
173 196 0
175 198 0
173 197 0
172 196 0
173 197 0
174 197 0
175 198 0
174 197 0
173 197 0
174 198 0
175 198 0
173 197 0
175 198 0
175 198 0
175 198 0
173 197 0
175 198 0
174 198 0
174 198 0
175 198 0
175 198 0
175 198 0
173 197 0
175 198 0
174 197 0
173 197 0
175 198 0
175 198 0
173 196 0
175 198 0
173 197 0
174 198 0
172 196 0
173 197 0
174 198 0
175 198 0
174 198 0
174 197 0
174 197 0
173 197 0
173 197 0
174 197 0
172 196 0
174 197 0
174 198 0
173 197 0
175 198 0
174 198 0
176 199 0
175 198 0
174 198 0
176 198 0
176 198 0
173 197 0
175 198 0
175 198 0
173 197 0
175 198 0
175 198 0
173 197 0
173 197 0
175 198 0
175 198 0
176 198 0
173 197 0
176 198 0
174 198 0
175 198 0
176 198 0
173 196 0
173 196 0
174 198 0
173 197 0
175 198 0
174 198 0
175 198 0
174 197 0
175 198 0
174 197 0
176 198 0
174 197 0
174 197 0
174 197 0
175 198 0
175 198 0
174 198 0
175 198 0
175 198 0
173 197 0
174 198 0
174 198 0
175 198 0
176 199 0
175 198 0
174 197 0
174 198 0
176 199 0
173 197 0
174 198 0
174 198 0
175 198 0
174 198 0
173 197 0
174 198 0
175 198 0
174 197 0
173 197 0
173 197 0
175 198 0
173 197 0
176 198 0
176 199 0
173 197 0
173 197 0
175 198 0
174 197 0
174 198 0
175 198 0
175 198 0
173 197 0
175 198 0
174 198 0
175 198 0
174 197 0
173 197 0
174 197 0
174 197 0
175 198 0
175 198 0
175 198 0
173 197 0
174 198 0
176 199 0
175 198 0
174 197 0
173 197 0
175 198 0
173 197 0
175 197 0
174 197 0
174 198 0
175 198 0
174 197 0
174 197 0
173 196 0
172 195 0
174 198 0
174 198 0
176 198 0
174 197 0
174 197 0
174 197 0
174 198 0
176 199 0
175 198 0
174 197 0
174 197 0
174 197 0
174 198 0
175 198 0
174 198 0
172 196 0
174 198 0
175 198 0
174 198 0
174 198 0
173 197 0
173 196 0
175 198 0
175 198 0
174 198 0
174 197 0
175 198 0
174 197 0
174 198 0
174 198 0
175 198 0
174 198 0
175 198 0
176 199 0
173 197 0
175 198 0
175 198 0
175 198 0
173 196 0
173 196 0
176 199 0
173 196 0
174 198 0
173 197 0
174 198 0
175 198 0
175 198 0
174 197 0
174 198 0
175 198 0
175 198 0
175 198 0
173 197 0
174 197 0
174 197 0
172 196 0
174 197 0
174 198 0
175 198 0
173 197 0
175 198 0
174 197 0
173 197 0
174 197 0
174 198 0
174 198 0
174 197 0
174 198 0
172 196 0
174 198 0
175 198 0
174 198 0
172 197 0
174 197 0
175 198 0
176 199 0
175 198 0
173 197 0
173 197 0
172 196 0
173 197 0
175 198 0
174 197 0
173 197 0
176 198 0
174 197 0
174 197 0
176 199 0
175 198 0
174 196 0
173 197 0
173 196 0
175 198 0
173 197 0
175 198 0
175 198 0
173 197 0
173 197 0
173 196 0
173 197 0
173 197 0
175 198 0
174 198 0
173 197 0
171 196 0
172 196 0
172 196 0
175 198 0
175 198 0
172 195 0
173 197 0
173 196 0
173 197 0
172 195 0
173 197 0
174 196 0
173 197 0
174 197 0
174 197 0
175 198 0
173 197 0
173 197 0
174 198 0
173 196 0
173 197 0
172 195 0
173 197 0
173 197 0
174 197 0
172 197 0
176 199 0
173 197 0
173 196 0
174 197 0
175 198 0
174 198 0
174 197 0
172 195 0
174 197 0
174 197 0
173 197 0
173 196 0
173 197 0
172 196 0
172 196 0
172 196 0
175 198 0
174 197 0
174 197 0
173 197 0
175 198 0
172 196 0
173 196 0
172 196 0
173 197 0
172 196 0
177 199 0
173 197 0
172 196 0
173 197 0
174 197 0
172 196 0
174 197 0
173 196 0
172 197 0
175 197 0
174 198 0
173 196 0
174 197 0
175 198 0
174 197 0
173 197 0
173 197 0
174 197 0
174 197 0
173 197 0
171 195 0
172 196 0
174 197 0
173 197 0
174 198 0
174 197 0
173 197 0
174 197 0
171 195 0
171 195 0
175 198 0
173 197 0
173 197 0
172 195 0
174 197 0
173 196 0
172 196 0
174 197 0
174 197 0
174 197 0
175 198 0
174 198 0
174 197 0
172 196 0
174 197 0
173 197 0
176 199 0
175 198 0
172 196 0
173 197 0
173 197 0
173 197 0
171 195 0
173 196 0
172 196 0
174 197 0
174 197 0
174 198 0
174 197 0
176 199 0
175 198 0
173 197 0
173 196 0
173 197 0
173 197 0
173 197 0
175 198 0
175 198 0
171 195 0
174 198 0
174 197 0
175 198 0
173 197 0
174 197 0
174 198 0
175 198 0
176 198 0
171 195 0
174 197 0
173 197 0
173 197 0
174 198 0
175 198 0
174 198 0
173 197 0
175 198 0
174 197 0
173 196 0
174 198 0
175 198 0
174 197 0
173 196 0
174 197 0
173 197 0
174 197 0
174 197 0
174 197 0
175 198 0
173 197 0
173 196 0
175 198 0
173 197 0
175 198 0
175 198 0
175 198 0
175 197 0
175 198 0
174 198 0
176 198 0
174 197 0
174 198 0
174 197 0
174 198 0
174 197 0
174 197 0
175 198 0
177 199 0
173 197 0
175 198 0
174 198 0
174 197 0
175 197 0
172 197 0
174 198 0
173 197 0
174 198 0
175 198 0
173 197 0
173 196 0
174 197 0
174 197 0
175 198 0
174 197 0
174 197 0
173 197 0
175 198 0
174 197 0
173 197 0
175 198 0
173 197 0
175 198 0
173 197 0
174 197 0
175 198 0
173 197 0
175 198 0
175 198 0
174 197 0
176 198 0
175 198 0
174 197 0
173 197 0
174 198 0
175 198 0
175 198 0
173 197 0
175 198 0
173 197 0
174 198 0
176 198 0
174 197 0
174 197 0
175 198 0
174 198 0
174 198 0
174 198 0
173 197 0
173 197 0
173 197 0
176 199 0
175 198 0
175 198 0
174 198 0
175 198 0
175 198 0
175 198 0
174 198 0
173 197 0
174 198 0
175 198 0
174 198 0
176 199 0
174 198 0
175 198 0
176 198 0
173 197 0
174 198 0
174 198 0
173 197 0
174 197 0
173 197 0
174 198 0
174 197 0
174 198 0
173 197 0
176 199 0
174 198 0
174 198 0
175 198 0
173 197 0
173 197 0
174 198 0
174 197 0
174 198 0
174 197 0
176 199 0
174 197 0
172 197 0
175 198 0
174 197 0
175 198 0
175 198 0
174 198 0
175 198 0
176 199 0
174 198 0
173 197 0
175 198 0
175 198 0
174 197 0
173 197 0
175 198 0
173 197 0
173 197 0
174 198 0
175 198 0
175 198 0
174 197 0
175 198 0
172 196 0
173 197 0
174 198 0
173 197 0
175 198 0
173 197 0
175 198 0
175 198 0
174 198 0
175 198 0
173 197 0
174 197 0
175 198 0
173 197 0
173 197 0
174 197 0
174 197 0
174 198 0
174 198 0
172 196 0
173 197 0
176 199 0
175 198 0
174 198 0
173 197 0
175 198 0
174 198 0
173 197 0
173 197 0
175 198 0
173 197 0
174 197 0
172 196 0
176 199 0
173 197 0
175 198 0
174 198 0
174 197 0
174 197 0
173 197 0
175 198 0
174 197 0
174 198 0
173 197 0
174 198 0
173 197 0
175 198 0
174 197 0
175 198 0
175 198 0
175 198 0
174 198 0
175 198 0
175 198 0
173 197 0
174 197 0
174 197 0
174 198 0
175 198 0
174 198 0
175 198 0
174 198 0
174 197 0
174 198 0
172 196 0
174 197 0
173 196 0
175 198 0
174 198 0
173 196 0
176 199 0
173 196 0
175 198 0
175 198 0
173 197 0
174 197 0
171 195 0
173 197 0
174 198 0
174 198 0
174 197 0
173 197 0
173 197 0
175 198 0
172 196 0
175 198 0
175 198 0
174 197 0
175 198 0
173 197 0
174 198 0
173 195 0
172 196 0
173 197 0
174 198 0
173 197 0
175 198 0
175 198 0
175 198 0
173 197 0
172 195 0
175 197 0
175 198 0
175 198 0
171 195 0
174 198 0
173 197 0
173 197 0
175 198 0
173 197 0
175 198 0
175 198 0
174 198 0
174 197 0
173 197 0
172 196 0
174 198 0
174 197 0
175 198 0
176 198 0
174 198 0
174 197 0
172 196 0
171 194 0
174 198 0
173 197 0
172 195 0
175 198 0
174 197 0
174 197 0
174 197 0
174 197 0
174 197 0
174 198 0
174 197 0
171 194 0
173 196 0
173 196 0
173 197 0
174 197 0
173 197 0
174 198 0
173 197 0
173 197 0
175 198 0
173 197 0
171 195 0
173 196 0
175 198 0
174 197 0
172 196 0
173 197 0
170 194 0
175 198 0
175 198 0
172 196 0
173 197 0
174 197 0
174 197 0
172 196 0
175 198 0
174 198 0
173 197 0
171 195 0
173 197 0
175 198 0
173 196 0
172 196 0
172 196 0
172 195 0
174 197 0
173 197 0
172 197 0
174 197 0
174 197 0
174 197 0
173 197 0
174 198 0
174 197 0
175 198 0
173 196 0
172 196 0
173 197 0
171 195 0
174 198 0
173 196 0
173 197 0
173 196 0
175 198 0
174 197 0
174 197 0
174 198 0
173 197 0
174 198 0
173 196 0
173 197 0
173 197 0
174 197 0
172 195 0
172 196 0
173 196 0
175 198 0
173 196 0
174 197 0
174 197 0
173 196 0
173 197 0
174 197 0
175 198 0
174 197 0
174 198 0
174 198 0
174 197 0
173 197 0
172 196 0
175 198 0
174 198 0
174 197 0
174 197 0
173 197 0
173 197 0
172 195 0
174 198 0
173 197 0
172 196 0
173 196 0
172 196 0
174 197 0
173 197 0
173 196 0
176 198 0
173 197 0
174 198 0
173 196 0
174 198 0
174 198 0
174 198 0
172 196 0
174 197 0
171 195 0
175 198 0
175 198 0
172 196 0
175 197 0
175 198 0
172 196 0
173 197 0
174 197 0
176 199 0
173 197 0
173 197 0
174 198 0
174 198 0
173 197 0
175 198 0
174 197 0
175 198 0
174 197 0
173 197 0
174 198 0
172 195 0
173 197 0
172 195 0
174 197 0
175 198 0
174 198 0
175 198 0
172 196 0
174 197 0
173 196 0
175 198 0
174 197 0
173 197 0
175 198 0
174 197 0
175 198 0
173 197 0
174 197 0
175 198 0
174 198 0
175 198 0
176 199 0
174 197 0
174 197 0
173 197 0
175 198 0
175 198 0
173 197 0
176 199 0
173 197 0
172 196 0
173 196 0
174 197 0
175 198 0
174 198 0
174 197 0
174 197 0
175 197 0
174 197 0
174 197 0
173 197 0
172 196 0
174 196 0
175 198 0
174 197 0
174 198 0
175 198 0
174 197 0
175 198 0
173 197 0
174 197 0
173 197 0
175 198 0
175 198 0
172 197 0
175 198 0
174 198 0
175 198 0
174 198 0
172 196 0
174 198 0
175 198 0
175 198 0
174 197 0
175 198 0
174 198 0
175 197 0
174 197 0
174 198 0
175 198 0
174 197 0
174 197 0
175 198 0
175 198 0
176 199 0
174 198 0
175 198 0
175 198 0
174 198 0
172 195 0
175 198 0
174 198 0
173 197 0
174 198 0
175 198 0
176 198 0
173 197 0
175 198 0
173 197 0
173 197 0
174 198 0
174 198 0
175 198 0
176 198 0
174 198 0
174 197 0
172 196 0
175 198 0
176 199 0
173 197 0
174 197 0
174 197 0
174 198 0
175 198 0
175 198 0
174 198 0
173 197 0
173 197 0
175 198 0
173 197 0
174 198 0
174 198 0
174 198 0
175 198 0
174 197 0
173 197 0
176 198 0
173 197 0
173 197 0
174 197 0
174 197 0
175 198 0
174 198 0
175 198 0
174 198 0
171 195 0
174 198 0
174 198 0
176 198 0
175 198 0
173 197 0
173 197 0
175 198 0
175 198 0
174 198 0
175 198 0
174 198 0
175 198 0
175 198 0
174 197 0
173 197 0
175 198 0
174 197 0
175 198 0
173 197 0
174 197 0
175 198 0
173 197 0
175 198 0
175 198 0
175 198 0
175 198 0
173 197 0
175 198 0
175 198 0
175 198 0
174 198 0
172 196 0
174 197 0
173 197 0
175 198 0
173 197 0
173 197 0
173 197 0
174 198 0
173 197 0
174 198 0
173 197 0
172 196 0
173 197 0
173 197 0
174 197 0
174 198 0
173 196 0
174 198 0
174 198 0
173 197 0
174 198 0
175 198 0
174 197 0
174 198 0
173 197 0
175 198 0
175 198 0
174 197 0
172 196 0
174 197 0
174 198 0
173 196 0
173 197 0
173 197 0
174 197 0
173 197 0
175 198 0
173 197 0
174 198 0
172 196 0
173 197 0
174 198 0
172 196 0
175 198 0
174 197 0
175 198 0
174 198 0
174 198 0
172 195 0
173 197 0
175 197 0
174 198 0
174 198 0
173 196 0
172 196 0
174 197 0
173 196 0
175 198 0
175 198 0
174 197 0
175 198 0
174 198 0
174 197 0
174 197 0
174 197 0
173 196 0
174 197 0
173 197 0
173 197 0
173 197 0
176 198 0
174 198 0
174 198 0
174 197 0
173 197 0
174 198 0
174 198 0
176 198 0
174 197 0
171 195 0
173 197 0
174 197 0
174 198 0
174 197 0
172 196 0
173 197 0
174 198 0
176 199 0
173 197 0
175 198 0
174 197 0
174 198 0
175 198 0
173 197 0
173 196 0
174 197 0
175 198 0
174 198 0
175 198 0
173 197 0
174 198 0
173 197 0
172 196 0
174 198 0
174 197 0
174 197 0
173 196 0
173 196 0
174 197 0
174 197 0
176 198 0
174 197 0
172 196 0
173 197 0
176 199 0
170 194 0
173 197 0
174 197 0
174 197 0
175 198 0
173 197 0
174 197 0
174 197 0
174 197 0
173 197 0
173 197 0
172 196 0
175 198 0
174 197 0
173 197 0
172 196 0
174 197 0
173 197 0
173 197 0
174 197 0
173 196 0
175 198 0
174 198 0
174 197 0
171 194 0
173 197 0
172 196 0
171 196 0
172 196 0
174 198 0
173 197 0
172 196 0
171 195 0
172 196 0
173 197 0
172 196 0
174 197 0
174 198 0
173 196 0
173 196 0
174 197 0
173 196 0
173 196 0
173 196 0
174 198 0
174 197 0
172 196 0
173 196 0
173 197 0
173 196 0
173 197 0
176 198 0
174 197 0
176 199 0
174 197 0
176 198 0
172 196 0
173 197 0
174 197 0
171 195 0
175 198 0
174 197 0
173 196 0
173 196 0
175 197 0
173 197 0
172 196 0
175 198 0
172 196 0
171 195 0
174 197 0
173 197 0
173 197 0
175 197 0
175 198 0
174 198 0
173 197 0
173 197 0
174 198 0
172 195 0
174 197 0
172 196 0
174 197 0
173 197 0
173 197 0
173 196 0
175 197 0
174 197 0
170 194 0
174 198 0
176 199 0
171 194 0
173 196 0
175 197 0
172 196 0
173 197 0
175 198 0
170 194 0
173 197 0
175 198 0
173 197 0
174 197 0
173 197 0
173 197 0
172 197 0
172 196 0
173 197 0
172 196 0
173 197 0
175 198 0
175 198 0
173 197 0
171 196 0
174 198 0
174 197 0
174 198 0
173 197 0
174 197 0
173 197 0
173 196 0
175 197 0
175 198 0
173 197 0
174 197 0
174 198 0
175 198 0
172 195 0
174 197 0
173 196 0
175 198 0
175 198 0
174 197 0
175 198 0
174 198 0
175 198 0
172 196 0
174 197 0
175 198 0
175 198 0
173 196 0
173 197 0
174 198 0
174 197 0
174 197 0
174 197 0
173 197 0
175 198 0
174 197 0
173 197 0
175 198 0
173 197 0
175 198 0
175 198 0
176 199 0
176 198 0
174 197 0
174 198 0
174 197 0
176 198 0
175 198 0
175 198 0
175 198 0
174 198 0
175 198 0
175 198 0
174 198 0
175 198 0
174 198 0
175 198 0
175 198 0
174 197 0
174 197 0
173 197 0
174 197 0
175 198 0
175 198 0
175 198 0
175 198 0
173 196 0
174 197 0
175 198 0
172 197 0
174 197 0
176 199 0
174 198 0
174 198 0
175 198 0
175 198 0
173 196 0
173 197 0
174 198 0
175 198 0
174 198 0
174 198 0
174 197 0
173 197 0
174 198 0
174 198 0
174 197 0
175 198 0
174 197 0
174 198 0
174 198 0
174 197 0
175 198 0
174 197 0
176 198 0
174 198 0
175 198 0
173 197 0
174 198 0
173 197 0
174 198 0
174 198 0
174 198 0
174 198 0
176 199 0
175 198 0
174 198 0
174 198 0
176 199 0
173 197 0
174 198 0
174 197 0
175 198 0
175 198 0
175 198 0
174 197 0
176 199 0
174 198 0
174 197 0
174 198 0
175 198 0
175 198 0
174 198 0
174 198 0
175 198 0
175 198 0
174 198 0
173 197 0
174 198 0
175 198 0
174 198 0
172 196 0
174 198 0
174 198 0
174 197 0
176 199 0
176 199 0
173 197 0
175 198 0
173 197 0
174 198 0
175 198 0
174 197 0
175 198 0
175 198 0
175 198 0
175 198 0
174 198 0
175 198 0
175 198 0
174 198 0
176 199 0
174 197 0
174 198 0
175 198 0
173 197 0
174 198 0
174 198 0
174 197 0
174 197 0
174 197 0
172 196 0
175 198 0
174 198 0
175 198 0
174 197 0
174 198 0
173 197 0
175 198 0
177 199 0
174 198 0
173 197 0
175 198 0
174 197 0
174 198 0
174 197 0
174 198 0
174 198 0
174 198 0
173 197 0
176 199 0
173 197 0
174 198 0
174 197 0
175 198 0
173 197 0
174 197 0
175 198 0
173 197 0
175 198 0
176 199 0
174 197 0
174 197 0
173 197 0
174 198 0
175 198 0
173 197 0
174 198 0
177 199 0
175 198 0
174 197 0
173 197 0
175 198 0
173 197 0
174 198 0
173 197 0
175 198 0
175 198 0
175 198 0
174 198 0
176 198 0
174 198 0
175 198 0
173 197 0
174 198 0
174 198 0
172 196 0
173 196 0
173 196 0
173 197 0
174 197 0
173 197 0
176 198 0
175 198 0
173 197 0
174 198 0
174 198 0
173 197 0
172 196 0
174 197 0
174 198 0
172 196 0
173 197 0
173 197 0
175 198 0
174 198 0
172 196 0
174 198 0
174 197 0
172 196 0
173 197 0
172 196 0
173 197 0
174 197 0
175 198 0
174 197 0
173 197 0
174 197 0
173 197 0
172 196 0
174 197 0
174 198 0
174 198 0
173 196 0
175 198 0
174 198 0
173 197 0
174 197 0
174 198 0
176 199 0
172 196 0
173 196 0
175 198 0
174 197 0
175 198 0
172 197 0
174 198 0
174 198 0
173 196 0
173 197 0
175 198 0
174 198 0
174 197 0
172 196 0
174 197 0
172 196 0
173 197 0
175 197 0
175 197 0
174 197 0
173 197 0
174 197 0
175 198 0
172 196 0
173 197 0
173 197 0
171 194 0
174 198 0
170 195 0
174 197 0
173 196 0
173 197 0
172 196 0
174 197 0
174 197 0
171 195 0
172 196 0
174 197 0
174 197 0
172 195 0
173 197 0
174 197 0
173 196 0
172 195 0
175 198 0
173 197 0
172 196 0
174 198 0
175 198 0
175 198 0
174 197 0
172 196 0
172 196 0
173 196 0
171 195 0
173 196 0
174 198 0
174 197 0
173 196 0
173 197 0
173 196 0
173 197 0
172 196 0
175 198 0
175 198 0
175 198 0
173 197 0
173 197 0
174 198 0
174 198 0
174 198 0
175 198 0
175 198 0
174 197 0
172 195 0
173 197 0
172 196 0
173 197 0
172 195 0
175 198 0
174 197 0
173 197 0
173 197 0
172 196 0
174 198 0
172 196 0
174 197 0
173 197 0
173 196 0
174 197 0
173 196 0
173 196 0
173 197 0
174 198 0
175 198 0
175 198 0
172 196 0
172 196 0
172 196 0
172 196 0
171 195 0
175 198 0
174 197 0
175 198 0
175 197 0
174 197 0
174 197 0
173 197 0
173 197 0
172 196 0
175 198 0
173 197 0
174 197 0
173 197 0
174 197 0
173 197 0
173 197 0
174 197 0
176 199 0
175 198 0
172 196 0
173 197 0
175 198 0
174 197 0
175 198 0
174 197 0
174 197 0
175 198 0
170 194 0
174 197 0
172 195 0
174 198 0
174 197 0
172 196 0
174 198 0
175 198 0
173 197 0
175 198 0
176 198 0
175 198 0
173 196 0
174 197 0
174 198 0
173 197 0
175 198 0
173 197 0
174 197 0
175 198 0
175 198 0
174 198 0
175 198 0
174 197 0
172 196 0
172 196 0
173 197 0
173 197 0
173 196 0
174 197 0
172 196 0
175 198 0
174 198 0
174 198 0
174 197 0
173 197 0
173 197 0
175 198 0
173 197 0
176 198 0
174 197 0
175 198 0
174 198 0
173 197 0
174 197 0
174 197 0
174 198 0
174 197 0
175 198 0
173 196 0
173 197 0
173 197 0
174 198 0
173 197 0
174 197 0
175 198 0
174 197 0
174 198 0
174 198 0
173 196 0
173 197 0
175 198 0
174 197 0
175 198 0
173 197 0
174 198 0
174 197 0
175 198 0
173 197 0
174 198 0
174 198 0
174 198 0
176 198 0
174 198 0
173 196 0
174 197 0
176 198 0
173 196 0
174 197 0
174 197 0
173 197 0
173 197 0
175 198 0
175 198 0
174 197 0
173 197 0
174 198 0
175 198 0
172 196 0
174 197 0
172 197 0
174 198 0
173 197 0
174 197 0
175 198 0
174 198 0
173 197 0
172 196 0
175 198 0
175 198 0
173 197 0
174 197 0
175 198 0
174 198 0
175 198 0
175 198 0
174 197 0
175 198 0
174 197 0
175 198 0
172 196 0
173 197 0
173 197 0
175 198 0
174 198 0
173 197 0
174 198 0
175 198 0
174 198 0
176 199 0
176 199 0
175 198 0
174 198 0
174 198 0
175 198 0
175 198 0
175 198 0
174 198 0
174 197 0
174 197 0
175 198 0
174 197 0
174 198 0
175 198 0
175 198 0
174 197 0
175 198 0
174 198 0
175 198 0
174 198 0
176 198 0
174 198 0
173 197 0
173 197 0
173 197 0
174 198 0
176 199 0
175 198 0
175 198 0
175 198 0
174 198 0
173 197 0
175 198 0
173 197 0
174 198 0
175 198 0
175 198 0
175 198 0
173 197 0
173 197 0
175 198 0
174 197 0
174 197 0
175 198 0
175 198 0
173 197 0
175 198 0
174 198 0
175 198 0
174 198 0
174 198 0
175 198 0
174 198 0
174 198 0
173 197 0
174 197 0
173 197 0
174 198 0
174 198 0
174 198 0
174 197 0
173 197 0
172 196 0
173 197 0
175 198 0
176 198 0
174 197 0
174 198 0
173 197 0
176 198 0
175 198 0
173 197 0
174 198 0
175 198 0
175 198 0
174 197 0
174 197 0
173 197 0
173 196 0
173 197 0
175 198 0
175 198 0
174 197 0
174 198 0
172 196 0
173 197 0
173 197 0
175 198 0
174 198 0
173 197 0
174 197 0
174 197 0
174 197 0
177 199 0
174 197 0
173 197 0
175 198 0
175 198 0
173 197 0
174 198 0
174 197 0
173 197 0
174 197 0
175 198 0
174 197 0
172 197 0
174 198 0
173 197 0
173 197 0
174 197 0
173 196 0
174 197 0
174 197 0
171 195 0
173 197 0
175 198 0
176 198 0
173 197 0
173 197 0
174 198 0
174 197 0
173 196 0
174 198 0
174 198 0
171 195 0
174 197 0
175 198 0
173 197 0
175 198 0
173 197 0
175 198 0
174 198 0
176 199 0
176 199 0
172 194 0
172 197 0
175 198 0
174 197 0
175 198 0
175 198 0
171 195 0
175 198 0
175 198 0
175 198 0
174 197 0
174 197 0
174 197 0
171 196 0
174 197 0
174 197 0
173 196 0
172 196 0
173 197 0
175 198 0
174 198 0
172 196 0
173 197 0
174 198 0
174 197 0
172 196 0
174 197 0
174 197 0
173 197 0
174 198 0
173 196 0
174 197 0
173 196 0
173 197 0
173 197 0
171 195 0
172 195 0
173 197 0
174 197 0
175 198 0
172 196 0
172 196 0
174 198 0
174 198 0
173 197 0
173 197 0
173 197 0
171 195 0
173 197 0
173 197 0
174 197 0
173 196 0
172 196 0
173 196 0
175 198 0
174 197 0
174 198 0
172 196 0
172 196 0
174 197 0
175 197 0
173 196 0
172 195 0
173 195 0
171 195 0
170 194 0
173 197 0
175 198 0
172 196 0
175 198 0
174 198 0
174 197 0
171 196 0
172 194 0
174 198 0
175 198 0
173 197 0
170 194 0
174 198 0
174 197 0
171 195 0
173 196 0
172 196 0
173 196 0
173 196 0
174 197 0
172 195 0
173 197 0
174 197 0
174 197 0
175 198 0
172 196 0
174 197 0
174 197 0
174 197 0
174 198 0
174 198 0
174 198 0
172 196 0
172 195 0
173 196 0
174 197 0
173 197 0
175 198 0
175 198 0
173 195 0
174 197 0
174 198 0
173 197 0
174 197 0
174 198 0
175 198 0
174 198 0
173 196 0
173 197 0
173 197 0
173 196 0
175 198 0
175 198 0
174 197 0
174 197 0
174 197 0
173 197 0
174 197 0
174 197 0
175 198 0
174 197 0
174 198 0
175 198 0
175 198 0
175 198 0
173 196 0
175 198 0
173 197 0
175 198 0
171 194 0
175 198 0
173 196 0
175 198 0
176 199 0
175 198 0
174 198 0
173 197 0
174 197 0
174 198 0
174 197 0
174 198 0
175 198 0
176 198 0
173 197 0
174 197 0
174 197 0
174 197 0
175 198 0
176 198 0
173 196 0
175 198 0
174 197 0
175 198 0
174 197 0
172 196 0
176 198 0
173 197 0
174 198 0
175 197 0
177 199 0
174 197 0
175 198 0
173 197 0
174 197 0
173 197 0
175 198 0
174 197 0
173 197 0
173 197 0
171 195 0
173 196 0
174 197 0
174 198 0
174 197 0
173 197 0
172 196 0
174 197 0
175 198 0
173 197 0
175 198 0
174 198 0
174 197 0
175 198 0
174 198 0
174 198 0
174 197 0
174 198 0
174 198 0
175 198 0
174 198 0
174 197 0
175 198 0
173 197 0
174 197 0
176 198 0
174 197 0
174 198 0
175 198 0
173 197 0
174 198 0
173 197 0
175 198 0
174 198 0
176 198 0
174 197 0
176 199 0
173 197 0
172 195 0
173 197 0
174 197 0
175 198 0
174 198 0
174 197 0
174 198 0
176 198 0
176 199 0
173 197 0
174 197 0
174 197 0
174 197 0
175 198 0
173 197 0
174 197 0
174 198 0
174 198 0
174 197 0
176 199 0
174 198 0
174 198 0
175 198 0
173 197 0
174 197 0
173 197 0
175 198 0
174 198 0
176 199 0
174 197 0
173 197 0
176 198 0
175 198 0
173 196 0
175 198 0
175 198 0
175 198 0
175 198 0
174 197 0
174 197 0
174 198 0
173 197 0
174 197 0
175 198 0
174 198 0
175 198 0
174 198 0
173 197 0
175 198 0
174 198 0
174 198 0
174 197 0
174 198 0
174 197 0
174 197 0
173 197 0
175 198 0
175 198 0
174 197 0
175 198 0
177 199 0
174 198 0
173 197 0
176 199 0
173 197 0
175 198 0
176 199 0
173 197 0
175 198 0
176 198 0
174 197 0
173 197 0
173 197 0
173 197 0
175 198 0
175 198 0
174 197 0
175 198 0
173 197 0
174 198 0
174 198 0
174 198 0
174 197 0
174 198 0
174 198 0
175 198 0
174 197 0
175 198 0
174 198 0
173 197 0
173 197 0
174 198 0
175 198 0
173 197 0
176 199 0
175 198 0
174 198 0
174 198 0
175 198 0
173 197 0
174 198 0
177 199 0
173 197 0
175 198 0
174 198 0
175 198 0
174 197 0
174 198 0
174 197 0
174 198 0
174 198 0
174 198 0
174 198 0
175 198 0
175 198 0
175 198 0
173 197 0
172 197 0
174 198 0
174 197 0
174 197 0
173 197 0
174 198 0
175 198 0
174 198 0
174 198 0
174 198 0
175 198 0
173 197 0
174 197 0
174 198 0
175 197 0
174 198 0
174 197 0
175 198 0
174 197 0
174 198 0
173 197 0
175 198 0
173 197 0
175 198 0
172 196 0
173 197 0
173 196 0
175 198 0
174 198 0
174 198 0
175 198 0
174 197 0
174 198 0
174 197 0
176 198 0
173 196 0
175 198 0
175 198 0
175 198 0
173 197 0
174 197 0
175 198 0
174 198 0
173 197 0
173 197 0
174 197 0
174 198 0
176 199 0
175 198 0
173 197 0
172 196 0
173 197 0
174 198 0
175 198 0
173 196 0
176 198 0
175 198 0
172 196 0
175 198 0
174 198 0
174 197 0
174 197 0
174 198 0
170 194 0
172 196 0
174 198 0
175 198 0
173 197 0
174 198 0
174 197 0
175 198 0
175 198 0
174 197 0
174 197 0
175 198 0
172 197 0
173 197 0
174 197 0
174 197 0
173 197 0
173 197 0
175 198 0
174 198 0
173 197 0
174 197 0
173 197 0
170 194 0
175 198 0
175 197 0
175 198 0
172 196 0
173 197 0
174 197 0
171 195 0
174 197 0
173 197 0
175 198 0
174 198 0
174 197 0
174 197 0
174 197 0
173 197 0
173 196 0
174 197 0
174 197 0
174 197 0
175 198 0
172 196 0
174 197 0
176 198 0
173 197 0
174 197 0
173 197 0
173 197 0
175 198 0
172 196 0
173 196 0
174 197 0
173 197 0
174 197 0
174 197 0
173 196 0
171 195 0
173 197 0
174 197 0
175 198 0
173 197 0
171 195 0
171 195 0
171 195 0
172 196 0
171 194 0
173 197 0
172 195 0
173 197 0
174 197 0
173 195 0
174 198 0
175 198 0
174 198 0
175 198 0
174 197 0
173 197 0
173 196 0
174 197 0
172 196 0
171 196 0
172 196 0
173 196 0
171 194 0
173 197 0
172 196 0
175 198 0
174 197 0
174 198 0
175 198 0
172 195 0
172 196 0
174 197 0
172 195 0
173 197 0
172 195 0
172 196 0
174 197 0
175 198 0
173 196 0
176 198 0
174 197 0
173 196 0
172 196 0
173 196 0
173 197 0
174 197 0
172 196 0
172 195 0
174 198 0
172 196 0
175 197 0
173 197 0
173 196 0
174 197 0
173 196 0
174 198 0
173 197 0
172 195 0
174 197 0
175 197 0
174 197 0
174 198 0
175 198 0
172 195 0
174 197 0
175 198 0
173 197 0
174 197 0
174 198 0
173 197 0
173 197 0
177 199 0
173 197 0
175 198 0
172 196 0
172 196 0
173 196 0
176 198 0
174 197 0
175 198 0
173 197 0
173 197 0
174 197 0
173 196 0
174 197 0
174 197 0
173 197 0
174 197 0
173 196 0
174 197 0
174 197 0
174 197 0
173 196 0
173 197 0
173 196 0
175 198 0
173 197 0
174 197 0
174 197 0
173 196 0
172 196 0
176 199 0
174 197 0
174 197 0
175 198 0
173 196 0
174 197 0
173 197 0
174 198 0
173 197 0
173 197 0
175 198 0
176 198 0
173 196 0
175 198 0
174 197 0
175 198 0
173 197 0
174 197 0
176 199 0
173 197 0
175 198 0
174 197 0
175 198 0
172 196 0
174 198 0
173 197 0
175 198 0
174 197 0
175 198 0
174 197 0
174 198 0
172 196 0
175 197 0
175 198 0
170 195 0
174 197 0
173 196 0
173 196 0
174 197 0
174 197 0
173 197 0
174 197 0
174 198 0
174 197 0
172 196 0
176 198 0
173 197 0
174 197 0
176 198 0
173 197 0
175 198 0
174 197 0
174 198 0
175 198 0
175 198 0
174 198 0
173 197 0
175 198 0
172 197 0
173 196 0
172 197 0
174 198 0
174 197 0
174 197 0
175 198 0
176 198 0
175 198 0
174 198 0
174 198 0
174 198 0
174 198 0
175 198 0
172 196 0
174 198 0
173 197 0
174 197 0
173 196 0
175 198 0
176 199 0
175 198 0
176 198 0
173 197 0
174 197 0
174 198 0
174 198 0
174 197 0
174 197 0
175 198 0
174 198 0
173 197 0
174 197 0
173 197 0
172 196 0
172 196 0
174 197 0
174 197 0
174 197 0
176 199 0
173 196 0
175 198 0
175 198 0
174 197 0
175 198 0
175 198 0
174 197 0
174 197 0
174 198 0
174 198 0
174 197 0
175 198 0
176 198 0
175 198 0
173 197 0
173 197 0
175 198 0
175 198 0
173 197 0
175 198 0
174 198 0
175 198 0
173 197 0
174 197 0
173 197 0
174 198 0
173 197 0
175 198 0
174 197 0
174 198 0
175 198 0
174 198 0
174 198 0
175 198 0
174 198 0
176 198 0
175 198 0
175 198 0
174 198 0
173 197 0
173 197 0
175 198 0
175 198 0
173 197 0
175 198 0
174 197 0
175 198 0
175 198 0
175 197 0
176 199 0
174 198 0
174 197 0
176 199 0
174 198 0
174 198 0
174 198 0
174 198 0
174 198 0
175 198 0
174 197 0
174 197 0
173 197 0
174 198 0
173 197 0
175 198 0
175 198 0
174 198 0
173 197 0
173 197 0
174 198 0
174 198 0
174 198 0
175 198 0
174 198 0
174 197 0
174 197 0
175 198 0
175 198 0
174 198 0
174 198 0
174 198 0
174 198 0
174 198 0
175 198 0
173 196 0
174 197 0
172 196 0
175 198 0
175 198 0
173 197 0
175 198 0
175 198 0
176 199 0
174 197 0
175 198 0
174 198 0
174 198 0
175 198 0
176 198 0
177 199 0
174 197 0
172 196 0
173 197 0
174 198 0
173 197 0
174 197 0
173 197 0
173 197 0
174 197 0
175 198 0
174 197 0
175 198 0
174 198 0
173 197 0
174 197 0
174 198 0
174 197 0
174 197 0
175 198 0
175 198 0
173 197 0
174 197 0
173 197 0
174 197 0
175 198 0
174 197 0
175 198 0
174 197 0
174 198 0
174 197 0
175 198 0
174 197 0
174 197 0
175 198 0
173 197 0
174 197 0
175 198 0
173 197 0
172 196 0
176 198 0
173 197 0
174 198 0
173 197 0
174 198 0
174 197 0
174 198 0
172 196 0
174 197 0
174 197 0
174 197 0
173 197 0
175 198 0
174 198 0
173 197 0
174 197 0
176 199 0
174 197 0
173 196 0
174 197 0
173 197 0
173 197 0
176 199 0
174 197 0
173 196 0
175 198 0
174 197 0
172 196 0
173 196 0
173 197 0
174 197 0
173 196 0
172 196 0
174 197 0
173 196 0
173 197 0
175 198 0
170 194 0
172 196 0
174 197 0
172 196 0
175 198 0
173 197 0
174 197 0
173 197 0
172 196 0
174 197 0
174 197 0
173 197 0
174 198 0
172 196 0
174 198 0
175 198 0
173 196 0
171 195 0
174 197 0
175 197 0
174 197 0
172 196 0
173 197 0
171 195 0
173 197 0
176 198 0
173 197 0
172 196 0
173 197 0
174 197 0
171 195 0
173 196 0
174 197 0
173 196 0
175 198 0
174 197 0
175 198 0
172 196 0
173 197 0
171 195 0
173 196 0
173 197 0
175 198 0
173 197 0
175 198 0
172 196 0
171 195 0
174 197 0
174 197 0
174 197 0
174 198 0
174 197 0
173 197 0
174 197 0
175 198 0
173 197 0
173 197 0
172 196 0
172 196 0
172 195 0
173 197 0
175 197 0
172 195 0
172 196 0
173 197 0
174 198 0
173 197 0
174 198 0
176 198 0
174 197 0
174 197 0
172 195 0
173 196 0
174 198 0
171 195 0
174 197 0
172 195 0
171 195 0
171 196 0
175 198 0
175 197 0
172 196 0
174 197 0
173 196 0
173 197 0
174 197 0
173 197 0
174 198 0
175 198 0
171 195 0
173 197 0
171 195 0
174 198 0
174 198 0
175 198 0
174 198 0
174 197 0
172 196 0
175 198 0
175 198 0
175 198 0
175 198 0
173 197 0
174 197 0
174 197 0
175 198 0
176 199 0
174 197 0
175 198 0
175 198 0
175 197 0
174 198 0
174 198 0
175 198 0
173 197 0
173 197 0
174 198 0
174 198 0
174 198 0
174 198 0
173 197 0
174 197 0
173 197 0
174 197 0
175 198 0
174 197 0
174 198 0
174 197 0
175 198 0
174 198 0
175 198 0
173 196 0
174 198 0
174 197 0
174 197 0
172 195 0
173 196 0
176 198 0
175 198 0
173 197 0
174 197 0
174 198 0
173 197 0
173 197 0
173 197 0
174 198 0
173 196 0
175 198 0
176 198 0
173 197 0
175 197 0
174 197 0
174 197 0
175 198 0
174 197 0
175 198 0
174 197 0
173 197 0
175 198 0
175 198 0
173 196 0
174 197 0
173 197 0
175 198 0
174 197 0
174 197 0
173 197 0
175 198 0
174 197 0
176 198 0
174 198 0
174 197 0
175 198 0
177 199 0
175 198 0
174 198 0
174 198 0
173 197 0
175 198 0
176 199 0
174 198 0
173 197 0
175 198 0
174 197 0
174 197 0
174 198 0
175 198 0
175 198 0
174 198 0
174 197 0
175 198 0
175 198 0
173 197 0
173 197 0
174 198 0
176 198 0
174 197 0
175 198 0
175 198 0
172 196 0
174 197 0
173 197 0
173 197 0
173 197 0
174 197 0
176 198 0
172 197 0
175 198 0
174 198 0
173 197 0
175 198 0
174 198 0
173 197 0
175 198 0
174 197 0
176 198 0
173 196 0
175 198 0
173 197 0
173 197 0
174 198 0
176 198 0
172 197 0
175 198 0
175 198 0
174 198 0
174 198 0
173 197 0
174 197 0
174 198 0
175 198 0
174 198 0
175 198 0
174 197 0
176 199 0
175 198 0
173 197 0
172 196 0
174 198 0
177 199 0
173 197 0
172 196 0
175 198 0
175 198 0
175 198 0
174 198 0
175 198 0
174 198 0
174 198 0
175 198 0
175 198 0
175 198 0
174 198 0
175 198 0
175 198 0
173 197 0
175 198 0
175 198 0
174 197 0
174 198 0
173 197 0
173 197 0
174 197 0
175 198 0
175 198 0
174 198 0
175 198 0
174 197 0
176 198 0
173 197 0
174 197 0
175 198 0
174 198 0
175 198 0
174 197 0
176 198 0
174 198 0
174 198 0
174 198 0
174 197 0
174 198 0
173 197 0
176 199 0
174 198 0
174 198 0
174 197 0
173 197 0
174 198 0
174 198 0
174 198 0
174 198 0
175 198 0
173 197 0
176 199 0
175 198 0
175 198 0
173 197 0
174 197 0
174 198 0
174 197 0
174 198 0
174 198 0
173 197 0
174 197 0
174 198 0
174 198 0
176 199 0
175 198 0
174 198 0
173 197 0
175 198 0
174 197 0
174 197 0
174 198 0
174 198 0
174 198 0
173 197 0
174 197 0
173 197 0
175 198 0
173 197 0
175 198 0
173 197 0
174 198 0
174 198 0
173 197 0
176 199 0
175 198 0
174 198 0
174 197 0
172 196 0
175 198 0
172 196 0
175 198 0
173 197 0
173 197 0
173 197 0
175 198 0
174 197 0
175 198 0
176 198 0
175 198 0
175 198 0
175 198 0
175 198 0
174 198 0
174 198 0
174 197 0
174 198 0
174 198 0
174 198 0
174 197 0
175 198 0
174 197 0
173 196 0
174 197 0
175 198 0
173 197 0
174 198 0
174 198 0
174 198 0
173 197 0
176 198 0
175 198 0
173 197 0
173 197 0
172 195 0
174 197 0
175 198 0
174 197 0
175 198 0
173 197 0
173 197 0
175 198 0
175 198 0
174 197 0
173 197 0
175 198 0
174 197 0
173 197 0
174 197 0
174 198 0
172 195 0
175 198 0
171 195 0
173 197 0
173 196 0
173 197 0
175 198 0
174 197 0
173 197 0
173 197 0
173 197 0
173 196 0
174 197 0
175 198 0
174 197 0
173 197 0
174 198 0
176 198 0
173 197 0
174 197 0
174 197 0
173 196 0
175 198 0
174 198 0
176 198 0
173 197 0
173 197 0
172 196 0
173 196 0
174 197 0
174 198 0
173 197 0
174 198 0
174 198 0
172 196 0
176 198 0
174 197 0
174 198 0
175 198 0
173 197 0
173 197 0
174 197 0
176 199 0
173 197 0
174 198 0
172 196 0
174 197 0
173 197 0
174 197 0
171 194 0
174 197 0
174 197 0
175 198 0
176 199 0
172 196 0
172 196 0
173 197 0
170 194 0
174 197 0
172 196 0
175 198 0
173 197 0
173 196 0
174 197 0
173 196 0
173 197 0
176 199 0
174 198 0
173 196 0
173 197 0
174 197 0
173 196 0
174 198 0
175 198 0
172 195 0
171 195 0
174 197 0
174 197 0
174 197 0
173 196 0
177 199 0
174 197 0
174 197 0
171 194 0
171 195 0
173 197 0
173 197 0
175 198 0
173 197 0
173 197 0
173 196 0
173 197 0
173 197 0
172 196 0
172 196 0
174 197 0
174 197 0
174 198 0
175 198 0
172 195 0
173 196 0
175 198 0
174 197 0
174 198 0
174 197 0
174 197 0
175 198 0
173 197 0
174 197 0
174 198 0
174 197 0
174 198 0
176 198 0
174 197 0
172 195 0
174 197 0
174 197 0
172 196 0
174 197 0
172 195 0
173 197 0
174 197 0
175 198 0
174 198 0
175 198 0
172 196 0
173 197 0
175 198 0
172 196 0
173 197 0
170 195 0
173 196 0
174 198 0
173 196 0
175 198 0
174 196 0
176 198 0
175 198 0
174 197 0
174 197 0
174 197 0
173 197 0
174 198 0
175 198 0
172 196 0
172 195 0
174 197 0
174 197 0
171 195 0
174 198 0
173 197 0
174 197 0
173 197 0
175 198 0
173 196 0
175 198 0
175 198 0
174 198 0
173 196 0
174 197 0
175 198 0
174 198 0
175 198 0
173 197 0
173 197 0
174 198 0
174 197 0
175 198 0
174 198 0
174 198 0
174 198 0
173 197 0
174 198 0
174 197 0
174 197 0
174 197 0
173 197 0
174 197 0
175 198 0
175 198 0
175 198 0
174 197 0
173 197 0
173 197 0
175 198 0
174 198 0
173 196 0
174 198 0
173 197 0
174 197 0
173 197 0
174 198 0
175 198 0
173 197 0
174 198 0
174 197 0
174 198 0
174 197 0
173 197 0
173 197 0
174 198 0
174 197 0
175 198 0
172 196 0
174 197 0
176 199 0
175 198 0
176 199 0
175 198 0
174 197 0
176 198 0
176 198 0
174 196 0
173 196 0
173 197 0
176 198 0
175 198 0
173 197 0
174 198 0
173 197 0
174 197 0
174 198 0
173 197 0
174 198 0
175 198 0
172 196 0
174 197 0
175 198 0
175 198 0
173 197 0
175 198 0
173 197 0
173 197 0
175 198 0
175 198 0
175 198 0
174 197 0
176 199 0
175 198 0
175 198 0
174 198 0
174 198 0
175 198 0
174 197 0
173 197 0
175 198 0
174 198 0
173 197 0
173 197 0
174 198 0
173 197 0
175 198 0
174 198 0
174 198 0
173 197 0
175 198 0
174 198 0
175 198 0
175 198 0
175 198 0
173 197 0
174 198 0
174 197 0
175 198 0
174 198 0
175 198 0
174 198 0
174 197 0
174 198 0
175 198 0
175 198 0
174 197 0
173 197 0
175 198 0
175 198 0
176 198 0
174 197 0
175 198 0
174 198 0
173 197 0
174 198 0
175 198 0
174 198 0
175 198 0
174 197 0
172 196 0
173 197 0
172 196 0
173 197 0
174 197 0
173 197 0
174 198 0
175 198 0
175 198 0
177 199 0
173 197 0
173 197 0
174 198 0
175 198 0
176 198 0
175 198 0
173 197 0
175 198 0
174 198 0
175 198 0
175 198 0
175 198 0
175 198 0
174 198 0
174 197 0
173 197 0
174 197 0
174 197 0
171 196 0
173 197 0
175 198 0
173 197 0
174 197 0
174 198 0
174 197 0
174 198 0
174 198 0
174 198 0
173 197 0
174 197 0
175 198 0
174 197 0
173 196 0
174 197 0
174 198 0
174 198 0
174 198 0
174 197 0
174 198 0
173 197 0
174 198 0
175 198 0
174 197 0
176 199 0
175 198 0
174 197 0
173 197 0
176 199 0
174 198 0
174 197 0
174 198 0
174 198 0
175 198 0
175 198 0
174 198 0
175 198 0
175 198 0
175 198 0
173 197 0
174 197 0
174 198 0
176 199 0
174 197 0
175 198 0
175 198 0
174 197 0
172 196 0
173 196 0
175 198 0
175 198 0
174 198 0
173 196 0
173 197 0
174 197 0
174 197 0
175 198 0
172 197 0
173 197 0
175 198 0
172 196 0
174 198 0
175 198 0
174 197 0
175 198 0
174 197 0
174 197 0
173 197 0
173 197 0
175 198 0
174 197 0
174 198 0
174 197 0
174 198 0
174 198 0
175 198 0
171 195 0
175 198 0
174 197 0
174 197 0
174 197 0
172 196 0
172 196 0
174 198 0
174 197 0
173 197 0
175 198 0
174 197 0
173 196 0
172 197 0
173 197 0
173 197 0
172 196 0
173 196 0
174 198 0
173 196 0
175 198 0
173 196 0
173 197 0
174 198 0
173 197 0
173 197 0
175 197 0
173 197 0
175 198 0
173 197 0
173 197 0
172 196 0
175 197 0
173 197 0
174 197 0
174 198 0
174 198 0
174 198 0
173 197 0
173 197 0
174 197 0
172 196 0
174 198 0
172 196 0
175 198 0
177 199 0
174 197 0
172 195 0
173 197 0
174 197 0
174 197 0
175 198 0
174 197 0
172 196 0
174 197 0
169 194 0
172 196 0
173 197 0
173 196 0
173 197 0
172 196 0
174 197 0
174 197 0
175 197 0
174 197 0
172 196 0
173 197 0
173 196 0
175 198 0
175 198 0
175 197 0
173 196 0
171 195 0
175 198 0
174 198 0
174 198 0
174 198 0
174 197 0
172 196 0
174 197 0
173 197 0
174 197 0
176 198 0
173 196 0
171 194 0
173 197 0
174 197 0
174 197 0
174 198 0
173 196 0
174 198 0
169 194 0
174 198 0
174 197 0
173 197 0
172 196 0
172 197 0
174 198 0
174 198 0
173 196 0
173 197 0
175 197 0
175 198 0
171 195 0
176 199 0
173 197 0
173 197 0
173 197 0
173 196 0
175 198 0
175 198 0
174 198 0
174 197 0
174 197 0
174 197 0
172 196 0
173 196 0
172 196 0
175 198 0
173 197 0
173 196 0
174 197 0
174 198 0
174 197 0
174 197 0
173 197 0
172 196 0
172 196 0
174 197 0
174 198 0
172 196 0
173 197 0
174 197 0
173 196 0
173 197 0
175 198 0
175 198 0
176 198 0
173 197 0
172 196 0
171 194 0
174 197 0
172 196 0
173 197 0
174 197 0
173 197 0
174 197 0
172 195 0
172 196 0
173 196 0
172 196 0
174 197 0
174 198 0
174 197 0
173 197 0
172 196 0
174 197 0
174 198 0
172 196 0
172 196 0
174 198 0
175 198 0
176 198 0
174 197 0
174 197 0
174 198 0
173 197 0
172 196 0
174 197 0
173 197 0
174 198 0
173 197 0
174 198 0
174 197 0
175 198 0
174 198 0
173 197 0
175 198 0
173 196 0
174 197 0
174 198 0
172 196 0
173 197 0
175 198 0
174 198 0
175 198 0
172 196 0
175 198 0
173 197 0
175 197 0
173 197 0
175 198 0
174 197 0
175 198 0
174 198 0
172 197 0
176 199 0
174 197 0
176 199 0
173 197 0
174 197 0
176 199 0
174 197 0
174 197 0
175 197 0
175 197 0
175 198 0
174 197 0
175 198 0
172 195 0
174 198 0
174 198 0
174 198 0
175 198 0
175 198 0
173 196 0
175 198 0
174 198 0
173 197 0
174 197 0
174 197 0
176 198 0
174 198 0
174 197 0
174 198 0
174 198 0
174 198 0
175 198 0
173 197 0
175 198 0
174 198 0
175 198 0
175 198 0
175 198 0
174 198 0
173 196 0
173 197 0
175 198 0
174 197 0
173 197 0
174 197 0
173 197 0
175 198 0
174 197 0
175 198 0
175 198 0
176 199 0
174 198 0
173 197 0
176 199 0
175 198 0
175 198 0
175 198 0
173 197 0
175 198 0
175 198 0
174 198 0
174 198 0
175 198 0
176 199 0
173 197 0
174 198 0
173 197 0
174 198 0
174 198 0
174 198 0
175 198 0
174 197 0
174 198 0
174 198 0
174 197 0
176 199 0
174 198 0
176 199 0
174 197 0
175 198 0
175 198 0
173 197 0
174 198 0
176 199 0
174 198 0
174 198 0
173 197 0
173 197 0
174 198 0
173 197 0
176 199 0
175 198 0
175 198 0
174 198 0
173 197 0
175 198 0
174 197 0
173 197 0
173 197 0
174 198 0
175 198 0
175 198 0
173 197 0
175 198 0
175 198 0
173 197 0
175 198 0
176 199 0
175 198 0
174 197 0
176 199 0
175 198 0
174 198 0
174 198 0
176 198 0
174 197 0
175 198 0
173 197 0
173 197 0
174 197 0
175 198 0
175 198 0
174 198 0
176 198 0
174 198 0
173 197 0
173 197 0
174 198 0
175 198 0
175 198 0
174 197 0
177 199 0
175 198 0
175 198 0
174 197 0
173 197 0
174 197 0
175 198 0
175 198 0
174 198 0
175 198 0
174 198 0
173 197 0
174 197 0
176 198 0
174 198 0
175 198 0
174 198 0
174 198 0
175 198 0
174 198 0
173 197 0
176 199 0
174 198 0
175 198 0
176 198 0
175 198 0
173 197 0
173 197 0
174 197 0
175 198 0
174 197 0
174 198 0
174 197 0
174 197 0
175 198 0
174 197 0
174 198 0
174 197 0
174 198 0
174 197 0
174 197 0
173 196 0
172 197 0
173 197 0
173 197 0
172 195 0
175 198 0
173 196 0
174 198 0
174 197 0
175 198 0
174 198 0
172 196 0
174 197 0
172 196 0
173 197 0
175 198 0
176 198 0
176 199 0
174 197 0
173 197 0
173 197 0
174 197 0
174 198 0
174 197 0
173 197 0
172 196 0
172 196 0
176 199 0
173 197 0
175 198 0
174 197 0
175 197 0
175 198 0
175 198 0
172 197 0
173 197 0
173 197 0
173 197 0
173 197 0
175 198 0
174 197 0
173 197 0
173 197 0
173 197 0
172 196 0
173 196 0
174 197 0
174 197 0
174 198 0
173 197 0
173 197 0
173 197 0
175 198 0
175 198 0
174 198 0
174 198 0
174 198 0
170 194 0
175 198 0
172 197 0
174 197 0
173 197 0
171 195 0
173 197 0
173 197 0
174 197 0
171 196 0
174 197 0
174 197 0
174 197 0
174 198 0
174 197 0
174 197 0
172 196 0
174 197 0
174 198 0
174 198 0
175 198 0
172 195 0
174 197 0
174 197 0
174 197 0
172 196 0
173 197 0
173 196 0
175 198 0
175 198 0
174 197 0
175 198 0
174 198 0
173 197 0
174 198 0
173 196 0
174 198 0
175 198 0
173 197 0
172 196 0
173 197 0
171 195 0
173 196 0
172 196 0
172 196 0
175 198 0
174 197 0
173 197 0
174 197 0
174 198 0
176 198 0
174 197 0
173 197 0
174 198 0
174 197 0
173 197 0
175 198 0
174 197 0
174 197 0
172 196 0
174 197 0
172 196 0
173 196 0
173 197 0
171 195 0
173 197 0
174 198 0
174 197 0
174 197 0
174 197 0
175 198 0
174 198 0
173 196 0
174 198 0
172 196 0
173 197 0
174 198 0
175 198 0
174 197 0
171 195 0
173 197 0
174 197 0
173 197 0
172 197 0
173 196 0
172 196 0
174 198 0
174 197 0
174 197 0
174 198 0
173 197 0
172 195 0
174 198 0
174 198 0
174 197 0
174 197 0
174 198 0
174 198 0
173 197 0
175 198 0
173 197 0
172 196 0
175 198 0
175 198 0
173 197 0
174 198 0
174 196 0
172 195 0
175 198 0
175 198 0
173 196 0
172 196 0
174 198 0
174 197 0
172 196 0
174 198 0
174 197 0
173 197 0
174 198 0
174 198 0
173 197 0
175 198 0
172 196 0
173 197 0
174 198 0
171 196 0
176 199 0
175 198 0
175 198 0
175 198 0
174 197 0
173 196 0
175 198 0
173 197 0
173 197 0
173 197 0
173 197 0
175 198 0
174 197 0
175 198 0
174 197 0
174 198 0
174 197 0
175 198 0
175 198 0
172 196 0
175 198 0
175 198 0
173 197 0
175 198 0
173 197 0
173 197 0
174 197 0
172 197 0
173 197 0
173 197 0
175 198 0
175 198 0
173 197 0
173 197 0
175 198 0
174 197 0
176 199 0
174 198 0
175 198 0
173 197 0
175 198 0
173 197 0
173 197 0
175 198 0
171 195 0
173 197 0
174 198 0
174 197 0
175 198 0
175 197 0
173 197 0
175 198 0
175 198 0
173 197 0
174 198 0
174 198 0
174 198 0
172 196 0
173 197 0
174 197 0
174 197 0
174 197 0
175 198 0
174 198 0
174 197 0
174 197 0
176 198 0
175 198 0
175 198 0
173 197 0
174 198 0
174 198 0
175 198 0
175 198 0
176 198 0
174 198 0
173 197 0
175 198 0
176 199 0
174 197 0
175 198 0
173 197 0
174 197 0
172 197 0
173 197 0
173 196 0
175 198 0
174 197 0
173 197 0
175 198 0
174 198 0
173 197 0
175 198 0
174 198 0
174 198 0
174 198 0
175 198 0
174 198 0
174 197 0
175 198 0
174 197 0
175 198 0
173 197 0
175 198 0
175 198 0
173 197 0
174 197 0
175 198 0
175 198 0
176 198 0
174 198 0
174 198 0
174 197 0
173 197 0
174 197 0
174 198 0
174 198 0
174 197 0
174 198 0
174 198 0
176 198 0
174 198 0
174 197 0
174 198 0
174 197 0
175 198 0
173 197 0
174 197 0
175 198 0
174 198 0
174 197 0
176 199 0
174 198 0
174 197 0
176 199 0
175 198 0
174 198 0
175 198 0
174 198 0
174 198 0
175 198 0
174 198 0
174 198 0
175 198 0
176 198 0
173 197 0
174 198 0
175 198 0
174 198 0
175 198 0
174 198 0
174 197 0
173 197 0
175 198 0
175 198 0
175 198 0
175 198 0
176 199 0
176 198 0
175 198 0
174 197 0
174 198 0
175 198 0
173 197 0
174 198 0
174 198 0
174 198 0
174 198 0
175 198 0
175 198 0
175 198 0
175 198 0
173 197 0
174 197 0
173 197 0
175 198 0
175 198 0
174 198 0
173 197 0
174 198 0
175 198 0
173 197 0
174 198 0
176 198 0
173 196 0
174 197 0
174 198 0
172 196 0
175 198 0
176 199 0
174 197 0
174 198 0
175 198 0
175 198 0
174 197 0
173 197 0
175 198 0
174 198 0
174 197 0
173 196 0
174 197 0
172 197 0
175 198 0
173 197 0
174 197 0
174 197 0
174 198 0
172 197 0
174 197 0
174 198 0
175 198 0
174 197 0
173 197 0
172 196 0
171 196 0
174 198 0
175 198 0
173 197 0
176 199 0
173 197 0
173 196 0
174 198 0
175 198 0
174 197 0
174 197 0
174 198 0
176 198 0
174 197 0
173 196 0
172 196 0
176 198 0
175 198 0
175 198 0
172 196 0
173 196 0
173 196 0
173 197 0
174 197 0
172 197 0
171 196 0
173 197 0
173 197 0
175 198 0
173 196 0
174 198 0
175 198 0
172 196 0
174 198 0
174 197 0
173 197 0
172 196 0
174 198 0
173 196 0
173 197 0
174 197 0
174 197 0
172 197 0
174 197 0
176 198 0
173 196 0
175 198 0
173 197 0
173 197 0
176 199 0
175 198 0
176 199 0
173 197 0
173 196 0
172 196 0
174 198 0
173 197 0
175 198 0
174 197 0
175 198 0
175 198 0
173 197 0
175 198 0
173 196 0
173 197 0
174 197 0
172 196 0
173 197 0
174 197 0
172 196 0
175 198 0
173 196 0
174 197 0
172 196 0
175 198 0
174 198 0
175 198 0
173 197 0
172 196 0
175 197 0
174 198 0
172 196 0
172 196 0
170 194 0
175 198 0
174 197 0
174 198 0
175 198 0
172 197 0
172 196 0
173 196 0
174 197 0
173 197 0
171 195 0
173 197 0
175 198 0
173 197 0
174 197 0
173 197 0
174 198 0
174 197 0
171 196 0
174 197 0
175 198 0
173 197 0
174 197 0
174 198 0
175 197 0
172 196 0
172 196 0
175 198 0
172 196 0
175 198 0
174 197 0
172 196 0
174 197 0
173 196 0
173 197 0
173 197 0
173 197 0
174 198 0
174 197 0
173 197 0
173 197 0
173 196 0
173 197 0
171 195 0
172 196 0
174 198 0
174 197 0
173 196 0
174 197 0
174 197 0
173 197 0
173 197 0
173 197 0
171 194 0
174 198 0
173 197 0
173 197 0
173 196 0
174 198 0
174 197 0
173 197 0
175 198 0
175 198 0
173 197 0
173 196 0
173 196 0
173 197 0
173 197 0
174 197 0
176 198 0
175 198 0
173 197 0
174 198 0
174 198 0
173 196 0
173 197 0
172 196 0
175 198 0
174 197 0
175 198 0
174 197 0
175 198 0
174 198 0
172 195 0
175 198 0
173 197 0
174 198 0
175 197 0
173 197 0
173 196 0
174 197 0
174 197 0
173 197 0
173 197 0
174 198 0
175 198 0
174 197 0
172 196 0
173 197 0
172 195 0
174 197 0
174 198 0
174 197 0
173 197 0
175 198 0
173 197 0
175 198 0
170 194 0
174 198 0
174 198 0
174 197 0
173 196 0
173 197 0
174 197 0
174 197 0
174 198 0
174 197 0
174 198 0
174 197 0
173 197 0
175 198 0
173 197 0
175 198 0
174 197 0
171 195 0
173 196 0
173 197 0
174 197 0
173 197 0
174 198 0
174 197 0
174 197 0
173 197 0
173 197 0
173 197 0
175 198 0
174 197 0
175 198 0
174 197 0
173 197 0
175 198 0
175 198 0
174 197 0
174 197 0
173 197 0
173 197 0
175 198 0
173 197 0
172 196 0
174 197 0
175 198 0
172 196 0
175 198 0
175 198 0
173 196 0
173 197 0
173 197 0
176 199 0
175 198 0
174 197 0
174 198 0
175 197 0
174 197 0
175 198 0
174 197 0
175 198 0
174 198 0
175 197 0
173 197 0
174 197 0
175 198 0
174 198 0
174 197 0
174 197 0
174 197 0
174 198 0
174 197 0
173 197 0
174 197 0
175 198 0
173 197 0
173 197 0
174 197 0
175 198 0
176 198 0
175 198 0
172 196 0
173 197 0
174 198 0
173 196 0
175 198 0
175 198 0
175 198 0
175 198 0
175 198 0
175 198 0
174 197 0
173 197 0
173 197 0
174 198 0
174 197 0
176 199 0
174 197 0
174 198 0
173 197 0
175 198 0
175 198 0
175 198 0
173 197 0
173 197 0
174 197 0
175 198 0
175 198 0
173 197 0
176 199 0
174 197 0
175 198 0
175 198 0
174 198 0
175 198 0
176 198 0
175 198 0
175 198 0
175 198 0
175 198 0
175 198 0
175 198 0
174 197 0
175 198 0
174 198 0
177 199 0
174 198 0
175 198 0
174 198 0
175 198 0
175 198 0
176 199 0
174 197 0
175 198 0
174 198 0
175 198 0
174 198 0
174 198 0
174 198 0
173 197 0
174 197 0
175 198 0
174 198 0
175 198 0
174 197 0
176 198 0
174 198 0
174 198 0
176 199 0
174 197 0
174 198 0
173 197 0
174 198 0
176 199 0
174 198 0
173 197 0
175 198 0
174 197 0
174 197 0
174 198 0
175 198 0
176 199 0
174 198 0
174 197 0
174 198 0
175 198 0
174 198 0
176 198 0
174 198 0
174 198 0
172 196 0
174 198 0
174 197 0
175 198 0
173 197 0
173 197 0
176 199 0
175 198 0
175 198 0
174 198 0
174 197 0
174 198 0
174 197 0
172 196 0
172 196 0
174 198 0
175 198 0
175 198 0
175 198 0
172 197 0
175 198 0
175 198 0
174 198 0
172 196 0
174 198 0
172 196 0
174 198 0
173 197 0
175 198 0
172 197 0
175 198 0
173 197 0
173 197 0
174 197 0
174 198 0
174 198 0
175 198 0
174 197 0
176 199 0
173 197 0
173 197 0
174 198 0
176 199 0
174 198 0
174 198 0
175 198 0
172 196 0
174 198 0
175 198 0
175 198 0
175 198 0
174 197 0
174 197 0
175 198 0
173 196 0
173 197 0
173 197 0
174 198 0
174 198 0
175 198 0
175 198 0
171 195 0
175 198 0
175 198 0
176 198 0
174 198 0
173 197 0
174 197 0
173 197 0
174 198 0
172 196 0
175 198 0
173 197 0
174 197 0
174 198 0
172 196 0
177 199 0
174 197 0
173 197 0
170 195 0
174 198 0
173 197 0
173 196 0
174 198 0
173 196 0
174 197 0
175 198 0
175 198 0
174 197 0
175 198 0
171 195 0
174 197 0
173 197 0
171 194 0
174 198 0
174 197 0
173 197 0
173 197 0
172 196 0
174 198 0
174 197 0
176 199 0
174 198 0
171 195 0
174 197 0
175 198 0
175 198 0
174 197 0
174 197 0
173 197 0
175 198 0
174 198 0
173 197 0
173 196 0
173 196 0
174 198 0
174 197 0
174 197 0
174 197 0
171 195 0
174 197 0
171 195 0
171 194 0
173 197 0
173 197 0
172 196 0
172 196 0
175 198 0
173 197 0
172 197 0
173 196 0
174 197 0
173 196 0
173 197 0
175 198 0
173 196 0
173 197 0
174 198 0
173 197 0
175 198 0
171 195 0
171 195 0
171 194 0
175 198 0
173 197 0
174 197 0
174 198 0
174 197 0
174 198 0
175 198 0
174 198 0
171 195 0
174 197 0
174 198 0
174 197 0
176 198 0
172 196 0
173 197 0
173 196 0
172 196 0
173 197 0
172 195 0
173 197 0
172 196 0
171 196 0
174 198 0
171 194 0
174 197 0
173 195 0
175 198 0
172 196 0
173 197 0
174 198 0
175 198 0
173 195 0
175 198 0
173 196 0
173 196 0
173 197 0
173 196 0
174 197 0
174 196 0
175 198 0
173 197 0
174 197 0
174 198 0
173 197 0
172 196 0
172 196 0
173 197 0
173 196 0
174 197 0
173 196 0
173 197 0
174 197 0
174 197 0
175 198 0
173 197 0
174 198 0
172 196 0
175 198 0
173 196 0
172 196 0
174 197 0
174 197 0
173 197 0
174 198 0
175 198 0
172 196 0
174 197 0
172 196 0
175 198 0
176 199 0
174 197 0
175 198 0
175 198 0
172 195 0
174 197 0
172 197 0
174 197 0
173 196 0
173 197 0
174 197 0
174 197 0
174 198 0
175 197 0
174 197 0
174 198 0
173 196 0
173 196 0
172 196 0
176 199 0
174 197 0
174 197 0
175 198 0
173 197 0
175 198 0
173 197 0
176 199 0
174 198 0
173 197 0
173 197 0
174 197 0
175 198 0
174 197 0
173 196 0
173 197 0
174 198 0
174 198 0
175 198 0
174 198 0
175 198 0
174 197 0
174 197 0
173 196 0
174 198 0
174 198 0
175 198 0
174 197 0
172 196 0
174 197 0
174 197 0
175 198 0
174 198 0
174 197 0
175 198 0
172 196 0
175 198 0
174 197 0
173 197 0
175 198 0
172 196 0
175 198 0
175 197 0
174 197 0
171 195 0
174 197 0
172 196 0
175 198 0
174 197 0
173 197 0
175 198 0
174 197 0
175 198 0
175 198 0
174 198 0
174 198 0
174 198 0
173 197 0
174 198 0
175 198 0
173 197 0
173 197 0
174 197 0
174 197 0
174 198 0
173 197 0
175 198 0
175 198 0
174 197 0
175 198 0
175 198 0
174 198 0
173 197 0
174 198 0
173 197 0
174 198 0
173 197 0
175 198 0
173 197 0
174 198 0
174 198 0
173 197 0
175 198 0
175 198 0
172 196 0
174 197 0
173 197 0
172 197 0
174 197 0
172 197 0
175 198 0
175 198 0
174 198 0
175 198 0
174 198 0
173 197 0
174 198 0
174 197 0
174 197 0
173 197 0
174 198 0
174 198 0
174 198 0
174 198 0
176 199 0
174 198 0
174 198 0
174 197 0
175 198 0
174 197 0
175 198 0
173 197 0
175 198 0
173 197 0
173 197 0
176 198 0
175 198 0
174 198 0
174 198 0
175 198 0
175 198 0
176 199 0
176 198 0
175 198 0
174 198 0
174 198 0
175 198 0
175 198 0
175 198 0
174 198 0
174 198 0
176 198 0
174 198 0
174 198 0
175 198 0
174 197 0
175 198 0
175 198 0
174 197 0
174 198 0
175 198 0
174 198 0
174 198 0
175 198 0
175 198 0
175 198 0
173 197 0
175 198 0
176 199 0
174 197 0
173 197 0
174 198 0
174 198 0
173 197 0
175 198 0
174 198 0
173 197 0
173 197 0
173 197 0
173 197 0
175 198 0
176 199 0
173 197 0
176 199 0
172 196 0
174 197 0
174 197 0
174 197 0
172 196 0
174 198 0
174 198 0
176 198 0
173 197 0
175 198 0
172 196 0
176 199 0
174 198 0
173 197 0
175 198 0
175 198 0
175 198 0
175 198 0
175 198 0
175 198 0
173 197 0
175 198 0
174 198 0
175 198 0
173 197 0
173 196 0
175 198 0
173 197 0
175 198 0
175 198 0
173 196 0
173 196 0
174 198 0
174 198 0
174 198 0
174 197 0
173 196 0
175 198 0
173 197 0
174 198 0
174 198 0
174 198 0
172 196 0
173 197 0
172 196 0
173 197 0
174 197 0
172 196 0
174 198 0
173 197 0
175 198 0
173 197 0
175 198 0
173 197 0
174 198 0
176 199 0
174 198 0
173 196 0
174 197 0
175 198 0
174 197 0
174 197 0
173 197 0
173 197 0
174 198 0
174 198 0
172 196 0
174 197 0
173 197 0
174 197 0
175 198 0
173 197 0
174 197 0
173 196 0
173 197 0
172 196 0
174 198 0
173 197 0
173 197 0
174 197 0
175 198 0
174 197 0
172 196 0
173 197 0
175 198 0
173 197 0
172 197 0
173 197 0
173 197 0
173 197 0
173 196 0
174 198 0
174 197 0
175 198 0
173 196 0
171 194 0
173 196 0
173 197 0
173 197 0
175 198 0
175 198 0
174 197 0
172 196 0
173 197 0
173 197 0
174 197 0
173 197 0
175 198 0
172 196 0
173 197 0
174 197 0
171 195 0
171 195 0
174 198 0
175 198 0
175 197 0
175 198 0
173 197 0
176 198 0
172 196 0
175 198 0
172 195 0
174 197 0
172 196 0
173 197 0
174 198 0
173 197 0
173 197 0
174 197 0
174 197 0
172 196 0
173 197 0
172 196 0
176 198 0
173 196 0
174 197 0
171 195 0
173 196 0
173 196 0
173 197 0
174 197 0
173 197 0
173 197 0
174 197 0
173 196 0
173 197 0
173 196 0
173 197 0
173 196 0
174 197 0
173 197 0
173 196 0
173 196 0
174 198 0
173 197 0
172 196 0
173 197 0
173 197 0
174 197 0
173 196 0
174 197 0
174 198 0
174 197 0
175 198 0
173 196 0
171 195 0
172 196 0
175 198 0
172 196 0
174 198 0
173 197 0
173 197 0
173 197 0
173 196 0
172 196 0
174 197 0
173 197 0
173 196 0
174 197 0
174 197 0
173 196 0
173 197 0
173 196 0
174 197 0
172 197 0
172 196 0
173 196 0
174 198 0
174 198 0
172 196 0
173 197 0
174 198 0
174 197 0
173 197 0
173 197 0
174 197 0
174 197 0
173 197 0
174 197 0
173 196 0
176 198 0
173 197 0
173 197 0
173 197 0
173 197 0
175 198 0
174 197 0
173 196 0
171 195 0
174 198 0
173 196 0
174 197 0
174 198 0
175 197 0
175 198 0
173 197 0
174 197 0
175 198 0
174 197 0
175 197 0
174 197 0
173 197 0
173 197 0
174 197 0
174 197 0
174 197 0
174 197 0
175 198 0
176 199 0
174 198 0
173 197 0
173 197 0
175 198 0
174 197 0
174 197 0
173 197 0
174 198 0
175 198 0
174 197 0
174 197 0
172 196 0
174 197 0
174 198 0
175 198 0
174 198 0
173 197 0
174 197 0
173 197 0
174 197 0
174 198 0
174 197 0
174 198 0
174 197 0
173 197 0
173 197 0
175 198 0
174 197 0
174 198 0
176 199 0
174 197 0
174 198 0
173 197 0
174 197 0
174 198 0
173 197 0
175 198 0
174 198 0
177 199 0
173 197 0
175 198 0
172 196 0
174 197 0
174 198 0
175 198 0
172 196 0
173 197 0
173 196 0
173 197 0
175 198 0
172 197 0
174 197 0
175 198 0
174 197 0
173 197 0
174 197 0
174 197 0
173 197 0
174 198 0
175 198 0
174 198 0
174 198 0
172 196 0
173 197 0
175 198 0
173 196 0
174 197 0
173 196 0
175 198 0
174 197 0
173 196 0
174 198 0
175 198 0
175 198 0
175 198 0
174 197 0
175 198 0
175 198 0
176 199 0
173 197 0
175 198 0
172 197 0
173 197 0
175 198 0
174 197 0
175 198 0
174 197 0
174 198 0
174 198 0
174 198 0
174 197 0
173 197 0
174 198 0
174 197 0
175 198 0
174 198 0
174 198 0
176 199 0
174 197 0
174 197 0
175 198 0
174 197 0
174 197 0
173 197 0
174 198 0
174 197 0
175 198 0
174 198 0
175 198 0
174 198 0
174 198 0
174 197 0
173 197 0
174 198 0
175 198 0
175 198 0
175 198 0
173 197 0
174 198 0
175 198 0
174 197 0
176 199 0
173 197 0
174 198 0
173 197 0
174 198 0
174 198 0
173 197 0
173 197 0
175 198 0
175 198 0
175 198 0
173 197 0
175 198 0
174 197 0
174 198 0
175 198 0
176 199 0
174 198 0
173 197 0
174 197 0
173 196 0
174 198 0
174 197 0
175 198 0
174 198 0
175 198 0
175 198 0
174 198 0
175 198 0
172 197 0
173 197 0
175 198 0
175 198 0
175 198 0
173 197 0
176 199 0
174 197 0
174 198 0
173 197 0
174 197 0
174 198 0
175 198 0
174 198 0
176 199 0
176 199 0
174 197 0
175 198 0
174 197 0
174 198 0
175 198 0
173 197 0
176 199 0
173 197 0
173 197 0
172 196 0
174 198 0
173 197 0
174 198 0
172 197 0
176 199 0
173 197 0
173 197 0
175 198 0
173 197 0
173 197 0
175 198 0
171 195 0
175 198 0
176 198 0
175 198 0
173 197 0
174 198 0
174 197 0
174 197 0
171 196 0
175 198 0
174 197 0
173 197 0
172 195 0
175 198 0
174 197 0
175 198 0
174 198 0
175 198 0
174 198 0
174 198 0
172 197 0
173 197 0
174 198 0
176 198 0
175 198 0
175 198 0
174 197 0
173 197 0
173 197 0
175 198 0
173 197 0
174 198 0
175 198 0
173 196 0
173 197 0
172 196 0
175 198 0
175 198 0
176 198 0
175 198 0
175 198 0
173 197 0
176 198 0
173 197 0
173 196 0
173 197 0
175 198 0
175 198 0
173 197 0
174 198 0
173 196 0
172 196 0
173 196 0
174 198 0
172 196 0
174 197 0
171 196 0
173 197 0
174 197 0
174 197 0
175 198 0
175 198 0
173 197 0
173 197 0
174 198 0
173 196 0
175 198 0
174 197 0
174 197 0
174 198 0
173 196 0
173 197 0
173 197 0
172 197 0
174 197 0
172 196 0
174 197 0
174 197 0
175 198 0
173 197 0
171 195 0
173 197 0
171 195 0
173 197 0
174 197 0
174 198 0
174 198 0
173 197 0
173 196 0
174 197 0
176 199 0
173 197 0
174 197 0
172 197 0
174 197 0
171 195 0
173 196 0
174 197 0
174 197 0
174 198 0
174 198 0
172 196 0
174 197 0
173 196 0
174 197 0
173 197 0
174 198 0
174 197 0
172 195 0
174 197 0
173 196 0
175 198 0
174 197 0
174 197 0
173 197 0
174 197 0
172 196 0
171 195 0
173 197 0
171 195 0
172 196 0
173 197 0
174 198 0
175 198 0
172 197 0
174 197 0
174 197 0
172 195 0
174 197 0
173 197 0
175 198 0
172 196 0
174 198 0
174 197 0
174 197 0
174 197 0
174 197 0
170 194 0
174 198 0
175 198 0
176 198 0
174 198 0
172 196 0
174 197 0
174 197 0
174 197 0
173 196 0
175 198 0
174 198 0
174 198 0
174 196 0
174 197 0
172 196 0
173 196 0
172 196 0
172 196 0
173 197 0
174 197 0
173 197 0
174 197 0
174 197 0
172 196 0
174 197 0
175 198 0
171 195 0
172 196 0
173 197 0
174 197 0
174 198 0
172 196 0
172 196 0
173 197 0
173 197 0
172 197 0
174 197 0
174 197 0
173 197 0
175 198 0
174 198 0
175 197 0
172 197 0
172 195 0
173 197 0
175 198 0
172 195 0
173 197 0
174 197 0
175 198 0
172 196 0
173 197 0
171 195 0
172 196 0
175 198 0
175 198 0
173 197 0
175 198 0
174 197 0
172 196 0
172 195 0
174 197 0
173 196 0
173 197 0
174 197 0
172 196 0
175 198 0
173 197 0
173 196 0
172 196 0
174 196 0
175 198 0
173 197 0
174 198 0
173 196 0
173 197 0
174 198 0
172 196 0
173 196 0
174 198 0
174 198 0
174 198 0
174 198 0
173 196 0
173 196 0
175 198 0
175 198 0
175 197 0
175 198 0
171 195 0
173 196 0
176 199 0
175 198 0
175 198 0
174 198 0
175 198 0
174 198 0
173 197 0
175 198 0
173 197 0
172 195 0
175 198 0
175 198 0
176 198 0
174 198 0
174 197 0
173 197 0
174 197 0
175 198 0
173 197 0
175 198 0
174 197 0
175 198 0
174 198 0
175 198 0
175 198 0
172 196 0
172 196 0
173 197 0
173 197 0
175 198 0
175 198 0
175 198 0
174 197 0
173 197 0
173 197 0
174 197 0
174 197 0
175 198 0
173 197 0
175 198 0
175 198 0
175 198 0
174 198 0
175 197 0
173 197 0
175 198 0
173 197 0
175 198 0
174 197 0
174 198 0
174 197 0
174 197 0
173 196 0
175 198 0
175 198 0
173 197 0
175 198 0
174 197 0
176 199 0
175 198 0
176 199 0
173 196 0
174 198 0
175 198 0
174 197 0
176 199 0
174 197 0
175 198 0
175 198 0
173 196 0
173 197 0
174 197 0
174 198 0
173 196 0
176 198 0
174 198 0
175 198 0
175 198 0
174 197 0
175 198 0
174 197 0
174 197 0
175 198 0
174 198 0
174 197 0
175 198 0
174 198 0
173 197 0
174 197 0
174 198 0
173 197 0
174 198 0
175 198 0
176 198 0
176 198 0
174 198 0
173 197 0
173 197 0
174 198 0
175 198 0
176 199 0
174 197 0
174 198 0
175 198 0
174 198 0
174 197 0
174 197 0
174 198 0
175 198 0
174 197 0
175 198 0
175 198 0
174 197 0
174 198 0
174 198 0
174 198 0
173 197 0
173 197 0
174 197 0
174 198 0
173 197 0
173 197 0
175 198 0
173 197 0
174 197 0
174 197 0
172 196 0
175 198 0
174 198 0
173 197 0
175 198 0
174 197 0
175 198 0
173 197 0
174 198 0
175 198 0
172 197 0
174 198 0
176 198 0
173 197 0
175 198 0
175 198 0
174 198 0
174 198 0
175 198 0
174 198 0
174 198 0
175 198 0
173 197 0
173 197 0
175 198 0
174 198 0
173 197 0
177 199 0
174 198 0
174 198 0
175 198 0
175 198 0
174 197 0
175 198 0
175 198 0
175 198 0
174 197 0
174 197 0
173 197 0
174 197 0
175 198 0
174 198 0
174 197 0
175 198 0
174 198 0
173 197 0
172 196 0
174 198 0
175 198 0
175 198 0
173 197 0
173 197 0
174 197 0
173 197 0
174 197 0
175 198 0
174 197 0
175 198 0
175 198 0
174 198 0
175 198 0
175 198 0
176 199 0
173 197 0
174 197 0
176 198 0
174 198 0
174 197 0
173 197 0
174 198 0
172 196 0
174 197 0
175 198 0
175 198 0
174 198 0
172 196 0
175 198 0
174 198 0
173 197 0
174 198 0
173 197 0
174 197 0
175 198 0
174 198 0
176 199 0
174 198 0
174 198 0
175 198 0
173 197 0
173 197 0
173 196 0
174 197 0
173 197 0
175 197 0
174 197 0
175 198 0
174 198 0
173 197 0
175 198 0
173 197 0
175 198 0
174 198 0
175 198 0
172 196 0
173 197 0
173 197 0
172 196 0
174 198 0
176 198 0
176 198 0
174 198 0
174 197 0
175 198 0
175 198 0
173 196 0
173 197 0
173 196 0
171 195 0
174 197 0
173 197 0
174 197 0
174 197 0
172 196 0
175 198 0
175 198 0
175 198 0
172 196 0
174 198 0
174 198 0
173 197 0
171 195 0
174 198 0
173 196 0
172 196 0
174 197 0
172 196 0
174 198 0
175 198 0
170 195 0
173 197 0
173 197 0
173 197 0
174 197 0
174 197 0
176 198 0
171 195 0
171 196 0
172 196 0
174 198 0
174 198 0
174 198 0
174 197 0
173 197 0
174 197 0
173 197 0
175 198 0
172 196 0
175 198 0
173 196 0
172 196 0
175 198 0
175 198 0
174 198 0
173 197 0
172 196 0
176 199 0
173 197 0
173 196 0
173 197 0
172 197 0
172 196 0
173 196 0
171 195 0
176 198 0
174 197 0
175 198 0
170 193 0
174 197 0
174 197 0
174 197 0
173 197 0
175 198 0
173 196 0
173 196 0
173 196 0
174 197 0
173 196 0
174 197 0
172 196 0
173 197 0
173 197 0
174 197 0
173 196 0
175 198 0
173 197 0
173 197 0
173 197 0
174 198 0
173 197 0
173 196 0
173 196 0
174 197 0
176 199 0
172 196 0
174 197 0
174 197 0
174 197 0
173 196 0
174 198 0
173 195 0
175 198 0
174 197 0
175 198 0
173 196 0
174 197 0
174 197 0
173 197 0
173 196 0
173 197 0
173 197 0
176 198 0
174 198 0
174 197 0
174 198 0
173 197 0
175 198 0
173 196 0
173 197 0
173 197 0
173 197 0
173 197 0
173 197 0
173 197 0
173 196 0
174 197 0
173 197 0
172 196 0
174 198 0
173 197 0
172 196 0
173 197 0
175 198 0
173 196 0
174 198 0
172 195 0
174 197 0
175 198 0
174 197 0
173 196 0
174 198 0
175 198 0
174 198 0
173 196 0
176 199 0
174 197 0
175 198 0
174 197 0
174 198 0
174 198 0
174 198 0
173 196 0
174 198 0
173 197 0
175 198 0
174 197 0
175 198 0
175 198 0
174 197 0
174 197 0
174 198 0
171 195 0
172 196 0
175 198 0
174 198 0
174 197 0
174 198 0
174 198 0
174 197 0
173 197 0
173 197 0
173 197 0
174 197 0
175 198 0
173 196 0
174 197 0
175 198 0
175 198 0
174 198 0
173 197 0
173 197 0
175 197 0
175 198 0
174 197 0
172 195 0
175 198 0
173 197 0
173 197 0
172 196 0
173 197 0
174 198 0
174 197 0
173 197 0
174 198 0
174 198 0
174 198 0
173 196 0
174 198 0
174 197 0
175 198 0
175 198 0
173 197 0
173 197 0
174 198 0
173 197 0
174 197 0
175 198 0
174 197 0
174 197 0
174 197 0
175 198 0
173 197 0
173 197 0
174 197 0
174 197 0
174 198 0
175 198 0
175 198 0
174 198 0
174 197 0
174 197 0
175 198 0
173 197 0
177 199 0
175 198 0
174 198 0
173 197 0
172 196 0
173 196 0
175 198 0
173 197 0
174 198 0
174 197 0
174 198 0
173 197 0
174 198 0
174 198 0
173 197 0
176 198 0
174 198 0
173 196 0
176 198 0
175 198 0
173 197 0
174 198 0
174 198 0
175 198 0
174 197 0
174 198 0
176 198 0
174 197 0
174 198 0
175 198 0
173 197 0
174 197 0
174 198 0
176 199 0
174 197 0
175 198 0
175 198 0
174 198 0
174 197 0
175 198 0
172 197 0
174 198 0
175 198 0
174 198 0
174 198 0
174 198 0
174 198 0
174 197 0
174 197 0
174 198 0
174 198 0
174 197 0
174 198 0
174 197 0
174 198 0
173 197 0
174 198 0
173 197 0
174 198 0
174 198 0
175 198 0
173 197 0
174 198 0
174 198 0
175 198 0
174 198 0
173 197 0
174 198 0
175 198 0
175 198 0
176 199 0
174 198 0
174 198 0
174 198 0
175 198 0
175 198 0
175 198 0
175 197 0
174 198 0
175 198 0
174 198 0
174 197 0
174 198 0
174 197 0
174 198 0
172 197 0
173 196 0
173 197 0
174 198 0
175 198 0
173 197 0
173 197 0
175 198 0
174 197 0
174 198 0
174 198 0
174 198 0
174 197 0
176 199 0
175 198 0
175 198 0
173 197 0
174 198 0
174 198 0
173 197 0
173 197 0
174 197 0
173 197 0
174 198 0
174 197 0
174 198 0
174 198 0
175 198 0
173 197 0
174 198 0
174 198 0
174 198 0
173 197 0
174 197 0
176 198 0
173 197 0
174 198 0
173 197 0
173 197 0
176 199 0
175 198 0
174 197 0
176 198 0
172 196 0
174 198 0
175 198 0
174 197 0
175 198 0
175 198 0
173 197 0
175 198 0
173 196 0
171 195 0
175 198 0
172 197 0
173 197 0
174 198 0
174 197 0
173 197 0
173 197 0
174 198 0
173 197 0
173 197 0
173 197 0
175 198 0
174 198 0
174 197 0
174 198 0
176 199 0
174 198 0
172 197 0
174 197 0
174 197 0
174 197 0
175 198 0
173 197 0
175 198 0
174 197 0
173 197 0
177 199 0
175 198 0
174 198 0
174 198 0
173 197 0
173 197 0
172 196 0
173 197 0
175 198 0
173 197 0
173 197 0
172 197 0
173 196 0
175 198 0
174 197 0
175 198 0
174 198 0
173 197 0
173 197 0
173 197 0
174 198 0
173 197 0
174 197 0
173 197 0
173 197 0
176 199 0
175 198 0
173 196 0
175 198 0
173 197 0
174 197 0
175 198 0
172 196 0
173 197 0
173 197 0
174 197 0
174 197 0
173 197 0
174 197 0
173 197 0
173 196 0
173 196 0
174 197 0
171 195 0
174 198 0
175 197 0
172 196 0
174 198 0
176 199 0
172 196 0
173 197 0
175 198 0
172 196 0
174 197 0
173 197 0
175 198 0
174 197 0
174 197 0
175 197 0
175 198 0
174 198 0
174 197 0
174 198 0
173 196 0
172 196 0
173 197 0
173 197 0
172 195 0
174 197 0
175 198 0
174 198 0
172 196 0
174 197 0
175 198 0
174 197 0
174 197 0
173 196 0
176 198 0
171 195 0
173 196 0
173 196 0
174 197 0
172 195 0
173 197 0
174 197 0
173 196 0
172 196 0
173 197 0
175 197 0
173 196 0
174 198 0
173 197 0
172 196 0
174 197 0
175 197 0
175 198 0
172 196 0
174 198 0
174 198 0
173 197 0
173 196 0
174 197 0
174 197 0
172 197 0
174 197 0
175 198 0
173 196 0
173 197 0
174 197 0
173 197 0
174 197 0
175 197 0
174 197 0
174 198 0
172 196 0
174 197 0
174 197 0
174 197 0
175 198 0
174 197 0
174 198 0
175 198 0
175 198 0
173 196 0
174 198 0
172 196 0
175 198 0
172 196 0
175 198 0
175 198 0
174 197 0
174 198 0
174 197 0
172 195 0
174 197 0
174 197 0
174 198 0
174 197 0
175 198 0
174 198 0
173 197 0
174 198 0
173 197 0
173 197 0
172 196 0
173 197 0
174 197 0
173 197 0
174 198 0
174 198 0
175 198 0
174 198 0
173 197 0
175 198 0
173 196 0
175 198 0
172 196 0
175 198 0
172 196 0
175 197 0
173 197 0
172 197 0
174 197 0
172 197 0
172 196 0
172 196 0
174 198 0
172 195 0
174 198 0
174 197 0
175 198 0
174 197 0
175 198 0
173 197 0
174 197 0
174 197 0
173 197 0
173 197 0
174 197 0
172 196 0
174 198 0
175 198 0
172 197 0
174 198 0
174 197 0
176 199 0
173 197 0
173 197 0
174 198 0
173 197 0
174 198 0
176 199 0
172 196 0
175 198 0
174 197 0
174 198 0
175 198 0
173 197 0
173 197 0
175 198 0
173 197 0
175 198 0
174 197 0
173 196 0
175 198 0
175 198 0
173 196 0
173 197 0
173 197 0
173 197 0
175 198 0
174 198 0
174 198 0
175 198 0
174 197 0
173 197 0
174 197 0
174 198 0
174 197 0
174 197 0
175 198 0
174 198 0
174 198 0
176 199 0
173 197 0
174 198 0
175 198 0
173 197 0
174 197 0
175 198 0
174 198 0
173 196 0
174 197 0
172 195 0
174 198 0
174 197 0
175 198 0
175 198 0
174 197 0
175 198 0
174 197 0
173 197 0
174 198 0
175 198 0
175 198 0
174 198 0
174 197 0
173 197 0
174 197 0
175 198 0
175 197 0
175 198 0
173 197 0
173 197 0
175 198 0
172 196 0
174 197 0
175 198 0
174 198 0
175 198 0
174 197 0
175 198 0
175 198 0
176 198 0
175 198 0
173 197 0
173 197 0
173 197 0
