P3
400 225
255
175 198 0
174 197 0
175 198 0
175 198 0
172 196 0
173 196 0
175 198 0
172 196 0
175 198 0
175 198 0
176 198 0
174 198 0
173 196 0
174 197 0
174 197 0
173 197 0
175 198 0
175 198 0
174 198 0
175 198 0
174 197 0
175 198 0
172 196 0
173 197 0
173 197 0
172 197 0
174 197 0
174 198 0
174 197 0
173 197 0
173 197 0
174 197 0
174 198 0
171 195 0
175 198 0
175 198 0
174 197 0
173 197 0
173 196 0
174 197 0
172 196 0
173 197 0
173 197 0
173 196 0
173 197 0
174 198 0
175 198 0
175 198 0
174 197 0
174 197 0
174 197 0
173 196 0
173 197 0
173 197 0
176 199 0
172 196 0
175 198 0
174 197 0
170 194 0
173 196 0
175 198 0
173 197 0
175 198 0
175 198 0
173 197 0
174 197 0
173 195 0
173 197 0
171 195 0
175 198 0
173 196 0
173 196 0
173 197 0
175 198 0
173 197 0
173 197 0
172 196 0
172 195 0
174 197 0
172 194 0
171 195 0
171 194 0
173 197 0
172 196 0
173 196 0
175 198 0
175 197 0
171 194 0
175 198 0
173 197 0
173 197 0
173 196 0
175 198 0
171 195 0
172 196 0
171 195 0
172 196 0
174 197 0
173 197 0
174 197 0
173 196 0
172 196 0
173 196 0
171 195 0
173 197 0
172 196 0
173 197 0
175 198 0
175 198 0
171 195 0
173 196 0
173 197 0
173 196 0
173 197 0
174 196 0
175 198 0
174 197 0
174 197 0
172 196 0
173 196 0
173 196 0
175 198 0
174 198 0
173 197 0
174 197 0
172 195 0
170 194 0
172 195 0
173 196 0
173 197 0
174 197 0
173 196 0
173 196 0
170 194 0
174 198 0
173 196 0
174 197 0
173 197 0
173 197 0
173 197 0
173 195 0
172 196 0
173 196 0
172 196 0
173 197 0
174 197 0
172 195 0
172 196 0
173 196 0
175 198 0
172 196 0
172 196 0
173 196 0
172 196 0
171 195 0
172 196 0
174 198 0
173 196 0
174 196 0
172 195 0
174 197 0
171 196 0
172 195 0
172 195 0
170 194 0
174 198 0
172 196 0
171 196 0
174 197 0
173 197 0
172 195 0
172 196 0
174 197 0
174 197 0
174 197 0
174 197 0
175 198 0
172 196 0
174 197 0
174 197 0
171 195 0
170 194 0
172 195 0
171 194 0
173 197 0
173 196 0
174 197 0
170 194 0
174 197 0
173 196 0
173 197 0
173 196 0
172 195 0
173 197 0
173 196 0
175 198 0
173 197 0
172 196 0
172 195 0
174 197 0
173 196 0
171 195 0
174 197 0
174 198 0
174 198 0
173 197 0
174 197 0
173 196 0
172 195 0
173 197 0
173 197 0
172 195 0
173 197 0
173 197 0
174 197 0
175 198 0
169 193 0
174 197 0
172 195 0
174 197 0
172 196 0
174 198 0
173 197 0
174 197 0
175 197 0
172 196 0
174 197 0
172 196 0
172 195 0
175 198 0
172 194 0
174 197 0
173 196 0
172 195 0
171 195 0
174 197 0
174 196 0
174 197 0
173 197 0
171 194 0
172 196 0
177 198 0
175 198 0
172 196 0
172 195 0
174 197 0
173 196 0
169 193 0
155 166 45
125 120 63
140 135 77
128 123 68
150 143 84
136 131 71
141 136 78
132 127 71
152 146 86
148 142 86
158 152 94
140 135 83
160 155 96
153 148 93
161 156 97
156 151 94
151 147 91
158 153 95
152 147 91
156 151 95
158 153 98
160 156 102
159 154 99
154 150 96
159 154 100
158 154 99
151 147 96
158 153 101
153 150 99
154 151 99
154 150 97
158 154 102
150 148 99
162 159 105
161 156 103
160 157 105
167 163 108
161 157 103
165 162 108
159 156 103
164 161 107
162 158 105
168 164 108
156 154 103
158 154 103
166 163 109
160 156 104
167 164 110
159 156 104
163 161 107
165 163 109
164 161 108
164 162 108
166 164 109
168 164 109
165 162 108
165 162 108
166 163 108
163 161 108
161 160 107
165 163 109
168 165 110
169 167 112
166 164 109
162 161 108
161 159 106
164 162 108
161 159 107
164 161 108
167 165 110
160 158 106
165 163 109
164 162 108
167 164 110
163 161 108
164 162 108
161 159 106
164 162 108
165 163 109
160 156 104
166 163 108
169 166 110
160 157 104
157 154 103
164 162 108
166 163 108
167 163 108
160 157 105
170 166 110
167 163 108
158 155 103
159 156 103
162 159 104
166 162 107
165 161 107
168 165 109
162 158 104
156 153 101
162 158 104
162 158 104
162 157 103
164 162 108
158 154 101
161 158 101
152 149 97
161 157 101
163 159 103
165 160 104
158 153 99
145 141 90
152 147 95
155 149 97
159 154 99
159 155 99
160 154 100
162 156 99
158 153 98
159 153 98
157 151 95
153 147 93
155 150 94
152 146 91
141 135 80
155 149 92
155 150 93
148 143 84
137 131 80
148 141 85
140 134 77
140 134 75
140 134 75
143 142 70
172 195 16
174 197 0
175 198 0
175 197 0
173 197 0
174 197 0
175 198 0
175 198 0
176 199 0
174 198 0
173 197 0
173 196 0
173 196 0
174 196 0
172 196 0
174 197 0
174 198 0
173 197 0
173 196 0
174 198 0
171 195 0
175 198 0
173 197 0
174 197 0
173 197 0
175 198 0
174 198 0
175 198 0
172 196 0
170 193 0
174 197 0
175 198 0
174 197 0
175 198 0
174 197 0
174 197 0
175 198 0
174 197 0
174 198 0
174 197 0
175 198 0
172 197 0
173 197 0
176 199 0
172 196 0
174 197 0
173 197 0
175 198 0
174 197 0
175 198 0
171 195 0
172 196 0
174 197 0
172 196 0
174 197 0
174 197 0
175 198 0
174 197 0
172 195 0
174 197 0
174 197 0
172 196 0
173 197 0
172 195 0
174 197 0
175 198 0
173 197 0
173 196 0
174 197 0
173 197 0
174 198 0
176 199 0
174 198 0
175 198 0
175 198 0
172 196 0
174 197 0
174 197 0
173 197 0
174 197 0
172 196 0
174 198 0
172 196 0
175 197 0
174 198 0
175 198 0
173 197 0
171 195 0
173 196 0
174 198 0
173 196 0
174 197 0
173 197 0
172 196 0
172 195 0
173 196 0
174 198 0
173 197 0
172 196 0
172 196 0
172 195 0
174 197 0
173 196 0
175 198 0
174 197 0
173 196 0
173 196 0
173 197 0
174 197 0
175 197 0
171 195 0
173 196 0
174 197 0
174 197 0
176 198 0
173 197 0
173 196 0
173 196 0
173 196 0
175 197 0
173 197 0
174 197 0
175 198 0
172 196 0
171 194 0
172 196 0
174 198 0
174 197 0
170 194 0
172 196 0
174 197 0
172 196 0
173 197 0
175 198 0
175 197 0
174 197 0
174 197 0
173 196 0
173 197 0
171 196 0
174 197 0
173 197 0
173 196 0
174 196 0
174 197 0
170 194 0
174 197 0
173 197 0
172 196 0
172 196 0
173 197 0
172 196 0
173 197 0
174 197 0
173 196 0
174 197 0
173 197 0
172 196 0
173 196 0
174 197 0
173 196 0
173 197 0
174 198 0
174 196 0
173 197 0
173 196 0
171 194 0
174 196 0
171 194 0
173 197 0
173 196 0
174 198 0
173 197 0
173 196 0
174 197 0
173 196 0
173 197 0
174 197 0
172 195 0
172 196 0
173 197 0
174 197 0
175 198 0
173 196 0
173 197 0
172 195 0
171 195 0
174 197 0
173 196 0
172 196 0
174 196 0
174 197 0
174 197 0
171 195 0
174 197 0
174 196 0
172 196 0
174 197 0
172 195 0
173 196 0
171 193 0
174 197 0
172 195 0
172 195 0
173 196 0
175 198 0
174 197 0
170 195 0
174 197 0
173 196 0
175 197 0
171 195 0
171 195 0
172 194 0
174 197 0
169 193 0
174 197 0
170 194 0
175 197 0
174 198 0
173 196 0
174 198 0
175 198 0
172 196 0
172 195 0
171 195 0
171 195 0
173 197 0
172 195 0
174 197 0
172 195 0
175 198 0
175 198 0
171 194 0
172 196 0
171 193 0
173 197 0
172 196 0
176 198 0
175 198 0
173 197 0
172 195 0
172 196 0
174 197 0
172 196 0
172 195 0
173 197 0
174 197 0
174 197 0
175 198 0
174 196 0
172 195 0
173 196 0
173 196 0
173 197 0
173 195 0
172 195 0
173 197 0
172 195 0
175 198 0
173 196 0
174 197 0
173 196 0
173 196 0
172 195 0
174 197 0
173 197 0
160 178 25
133 129 62
138 132 71
148 142 82
135 129 70
141 135 75
135 129 75
147 141 81
139 134 80
150 144 83
136 131 80
149 145 86
153 147 90
147 142 86
156 150 94
152 147 93
152 148 94
150 146 92
161 156 98
150 146 94
158 154 100
158 152 98
159 155 100
158 153 99
159 155 100
154 150 97
157 153 98
158 154 99
152 148 98
164 160 104
156 152 99
156 152 100
159 156 101
155 152 102
159 155 103
162 159 105
158 155 103
160 156 102
160 157 104
160 157 104
170 166 110
164 161 108
163 161 107
162 159 106
166 162 107
165 162 108
160 158 105
161 159 106
157 155 104
165 162 108
165 162 108
161 159 106
163 160 107
165 161 107
163 160 107
163 161 108
164 162 108
167 164 109
171 168 112
167 164 109
164 162 108
168 166 111
166 163 109
162 159 106
167 164 110
167 164 109
164 162 109
165 163 109
162 159 106
164 162 108
162 160 106
157 155 104
165 163 109
162 159 106
162 160 107
171 168 112
168 165 110
162 159 106
165 163 109
163 161 108
164 162 108
162 159 106
164 161 108
167 164 109
164 161 108
164 161 108
160 157 104
163 161 108
166 163 109
166 163 108
163 160 106
163 159 106
159 156 103
163 160 106
159 156 104
165 160 104
163 160 106
161 157 104
161 158 104
158 155 101
164 160 106
161 157 103
163 159 105
161 156 101
161 157 103
161 157 103
167 163 106
160 156 102
160 156 102
161 156 101
164 159 101
158 152 98
153 149 96
153 148 95
153 148 96
156 152 98
164 159 101
157 152 98
152 146 93
150 145 92
153 148 90
152 146 90
150 145 87
152 145 88
151 145 87
147 141 87
140 134 84
146 139 82
142 136 82
140 135 78
157 149 90
135 129 73
134 127 70
155 166 53
174 197 0
173 196 0
173 197 0
173 196 0
173 195 0
174 198 0
174 197 0
175 198 0
173 197 0
173 197 0
173 197 0
175 197 0
174 198 0
173 197 0
173 197 0
174 197 0
173 197 0
174 197 0
173 196 0
175 198 0
173 197 0
173 196 0
175 198 0
173 196 0
175 198 0
173 196 0
174 197 0
175 198 0
173 196 0
174 197 0
171 195 0
172 196 0
173 196 0
174 198 0
175 198 0
175 198 0
171 195 0
173 196 0
173 197 0
174 198 0
172 196 0
174 197 0
173 196 0
173 197 0
173 197 0
173 197 0
175 198 0
175 198 0
174 197 0
174 197 0
175 198 0
174 197 0
174 197 0
174 198 0
172 196 0
175 198 0
174 197 0
172 196 0
173 196 0
173 197 0
173 197 0
174 197 0
176 198 0
175 198 0
172 196 0
173 197 0
174 197 0
172 196 0
173 196 0
172 196 0
174 198 0
175 198 0
173 197 0
175 198 0
173 197 0
174 197 0
174 197 0
175 198 0
174 198 0
174 197 0
174 197 0
174 198 0
175 197 0
174 198 0
175 198 0
172 195 0
174 198 0
172 196 0
175 198 0
172 195 0
173 196 0
174 197 0
175 197 0
174 198 0
175 198 0
173 197 0
173 197 0
175 197 0
173 196 0
174 197 0
172 195 0
172 196 0
175 198 0
173 196 0
174 197 0
173 197 0
174 197 0
173 196 0
173 197 0
172 195 0
174 197 0
171 194 0
173 196 0
169 192 0
173 196 0
172 196 0
173 196 0
171 195 0
174 197 0
172 195 0
173 197 0
173 196 0
172 196 0
171 195 0
174 197 0
174 197 0
170 194 0
174 198 0
170 194 0
176 199 0
173 197 0
173 197 0
175 198 0
174 198 0
173 196 0
174 198 0
173 197 0
173 197 0
171 194 0
173 197 0
172 196 0
173 196 0
173 196 0
174 198 0
171 195 0
173 196 0
174 198 0
173 197 0
173 196 0
172 196 0
172 196 0
172 196 0
174 197 0
172 195 0
173 197 0
172 196 0
173 196 0
173 197 0
173 197 0
173 196 0
173 197 0
174 197 0
172 197 0
172 197 0
173 195 0
175 198 0
171 195 0
170 193 0
173 196 0
173 197 0
174 197 0
172 194 0
172 196 0
173 197 0
175 198 0
172 196 0
170 194 0
170 195 0
175 198 0
173 196 0
175 197 0
171 195 0
170 194 0
173 196 0
175 197 0
173 196 0
173 197 0
173 197 0
172 195 0
171 194 0
174 197 0
173 196 0
175 198 0
173 196 0
173 196 0
174 198 0
174 196 0
173 197 0
171 194 0
172 196 0
173 197 0
171 195 0
172 195 0
174 197 0
173 196 0
172 196 0
173 196 0
172 195 0
173 195 0
175 198 0
174 197 0
173 197 0
173 196 0
172 196 0
175 198 0
173 196 0
174 197 0
174 197 0
173 195 0
175 198 0
173 196 0
175 198 0
174 198 0
172 195 0
173 196 0
171 195 0
173 196 0
170 194 0
172 195 0
173 197 0
172 195 0
172 195 0
172 195 0
175 198 0
175 198 0
172 196 0
173 197 0
175 198 0
174 197 0
174 197 0
171 194 0
173 197 0
173 196 0
172 195 0
172 195 0
173 196 0
172 194 0
172 196 0
172 195 0
171 195 0
173 196 0
172 196 0
172 195 0
173 196 0
173 197 0
170 194 0
175 198 0
175 197 0
173 196 0
171 195 0
173 196 0
174 197 0
175 196 0
172 196 0
172 196 0
170 192 11
146 146 65
137 131 66
134 129 68
145 139 75
133 128 74
147 140 81
143 137 82
145 139 82
142 136 79
144 139 84
144 139 80
149 143 88
155 150 91
156 150 97
153 148 95
152 147 93
156 151 94
150 145 90
157 152 96
155 149 94
166 160 104
147 143 94
157 152 97
159 155 99
158 153 99
161 156 99
156 153 100
160 157 101
157 154 101
161 156 103
156 151 100
161 157 103
161 156 102
157 154 102
161 157 104
159 156 105
164 160 105
164 160 106
165 161 107
152 149 99
159 155 103
163 160 106
165 161 108
170 166 110
166 163 108
165 161 108
162 158 105
163 160 107
166 162 107
163 160 107
168 166 110
163 161 108
163 160 107
164 161 108
167 164 110
172 169 112
160 157 104
166 164 109
163 161 107
166 164 109
162 161 108
165 163 109
159 157 104
170 167 112
164 161 108
165 162 108
167 164 110
167 165 110
166 164 110
167 164 110
170 167 112
165 163 109
162 160 107
165 162 108
159 157 105
167 164 109
164 162 108
163 160 107
168 165 110
168 165 109
167 164 109
167 164 109
170 166 110
165 163 109
163 162 108
164 162 109
165 162 108
163 160 106
163 160 106
165 162 107
159 156 104
163 160 106
162 160 106
162 159 106
165 161 107
163 160 106
163 160 106
159 156 103
161 158 105
162 158 104
160 157 103
156 153 99
160 157 102
168 164 108
159 156 102
163 159 104
160 156 103
165 161 105
164 160 104
161 156 102
157 153 99
167 161 104
155 151 98
158 153 97
153 148 96
162 156 101
157 152 97
163 157 99
154 149 92
156 151 96
157 151 95
152 147 90
155 149 95
147 141 86
157 150 91
148 142 87
151 145 90
138 132 84
146 139 87
139 134 76
143 137 75
134 128 71
131 126 73
134 128 70
162 180 37
173 196 0
174 197 0
171 194 0
173 197 0
174 198 0
175 198 0
173 196 0
174 198 0
174 197 0
174 198 0
175 198 0
174 197 0
173 196 0
173 197 0
174 197 0
174 197 0
174 196 0
173 196 0
173 197 0
175 198 0
175 198 0
173 197 0
174 198 0
175 198 0
173 197 0
173 196 0
173 197 0
173 197 0
173 197 0
175 197 0
175 198 0
173 197 0
173 196 0
173 196 0
172 196 0
174 198 0
173 196 0
174 198 0
172 195 0
173 196 0
175 198 0
172 195 0
172 196 0
176 198 0
174 198 0
174 198 0
172 196 0
174 197 0
173 196 0
175 198 0
176 198 0
175 198 0
174 197 0
173 196 0
175 198 0
172 196 0
173 197 0
174 198 0
172 196 0
173 197 0
172 196 0
174 197 0
173 197 0
175 198 0
175 198 0
173 196 0
174 197 0
171 195 0
172 196 0
174 197 0
174 197 0
172 196 0
173 197 0
174 197 0
176 199 0
172 196 0
172 195 0
174 197 0
174 197 0
172 196 0
171 194 0
174 197 0
173 197 0
172 195 0
173 196 0
174 197 0
172 195 0
174 197 0
173 196 0
174 197 0
174 197 0
174 197 0
174 197 0
172 195 0
174 197 0
172 196 0
173 195 0
173 196 0
174 196 0
175 198 0
175 197 0
175 198 0
173 197 0
172 195 0
175 198 0
173 197 0
174 197 0
174 198 0
175 198 0
172 195 0
175 198 0
173 196 0
173 196 0
173 196 0
171 194 0
174 197 0
170 193 0
175 198 0
174 197 0
173 197 0
173 197 0
172 195 0
172 196 0
174 197 0
172 196 0
174 198 0
174 197 0
174 197 0
174 197 0
174 197 0
172 195 0
173 197 0
171 195 0
176 198 0
174 198 0
174 197 0
173 196 0
173 196 0
175 197 0
172 196 0
174 198 0
171 195 0
174 197 0
174 197 0
172 195 0
171 195 0
171 196 0
174 197 0
175 198 0
174 197 0
174 197 0
174 197 0
174 197 0
174 198 0
171 194 0
172 196 0
174 197 0
173 197 0
172 196 0
172 196 0
171 195 0
175 198 0
173 196 0
173 196 0
175 198 0
173 196 0
170 194 0
174 197 0
171 194 0
171 195 0
171 194 0
175 198 0
173 196 0
175 198 0
174 197 0
174 198 0
174 197 0
171 195 0
173 197 0
173 196 0
172 196 0
173 197 0
173 196 0
172 196 0
173 196 0
174 196 0
172 195 0
174 197 0
174 197 0
173 197 0
173 196 0
173 197 0
173 197 0
174 197 0
173 197 0
174 197 0
171 195 0
171 195 0
172 195 0
175 196 0
172 195 0
172 195 0
170 194 0
176 199 0
169 193 0
171 195 0
173 197 0
174 196 0
172 195 0
174 197 0
172 194 0
174 197 0
173 197 0
172 195 0
171 195 0
174 196 0
173 197 0
174 197 0
171 195 0
172 196 0
172 196 0
171 194 0
174 197 0
171 194 0
173 196 0
171 195 0
172 196 0
173 195 0
172 195 0
172 195 0
174 197 0
172 196 0
173 196 0
174 197 0
173 197 0
173 197 0
172 194 0
174 196 0
174 198 0
173 197 0
173 195 0
174 198 0
171 194 0
175 198 0
173 196 0
172 195 0
171 196 0
172 196 0
173 196 0
173 196 0
173 195 0
174 197 0
172 195 0
174 197 0
172 196 0
171 195 0
173 197 0
173 196 0
173 196 0
175 198 0
174 197 0
170 193 0
174 197 0
172 194 0
145 152 54
146 139 75
142 136 73
143 137 78
131 126 70
138 132 75
140 134 77
142 137 82
147 141 80
153 147 91
151 145 88
147 141 86
148 144 86
157 151 88
154 148 90
156 151 92
158 152 98
146 141 91
155 150 95
152 147 92
154 150 94
162 156 99
158 153 98
157 152 98
156 151 100
152 147 95
159 154 100
167 161 104
153 149 98
156 152 101
158 154 102
157 155 102
164 159 103
163 160 106
152 149 99
162 158 104
159 154 102
159 156 104
159 157 104
155 152 100
162 159 106
159 156 104
165 161 106
169 165 110
162 159 106
158 155 103
160 157 104
159 156 105
160 158 105
164 161 107
166 163 109
164 161 108
171 168 112
161 159 107
171 168 111
167 164 109
163 162 108
168 165 110
165 163 109
168 165 110
160 158 106
167 164 109
166 163 109
164 162 108
167 165 110
159 157 105
164 162 109
168 165 110
170 168 112
161 159 106
163 161 108
166 164 110
161 159 106
167 165 110
162 160 107
163 161 108
165 163 109
166 164 110
167 165 110
165 163 109
169 166 110
166 163 109
167 163 108
170 168 112
164 162 108
164 161 108
166 163 108
166 163 108
168 164 109
167 163 108
165 162 108
168 165 110
165 161 107
168 165 110
162 158 104
158 155 102
162 159 106
167 163 108
167 163 108
164 161 106
169 165 108
161 157 104
164 158 103
163 159 105
157 154 101
164 159 104
164 159 103
158 153 100
162 158 103
158 154 100
163 159 100
153 149 98
155 150 95
157 153 100
157 153 99
154 150 97
157 151 95
162 157 99
151 145 93
151 147 93
157 151 94
160 153 99
150 144 90
154 148 93
156 151 94
150 144 90
147 142 84
149 143 87
150 145 89
141 135 83
136 130 75
145 139 84
142 136 80
143 136 78
139 132 75
135 133 61
173 196 0
172 195 0
173 196 0
173 197 0
173 197 0
175 198 0
175 197 0
174 198 0
174 197 0
174 197 0
174 198 0
173 196 0
174 198 0
174 198 0
174 198 0
175 198 0
174 197 0
174 197 0
175 198 0
175 198 0
173 197 0
174 198 0
173 197 0
174 197 0
174 197 0
175 198 0
173 197 0
173 197 0
174 197 0
173 197 0
174 197 0
173 196 0
174 196 0
174 198 0
175 198 0
174 197 0
174 198 0
173 197 0
174 198 0
173 196 0
172 196 0
172 196 0
173 197 0
175 198 0
173 197 0
170 194 0
173 197 0
174 198 0
174 198 0
174 198 0
172 196 0
171 194 0
173 196 0
173 196 0
175 198 0
175 198 0
174 197 0
173 197 0
172 196 0
175 198 0
174 197 0
175 198 0
175 198 0
174 197 0
175 198 0
174 198 0
174 197 0
175 198 0
172 195 0
174 197 0
172 195 0
173 196 0
173 197 0
173 197 0
174 198 0
174 198 0
173 197 0
175 198 0
174 197 0
175 198 0
172 195 0
176 199 0
174 197 0
172 195 0
174 197 0
172 194 0
172 196 0
171 195 0
173 197 0
172 196 0
173 196 0
172 196 0
174 197 0
174 198 0
173 196 0
173 197 0
173 197 0
174 198 0
173 197 0
173 196 0
173 197 0
174 198 0
173 196 0
172 196 0
173 196 0
175 198 0
174 197 0
172 196 0
172 197 0
172 196 0
173 197 0
171 194 0
175 198 0
174 198 0
173 197 0
173 196 0
173 197 0
173 197 0
174 197 0
173 197 0
174 197 0
171 195 0
172 195 0
172 196 0
172 196 0
174 198 0
173 197 0
173 196 0
174 197 0
172 196 0
172 195 0
175 198 0
173 196 0
173 197 0
174 197 0
175 198 0
173 197 0
173 197 0
173 195 0
174 197 0
175 198 0
174 196 0
171 195 0
171 195 0
174 197 0
172 196 0
173 196 0
174 197 0
175 198 0
174 197 0
170 194 0
174 197 0
173 197 0
173 196 0
174 197 0
174 197 0
172 196 0
175 197 0
174 197 0
172 196 0
172 194 0
175 198 0
172 195 0
173 196 0
171 195 0
173 196 0
175 198 0
172 196 0
174 197 0
172 195 0
172 195 0
173 196 0
172 195 0
172 196 0
169 193 0
173 196 0
173 196 0
174 197 0
172 195 0
172 196 0
171 195 0
173 197 0
174 196 0
172 196 0
172 195 0
174 197 0
173 196 0
173 196 0
172 196 0
173 196 0
173 196 0
175 198 0
172 196 0
174 197 0
172 195 0
174 197 0
173 196 0
174 197 0
172 195 0
173 197 0
173 197 0
171 195 0
172 196 0
173 195 0
172 196 0
174 197 0
173 197 0
170 194 0
173 196 0
173 197 0
173 196 0
174 197 0
173 196 0
172 196 0
173 196 0
173 196 0
171 195 0
172 196 0
173 196 0
173 196 0
173 197 0
173 196 0
173 197 0
174 197 0
173 196 0
173 197 0
172 195 0
175 198 0
174 197 0
174 197 0
174 197 0
172 196 0
172 196 0
176 198 0
173 197 0
172 196 0
174 197 0
175 198 0
171 194 0
174 198 0
171 195 0
173 196 0
171 194 0
174 197 0
174 198 0
173 197 0
171 195 0
173 196 0
172 196 0
175 197 0
174 197 0
174 197 0
173 196 0
174 198 0
173 195 0
169 193 0
171 195 0
174 197 0
172 196 0
173 196 0
172 196 0
170 195 0
175 197 0
160 177 34
126 121 62
144 138 73
132 126 72
136 130 70
144 138 80
141 136 78
141 136 75
147 140 84
159 153 92
143 138 84
146 141 88
152 146 89
149 143 87
147 142 88
155 150 96
147 142 88
151 147 92
159 153 95
154 149 92
150 146 93
153 148 95
157 153 99
158 154 102
156 153 100
152 149 98
157 153 99
150 147 97
152 148 96
163 160 106
156 152 99
164 159 104
153 150 100
160 156 102
148 145 97
165 162 105
163 160 106
162 158 104
167 163 108
158 155 104
166 162 107
165 161 107
162 158 106
162 160 107
161 158 106
163 160 106
166 163 109
163 159 105
160 157 105
160 157 104
165 163 109
166 164 110
163 161 108
164 161 108
163 160 106
163 161 107
162 160 107
168 166 111
168 165 110
166 163 108
164 161 108
165 162 108
165 162 108
165 163 109
163 161 108
166 163 109
164 162 108
166 164 109
166 164 109
167 165 110
170 168 112
164 161 108
164 162 108
161 159 107
164 162 108
164 162 108
165 162 108
160 158 106
167 165 110
170 168 112
161 159 106
166 163 109
162 159 106
166 163 109
163 161 108
167 163 108
166 164 110
165 162 108
164 161 108
168 165 110
163 160 106
169 166 110
169 165 110
164 161 107
166 163 108
168 164 108
162 158 105
160 156 103
163 159 106
166 163 108
169 165 109
163 159 104
166 162 108
163 159 104
158 155 101
160 157 103
158 154 100
158 154 101
164 159 101
156 152 100
155 151 98
160 156 100
156 152 99
156 152 97
151 146 95
152 149 94
153 149 95
163 157 101
161 156 98
156 151 93
153 149 93
153 148 93
158 153 96
166 159 100
145 141 81
150 144 90
150 145 90
153 147 90
153 147 89
151 145 90
146 140 85
143 138 81
144 139 80
152 145 85
142 136 78
132 126 70
132 126 66
155 166 47
173 195 0
172 196 0
174 198 0
174 197 0
174 197 0
174 197 0
174 197 0
173 197 0
173 197 0
176 198 0
175 198 0
175 197 0
172 195 0
172 196 0
173 196 0
175 198 0
174 198 0
175 198 0
172 196 0
173 196 0
175 197 0
175 198 0
176 198 0
174 197 0
174 197 0
172 196 0
173 197 0
175 198 0
174 198 0
175 198 0
173 196 0
173 197 0
174 197 0
171 194 0
172 195 0
174 198 0
173 196 0
175 197 0
173 197 0
173 197 0
173 197 0
174 198 0
174 197 0
172 196 0
173 197 0
174 197 0
173 197 0
174 197 0
174 197 0
172 196 0
172 196 0
174 197 0
171 195 0
174 196 0
172 196 0
175 198 0
175 198 0
173 196 0
175 198 0
173 197 0
174 197 0
176 198 0
173 196 0
174 197 0
175 198 0
173 197 0
173 196 0
173 197 0
174 197 0
174 197 0
174 197 0
173 196 0
174 198 0
174 198 0
174 198 0
173 196 0
173 196 0
173 196 0
170 193 0
173 197 0
174 197 0
173 196 0
173 197 0
174 198 0
175 198 0
176 199 0
173 197 0
174 198 0
173 197 0
174 198 0
173 197 0
174 198 0
175 197 0
174 198 0
175 198 0
172 196 0
174 197 0
172 195 0
174 197 0
171 195 0
172 195 0
172 196 0
175 198 0
173 196 0
173 196 0
175 197 0
176 198 0
173 197 0
174 197 0
172 196 0
174 197 0
175 197 0
172 195 0
173 197 0
174 197 0
172 195 0
174 197 0
174 198 0
173 197 0
175 198 0
171 195 0
173 197 0
173 196 0
173 197 0
172 196 0
173 196 0
174 197 0
171 194 0
174 197 0
174 197 0
172 195 0
173 196 0
172 196 0
175 197 0
174 197 0
174 197 0
175 198 0
172 195 0
174 197 0
173 196 0
172 196 0
172 197 0
175 198 0
175 198 0
172 196 0
173 196 0
173 196 0
173 196 0
171 194 0
174 197 0
175 198 0
174 197 0
170 193 0
174 197 0
172 196 0
175 197 0
174 197 0
172 196 0
171 195 0
172 196 0
176 198 0
173 195 0
174 198 0
174 198 0
170 192 0
173 196 0
172 195 0
174 197 0
173 196 0
173 196 0
174 197 0
172 195 0
173 197 0
173 197 0
171 194 0
173 196 0
172 195 0
172 196 0
173 196 0
172 195 0
175 198 0
172 196 0
172 195 0
173 196 0
174 197 0
172 196 0
173 196 0
173 197 0
173 197 0
175 198 0
171 194 0
173 197 0
173 196 0
174 197 0
170 193 0
174 197 0
173 196 0
173 195 0
170 195 0
174 197 0
173 197 0
175 198 0
173 196 0
173 196 0
172 195 0
174 198 0
174 198 0
173 196 0
169 192 0
174 197 0
171 195 0
173 196 0
171 194 0
174 197 0
172 196 0
173 196 0
175 198 0
174 197 0
174 197 0
170 194 0
173 196 0
174 198 0
173 196 0
171 194 0
173 197 0
174 198 0
172 194 0
171 194 0
174 196 0
174 196 0
172 196 0
175 198 0
172 195 0
172 195 0
172 195 0
173 196 0
174 197 0
174 198 0
172 196 0
173 197 0
172 196 0
173 197 0
174 196 0
173 195 0
175 198 0
174 197 0
174 197 0
174 197 0
174 197 0
172 196 0
172 195 0
172 194 0
173 195 0
172 195 0
172 196 0
174 196 0
173 196 0
173 196 0
173 196 0
173 196 0
173 196 0
171 194 0
135 133 56
125 120 59
132 127 69
127 122 73
142 136 76
142 137 80
153 146 84
144 138 82
153 148 87
148 143 85
146 142 87
145 141 85
145 140 83
155 149 90
154 148 92
155 150 95
150 146 92
154 149 96
148 143 91
145 140 88
148 143 92
154 149 98
161 156 101
161 156 102
152 148 95
161 156 100
151 148 97
164 159 103
150 147 96
160 156 102
155 152 101
158 154 103
154 151 100
161 157 104
150 146 97
162 159 105
158 154 102
164 161 107
165 162 108
161 158 105
166 162 108
163 159 105
162 159 107
163 160 107
162 159 107
163 160 106
163 160 107
166 163 108
169 167 112
164 161 107
163 160 108
160 157 104
164 161 108
163 160 106
167 163 109
158 155 104
167 164 109
165 162 108
163 161 108
161 159 106
167 164 109
168 165 110
166 163 108
163 160 107
168 164 109
169 166 110
170 167 112
164 162 109
169 167 111
166 164 110
162 159 106
166 164 109
167 164 109
168 165 110
165 162 108
161 159 106
169 166 110
168 165 110
163 161 108
169 166 111
164 162 108
164 161 107
166 165 110
169 167 112
167 164 109
166 164 110
165 162 108
167 164 109
164 162 108
168 165 109
166 163 109
165 162 108
162 158 105
166 163 108
162 160 106
158 156 104
166 162 108
164 160 105
160 156 103
163 159 104
168 163 108
165 161 107
162 158 103
166 162 106
169 164 108
164 160 106
166 161 106
156 153 100
164 162 106
162 158 103
149 144 93
171 166 108
160 155 99
161 157 102
156 152 97
161 156 99
158 153 97
154 149 97
161 155 101
155 150 96
153 149 95
153 147 95
150 144 90
150 144 91
162 156 95
159 152 94
149 144 88
157 152 93
151 145 89
142 136 86
155 149 90
149 143 84
143 138 82
152 145 87
137 131 76
144 138 83
129 123 70
123 120 59
170 191 11
173 195 0
173 197 0
175 197 0
173 197 0
174 197 0
173 197 0
174 197 0
175 198 0
175 198 0
175 198 0
174 198 0
173 196 0
174 197 0
176 198 0
172 196 0
174 197 0
174 198 0
174 197 0
174 197 0
175 198 0
173 197 0
172 195 0
174 197 0
173 197 0
174 197 0
171 195 0
176 199 0
171 196 0
175 198 0
174 198 0
174 197 0
173 197 0
175 198 0
174 197 0
174 198 0
174 198 0
174 197 0
174 197 0
173 196 0
173 197 0
173 196 0
171 196 0
175 198 0
172 196 0
174 197 0
173 197 0
173 197 0
173 196 0
173 197 0
173 197 0
174 198 0
173 197 0
174 198 0
174 197 0
170 194 0
173 197 0
175 198 0
174 198 0
172 195 0
173 196 0
174 197 0
173 197 0
173 197 0
173 197 0
174 198 0
174 198 0
174 197 0
173 196 0
172 197 0
174 198 0
172 196 0
174 197 0
173 197 0
173 196 0
172 196 0
172 195 0
174 197 0
172 195 0
174 198 0
174 197 0
173 196 0
173 197 0
174 197 0
173 196 0
174 197 0
174 197 0
171 195 0
173 196 0
175 198 0
173 197 0
173 196 0
174 197 0
172 195 0
173 197 0
173 196 0
172 196 0
171 195 0
175 198 0
173 197 0
175 198 0
174 197 0
172 196 0
172 195 0
173 196 0
173 196 0
172 195 0
173 196 0
173 196 0
172 195 0
174 198 0
173 196 0
173 196 0
174 197 0
174 197 0
173 196 0
174 197 0
174 197 0
174 197 0
173 197 0
169 193 0
172 196 0
173 196 0
173 197 0
171 196 0
173 197 0
173 196 0
173 196 0
173 196 0
171 195 0
175 198 0
173 196 0
174 197 0
171 195 0
173 196 0
171 195 0
173 196 0
173 197 0
174 197 0
174 197 0
174 197 0
173 196 0
175 197 0
174 197 0
172 196 0
174 197 0
173 196 0
175 198 0
175 198 0
173 196 0
171 195 0
172 195 0
173 197 0
174 197 0
174 197 0
172 195 0
173 196 0
173 196 0
173 197 0
172 195 0
171 195 0
174 197 0
174 198 0
172 196 0
173 196 0
174 197 0
172 196 0
174 198 0
172 196 0
175 198 0
172 194 0
173 197 0
174 198 0
174 198 0
173 197 0
173 197 0
173 196 0
172 195 0
172 196 0
173 196 0
171 195 0
172 195 0
174 198 0
174 197 0
172 195 0
172 195 0
172 196 0
174 197 0
171 195 0
170 193 0
173 196 0
173 196 0
174 197 0
175 198 0
173 195 0
172 194 0
173 197 0
173 197 0
173 197 0
174 198 0
173 196 0
174 197 0
173 197 0
174 197 0
173 196 0
173 196 0
174 196 0
173 196 0
173 196 0
171 195 0
173 197 0
172 196 0
174 197 0
175 198 0
173 195 0
173 196 0
171 195 0
170 194 0
170 193 0
171 195 0
171 194 0
174 197 0
174 197 0
172 196 0
174 196 0
171 195 0
173 196 0
175 197 0
173 196 0
174 197 0
172 195 0
172 196 0
173 196 0
169 193 0
174 196 0
172 195 0
173 197 0
173 197 0
171 195 0
174 197 0
172 195 0
173 196 0
173 196 0
173 195 0
173 196 0
172 196 0
174 197 0
174 197 0
171 194 0
172 195 0
173 197 0
172 195 0
175 197 0
170 194 0
172 195 0
173 196 0
172 196 0
171 193 0
174 197 0
172 194 0
174 197 0
138 148 42
132 126 69
141 136 71
128 122 65
126 122 68
146 140 82
145 140 82
149 144 81
146 140 85
142 137 78
145 141 87
150 146 90
150 146 88
154 150 91
160 154 94
147 142 89
151 146 93
148 144 91
157 152 96
146 143 91
145 142 90
153 149 95
149 145 93
161 155 99
156 151 99
153 148 95
156 151 98
153 149 96
159 155 102
157 153 98
151 149 99
163 158 102
153 150 98
160 156 103
156 153 100
155 152 101
165 162 108
158 155 104
161 157 103
161 157 103
162 158 104
164 162 108
165 162 108
164 160 107
153 151 101
167 163 108
164 161 107
163 160 106
159 157 105
167 164 109
161 158 106
160 158 106
163 159 106
163 161 108
162 159 106
168 165 110
169 166 110
161 159 107
168 165 111
169 167 111
167 164 109
165 163 109
170 166 110
168 166 111
166 164 109
165 163 109
165 163 110
167 164 109
169 167 111
167 165 110
167 165 110
169 167 112
169 167 111
169 167 112
166 163 109
166 164 110
169 166 110
165 162 108
169 167 111
164 162 108
170 167 111
165 163 109
169 166 110
171 168 112
169 166 110
168 165 110
167 165 110
162 159 106
169 166 110
161 158 105
164 162 108
166 163 108
166 163 109
172 168 112
163 160 106
166 163 109
164 161 106
159 155 103
164 160 106
162 159 104
169 164 108
165 161 106
164 160 105
170 166 109
158 154 100
161 156 102
164 160 106
168 164 106
165 160 104
164 159 104
160 155 99
154 151 99
165 161 103
159 154 98
165 161 103
163 158 102
159 153 98
161 156 99
161 156 97
159 153 97
160 156 99
159 154 95
155 150 95
155 150 97
155 150 95
158 151 96
151 145 92
156 150 93
153 147 90
162 154 95
146 141 85
146 140 86
147 142 86
143 138 82
148 143 86
145 140 75
143 137 76
129 125 63
131 126 70
143 148 52
172 195 0
173 197 0
174 197 0
173 196 0
175 198 0
175 198 0
175 197 0
175 197 0
176 198 0
173 197 0
173 197 0
174 198 0
173 197 0
175 198 0
172 196 0
174 196 0
174 197 0
173 197 0
173 197 0
174 197 0
176 198 0
174 198 0
173 197 0
173 197 0
172 195 0
174 197 0
173 197 0
176 199 0
173 197 0
174 198 0
171 195 0
173 196 0
174 196 0
172 196 0
174 198 0
175 198 0
172 196 0
176 198 0
173 197 0
175 197 0
174 198 0
173 197 0
172 196 0
172 196 0
175 198 0
172 196 0
174 198 0
173 197 0
174 198 0
174 197 0
174 197 0
173 197 0
173 196 0
174 197 0
172 196 0
174 197 0
172 196 0
175 198 0
175 198 0
174 198 0
176 199 0
172 196 0
173 197 0
171 195 0
177 199 0
173 197 0
172 195 0
168 193 0
174 197 0
172 196 0
175 198 0
172 196 0
174 197 0
174 197 0
175 198 0
173 197 0
172 196 0
174 198 0
174 197 0
174 198 0
173 197 0
174 198 0
176 198 0
173 196 0
175 198 0
175 198 0
173 196 0
172 196 0
171 195 0
172 196 0
172 196 0
172 195 0
174 198 0
172 195 0
174 197 0
174 197 0
172 195 0
175 198 0
173 197 0
174 197 0
174 197 0
172 196 0
173 197 0
175 197 0
174 198 0
174 197 0
175 198 0
175 198 0
174 197 0
172 196 0
172 196 0
172 196 0
173 197 0
172 196 0
173 196 0
175 198 0
174 197 0
172 196 0
173 197 0
171 194 0
175 198 0
174 198 0
173 197 0
171 195 0
174 197 0
173 197 0
172 195 0
173 197 0
171 194 0
174 197 0
171 195 0
173 196 0
173 196 0
174 197 0
173 197 0
175 198 0
171 194 0
174 196 0
170 194 0
173 196 0
175 198 0
174 197 0
172 196 0
175 198 0
174 198 0
171 194 0
173 196 0
175 198 0
170 193 0
174 197 0
174 198 0
172 195 0
173 197 0
172 196 0
172 194 0
172 196 0
173 197 0
173 197 0
173 196 0
172 196 0
172 196 0
172 196 0
173 196 0
173 196 0
172 195 0
174 197 0
173 197 0
171 194 0
174 197 0
174 198 0
173 196 0
174 197 0
172 196 0
173 196 0
173 195 0
174 197 0
172 195 0
172 195 0
171 195 0
171 195 0
172 195 0
171 195 0
168 191 36
165 188 54
161 185 72
156 179 82
147 172 99
144 168 107
148 172 100
141 165 111
150 174 99
148 172 95
144 169 108
148 172 99
154 178 90
157 180 80
158 183 72
162 186 57
172 195 0
175 197 0
173 196 0
173 196 0
171 195 0
173 197 0
172 196 0
171 194 0
172 197 0
170 192 0
171 195 0
173 196 0
172 195 0
174 197 0
174 197 0
172 196 0
172 194 0
173 195 0
172 195 0
173 197 0
173 197 0
175 197 0
173 195 0
174 197 0
173 196 0
171 195 0
173 196 0
172 196 0
173 196 0
172 196 0
173 195 0
172 194 0
173 196 0
174 197 0
174 197 0
175 197 0
173 196 0
170 193 0
173 196 0
173 196 0
173 196 0
172 195 0
173 195 0
175 198 0
172 195 0
173 196 0
173 196 0
171 194 0
174 197 0
173 196 0
173 195 0
172 195 0
174 197 0
172 196 0
171 194 0
172 196 0
172 196 0
171 194 0
173 196 0
173 196 0
171 194 0
170 190 22
129 125 61
138 133 71
137 132 74
140 134 71
134 129 71
147 140 83
139 133 78
138 134 72
146 140 80
154 148 87
147 142 84
149 143 88
147 144 89
141 138 83
157 152 95
152 147 91
151 146 89
149 144 91
147 143 91
158 154 97
159 154 99
158 153 97
151 147 96
158 154 100
155 150 98
156 152 98
153 150 99
165 160 104
157 153 99
161 157 103
156 153 102
150 148 99
163 159 104
159 155 103
159 156 103
157 153 100
156 154 102
162 159 106
154 152 102
162 159 106
162 158 104
159 156 104
168 165 110
165 162 108
172 169 112
168 165 110
169 166 110
161 158 105
160 157 105
166 163 109
164 162 108
161 157 105
168 166 111
162 159 106
168 166 110
166 164 110
165 163 108
164 162 108
167 165 111
169 166 110
163 161 108
169 165 110
169 166 110
162 159 106
165 162 108
166 164 110
163 160 107
167 164 109
167 165 110
161 160 107
167 164 109
166 163 109
166 164 110
170 167 112
170 167 111
167 164 109
170 167 111
167 164 110
168 166 110
167 165 110
165 163 109
166 164 109
168 165 109
167 164 109
166 164 109
171 168 112
166 164 109
168 165 109
168 165 110
170 167 110
168 165 110
171 167 111
167 164 108
167 163 107
170 167 111
167 164 109
168 164 109
162 160 106
165 162 108
171 167 110
166 161 106
168 164 108
167 162 107
164 160 105
162 158 103
165 162 106
165 161 107
165 160 103
161 157 103
163 160 105
168 164 107
160 155 99
159 156 101
171 166 108
160 156 100
163 158 103
159 153 99
154 149 94
156 153 97
165 159 101
167 162 105
154 149 97
161 155 98
158 153 96
161 155 97
148 144 89
155 151 94
153 148 92
155 150 92
149 144 84
148 142 86
149 143 88
150 144 87
150 144 87
150 144 84
140 134 75
136 130 76
138 131 72
144 138 76
136 129 71
158 175 30
177 199 0
175 197 0
173 196 0
176 197 0
174 197 0
176 199 0
175 198 0
174 198 0
174 197 0
173 197 0
174 197 0
174 197 0
174 197 0
172 196 0
174 197 0
173 197 0
172 196 0
174 198 0
172 196 0
173 197 0
173 197 0
173 196 0
173 197 0
174 198 0
173 197 0
173 197 0
175 198 0
172 195 0
174 198 0
173 197 0
171 195 0
175 198 0
175 198 0
174 198 0
173 197 0
175 198 0
173 197 0
173 196 0
174 197 0
173 197 0
171 194 0
175 198 0
175 198 0
173 197 0
172 194 0
171 194 0
172 196 0
173 197 0
173 197 0
174 197 0
173 196 0
173 197 0
173 196 0
174 197 0
174 197 0
171 195 0
172 196 0
174 197 0
173 196 0
173 196 0
174 198 0
171 195 0
172 196 0
174 197 0
174 197 0
173 197 0
174 197 0
173 197 0
173 195 0
174 197 0
174 197 0
175 197 0
174 197 0
174 198 0
172 195 0
173 196 0
173 196 0
173 196 0
172 196 0
168 192 0
173 196 0
172 196 0
174 197 0
176 198 0
173 196 0
174 198 0
173 197 0
173 197 0
175 198 0
175 198 0
172 196 0
174 197 0
173 197 0
172 196 0
174 197 0
171 195 0
173 196 0
170 194 0
173 197 0
172 195 0
174 198 0
174 198 0
174 197 0
174 197 0
174 197 0
174 197 0
173 196 0
171 195 0
176 198 0
175 198 0
175 198 0
173 196 0
174 197 0
174 197 0
175 198 0
172 195 0
175 198 0
173 196 0
173 196 0
175 198 0
173 197 0
174 197 0
174 197 0
173 197 0
174 197 0
174 197 0
170 194 0
171 195 0
171 195 0
174 197 0
174 197 0
172 195 0
175 198 0
170 194 0
173 196 0
174 197 0
175 198 0
172 195 0
173 197 0
173 196 0
174 197 0
173 196 0
170 194 0
172 196 0
171 194 0
175 198 0
172 196 0
172 196 0
173 196 0
173 196 0
174 197 0
173 197 0
172 195 0
174 197 0
175 197 0
171 195 0
172 195 0
171 194 0
176 198 0
173 196 0
173 197 0
172 196 0
172 196 0
172 195 0
172 195 0
173 197 0
172 195 0
174 197 0
174 198 0
170 194 0
175 198 0
173 196 0
172 196 0
169 191 25
160 183 70
145 170 105
131 156 126
112 139 147
100 129 157
81 113 166
71 106 175
62 99 181
62 99 180
62 99 181
62 99 181
62 99 180
61 98 181
62 99 181
61 99 181
62 99 181
62 99 181
62 99 179
62 99 180
61 98 179
61 99 181
62 99 181
62 99 180
66 102 179
80 113 169
100 128 157
109 136 151
141 166 111
143 168 107
155 179 84
169 192 37
171 194 0
172 196 0
174 196 0
173 197 0
174 196 0
173 197 0
171 194 0
172 195 0
175 198 0
171 195 0
172 196 0
175 197 0
174 197 0
173 196 0
173 197 0
175 197 0
174 197 0
173 196 0
174 197 0
174 197 0
170 193 0
172 195 0
172 195 0
172 195 0
175 198 0
174 197 0
171 195 0
172 195 0
173 196 0
172 195 0
171 194 0
172 196 0
171 194 0
172 195 0
170 193 0
171 194 0
171 194 0
173 196 0
170 193 0
174 197 0
171 194 0
172 195 0
173 196 0
173 195 0
174 197 0
170 193 0
173 196 0
173 196 0
171 195 0
170 193 0
173 196 0
175 197 0
172 194 0
137 144 47
124 120 59
132 128 67
139 133 74
143 137 80
148 142 79
146 140 82
130 125 69
148 143 84
142 137 81
148 143 84
151 146 88
147 141 87
155 149 89
158 153 93
152 146 91
150 145 92
161 155 98
146 143 91
150 146 92
153 149 95
153 148 94
151 147 95
153 149 97
157 153 97
149 147 96
160 155 100
145 142 94
160 155 103
150 148 99
158 155 102
154 151 100
156 152 100
163 159 105
163 159 105
161 158 104
154 151 102
158 155 103
159 155 104
162 158 104
164 161 107
158 155 103
162 159 104
168 163 108
162 158 104
164 162 108
161 159 106
161 157 105
169 164 108
165 163 109
162 160 108
160 158 106
162 160 107
161 158 106
169 165 110
163 161 108
164 162 108
167 164 110
161 160 108
169 167 111
165 163 109
170 168 112
166 164 110
162 159 106
164 161 108
168 165 110
165 163 109
170 166 110
169 166 111
165 163 109
165 162 108
163 161 108
172 169 112
167 165 110
170 167 111
169 166 110
168 166 110
170 167 111
169 166 110
166 163 109
166 162 107
162 159 106
171 167 111
166 163 109
167 164 110
169 165 109
164 161 108
168 165 109
165 162 108
164 161 108
168 165 110
172 167 110
166 163 109
163 160 106
166 163 108
162 159 104
166 163 109
166 163 107
164 161 107
169 165 109
163 159 106
164 162 106
165 160 104
165 161 106
167 163 106
164 160 104
168 164 108
164 160 105
163 160 105
165 161 106
159 155 101
165 161 103
159 155 99
167 162 106
153 150 95
159 154 98
162 157 100
164 159 102
158 154 99
162 157 100
165 159 101
152 147 90
158 152 94
164 160 101
156 150 93
149 144 88
154 147 93
158 153 95
148 142 90
156 149 91
156 151 94
147 143 88
148 142 84
154 148 91
154 147 88
150 143 83
151 145 86
136 130 73
142 137 70
132 127 69
138 132 75
147 150 58
174 197 11
173 196 0
173 197 0
173 197 0
173 197 0
172 195 0
173 196 0
175 198 0
174 198 0
175 198 0
173 196 0
173 196 0
174 198 0
175 198 0
172 195 0
171 194 0
172 196 0
175 198 0
173 196 0
173 196 0
174 198 0
173 196 0
174 198 0
175 198 0
173 197 0
174 197 0
174 197 0
174 197 0
173 197 0
172 195 0
174 198 0
174 198 0
173 197 0
173 197 0
174 197 0
174 198 0
172 196 0
175 198 0
172 196 0
174 197 0
173 197 0
171 195 0
172 196 0
174 197 0
172 196 0
172 196 0
173 196 0
175 198 0
176 199 0
174 197 0
173 197 0
172 195 0
173 196 0
174 198 0
174 197 0
174 197 0
173 197 0
173 196 0
172 196 0
174 197 0
173 197 0
173 197 0
173 196 0
175 198 0
172 195 0
172 196 0
175 198 0
174 197 0
172 196 0
174 198 0
175 198 0
171 195 0
172 196 0
172 195 0
173 196 0
175 198 0
174 197 0
172 196 0
171 194 0
175 198 0
174 197 0
173 196 0
174 197 0
175 197 0
173 197 0
175 198 0
171 196 0
172 196 0
173 197 0
174 197 0
174 197 0
172 196 0
174 197 0
175 197 0
172 196 0
174 197 0
173 196 0
175 198 0
174 197 0
174 197 0
174 197 0
174 197 0
173 197 0
173 197 0
171 194 0
172 195 0
173 196 0
173 197 0
172 196 0
173 197 0
172 195 0
174 197 0
175 198 0
174 197 0
173 196 0
174 197 0
171 194 0
173 196 0
171 194 0
172 196 0
172 195 0
173 197 0
173 197 0
173 196 0
173 197 0
173 196 0
174 197 0
173 196 0
174 197 0
172 196 0
173 197 0
173 197 0
173 196 0
172 195 0
171 195 0
175 198 0
174 197 0
170 193 0
173 197 0
172 195 0
173 197 0
173 196 0
171 195 0
173 196 0
175 198 0
173 197 0
172 196 0
172 196 0
172 196 0
173 197 0
174 197 0
172 195 0
173 197 0
175 198 0
172 195 0
173 197 0
172 196 0
173 196 0
170 193 0
170 194 0
173 197 0
172 195 0
172 195 0
173 196 0
173 196 0
173 195 0
170 194 0
172 196 0
173 196 18
158 182 76
127 153 128
118 145 140
87 118 165
65 101 176
62 99 180
62 99 180
62 99 180
62 99 181
62 99 179
62 99 181
62 99 180
62 99 181
62 99 181
61 98 181
61 99 179
62 99 181
62 99 181
61 98 180
61 98 181
62 99 181
61 99 181
61 99 181
62 99 180
62 99 181
61 98 179
62 99 181
61 99 180
62 99 181
61 99 180
62 99 181
61 99 180
62 99 180
62 98 179
62 99 177
62 98 177
77 110 171
104 132 147
142 167 111
151 174 92
167 189 47
174 196 0
173 196 0
172 196 0
172 194 0
174 197 0
172 195 0
173 196 0
172 195 0
172 196 0
173 196 0
172 196 0
173 197 0
172 195 0
172 195 0
173 196 0
173 196 0
172 194 0
173 197 0
174 197 0
171 195 0
172 196 0
172 197 0
174 197 0
173 196 0
174 196 0
173 196 0
171 195 0
172 196 0
173 196 0
173 197 0
173 197 0
174 197 0
172 195 0
172 195 0
175 197 0
173 196 0
173 196 0
175 196 0
172 196 0
171 195 0
172 196 0
170 193 0
173 196 0
173 197 0
174 196 0
172 195 0
174 197 0
167 186 36
119 114 58
123 118 56
142 136 69
140 135 75
136 131 71
143 139 79
139 133 77
142 138 80
143 138 84
141 136 81
147 142 85
142 138 85
146 142 88
160 154 96
151 146 92
140 135 83
150 146 94
153 148 89
155 150 94
154 149 96
150 145 91
149 145 93
150 148 97
149 145 96
147 143 90
162 159 104
152 150 97
160 156 101
161 158 105
154 149 98
152 149 99
157 154 103
154 151 101
162 158 105
158 155 103
159 156 104
158 156 104
163 159 107
166 162 107
159 156 105
164 161 106
164 160 106
159 157 105
158 155 104
165 161 105
161 159 106
160 158 105
161 158 106
167 164 109
161 159 106
168 165 109
163 161 108
161 160 108
161 159 107
170 167 112
165 162 108
165 162 108
163 160 107
165 162 108
168 164 109
162 160 107
169 166 111
168 165 110
170 167 112
167 163 109
164 162 109
164 161 107
166 164 110
169 165 110
169 166 110
171 167 111
168 165 111
167 165 110
166 164 109
168 165 110
167 164 109
169 167 111
171 168 112
170 167 111
168 166 110
169 167 111
170 167 111
163 160 107
167 164 109
171 168 112
166 163 108
169 166 110
164 161 108
167 163 109
168 166 110
170 167 112
171 168 112
162 160 107
166 162 108
165 162 108
167 162 106
167 165 110
165 161 106
167 163 108
159 157 104
163 160 104
166 162 106
168 164 109
163 159 104
171 167 110
171 166 109
163 158 103
168 164 107
166 163 106
166 161 104
166 161 106
167 163 105
160 156 100
165 161 105
170 165 108
162 158 101
164 159 101
165 159 99
159 154 99
155 150 95
152 148 92
155 151 95
147 144 90
163 157 98
164 158 99
154 149 92
151 146 93
159 153 93
158 153 95
157 153 95
154 148 92
147 142 85
149 144 86
157 151 89
158 152 90
147 140 84
146 141 80
139 133 75
144 137 79
148 142 83
121 115 64
139 132 75
163 177 48
174 197 0
173 196 0
173 195 0
173 197 0
174 197 0
173 196 0
176 198 0
174 198 0
172 196 0
174 198 0
174 197 0
173 197 0
174 198 0
174 197 0
173 196 0
175 198 0
175 198 0
170 195 0
174 197 0
172 196 0
173 197 0
176 198 0
172 196 0
174 197 0
173 197 0
174 198 0
172 196 0
176 198 0
174 197 0
172 196 0
175 198 0
173 196 0
173 196 0
175 198 0
171 195 0
174 197 0
172 196 0
172 195 0
170 194 0
174 198 0
172 195 0
173 196 0
172 196 0
175 197 0
175 198 0
174 197 0
175 198 0
173 197 0
175 198 0
172 196 0
173 196 0
174 198 0
170 194 0
174 197 0
174 198 0
174 197 0
174 197 0
173 197 0
172 196 0
174 197 0
175 198 0
172 196 0
173 196 0
175 198 0
173 197 0
172 195 0
174 197 0
172 196 0
173 196 0
173 196 0
172 196 0
174 197 0
173 197 0
174 197 0
171 195 0
173 197 0
174 197 0
174 198 0
172 197 0
173 196 0
172 196 0
172 196 0
173 196 0
174 197 0
172 196 0
171 195 0
173 197 0
173 197 0
174 197 0
173 196 0
173 197 0
174 197 0
172 195 0
173 196 0
173 197 0
175 198 0
173 197 0
172 196 0
175 198 0
174 197 0
171 195 0
173 197 0
172 195 0
170 193 0
174 197 0
173 197 0
171 196 0
172 196 0
173 196 0
171 194 0
171 195 0
174 197 0
174 197 0
171 195 0
172 196 0
174 196 0
174 197 0
174 198 0
175 198 0
169 193 0
174 198 0
173 196 0
174 197 0
174 197 0
176 198 0
173 196 0
173 196 0
174 197 0
172 196 0
173 196 0
173 197 0
173 197 0
172 195 0
173 196 0
174 197 0
173 196 0
174 197 0
174 196 0
170 194 0
173 196 0
172 196 0
172 196 0
174 197 0
174 197 0
173 196 0
172 195 0
172 195 0
174 197 0
176 198 0
173 196 0
173 196 0
174 197 0
174 197 0
174 196 0
174 197 0
173 197 0
174 197 0
171 195 0
172 195 0
171 194 0
174 196 0
172 195 0
172 196 0
171 194 0
157 180 78
137 162 118
97 127 157
80 113 170
61 99 180
62 99 181
62 99 180
62 99 180
62 99 181
62 99 180
62 99 181
62 99 181
62 99 181
61 99 181
62 99 181
62 99 181
61 99 181
62 99 181
62 99 181
61 98 181
62 99 181
62 99 181
62 99 181
62 99 181
61 98 181
61 98 181
62 99 181
61 99 181
61 99 181
62 99 181
60 98 180
61 98 181
61 97 178
61 99 181
62 99 180
62 99 180
62 99 180
61 98 181
60 97 178
61 98 179
61 99 180
62 99 180
61 98 178
62 99 181
63 100 178
77 110 169
123 149 133
140 165 108
165 188 57
172 195 0
171 195 0
172 195 0
172 196 0
172 195 0
172 195 0
172 195 0
173 196 0
174 197 0
171 195 0
174 197 0
171 194 0
173 197 0
169 192 0
173 196 0
173 196 0
173 196 0
173 196 0
172 196 0
174 197 0
173 195 0
172 196 0
173 196 0
173 196 0
173 196 0
172 196 0
171 194 0
173 196 0
173 197 0
175 198 0
172 196 0
172 195 0
170 193 0
171 194 0
173 195 0
173 197 0
173 196 0
172 195 0
173 195 0
170 193 0
175 196 0
171 194 0
169 191 0
134 137 48
121 116 60
137 132 70
135 129 68
134 128 72
135 131 70
145 139 77
147 141 85
142 138 77
146 141 84
147 142 86
154 148 87
144 138 82
144 140 88
146 141 89
145 141 89
150 146 90
152 148 89
150 147 94
148 144 92
147 143 91
157 152 96
152 149 95
158 153 100
149 146 94
159 154 99
155 150 96
153 150 98
155 151 99
159 156 102
159 156 102
161 157 103
159 156 104
154 150 100
161 158 104
150 147 96
162 158 104
158 156 103
158 155 103
159 156 103
155 153 103
160 157 105
157 155 105
164 161 107
163 160 106
160 156 104
165 161 107
158 156 105
164 161 107
160 158 106
166 163 109
163 160 107
162 159 105
163 160 107
171 167 110
168 165 109
162 160 107
166 163 108
168 165 110
167 164 109
163 160 108
165 163 110
169 166 111
167 164 110
163 161 108
166 164 110
169 168 113
165 162 108
165 163 109
168 164 109
169 166 110
166 163 109
169 166 110
169 167 111
167 164 109
169 166 111
170 167 112
168 166 111
165 162 108
169 167 111
167 164 109
170 167 111
167 164 109
169 167 111
170 167 111
170 166 109
171 168 112
168 165 110
169 166 110
164 161 107
170 167 111
171 167 110
165 163 109
166 163 109
168 165 110
166 162 106
167 165 110
167 164 107
165 161 107
167 164 107
162 158 103
169 166 110
171 166 108
165 161 105
165 162 106
168 163 107
163 159 103
167 163 108
162 158 101
166 162 105
161 157 103
160 158 102
157 154 99
170 164 106
166 161 104
166 160 103
160 155 101
164 158 102
164 158 100
167 162 102
164 159 101
158 154 100
158 153 98
156 152 93
160 155 97
164 159 98
161 156 99
154 148 91
159 154 93
154 148 94
162 155 95
158 152 94
152 147 90
150 143 88
148 143 86
146 141 85
148 143 85
144 137 82
150 143 84
134 127 74
141 135 75
140 134 75
131 127 65
138 139 60
174 197 0
173 196 0
173 196 0
174 197 0
174 198 0
173 197 0
175 197 0
175 198 0
173 197 0
173 196 0
174 197 0
174 197 0
173 196 0
173 196 0
174 197 0
174 197 0
170 194 0
173 197 0
174 197 0
174 197 0
174 197 0
175 198 0
174 198 0
172 196 0
173 196 0
174 197 0
174 197 0
175 198 0
172 196 0
176 198 0
173 197 0
173 196 0
173 197 0
173 196 0
173 196 0
173 196 0
174 197 0
175 197 0
174 197 0
173 197 0
176 198 0
173 197 0
176 198 0
173 196 0
174 197 0
172 195 0
174 197 0
174 197 0
173 196 0
174 197 0
173 196 0
175 198 0
173 197 0
170 195 0
174 197 0
172 196 0
177 199 0
174 198 0
172 196 0
173 196 0
173 197 0
173 197 0
173 196 0
174 197 0
173 196 0
174 197 0
174 197 0
174 197 0
173 197 0
169 194 0
175 198 0
173 197 0
174 197 0
173 196 0
173 197 0
174 197 0
173 196 0
175 198 0
171 195 0
176 198 0
172 196 0
170 194 0
175 198 0
174 197 0
175 198 0
172 196 0
172 196 0
171 196 0
173 197 0
175 198 0
171 194 0
172 196 0
173 197 0
173 196 0
173 197 0
174 197 0
172 196 0
173 197 0
173 197 0
175 198 0
174 197 0
174 197 0
174 197 0
174 197 0
174 197 0
173 197 0
173 197 0
173 196 0
172 196 0
173 196 0
175 198 0
170 193 0
172 195 0
175 197 0
172 195 0
173 196 0
171 195 0
172 195 0
173 197 0
174 197 0
174 198 0
171 195 0
173 197 0
173 196 0
174 197 0
176 198 0
174 197 0
174 197 0
175 198 0
172 195 0
173 197 0
175 197 0
174 197 0
172 195 0
173 196 0
174 198 0
173 197 0
170 193 0
173 196 0
172 195 0
172 195 0
174 198 0
173 196 0
171 195 0
172 195 0
172 195 0
171 195 0
175 198 0
176 198 0
173 197 0
173 196 0
173 196 0
173 196 0
172 196 0
173 196 0
173 197 0
172 195 0
172 196 0
173 196 0
173 196 0
172 195 18
151 176 92
112 139 149
83 115 170
62 99 179
62 99 180
62 99 181
62 99 179
62 99 181
62 99 181
62 99 181
61 99 181
61 98 179
61 99 181
62 99 181
61 99 180
61 99 181
62 99 181
62 99 181
61 98 181
62 99 181
61 99 181
62 99 181
62 99 181
61 98 181
62 99 181
62 99 181
61 99 181
61 98 180
61 99 181
62 99 181
61 99 181
61 99 181
61 98 181
61 98 180
62 99 180
61 99 181
62 99 181
61 98 179
62 99 181
61 99 181
62 99 180
62 99 181
62 99 180
61 98 179
61 99 179
61 98 178
62 99 180
61 98 180
62 99 179
62 99 177
61 98 177
64 100 179
103 132 154
147 171 101
159 181 72
174 198 0
173 196 0
173 196 0
169 192 0
171 194 0
173 196 0
174 197 0
171 194 0
174 197 0
173 196 0
171 195 0
173 197 0
174 197 0
173 196 0
172 196 0
172 196 0
172 194 0
174 197 0
173 197 0
173 197 0
171 195 0
173 197 0
173 196 0
172 195 0
173 196 0
172 195 0
170 192 0
172 196 0
175 198 0
174 197 0
172 195 0
172 194 0
174 196 0
173 196 0
172 196 0
174 197 0
173 196 0
172 195 0
172 195 0
158 175 36
128 123 64
130 126 62
135 130 68
145 139 75
142 138 78
154 147 85
136 132 77
148 143 80
138 134 78
148 141 84
142 138 84
145 140 86
151 146 89
146 142 89
161 156 97
151 147 90
145 140 89
156 151 98
154 148 93
147 143 93
153 148 95
159 154 98
154 149 98
158 155 99
156 151 95
153 149 98
147 144 93
155 151 99
151 147 97
161 157 100
165 161 105
161 157 104
156 153 100
152 149 99
155 152 102
161 157 105
162 158 105
158 156 105
155 152 100
163 160 106
160 157 105
166 162 107
159 156 104
158 157 105
162 158 106
164 161 108
159 157 106
164 162 109
162 160 107
167 164 109
160 157 105
166 163 109
163 160 107
168 165 110
165 162 108
169 166 110
162 160 108
170 167 111
162 160 108
170 167 111
168 166 111
168 165 110
169 166 111
163 162 108
170 168 112
164 161 108
171 168 112
166 164 109
172 168 112
164 162 108
170 168 112
170 167 111
168 166 111
169 166 111
168 165 110
170 166 110
170 166 110
168 166 110
165 163 109
169 166 110
170 168 112
172 168 112
168 165 110
163 161 108
171 168 112
165 162 108
171 168 111
170 167 112
167 164 109
165 161 106
170 166 110
167 164 109
163 159 105
163 161 107
168 164 108
172 168 110
170 166 110
165 161 105
167 164 109
165 162 106
162 159 106
164 162 106
163 159 104
167 163 106
161 157 103
172 169 111
164 160 106
164 161 106
163 159 103
165 161 103
163 160 104
157 153 100
167 163 104
172 166 106
161 157 101
156 152 99
167 161 103
158 154 98
157 153 98
161 156 100
164 159 102
159 155 100
160 156 100
155 151 93
160 155 98
159 154 95
161 155 98
164 158 97
166 160 99
156 151 93
160 154 93
166 158 99
150 145 87
155 149 93
150 144 87
151 145 88
153 147 90
149 142 82
144 138 81
123 117 70
140 135 77
133 127 66
144 138 80
145 138 74
161 178 30
173 196 0
174 197 0
174 197 0
173 196 0
173 196 0
172 195 0
174 196 0
174 198 0
172 196 0
171 194 0
174 197 0
174 196 0
174 197 0
173 197 0
174 197 0
173 197 0
174 198 0
173 197 0
173 197 0
172 196 0
174 197 0
174 198 0
173 197 0
172 196 0
173 197 0
173 196 0
173 197 0
172 196 0
173 196 0
173 196 0
172 196 0
174 198 0
174 198 0
174 197 0
174 197 0
172 196 0
175 198 0
173 197 0
174 198 0
169 193 0
172 195 0
173 197 0
174 197 0
175 198 0
174 197 0
173 197 0
172 196 0
172 196 0
173 197 0
173 197 0
175 198 0
172 194 0
173 196 0
173 197 0
176 198 0
174 197 0
172 196 0
173 197 0
174 198 0
174 197 0
173 197 0
174 197 0
175 198 0
172 196 0
175 198 0
172 196 0
174 197 0
172 196 0
173 196 0
173 197 0
175 198 0
172 196 0
173 196 0
174 198 0
175 198 0
172 195 0
172 196 0
170 195 0
173 196 0
173 196 0
174 198 0
174 197 0
173 195 0
175 197 0
174 197 0
174 197 0
173 197 0
173 197 0
172 196 0
174 197 0
173 196 0
173 197 0
172 196 0
171 195 0
174 197 0
173 197 0
173 196 0
173 196 0
173 197 0
173 197 0
172 196 0
173 196 0
172 196 0
173 196 0
175 198 0
172 195 0
173 196 0
173 197 0
176 199 0
172 196 0
175 198 0
171 195 0
173 196 0
171 195 0
174 198 0
174 197 0
173 197 0
175 198 0
173 196 0
173 196 0
173 197 0
173 196 0
173 196 0
170 194 0
173 196 0
171 195 0
173 196 0
173 197 0
174 197 0
174 197 0
172 195 0
172 196 0
172 196 0
173 197 0
173 197 0
172 196 0
172 196 0
172 196 0
172 195 0
175 198 0
173 197 0
173 196 0
171 195 0
173 195 0
173 197 0
174 197 0
175 198 0
172 195 0
175 197 0
174 197 0
172 195 0
173 196 0
171 195 0
172 195 0
171 194 0
171 194 0
169 193 40
148 172 100
112 139 140
71 105 172
62 99 178
62 99 181
61 99 181
61 99 180
61 99 179
62 99 180
61 99 181
61 99 181
61 98 181
61 98 181
61 98 181
61 99 181
61 99 181
61 98 181
62 99 181
62 99 181
62 99 181
61 99 181
61 99 181
61 98 181
62 99 181
62 99 181
62 99 181
61 99 181
62 99 181
61 99 181
62 99 181
62 99 181
61 99 181
62 99 180
61 99 181
61 99 181
62 99 181
62 99 181
62 99 181
62 99 181
61 98 181
62 99 181
62 99 181
62 99 181
61 99 181
62 99 181
62 99 180
62 99 181
62 99 181
62 98 178
61 99 180
62 99 181
61 98 179
62 99 181
62 99 179
60 97 177
61 98 178
61 98 178
64 101 180
94 123 160
140 163 112
160 183 70
171 195 0
173 196 0
172 196 0
170 193 0
174 197 0
171 195 0
173 196 0
173 196 0
173 196 0
170 194 0
170 193 0
168 193 0
172 196 0
173 196 0
170 193 0
171 194 0
172 194 0
172 195 0
171 195 0
174 197 0
170 193 0
172 194 0
172 195 0
168 193 0
174 197 0
170 192 0
174 197 0
172 195 0
172 196 0
172 195 0
172 196 0
173 196 0
169 192 0
172 195 0
173 196 0
172 196 0
133 134 53
136 131 65
129 123 62
125 121 61
141 135 75
132 127 73
142 137 78
142 137 80
145 139 81
155 148 90
141 135 81
152 147 90
149 145 87
151 146 88
156 150 90
145 141 88
152 147 90
151 146 93
143 139 86
145 141 89
148 145 95
160 155 101
156 152 97
162 157 99
150 147 95
156 152 98
152 148 97
152 149 97
158 155 102
152 149 99
157 154 99
158 154 102
149 145 97
149 147 99
156 153 101
153 150 100
155 153 101
154 152 102
159 156 103
152 150 101
157 155 103
156 154 104
160 157 105
161 158 105
152 150 102
161 157 105
162 160 108
163 160 107
159 157 105
160 157 106
164 161 108
161 158 106
162 159 107
168 164 110
163 161 108
160 157 105
169 167 112
167 164 110
165 162 108
165 162 109
165 162 108
166 163 109
170 167 111
171 168 111
172 168 112
166 164 109
174 170 112
161 159 106
171 168 112
171 167 111
169 166 110
169 166 111
166 163 109
172 168 112
165 162 108
172 169 113
173 170 113
166 164 110
167 164 109
175 171 113
166 163 109
167 165 110
169 166 110
169 165 110
172 169 112
163 161 108
167 164 109
169 166 111
169 165 110
172 168 112
170 166 110
170 167 111
170 167 111
171 167 111
162 159 106
167 164 109
164 162 108
172 168 110
169 165 108
168 164 108
167 164 108
170 167 109
164 160 102
161 157 103
166 162 107
167 163 107
164 160 105
161 157 104
163 159 103
165 161 104
165 161 106
164 158 102
163 161 105
167 162 104
172 166 107
163 159 101
163 158 101
162 157 100
162 158 103
162 157 99
159 154 99
162 155 97
155 151 98
158 153 95
152 148 92
166 160 101
159 153 95
156 151 93
155 149 90
162 156 96
152 146 92
152 147 89
152 146 88
151 146 88
148 143 84
161 153 95
149 143 85
150 145 84
145 139 81
146 140 81
152 146 84
145 139 80
134 129 74
139 133 78
129 124 66
115 117 41
173 197 0
173 197 0
172 196 0
174 198 0
173 196 0
174 197 0
174 198 0
173 196 0
174 197 0
176 198 0
175 198 0
174 197 0
173 196 0
174 197 0
177 199 0
174 198 0
172 196 0
175 198 0
173 196 0
173 196 0
172 196 0
174 197 0
175 198 0
175 198 0
174 197 0
173 197 0
174 197 0
176 198 0
176 199 0
173 197 0
173 197 0
175 198 0
173 197 0
176 199 0
172 195 0
173 197 0
171 194 0
174 197 0
173 196 0
172 196 0
174 197 0
174 198 0
173 197 0
174 197 0
175 198 0
171 194 0
173 196 0
174 197 0
173 196 0
171 196 0
172 196 0
172 196 0
172 195 0
174 197 0
172 195 0
173 196 0
173 197 0
173 196 0
175 198 0
174 198 0
173 197 0
175 198 0
172 196 0
173 197 0
173 196 0
172 195 0
172 195 0
174 198 0
174 197 0
173 196 0
172 196 0
174 198 0
174 197 0
172 195 0
173 196 0
174 198 0
174 197 0
174 198 0
173 197 0
172 196 0
174 197 0
174 197 0
174 197 0
173 197 0
170 194 0
173 196 0
172 196 0
174 197 0
172 196 0
173 196 0
171 195 0
174 198 0
172 196 0
175 197 0
173 196 0
173 196 0
172 195 0
173 196 0
173 197 0
172 195 0
173 196 0
173 197 0
173 197 0
174 196 0
172 196 0
173 196 0
174 197 0
174 197 0
173 196 0
174 197 0
173 197 0
174 197 0
173 196 0
174 198 0
170 193 0
171 194 0
173 196 0
174 197 0
174 198 0
173 196 0
175 198 0
172 195 0
174 196 0
174 197 0
170 194 0
174 197 0
172 196 0
175 198 0
175 197 0
174 197 0
174 198 0
173 196 0
174 197 0
175 197 0
174 197 0
172 195 0
171 195 0
176 199 0
174 198 0
171 195 0
173 197 0
170 194 0
172 195 0
173 197 0
173 197 0
172 196 0
175 197 0
174 197 0
175 197 0
173 196 0
174 197 0
172 195 0
172 196 0
174 197 0
160 184 70
117 144 140
71 106 176
61 98 180
62 99 180
62 99 181
63 100 181
61 99 181
61 98 178
61 98 181
61 99 181
61 99 181
63 100 181
61 99 181
62 99 180
62 99 181
62 99 181
62 99 181
62 99 181
61 99 181
61 98 181
62 99 181
61 98 181
61 98 181
61 98 181
61 98 181
61 98 181
62 99 180
62 99 181
61 99 181
61 98 181
61 99 181
61 98 181
61 99 181
61 99 181
62 99 181
62 99 181
61 99 181
61 98 180
62 99 180
62 99 181
62 99 181
61 98 181
61 99 181
62 99 181
61 98 180
62 99 180
61 98 179
61 98 181
61 98 181
61 98 178
61 98 179
61 98 180
61 98 180
61 98 178
61 99 181
62 99 181
62 99 180
62 99 180
61 98 180
62 98 178
61 98 178
62 99 180
61 97 176
98 127 156
143 167 110
172 196 18
170 194 0
172 197 0
171 194 0
169 192 0
173 196 0
171 194 0
171 194 0
172 195 0
173 196 0
175 197 0
172 196 0
172 196 0
173 196 0
171 194 0
172 195 0
172 195 0
172 196 0
175 198 0
172 195 0
174 197 0
174 197 0
174 197 0
171 194 0
172 195 0
171 195 0
173 196 0
171 194 0
173 196 0
170 193 0
172 196 0
171 194 0
173 196 0
153 169 34
127 122 61
134 129 65
144 138 80
139 134 71
131 126 64
135 130 71
151 145 84
147 142 84
143 137 78
141 136 80
149 144 86
140 136 81
151 145 88
143 139 84
146 141 89
143 139 85
153 148 88
150 145 94
143 140 92
154 149 94
144 141 90
145 142 90
157 152 98
161 157 100
151 148 97
142 139 92
155 151 99
154 150 100
155 152 99
158 155 102
159 156 104
151 148 99
155 152 101
162 158 106
161 158 105
163 159 106
149 147 100
159 155 102
159 156 104
158 156 103
162 159 106
163 159 105
166 163 109
161 158 107
162 158 105
163 161 108
157 156 106
158 156 105
160 157 104
161 158 106
160 158 106
157 155 105
164 162 109
166 162 109
164 161 108
168 165 111
165 163 109
168 164 109
165 162 108
168 165 111
171 168 112
165 162 109
165 162 109
169 165 110
169 166 110
171 168 112
172 169 113
167 164 109
170 166 111
169 167 112
168 165 110
171 168 112
171 169 113
164 161 107
170 166 110
165 161 107
169 166 110
169 167 112
170 167 110
171 168 112
170 166 110
169 166 110
170 166 110
173 170 113
171 168 112
169 166 110
170 166 110
170 167 110
172 169 113
167 164 109
170 166 109
166 162 107
170 167 109
168 165 110
171 166 109
170 167 110
172 168 111
170 167 110
170 166 110
169 165 108
171 167 110
168 165 109
161 157 102
170 166 109
169 165 108
168 163 107
163 160 106
163 158 102
166 162 104
169 165 105
161 156 101
157 153 96
167 162 106
159 155 101
170 165 106
161 158 99
170 165 106
163 158 99
164 159 104
165 160 101
162 157 97
158 153 97
165 160 101
166 161 101
161 157 100
153 148 93
155 150 93
159 154 94
161 154 98
154 149 92
154 148 90
148 144 88
151 146 84
149 144 83
145 140 85
143 138 81
154 147 87
154 148 89
139 134 80
149 143 84
140 135 76
140 134 80
151 144 82
144 138 79
147 142 76
136 130 68
157 173 32
172 196 0
174 196 0
174 197 0
173 196 0
174 197 0
172 195 0
175 198 0
174 197 0
171 195 0
174 198 0
174 197 0
173 196 0
174 198 0
174 197 0
173 197 0
175 198 0
174 197 0
172 196 0
174 197 0
175 198 0
173 197 0
173 196 0
172 196 0
174 197 0
176 199 0
174 198 0
175 198 0
174 197 0
173 197 0
172 196 0
174 197 0
174 197 0
175 198 0
174 197 0
173 196 0
172 196 0
174 197 0
173 196 0
175 198 0
173 197 0
172 196 0
170 194 0
173 196 0
175 198 0
173 197 0
171 194 0
174 197 0
174 197 0
174 198 0
174 197 0
174 197 0
175 197 0
175 198 0
173 196 0
173 196 0
172 195 0
170 194 0
175 198 0
173 195 0
173 196 0
173 197 0
174 197 0
175 198 0
173 197 0
173 197 0
172 196 0
173 196 0
173 196 0
176 199 0
174 198 0
173 196 0
173 196 0
172 197 0
171 195 0
173 196 0
175 198 0
170 194 0
174 197 0
172 195 0
174 197 0
174 198 0
173 197 0
173 196 0
174 198 0
172 196 0
175 198 0
173 197 0
175 198 0
173 196 0
173 196 0
175 197 0
172 194 0
173 196 0
173 196 0
172 196 0
173 197 0
172 196 0
174 198 0
174 197 0
174 197 0
173 196 0
173 196 0
172 195 0
173 196 0
174 197 0
174 197 0
174 197 0
173 197 0
174 197 0
172 196 0
168 192 0
174 197 0
173 196 0
171 194 0
171 194 0
171 194 0
173 196 0
173 196 0
173 197 0
173 196 0
174 197 0
172 196 0
173 197 0
172 196 0
173 196 0
171 194 0
172 196 0
171 195 0
175 198 0
173 196 0
174 197 0
172 194 0
174 197 0
173 197 0
175 198 0
173 196 0
174 197 0
175 198 0
175 198 0
170 194 0
172 195 0
175 197 0
171 194 0
171 195 0
172 195 0
173 196 0
174 197 0
170 192 0
174 197 0
171 194 0
169 194 31
136 161 113
84 116 165
62 99 179
61 98 177
61 99 181
62 99 180
62 99 180
62 99 181
62 99 181
62 99 181
61 99 180
62 99 181
61 98 181
61 99 181
61 99 181
61 99 181
62 99 181
61 98 181
61 99 181
62 99 181
62 99 181
61 99 181
62 99 181
61 99 181
61 99 181
62 99 181
61 99 181
61 99 181
62 99 181
61 99 181
61 99 181
61 99 181
61 99 181
61 98 181
61 99 181
61 99 181
61 99 181
61 99 181
62 99 181
61 99 181
62 99 181
61 99 181
61 99 181
61 98 180
61 99 181
61 99 181
61 99 181
61 99 181
62 99 181
61 99 181
62 99 181
61 98 180
61 98 179
61 99 180
62 99 180
61 98 180
61 99 181
61 98 180
61 98 180
61 98 178
61 98 181
61 98 179
61 98 179
62 99 178
61 98 179
62 99 179
61 98 177
62 99 179
70 104 174
115 142 142
160 184 55
173 195 0
172 196 0
170 193 0
171 193 0
171 194 0
172 195 0
171 193 0
171 194 0
171 194 0
172 195 0
176 199 0
172 195 0
172 195 0
175 198 0
173 197 0
171 195 0
171 194 0
174 197 0
170 194 0
172 195 0
170 193 0
172 196 0
171 196 0
170 194 0
172 195 0
172 194 0
173 197 0
173 197 0
172 193 0
173 195 0
142 145 51
132 126 64
138 132 69
137 131 69
145 138 80
133 128 75
145 139 74
140 135 78
150 145 86
145 140 81
139 135 83
147 141 85
149 144 86
148 144 89
151 146 92
144 138 84
144 140 87
145 140 86
151 145 94
140 136 85
144 140 90
162 157 100
154 150 95
149 145 90
156 153 102
152 148 97
152 148 98
154 149 98
158 154 100
156 153 103
153 151 99
153 151 100
156 152 101
153 150 99
152 149 100
156 153 102
165 161 106
158 155 103
157 154 102
156 153 102
156 154 104
161 157 105
156 154 103
164 161 108
160 157 106
159 157 106
161 158 106
162 159 107
161 159 107
160 158 106
157 154 104
164 162 108
166 163 109
165 162 108
167 164 110
163 161 108
169 166 111
171 167 111
166 163 108
164 161 108
167 164 109
164 162 108
166 164 110
170 167 111
168 165 110
168 165 110
163 161 108
169 166 111
168 165 110
168 165 110
168 165 110
172 169 112
169 167 111
173 169 113
165 162 108
164 162 108
171 168 112
169 166 110
168 165 110
169 166 110
173 169 112
169 167 111
171 167 111
173 169 112
170 166 110
171 168 112
171 167 111
173 169 111
169 165 109
171 167 111
172 169 112
173 170 113
172 168 110
171 168 112
171 167 110
168 165 110
167 164 108
170 167 111
173 168 110
168 166 109
168 164 109
167 163 106
170 166 109
175 169 108
172 167 108
158 156 103
168 164 108
165 161 105
170 166 108
163 159 104
168 163 105
161 157 103
167 162 104
169 166 107
166 161 102
163 158 101
167 163 106
164 159 101
165 160 101
156 152 96
166 161 104
167 162 101
163 158 101
164 158 99
166 160 101
163 158 99
161 154 94
160 155 96
165 160 101
163 157 97
163 156 90
155 149 94
160 154 94
159 154 92
156 150 93
153 147 92
148 142 85
151 145 84
147 142 85
147 142 86
145 139 84
143 137 82
147 141 82
138 132 74
142 137 75
143 137 80
137 131 72
140 145 51
173 195 0
173 196 0
175 198 0
173 197 0
171 196 0
175 198 0
174 198 0
173 197 0
172 196 0
174 196 0
173 197 0
174 197 0
174 198 0
173 197 0
174 198 0
173 197 0
175 197 0
174 198 0
174 197 0
172 196 0
174 197 0
174 197 0
175 198 0
170 195 0
172 196 0
173 197 0
174 198 0
175 198 0
173 197 0
173 197 0
174 198 0
174 197 0
174 198 0
173 197 0
172 196 0
173 197 0
172 196 0
173 197 0
174 197 0
173 196 0
172 196 0
174 198 0
174 197 0
174 198 0
173 197 0
174 197 0
174 197 0
172 195 0
173 197 0
174 197 0
174 197 0
173 197 0
175 198 0
173 196 0
172 195 0
173 197 0
171 194 0
172 195 0
173 197 0
172 196 0
172 196 0
171 195 0
173 197 0
172 196 0
174 197 0
174 197 0
173 196 0
173 196 0
172 196 0
173 196 0
174 198 0
175 198 0
174 198 0
175 198 0
173 197 0
174 197 0
171 195 0
173 197 0
175 197 0
174 197 0
170 193 0
172 196 0
173 196 0
174 198 0
174 198 0
174 198 0
173 196 0
174 197 0
175 197 0
170 194 0
173 197 0
174 197 0
174 197 0
171 194 0
174 196 0
174 197 0
174 197 0
170 194 0
173 197 0
173 196 0
173 196 0
172 196 0
174 198 0
174 197 0
173 197 0
173 197 0
172 195 0
172 195 0
174 197 0
174 197 0
174 197 0
173 197 0
170 195 0
172 195 0
171 195 0
173 196 0
173 196 0
175 198 0
172 195 0
175 197 0
173 196 0
175 198 0
171 194 0
172 195 0
172 195 0
174 198 0
172 195 0
171 195 0
174 198 0
174 198 0
173 197 0
174 197 0
173 196 0
173 197 0
172 196 0
173 197 0
173 196 0
174 197 0
175 198 0
174 197 0
173 196 0
172 196 0
168 192 0
173 196 0
174 197 0
171 194 0
174 197 0
170 193 0
165 188 54
127 154 126
68 103 174
61 99 178
62 99 180
62 99 179
62 99 181
62 99 180
62 99 179
62 99 181
61 99 181
62 99 181
62 99 181
61 99 181
62 99 181
61 99 181
62 99 181
62 99 181
61 99 181
61 98 181
61 99 181
62 99 181
61 99 181
61 98 181
62 99 181
62 99 181
62 99 181
61 98 181
61 98 181
61 99 181
61 98 181
61 99 181
61 98 181
61 99 181
61 99 181
62 99 181
61 98 181
61 99 181
61 99 181
61 99 181
61 99 181
61 99 181
62 99 181
61 99 181
61 98 181
61 99 181
61 99 181
61 98 180
62 99 181
61 99 181
62 99 180
62 99 181
61 99 181
61 99 181
61 99 181
62 99 181
61 98 180
62 99 181
61 98 180
60 97 179
62 99 180
62 99 181
61 98 179
62 99 180
61 98 180
61 98 178
62 99 179
61 98 179
61 98 178
61 98 177
62 99 181
61 98 179
61 97 175
61 98 179
104 131 151
144 167 103
169 194 18
173 196 0
173 196 0
171 194 0
173 195 0
172 196 0
170 192 0
174 197 0
173 196 0
172 194 0
172 194 0
172 195 0
171 194 0
170 193 0
173 196 0
173 197 0
173 197 0
171 194 0
173 195 0
170 194 0
171 194 0
174 198 0
175 197 0
173 196 0
171 195 0
173 196 0
172 196 0
165 179 39
132 126 66
133 128 65
139 133 70
137 132 74
134 129 71
150 144 82
142 136 75
145 139 80
136 131 78
144 139 83
149 144 86
140 136 81
151 146 90
144 139 87
149 144 87
148 143 87
141 138 86
148 144 87
149 145 92
147 143 89
147 145 95
157 152 98
142 140 90
144 141 92
154 151 99
157 152 99
152 148 96
153 149 97
145 143 94
154 151 100
149 146 97
148 145 96
146 144 98
162 159 105
150 147 98
152 150 101
150 148 99
149 147 99
151 147 98
161 158 106
154 152 102
165 162 108
156 154 102
158 155 104
159 157 105
161 157 104
162 158 106
158 155 104
164 161 108
157 155 104
163 160 108
161 159 107
167 164 109
163 160 107
166 163 110
161 158 106
164 161 108
161 159 107
167 165 110
170 167 112
165 163 109
168 165 110
166 163 109
164 161 108
164 163 109
170 167 111
173 170 112
166 163 109
170 166 110
171 168 112
168 165 110
173 169 112
173 169 112
172 169 113
170 167 110
167 165 110
174 169 112
168 166 110
168 165 109
169 166 110
167 164 109
172 167 111
172 168 112
169 165 109
170 167 110
171 167 111
167 165 109
169 166 109
170 167 111
172 169 112
169 166 110
173 169 112
170 166 110
173 169 111
168 165 109
171 168 110
168 165 108
168 164 108
170 166 109
171 166 109
168 165 109
167 163 107
171 167 109
169 165 108
170 165 106
168 164 108
162 158 103
169 166 108
166 162 106
170 165 107
172 167 107
168 163 107
168 163 105
166 161 105
166 161 104
162 157 101
170 165 109
169 163 104
158 154 97
163 158 102
164 160 100
160 156 100
164 160 103
161 156 101
159 154 95
159 154 97
156 151 96
156 150 95
159 153 94
155 149 93
156 151 91
150 146 90
158 152 90
163 156 95
152 147 88
148 142 83
152 146 86
148 143 86
150 145 83
147 141 78
155 149 87
148 142 83
144 139 78
154 148 87
151 144 85
137 131 71
141 135 72
118 114 59
167 187 19
173 197 0
172 195 0
172 195 0
170 193 0
173 197 0
172 196 0
176 198 0
173 196 0
174 197 0
174 197 0
173 197 0
175 198 0
173 197 0
173 197 0
172 196 0
172 196 0
172 195 0
175 198 0
175 198 0
174 197 0
175 198 0
175 198 0
175 198 0
172 196 0
172 196 0
174 197 0
174 197 0
175 198 0
175 198 0
175 198 0
173 196 0
172 195 0
174 198 0
172 196 0
173 197 0
173 197 0
174 198 0
174 197 0
173 197 0
173 197 0
174 197 0
172 196 0
174 197 0
175 198 0
173 197 0
174 197 0
173 197 0
174 197 0
173 196 0
172 195 0
175 198 0
174 197 0
174 198 0
175 198 0
174 197 0
175 198 0
175 198 0
174 197 0
173 197 0
173 197 0
172 195 0
173 196 0
173 196 0
173 197 0
174 197 0
172 195 0
173 196 0
174 197 0
175 198 0
173 196 0
173 196 0
173 197 0
174 197 0
174 198 0
173 196 0
174 197 0
174 197 0
173 196 0
172 196 0
174 197 0
173 197 0
174 197 0
174 198 0
172 196 0
173 197 0
172 196 0
173 196 0
173 197 0
172 196 0
172 196 0
172 195 0
173 196 0
174 197 0
174 198 0
171 195 0
172 196 0
173 196 0
173 196 0
174 196 0
172 196 0
171 195 0
172 196 0
172 195 0
173 197 0
174 196 0
172 195 0
172 195 0
172 195 0
173 197 0
173 196 0
173 196 0
173 196 0
172 195 0
175 198 0
175 198 0
172 195 0
171 194 0
173 196 0
175 198 0
173 196 0
173 197 0
174 197 0
172 194 0
172 196 0
172 196 0
173 197 0
171 194 0
172 195 0
171 194 0
174 197 0
173 196 0
172 196 0
173 195 0
172 196 0
174 197 0
174 197 0
173 196 0
173 197 0
174 197 0
173 195 0
173 196 0
172 195 0
174 197 0
171 194 0
172 195 0
170 192 44
112 139 143
66 102 177
62 99 180
61 98 178
62 99 177
62 99 181
62 99 180
62 99 180
61 98 178
62 99 181
62 99 181
62 99 181
62 99 180
62 99 180
61 99 181
62 99 180
62 99 181
61 98 181
61 99 181
62 99 181
62 99 181
62 99 181
61 99 181
61 99 181
61 98 181
62 99 181
60 98 181
61 99 181
61 99 181
61 99 181
61 99 181
61 99 181
62 99 181
61 99 181
61 99 181
61 99 181
61 98 181
62 99 181
61 99 181
61 99 181
61 99 181
61 99 181
61 99 181
61 99 181
61 99 181
61 98 181
61 99 181
62 99 181
62 99 181
61 99 181
61 99 181
61 99 181
61 98 181
61 98 181
61 99 181
61 98 181
62 99 181
61 99 181
62 99 181
61 99 181
62 99 181
62 99 180
61 98 180
61 99 180
61 98 179
62 99 180
62 99 179
62 99 179
61 98 179
61 98 180
62 98 178
62 99 179
62 98 177
62 98 176
62 99 179
61 98 177
61 98 176
87 117 165
133 158 115
170 194 19
167 190 0
170 193 0
170 193 0
173 196 0
172 194 0
174 197 0
172 195 0
173 196 0
173 196 0
174 196 0
173 196 0
172 195 0
175 198 0
171 194 0
172 195 0
174 197 0
172 195 0
174 197 0
172 195 0
168 192 0
171 195 0
176 198 0
170 195 0
175 198 0
140 147 45
125 119 58
139 133 73
132 127 62
135 130 71
136 132 76
147 141 82
148 143 84
146 141 79
141 136 78
148 142 86
134 130 81
148 144 89
147 141 83
150 146 88
135 132 83
140 136 83
155 150 94
143 140 90
145 140 89
150 146 93
147 143 89
146 142 92
145 142 93
157 153 99
143 142 94
158 153 97
152 149 99
152 149 96
152 149 97
153 150 98
150 147 97
148 146 97
155 151 101
151 148 98
156 152 102
158 156 104
156 153 101
159 156 105
156 153 103
162 159 105
163 158 106
160 158 106
164 160 106
163 159 105
156 154 104
159 156 106
166 163 109
159 156 104
162 159 106
160 157 106
166 163 109
164 162 110
170 166 110
165 162 108
162 159 107
168 166 111
167 164 109
166 163 109
165 163 109
166 164 110
166 163 108
165 162 108
168 166 110
168 165 110
167 164 109
167 164 110
163 161 109
166 163 109
169 167 111
172 168 112
173 169 112
168 165 110
175 171 113
173 169 111
170 168 112
171 167 110
169 166 111
171 168 111
170 167 111
173 169 112
171 168 111
172 169 113
170 167 110
171 168 111
175 171 113
168 164 108
171 166 109
174 170 113
169 165 110
166 163 107
171 167 110
171 168 111
169 165 110
167 164 108
170 166 109
169 167 110
171 167 110
169 166 110
166 162 106
169 165 109
167 163 107
168 164 106
170 166 109
163 159 105
166 162 105
167 163 108
167 161 103
172 168 110
167 163 105
165 161 106
169 164 106
163 159 103
168 164 108
168 163 106
168 163 105
163 158 100
162 157 102
162 158 99
163 159 103
161 156 93
162 157 101
170 164 103
165 159 101
161 156 100
166 162 101
164 158 100
154 149 93
156 150 92
153 149 95
158 153 95
149 144 87
156 150 93
152 146 87
155 150 88
158 152 93
151 145 85
156 150 93
152 147 90
151 145 80
151 145 83
151 145 83
144 137 75
136 131 72
140 134 72
140 134 75
130 125 67
135 129 75
138 131 73
151 161 44
173 196 0
175 198 0
173 196 0
173 196 0
173 196 0
174 197 0
175 198 0
174 197 0
174 197 0
175 198 0
175 197 0
175 198 0
172 196 0
171 194 0
172 196 0
172 195 0
175 198 0
174 197 0
171 195 0
173 196 0
173 197 0
174 197 0
172 195 0
174 198 0
175 198 0
175 198 0
174 198 0
173 197 0
174 197 0
174 197 0
174 197 0
174 197 0
174 198 0
173 197 0
174 198 0
173 196 0
172 195 0
174 197 0
174 197 0
173 196 0
170 194 0
173 196 0
172 197 0
175 198 0
172 195 0
177 199 0
174 197 0
171 195 0
175 198 0
174 198 0
173 197 0
176 198 0
172 195 0
170 194 0
172 195 0
173 196 0
173 196 0
174 197 0
173 196 0
172 195 0
173 197 0
174 197 0
173 196 0
174 196 0
173 197 0
176 198 0
173 196 0
173 197 0
176 198 0
173 196 0
173 196 0
174 197 0
174 197 0
173 197 0
174 196 0
172 196 0
173 196 0
175 198 0
173 197 0
173 197 0
172 196 0
172 194 0
174 198 0
174 197 0
173 197 0
174 198 0
171 195 0
174 198 0
170 193 0
173 197 0
172 195 0
173 197 0
175 198 0
173 197 0
173 197 0
173 197 0
174 197 0
172 196 0
171 195 0
173 196 0
172 196 0
174 198 0
171 194 0
173 197 0
174 197 0
173 196 0
173 196 0
172 195 0
173 197 0
170 194 0
171 195 0
174 196 0
172 195 0
171 195 0
174 197 0
171 195 0
173 197 0
172 195 0
174 197 0
172 196 0
172 196 0
174 198 0
174 197 0
172 196 0
171 194 0
172 195 0
174 197 0
175 197 0
172 196 0
171 195 0
174 197 0
174 197 0
171 195 0
171 195 0
175 198 0
173 196 0
177 199 0
173 196 0
171 194 0
173 196 0
174 197 0
173 196 0
172 195 0
160 184 62
118 144 135
64 100 174
62 99 176
62 99 180
62 99 180
61 99 180
61 99 177
62 99 181
62 100 181
61 99 180
61 98 180
62 99 179
62 99 180
61 99 181
61 99 180
62 99 181
62 99 181
61 99 181
61 99 181
61 98 181
62 99 181
62 99 181
61 98 181
61 99 181
61 98 181
62 99 181
61 98 181
61 98 181
62 99 181
61 99 181
61 99 181
62 99 181
61 99 181
61 98 181
61 99 181
62 99 181
61 99 181
61 99 181
62 99 181
62 99 181
61 98 181
61 98 181
61 99 181
62 99 181
62 99 181
61 98 181
61 98 181
61 98 181
61 99 181
61 98 181
61 99 181
61 99 181
61 98 181
61 99 181
62 99 180
61 98 181
61 99 181
62 99 181
61 97 178
62 99 180
61 98 179
61 99 181
61 99 180
62 99 181
62 99 179
62 99 180
62 99 180
62 98 178
62 99 180
61 98 179
62 99 180
62 99 179
62 99 180
62 98 178
61 98 179
62 99 179
61 97 177
61 98 177
61 98 177
61 98 176
62 97 172
91 121 161
138 163 113
172 194 18
172 196 0
172 194 0
171 194 0
173 197 0
175 198 0
173 193 0
171 196 0
172 195 0
173 196 0
171 194 0
172 195 0
171 195 0
172 195 0
172 195 0
173 197 0
174 197 0
173 196 0
171 194 0
173 196 0
170 193 0
173 197 0
167 187 22
122 119 57
136 131 66
144 138 75
137 133 67
139 134 72
137 132 72
143 137 77
135 131 76
146 142 79
151 146 89
151 145 86
145 139 83
145 140 86
133 129 78
153 148 90
144 139 87
151 147 91
148 145 87
153 149 96
147 143 92
152 147 94
158 153 98
151 147 96
149 146 96
146 143 94
151 148 97
149 147 96
157 154 102
154 150 98
151 148 98
152 148 96
155 151 99
153 150 100
140 139 96
143 141 95
152 149 100
150 148 100
149 148 100
149 147 99
150 148 101
158 155 104
156 153 102
155 153 102
156 154 104
156 154 103
164 161 109
153 150 100
163 160 106
162 160 107
157 155 104
164 161 108
162 159 105
161 159 107
163 160 108
164 161 107
159 157 105
166 163 109
169 166 111
162 160 107
167 164 109
162 160 107
169 166 111
164 161 108
167 164 109
167 164 109
165 162 108
170 167 111
168 165 110
171 168 112
168 165 110
175 171 114
168 165 110
173 168 111
172 168 111
173 169 112
168 166 112
174 170 113
171 168 112
172 169 113
165 162 108
171 167 110
167 164 109
173 170 112
172 167 110
175 171 112
171 168 112
171 168 110
164 162 107
174 170 113
171 167 110
168 165 110
170 167 109
174 170 111
170 166 109
172 169 112
171 166 109
172 167 109
169 166 110
173 169 110
163 160 104
172 167 110
168 164 108
171 166 109
164 161 105
165 161 106
168 164 108
166 162 104
162 159 103
164 160 104
165 162 105
167 163 106
165 160 104
165 160 104
167 162 104
169 164 106
163 159 103
162 158 99
164 159 101
163 158 103
164 160 103
163 159 104
166 161 103
163 158 101
161 156 101
156 150 97
162 157 99
162 156 95
162 157 95
163 158 96
162 156 97
151 146 89
163 156 97
164 159 99
158 153 93
162 156 97
162 155 95
157 151 93
154 149 88
149 143 84
160 153 93
152 145 85
154 147 84
144 138 80
148 143 81
142 136 77
146 139 76
142 135 78
142 136 79
135 129 67
130 129 58
174 197 11
174 197 0
175 198 0
172 196 0
172 195 0
175 198 0
175 198 0
174 198 0
174 197 0
174 197 0
172 196 0
175 198 0
173 197 0
173 196 0
174 198 0
173 197 0
173 196 0
172 196 0
171 195 0
176 198 0
175 198 0
173 195 0
173 197 0
173 197 0
173 196 0
175 198 0
174 197 0
172 195 0
174 197 0
175 198 0
174 197 0
173 197 0
174 198 0
175 198 0
174 197 0
173 197 0
173 196 0
173 197 0
174 197 0
173 197 0
176 198 0
174 197 0
173 197 0
172 196 0
174 198 0
173 196 0
171 194 0
175 198 0
173 196 0
172 196 0
174 198 0
175 198 0
173 197 0
173 196 0
173 196 0
173 196 0
173 197 0
174 197 0
173 196 0
173 197 0
172 195 0
173 196 0
172 196 0
174 197 0
176 198 0
171 195 0
172 196 0
170 195 0
172 195 0
174 197 0
172 196 0
174 197 0
173 195 0
173 196 0
172 196 0
172 195 0
173 196 0
171 194 0
172 196 0
174 197 0
175 198 0
173 197 0
175 198 0
174 198 0
172 195 0
174 197 0
172 195 0
172 196 0
174 197 0
173 197 0
174 197 0
173 196 0
174 198 0
171 195 0
173 197 0
173 197 0
173 197 0
174 198 0
172 195 0
172 195 0
173 196 0
174 198 0
172 196 0
171 194 0
173 197 0
172 195 0
173 197 0
177 199 0
174 197 0
171 195 0
172 196 0
173 197 0
172 196 0
173 196 0
173 196 0
173 196 0
174 198 0
172 196 0
171 194 0
175 198 0
173 195 0
173 197 0
170 194 0
175 198 0
171 194 0
174 197 0
172 195 0
174 196 0
172 195 0
170 194 0
171 195 0
174 196 0
174 197 0
173 196 0
172 196 0
171 195 0
171 195 0
173 196 0
171 194 0
173 196 0
174 198 0
169 191 44
113 139 144
63 100 181
62 99 180
62 99 179
62 99 179
62 99 181
62 99 180
62 99 179
62 99 179
62 99 180
62 99 179
62 99 181
62 99 181
62 99 181
62 99 181
62 99 180
62 99 181
61 99 180
61 99 180
62 99 181
61 98 181
62 99 181
61 99 181
61 99 181
62 99 181
61 98 181
61 99 181
62 99 181
62 99 181
61 99 181
61 98 181
61 99 181
61 99 181
61 98 181
62 99 181
61 99 181
62 99 181
62 99 181
61 99 181
61 99 181
62 99 181
61 99 181
61 99 181
62 99 181
62 99 181
61 99 181
61 99 181
61 98 181
62 99 181
61 99 181
61 99 181
61 99 181
62 99 181
61 98 181
61 99 181
62 99 181
62 99 181
62 99 181
61 99 181
61 98 181
61 99 181
61 99 181
61 99 181
62 99 180
63 100 181
61 97 177
62 99 181
62 99 180
61 98 180
62 99 181
61 99 179
61 98 180
61 98 179
61 98 179
61 98 179
62 98 178
61 97 176
62 99 180
61 98 178
61 98 180
61 97 176
62 98 177
62 99 178
62 98 176
62 98 176
89 119 160
151 175 92
170 194 0
172 194 0
173 196 0
170 193 0
172 196 0
173 196 0
175 197 0
173 196 0
172 195 0
175 198 0
169 192 0
172 195 0
174 197 0
172 195 0
170 192 0
170 193 0
174 197 0
171 194 0
171 194 0
173 195 0
139 148 41
125 119 62
142 136 70
134 128 68
142 135 73
137 133 67
133 129 69
146 140 81
137 132 74
145 140 80
148 143 84
143 138 79
149 143 87
138 134 83
142 138 81
140 137 83
147 143 90
129 128 80
146 142 88
150 146 90
141 138 90
139 137 89
149 145 96
152 149 94
145 143 95
149 146 95
154 150 99
147 144 94
152 148 97
157 153 101
139 137 91
148 144 98
157 155 101
156 154 101
151 149 99
154 151 99
157 153 103
157 153 102
159 156 103
161 158 104
157 154 103
150 147 99
156 153 104
148 146 99
163 161 107
148 147 100
159 156 104
156 154 104
165 162 109
156 154 104
157 155 105
165 162 108
162 160 108
161 158 106
163 161 109
162 160 108
166 163 109
166 163 109
165 163 108
168 165 110
167 164 109
165 162 108
167 165 109
162 160 107
166 163 109
171 168 111
170 167 111
170 166 111
172 169 112
167 164 110
169 166 110
165 163 109
169 165 109
169 166 110
174 169 111
166 164 110
172 168 111
166 163 109
170 167 111
171 167 109
172 168 111
172 169 112
165 162 105
175 170 113
170 167 111
170 167 111
174 170 112
170 168 111
171 168 111
172 169 110
170 167 110
172 169 112
170 167 110
171 167 110
169 165 109
169 166 109
171 168 110
169 165 110
171 167 110
168 164 108
169 165 107
169 165 108
173 169 111
166 162 107
170 165 106
168 165 108
169 163 105
172 167 108
168 165 108
174 170 110
171 167 109
168 164 106
172 166 108
164 161 104
167 162 104
161 157 101
169 165 107
165 161 103
165 161 103
162 156 97
166 161 103
160 155 99
159 154 98
165 160 101
163 159 98
164 159 99
160 155 96
159 154 97
158 153 93
166 160 96
164 159 101
165 159 99
155 150 91
159 154 92
161 155 92
159 153 94
152 146 89
160 153 90
156 149 89
157 150 90
147 142 84
152 146 82
153 147 86
149 142 84
147 141 81
128 123 64
140 135 71
145 140 79
134 128 65
141 134 75
131 125 63
162 180 25
173 196 0
173 196 0
173 196 0
173 197 0
176 198 0
173 196 0
176 198 0
174 197 0
175 197 0
175 198 0
174 197 0
173 197 0
173 197 0
174 197 0
173 197 0
174 197 0
174 197 0
173 197 0
172 196 0
176 198 0
174 197 0
172 196 0
172 196 0
173 196 0
174 197 0
175 198 0
173 197 0
174 197 0
174 197 0
173 196 0
173 196 0
172 195 0
174 197 0
173 197 0
174 197 0
173 196 0
174 198 0
174 197 0
174 197 0
173 196 0
174 197 0
175 198 0
174 198 0
171 194 0
173 197 0
173 197 0
174 198 0
173 197 0
173 197 0
172 195 0
173 196 0
172 196 0
171 195 0
174 198 0
174 198 0
171 195 0
173 196 0
174 197 0
172 196 0
171 195 0
175 198 0
173 196 0
171 195 0
177 199 0
173 196 0
174 198 0
173 196 0
174 197 0
172 195 0
173 196 0
172 195 0
172 196 0
171 195 0
171 195 0
173 196 0
173 196 0
172 195 0
172 195 0
172 195 0
172 194 0
174 197 0
173 197 0
174 197 0
173 196 0
173 196 0
172 196 0
173 196 0
171 195 0
170 194 0
173 197 0
172 195 0
175 198 0
174 197 0
175 198 0
175 198 0
172 195 0
174 197 0
173 197 0
173 197 0
174 197 0
172 196 0
173 197 0
171 193 0
171 194 0
170 194 0
172 196 0
172 195 0
171 194 0
173 197 0
175 197 0
169 193 0
174 198 0
173 197 0
172 196 0
172 195 0
173 196 0
174 197 0
172 195 0
172 196 0
172 195 0
172 196 0
173 197 0
172 195 0
171 194 0
172 195 0
175 197 0
172 196 0
173 197 0
173 196 0
172 195 0
172 196 0
171 195 0
174 197 0
172 195 0
174 198 0
174 198 0
174 196 0
174 197 0
170 193 31
137 162 114
78 111 173
62 99 177
62 99 177
62 99 180
62 99 177
62 99 180
62 99 181
62 99 180
62 99 180
62 99 179
61 98 181
61 99 180
61 99 179
61 99 181
62 99 181
61 99 180
61 99 181
61 99 181
61 99 181
62 99 181
62 99 181
62 99 181
61 98 181
61 99 181
61 98 181
61 99 181
61 99 181
62 99 181
62 99 181
62 99 181
62 99 181
61 99 181
60 98 181
61 98 181
61 99 181
62 99 181
62 99 181
61 98 181
61 99 181
61 99 181
61 98 181
61 99 181
61 99 181
61 99 181
61 98 181
61 98 181
61 99 181
61 99 181
61 99 181
61 98 181
61 98 181
62 99 181
61 99 181
61 98 181
61 99 181
61 99 181
61 99 181
62 99 181
62 99 181
62 99 181
62 99 181
61 98 180
61 98 180
61 99 181
61 98 180
61 98 179
61 98 181
62 99 180
61 98 179
62 99 180
61 99 181
61 98 181
62 99 181
62 99 181
62 99 180
62 99 181
61 98 180
62 99 179
62 99 179
62 99 179
61 98 179
62 98 177
61 98 179
61 98 179
62 98 177
62 98 176
61 97 173
62 98 175
104 131 147
152 176 84
174 198 0
170 194 0
173 196 0
171 193 0
174 196 0
171 195 0
171 194 0
171 194 0
173 195 0
172 196 0
171 194 0
172 195 0
174 197 0
172 194 0
170 193 0
171 195 0
171 194 0
172 195 0
136 132 62
126 120 65
133 127 67
135 130 72
141 136 75
131 127 67
129 126 72
142 137 81
143 138 77
144 139 80
136 132 75
137 134 81
152 145 90
146 141 86
148 142 88
148 143 89
140 136 85
148 144 90
141 138 89
139 135 88
135 132 88
139 136 87
145 142 91
155 150 97
155 150 98
144 141 93
152 149 98
141 139 93
144 141 91
143 141 94
154 150 100
154 151 102
153 151 101
146 143 96
157 154 101
156 154 103
154 151 101
157 154 102
152 149 100
155 153 105
157 153 102
160 156 104
162 159 106
165 162 108
161 158 104
161 159 107
162 159 106
158 155 104
161 159 106
156 154 105
160 157 104
152 150 100
156 154 104
162 158 106
165 163 109
166 163 109
163 161 108
161 158 107
162 159 106
170 166 110
162 159 107
168 165 109
166 163 109
168 165 110
166 164 109
166 163 108
166 163 108
169 166 110
165 162 109
168 164 108
168 165 110
169 166 110
171 167 110
175 171 113
171 168 112
173 169 113
170 167 111
172 168 112
173 169 112
170 167 111
171 169 111
171 168 112
172 168 111
172 167 110
172 169 112
173 169 113
174 170 112
172 168 111
169 165 110
171 168 111
174 169 112
170 166 108
169 165 109
170 167 111
165 161 104
168 165 108
166 163 108
167 163 108
172 168 110
173 169 110
168 164 108
170 166 108
168 163 105
169 165 109
169 165 108
165 161 103
167 162 103
168 163 104
169 165 106
170 166 107
165 160 101
167 163 107
165 161 102
165 160 101
165 160 104
173 168 107
168 163 106
165 161 104
167 162 102
164 158 99
165 160 101
165 161 103
157 153 96
165 159 100
158 153 97
168 163 102
158 154 93
165 160 99
160 155 91
167 161 100
165 159 99
161 155 98
166 160 99
160 153 95
157 152 93
156 150 90
156 151 90
148 144 90
148 142 82
157 150 89
140 135 75
141 135 82
144 139 81
145 139 78
160 153 90
146 140 84
139 134 75
146 140 75
132 127 68
142 136 74
126 121 64
143 151 52
174 198 0
174 197 0
175 198 0
174 197 0
174 197 0
173 196 0
173 196 0
173 196 0
173 196 0
172 195 0
174 198 0
174 197 0
175 198 0
172 196 0
175 198 0
172 196 0
174 197 0
174 198 0
173 196 0
172 196 0
174 197 0
175 198 0
174 197 0
172 197 0
175 198 0
174 197 0
173 196 0
174 197 0
174 197 0
174 198 0
174 197 0
175 198 0
175 198 0
172 195 0
174 198 0
173 196 0
172 195 0
174 197 0
174 196 0
173 196 0
174 197 0
175 198 0
173 197 0
173 196 0
173 196 0
174 197 0
173 197 0
171 196 0
170 194 0
173 196 0
173 197 0
172 195 0
172 197 0
172 195 0
173 196 0
174 197 0
175 198 0
174 197 0
174 197 0
174 197 0
170 193 0
175 198 0
174 198 0
172 196 0
174 197 0
172 196 0
173 197 0
174 197 0
175 198 0
174 197 0
172 195 0
174 198 0
172 195 0
174 197 0
173 197 0
173 197 0
173 196 0
175 198 0
173 197 0
173 196 0
173 196 0
174 197 0
175 198 0
173 196 0
172 195 0
171 194 0
173 197 0
172 196 0
174 197 0
175 198 0
171 194 0
173 196 0
173 196 0
173 197 0
173 196 0
173 196 0
173 196 0
172 195 0
173 196 0
173 197 0
172 196 0
170 193 0
173 196 0
175 198 0
172 195 0
173 197 0
172 194 0
170 193 0
172 197 0
174 197 0
171 194 0
172 196 0
172 195 0
174 198 0
170 194 0
171 195 0
172 196 0
172 195 0
175 198 0
173 197 0
173 197 0
172 196 0
173 196 0
173 197 0
171 194 0
173 196 0
172 194 0
173 196 0
173 196 0
172 196 0
173 197 0
174 197 0
171 195 0
171 195 0
172 195 0
171 195 0
174 197 0
146 170 100
83 114 164
62 99 178
61 98 176
61 99 180
62 99 181
62 99 178
61 99 179
62 99 181
62 99 180
61 98 180
62 99 180
62 99 180
61 99 181
61 98 180
62 99 179
61 99 179
61 99 181
61 99 181
61 99 181
62 99 181
62 99 181
61 98 181
61 98 181
62 99 181
61 99 181
61 99 181
61 99 181
62 99 181
61 98 181
62 99 181
62 99 181
61 99 181
62 99 181
62 99 181
62 99 181
62 99 181
62 99 181
61 99 181
62 99 181
62 99 181
61 99 181
61 99 181
62 99 181
61 98 181
61 99 181
61 98 181
62 99 181
62 99 181
62 99 181
61 99 181
61 99 181
61 98 181
62 99 181
61 99 181
61 98 181
61 99 181
61 98 181
61 98 181
62 99 181
62 99 181
62 99 181
61 98 180
61 98 180
61 99 181
61 98 180
61 99 181
62 99 180
61 99 181
61 98 178
62 99 179
61 98 181
62 99 179
62 99 180
61 99 180
61 98 180
62 99 179
62 99 181
61 98 178
61 98 179
61 98 178
61 98 179
61 98 177
61 97 175
62 99 178
61 98 179
62 99 178
61 98 178
63 99 179
61 98 177
61 97 174
61 97 173
61 96 172
116 141 135
172 195 31
172 195 0
172 196 0
172 195 0
175 197 0
172 195 0
174 196 0
171 194 0
173 195 0
174 197 0
173 195 0
170 193 0
172 195 0
172 196 0
173 196 0
173 195 0
160 176 36
126 121 58
137 132 64
144 138 73
145 140 78
138 134 73
140 135 73
143 138 70
141 136 78
142 136 77
139 134 77
150 145 87
143 138 86
140 136 82
145 140 84
119 118 73
136 134 83
143 139 83
143 140 91
144 139 89
141 139 90
139 136 86
155 151 96
143 140 91
148 145 95
140 138 92
130 130 86
156 152 99
146 144 94
150 147 97
154 151 100
132 131 89
149 147 98
141 139 95
153 150 100
157 154 104
152 150 101
147 146 99
152 149 100
149 147 100
158 156 104
147 145 99
156 153 102
159 155 104
145 145 99
161 159 107
153 151 101
153 152 102
161 158 104
162 158 105
157 154 103
164 162 109
165 162 108
163 161 108
163 160 107
162 158 106
166 164 110
167 164 109
165 163 110
166 163 110
159 157 104
169 166 111
167 165 111
166 164 109
166 164 110
170 166 109
161 159 106
167 164 110
172 168 112
175 171 114
173 169 112
168 165 110
169 166 110
171 168 111
168 165 109
172 168 112
170 167 110
169 167 110
173 169 110
172 168 111
172 168 111
169 165 108
171 168 110
174 169 111
172 169 112
177 172 113
176 171 113
175 171 112
171 168 110
169 166 110
171 167 110
174 169 112
168 164 108
169 166 109
172 168 110
174 169 111
174 170 112
169 166 109
171 168 110
171 167 106
170 166 108
169 166 109
172 167 108
175 171 111
169 165 105
171 167 109
174 169 109
168 165 108
169 165 109
164 160 105
169 165 108
166 161 104
173 167 108
168 163 104
172 168 108
166 162 104
170 165 105
160 157 98
167 162 105
167 162 103
160 156 99
161 156 97
165 161 99
165 159 100
157 151 96
172 166 103
158 154 99
164 160 100
161 156 97
168 161 102
153 149 87
163 158 97
167 160 98
155 150 90
156 151 93
162 155 95
153 148 90
153 147 89
162 156 95
159 152 90
155 148 88
145 140 83
150 144 87
147 141 81
149 143 85
142 137 74
144 137 76
139 133 75
135 130 72
135 130 69
127 122 60
131 127 62
126 121 64
172 195 0
173 197 0
174 198 0
173 197 0
174 198 0
173 196 0
175 197 0
173 197 0
175 198 0
174 197 0
173 195 0
173 197 0
173 196 0
173 197 0
173 196 0
172 196 0
172 195 0
173 196 0
173 197 0
172 196 0
175 197 0
172 196 0
176 198 0
174 197 0
174 198 0
172 196 0
172 196 0
172 196 0
174 198 0
174 197 0
172 196 0
173 196 0
173 196 0
174 197 0
174 198 0
174 197 0
173 197 0
173 197 0
171 195 0
174 197 0
173 197 0
175 197 0
173 196 0
175 197 0
173 196 0
174 197 0
174 196 0
175 198 0
173 197 0
173 197 0
174 198 0
173 196 0
174 197 0
174 197 0
173 197 0
173 197 0
173 197 0
174 197 0
173 196 0
173 197 0
174 197 0
173 196 0
173 196 0
172 196 0
175 198 0
174 197 0
172 196 0
174 198 0
174 197 0
172 196 0
175 198 0
173 197 0
172 195 0
172 195 0
172 196 0
175 197 0
174 197 0
173 197 0
174 197 0
171 195 0
173 196 0
175 198 0
174 196 0
175 198 0
172 195 0
173 196 0
173 195 0
174 198 0
172 195 0
172 196 0
176 198 0
173 197 0
174 198 0
174 197 0
173 196 0
172 196 0
171 195 0
174 197 0
172 196 0
174 197 0
173 196 0
172 195 0
171 194 0
171 195 0
174 197 0
172 196 0
174 197 0
174 197 0
173 196 0
170 194 0
172 196 0
171 194 0
174 197 0
174 197 0
174 197 0
172 195 0
170 194 0
174 196 0
172 195 0
175 198 0
175 198 0
173 196 0
172 194 0
170 194 0
174 196 0
172 196 0
174 196 0
173 196 0
173 196 0
171 195 0
174 197 0
172 196 0
173 197 0
173 196 0
172 195 0
161 185 57
96 125 153
62 98 174
62 98 173
62 99 178
61 98 176
62 99 177
62 99 180
62 99 179
62 99 179
62 99 179
62 99 180
61 98 179
61 99 181
61 98 177
62 99 181
61 99 181
62 99 179
62 99 180
62 99 180
62 99 181
62 99 180
61 99 181
62 99 180
62 99 181
62 99 181
62 99 181
61 99 181
62 99 181
62 99 181
62 99 181
61 99 181
61 99 181
61 98 181
62 99 181
61 98 181
61 99 181
62 99 181
61 99 181
62 99 181
61 99 181
62 99 181
61 99 181
62 99 181
61 99 181
61 98 181
62 99 181
62 99 181
61 99 181
61 99 181
62 99 181
61 99 181
61 99 181
61 98 181
62 99 181
61 98 181
61 99 181
62 99 181
61 99 181
61 99 181
61 99 181
62 99 181
61 98 181
61 99 181
62 99 180
61 98 180
61 99 181
61 98 180
61 99 181
62 99 181
61 99 180
62 99 181
61 98 180
62 99 180
62 99 181
62 99 180
61 98 181
61 99 180
62 99 181
61 99 181
61 98 180
61 98 179
61 99 180
62 98 178
62 99 181
61 98 174
61 97 177
62 98 176
61 98 175
62 99 178
62 99 178
61 97 176
61 98 174
61 98 177
62 98 176
61 97 174
78 109 161
140 165 110
171 194 0
172 196 0
170 194 0
173 195 0
171 194 0
172 195 0
171 194 0
173 197 0
171 193 0
173 196 0
171 194 0
173 196 0
170 193 0
172 195 0
140 145 56
133 127 65
138 133 73
136 131 70
131 125 64
142 137 71
131 126 70
147 141 81
134 130 75
135 131 79
137 133 82
143 138 85
124 121 71
145 141 88
146 141 88
140 136 85
133 130 81
131 129 82
147 143 88
140 138 88
144 140 88
139 137 90
139 136 88
146 142 92
154 150 97
139 138 92
144 140 92
143 141 96
147 144 96
148 146 98
145 143 95
148 145 98
137 135 91
153 150 100
154 150 100
150 147 97
155 151 100
156 153 101
158 154 102
159 155 103
157 154 103
153 150 101
150 148 101
147 145 99
154 152 103
148 146 99
157 154 103
158 155 104
155 154 106
157 155 105
161 159 106
159 156 104
162 159 106
158 156 105
168 165 110
158 156 105
160 157 106
162 160 107
164 161 107
172 169 112
163 160 107
161 158 106
163 160 107
161 159 106
162 160 108
167 165 110
169 166 110
169 167 111
171 168 112
171 167 110
170 167 111
172 168 111
168 166 111
170 166 110
173 169 111
172 169 111
173 169 112
175 170 112
172 169 112
171 167 109
171 168 110
169 166 110
171 166 109
175 171 112
173 169 111
174 170 112
171 168 110
176 172 114
172 169 112
176 171 113
172 169 111
172 169 111
170 165 106
176 172 113
174 169 111
169 166 110
173 169 110
171 166 109
173 169 111
176 171 112
174 170 112
170 167 109
166 163 105
175 170 110
173 168 110
167 163 106
166 163 105
173 168 109
166 162 103
173 168 108
167 163 103
168 164 105
170 165 103
170 165 104
160 156 101
168 164 106
170 166 108
168 164 106
171 166 105
170 165 104
171 165 103
169 163 103
160 155 99
168 162 103
166 160 101
164 159 101
162 158 99
162 156 93
159 154 95
163 158 100
163 158 97
156 150 93
165 160 99
161 156 97
162 156 99
155 151 95
159 153 95
160 154 93
156 150 88
144 140 84
148 142 85
165 158 95
159 153 90
148 142 83
142 136 84
139 133 76
144 138 75
146 141 77
145 139 77
143 136 75
140 135 75
139 133 77
133 127 65
161 178 30
175 198 0
172 196 0
172 195 0
176 198 0
174 197 0
173 196 0
173 196 0
173 197 0
174 197 0
174 198 0
174 197 0
174 196 0
172 195 0
172 196 0
173 197 0
172 196 0
173 197 0
174 197 0
172 196 0
174 197 0
175 197 0
172 195 0
173 197 0
170 195 0
171 195 0
174 197 0
174 196 0
175 198 0
173 196 0
173 196 0
174 197 0
173 196 0
170 194 0
170 195 0
171 194 0
175 198 0
172 195 0
174 197 0
175 198 0
172 196 0
173 196 0
172 196 0
175 197 0
173 196 0
173 197 0
175 198 0
175 198 0
173 197 0
174 197 0
175 198 0
173 196 0
172 196 0
170 194 0
174 197 0
170 194 0
174 197 0
173 196 0
172 196 0
172 196 0
173 197 0
173 197 0
175 198 0
175 198 0
174 197 0
174 197 0
175 198 0
172 196 0
173 197 0
174 197 0
173 197 0
174 197 0
173 196 0
174 197 0
172 196 0
172 196 0
172 195 0
174 196 0
171 194 0
172 195 0
174 198 0
172 196 0
174 198 0
173 195 0
173 196 0
173 196 0
174 198 0
172 196 0
173 196 0
172 196 0
175 198 0
172 195 0
173 195 0
174 196 0
172 196 0
171 195 0
173 197 0
173 196 0
173 197 0
173 197 0
173 195 0
174 197 0
171 194 0
173 196 0
172 196 0
174 197 0
172 195 0
172 196 0
171 194 0
171 194 0
174 197 0
173 197 0
173 196 0
175 197 0
172 196 0
172 195 0
171 194 0
171 195 0
173 197 0
169 193 0
171 195 0
174 197 0
174 198 0
173 196 0
174 196 0
172 195 0
172 196 0
173 196 0
172 194 0
176 199 0
174 197 0
172 196 0
172 196 0
173 195 0
138 163 117
74 107 166
62 99 179
62 99 177
62 99 177
62 99 181
62 99 181
62 99 179
62 99 179
62 99 180
62 99 180
62 99 181
62 99 180
61 99 180
62 99 179
62 99 181
62 99 181
61 99 181
61 99 181
62 99 181
62 99 181
62 99 180
61 99 180
62 99 181
61 99 181
61 98 181
61 98 181
61 98 181
62 99 181
62 99 181
62 99 181
61 99 181
61 98 181
61 98 181
61 99 181
61 98 180
62 99 181
61 99 181
61 99 181
61 99 181
62 99 181
62 99 181
61 99 181
61 99 181
61 99 181
61 99 181
61 99 181
62 99 181
62 99 181
61 99 181
61 98 181
61 98 181
61 98 180
62 99 181
61 98 181
61 99 181
61 99 181
62 99 181
61 99 181
61 98 181
62 99 181
62 99 181
61 99 181
62 99 181
62 99 181
61 99 181
61 99 181
62 99 181
61 99 181
62 99 181
61 98 178
61 99 179
62 99 180
61 98 181
62 99 181
62 99 180
61 99 181
62 99 181
61 98 179
61 98 179
61 99 181
62 99 180
61 98 180
61 98 178
62 99 181
61 98 178
61 99 180
61 98 179
62 99 179
61 97 175
61 98 175
62 99 179
61 98 179
62 99 178
61 97 173
61 98 174
62 98 177
60 96 174
60 96 174
108 135 145
170 193 40
174 197 0
172 194 0
172 196 0
171 194 0
169 191 0
171 195 0
172 195 0
171 194 0
170 193 0
173 196 0
174 196 0
170 191 16
119 115 55
138 132 65
133 128 63
126 121 62
134 128 73
139 135 81
129 125 73
136 131 73
141 136 76
145 140 77
132 129 77
140 136 81
148 143 85
125 122 78
140 137 80
132 128 79
140 137 85
148 143 86
142 139 86
139 135 88
141 138 92
144 140 90
136 134 89
145 142 92
142 140 93
145 142 93
143 141 94
136 134 89
146 144 97
150 147 96
147 144 95
148 145 97
157 154 104
145 143 96
150 147 99
149 147 100
156 153 101
146 145 98
152 150 100
159 156 104
146 144 97
158 156 104
159 157 106
161 158 106
156 154 103
150 149 100
152 150 102
153 151 102
162 158 105
158 155 103
156 155 106
165 162 109
164 161 108
167 164 110
164 162 109
166 163 110
166 163 110
159 157 105
166 164 109
165 162 108
167 164 109
168 165 109
171 167 111
164 161 108
168 165 110
164 162 109
169 165 109
165 162 108
171 166 110
166 162 107
172 169 112
173 169 111
171 168 112
165 163 109
169 167 110
171 167 110
170 166 110
172 168 110
169 166 110
173 170 113
172 169 111
171 168 110
174 169 111
171 167 109
175 170 112
172 168 110
169 167 110
175 171 111
176 171 113
174 170 112
170 166 110
174 170 111
171 166 108
173 170 112
177 172 112
170 167 109
173 168 109
170 166 109
177 172 113
172 168 109
167 162 106
172 168 109
171 167 110
175 170 111
171 167 108
165 162 105
170 165 104
169 166 109
167 163 104
171 166 108
169 164 105
169 165 106
169 165 107
169 165 106
167 163 101
172 167 110
173 168 109
162 157 100
169 164 106
170 165 105
162 158 99
168 163 104
164 160 101
160 155 97
165 159 101
163 158 99
170 165 104
164 159 97
151 147 93
167 161 99
164 158 98
158 152 90
159 155 93
161 155 96
165 158 95
160 153 90
161 156 96
156 151 92
156 150 88
153 149 84
160 154 87
151 145 86
147 142 82
154 147 82
148 142 82
139 134 79
151 145 79
152 146 84
146 139 78
141 135 73
136 130 67
134 128 74
136 130 71
154 164 45
175 196 0
173 195 0
175 198 0
174 196 0
174 197 0
174 197 0
174 197 0
173 197 0
173 196 0
175 198 0
174 197 0
174 198 0
174 197 0
170 194 0
175 197 0
174 198 0
175 198 0
175 198 0
172 196 0
175 197 0
172 195 0
174 198 0
173 196 0
176 198 0
174 197 0
173 196 0
174 197 0
174 197 0
174 198 0
173 196 0
176 198 0
173 196 0
173 197 0
173 196 0
172 195 0
172 195 0
173 197 0
173 196 0
174 197 0
172 196 0
173 197 0
172 196 0
174 198 0
173 197 0
174 198 0
172 195 0
174 198 0
172 196 0
172 196 0
169 193 0
174 197 0
173 196 0
174 197 0
174 198 0
174 196 0
174 197 0
173 197 0
174 197 0
173 196 0
172 195 0
175 198 0
173 197 0
175 197 0
174 197 0
173 196 0
175 198 0
174 198 0
171 195 0
174 197 0
172 195 0
175 198 0
174 197 0
173 196 0
173 197 0
172 196 0
174 197 0
174 197 0
173 197 0
172 195 0
172 195 0
174 198 0
171 195 0
171 195 0
172 196 0
175 197 0
175 198 0
174 197 0
173 196 0
170 194 0
169 192 0
172 196 0
174 197 0
173 197 0
172 196 0
172 195 0
168 192 0
172 195 0
173 197 0
173 196 0
171 194 0
173 196 0
173 197 0
173 196 0
174 197 0
173 196 0
174 198 0
172 195 0
173 197 0
168 192 0
173 196 0
173 196 0
174 197 0
173 196 0
174 197 0
173 196 0
171 195 0
172 196 0
171 193 0
172 196 0
173 196 0
171 194 0
170 193 0
172 195 0
174 197 0
168 191 0
173 196 0
174 197 0
174 196 0
174 197 0
170 194 0
171 194 0
167 191 51
107 135 149
62 99 173
62 99 178
62 99 178
62 99 174
62 99 179
63 100 180
62 99 180
62 99 177
62 99 180
62 99 180
62 99 181
62 99 178
62 99 181
62 99 180
62 99 179
62 99 181
61 98 180
62 99 181
62 99 181
61 99 180
62 99 180
62 99 180
62 99 181
62 99 180
62 99 181
61 99 181
62 99 181
62 99 181
61 99 181
62 99 181
62 99 181
61 99 181
61 98 181
62 99 181
61 98 181
62 99 181
62 99 181
61 99 181
61 99 181
61 98 181
61 98 180
61 98 181
61 98 181
62 99 181
62 99 181
62 99 181
61 98 181
61 99 181
61 98 181
61 98 181
61 98 181
62 99 181
61 99 181
61 99 181
62 99 181
61 98 181
62 99 181
61 99 181
61 98 181
61 99 181
62 99 181
61 98 181
62 99 181
62 99 181
62 99 181
62 99 181
61 99 181
61 98 181
62 99 180
62 99 181
62 99 181
62 99 181
61 98 181
61 99 179
62 99 181
62 99 181
61 98 180
62 99 181
61 98 180
62 99 179
62 99 180
62 98 178
62 99 181
62 99 179
62 99 179
61 97 177
62 99 181
63 100 181
61 98 178
61 98 177
61 97 174
63 99 179
61 97 177
61 98 176
61 97 175
61 97 171
62 99 178
61 98 176
61 96 171
60 96 172
83 114 160
141 164 103
172 196 0
173 196 0
170 193 0
171 195 0
172 194 0
173 197 0
171 194 0
171 194 0
170 194 0
170 194 0
156 171 28
125 120 55
128 122 63
139 134 75
132 128 68
134 129 76
138 133 73
145 139 76
150 144 82
127 124 73
146 141 86
133 130 78
133 129 80
141 136 82
142 138 79
136 133 85
137 133 84
141 137 83
145 140 90
133 130 82
137 134 86
140 137 88
145 142 92
138 135 88
138 136 87
134 132 86
129 129 84
143 141 92
150 147 98
149 146 98
137 137 94
144 142 95
140 138 92
150 148 98
144 142 95
153 151 102
147 146 98
154 152 103
153 150 100
158 154 102
142 141 96
151 149 101
155 152 101
154 151 103
157 155 105
159 155 105
154 151 102
153 151 101
154 152 102
160 157 106
159 156 103
165 161 108
159 157 105
160 158 106
159 157 107
163 160 107
162 160 107
164 162 108
166 164 110
167 163 109
167 163 108
162 159 105
166 163 108
170 167 110
169 166 111
167 163 109
164 161 108
168 165 111
173 169 112
169 165 109
170 167 111
167 164 109
175 171 113
169 165 110
170 167 110
173 169 110
170 167 110
175 171 113
172 168 111
176 171 113
175 171 113
173 169 111
174 170 112
176 170 111
176 172 113
172 169 111
171 166 109
172 169 111
173 169 110
171 167 110
172 169 111
173 170 112
172 168 109
173 169 110
174 170 110
174 170 111
173 169 109
172 168 109
170 167 109
170 166 106
168 165 106
169 165 107
164 161 104
171 167 108
172 167 108
168 163 99
168 164 108
170 166 108
166 163 104
166 162 104
165 161 103
166 162 102
169 165 107
166 162 106
169 165 106
169 164 107
166 161 103
164 159 99
165 160 103
168 162 101
169 164 103
162 157 99
168 163 103
163 157 95
166 160 98
169 163 103
163 158 97
163 158 100
161 156 97
165 160 101
164 158 97
159 154 95
164 158 99
165 158 97
155 150 89
166 159 95
165 158 93
152 147 88
159 153 91
157 150 86
141 137 79
149 144 86
160 154 90
157 150 84
159 152 86
153 147 84
147 141 80
149 143 81
149 143 81
141 136 76
146 140 72
142 137 75
132 127 68
127 122 69
132 129 57
174 197 0
172 196 0
172 194 0
172 195 0
175 198 0
173 197 0
174 197 0
173 197 0
174 196 0
174 197 0
173 196 0
173 197 0
173 197 0
173 197 0
173 197 0
176 199 0
170 195 0
174 197 0
173 197 0
175 198 0
174 197 0
172 196 0
173 197 0
172 195 0
173 197 0
175 198 0
175 197 0
174 197 0
171 195 0
172 195 0
174 197 0
175 198 0
174 197 0
174 197 0
177 199 0
171 195 0
173 196 0
172 196 0
172 196 0
174 197 0
175 198 0
170 194 0
176 198 0
174 198 0
175 198 0
173 196 0
173 196 0
173 196 0
169 193 0
171 195 0
171 194 0
174 197 0
172 196 0
173 197 0
172 196 0
173 196 0
175 197 0
174 197 0
176 198 0
172 196 0
172 195 0
170 193 0
169 194 0
171 195 0
175 198 0
174 197 0
173 196 0
175 198 0
174 197 0
175 198 0
172 196 0
172 196 0
170 192 0
173 197 0
172 195 0
173 197 0
174 197 0
172 196 0
173 196 0
173 196 0
171 195 0
172 195 0
172 196 0
171 195 0
172 196 0
172 195 0
175 198 0
172 196 0
173 197 0
171 195 0
173 196 0
173 197 0
172 196 0
172 196 0
172 195 0
173 197 0
171 194 0
173 196 0
174 196 0
171 195 0
173 197 0
171 194 0
172 196 0
174 197 0
171 195 0
174 197 0
174 197 0
172 196 0
172 195 0
172 195 0
172 197 0
172 196 0
170 194 0
172 195 0
172 196 0
173 197 0
173 196 0
172 195 0
174 198 0
173 196 0
170 193 0
174 197 0
173 196 0
171 194 0
170 194 0
172 196 0
172 196 0
172 195 0
172 196 0
172 196 0
141 165 107
74 107 171
62 99 173
62 99 180
62 99 178
62 99 178
62 99 177
62 99 177
63 100 179
61 98 176
62 99 179
61 98 178
61 99 180
62 99 180
62 99 181
62 99 180
61 99 180
62 99 179
61 99 179
62 99 181
61 99 181
62 99 181
62 99 181
62 99 181
62 99 181
61 99 181
62 99 180
61 99 181
61 99 180
61 99 181
62 99 181
62 99 181
62 99 181
61 98 181
61 98 181
61 99 181
62 99 181
61 99 181
61 99 181
62 99 181
62 99 181
61 99 181
61 99 181
62 99 181
61 99 181
61 99 181
62 99 181
62 99 181
62 99 181
61 98 181
61 99 181
62 99 181
61 99 181
61 99 181
62 99 181
62 99 181
61 98 181
61 99 181
61 98 181
61 99 181
62 99 181
62 99 181
61 99 181
62 99 181
61 98 181
61 99 181
62 99 181
62 99 181
62 99 181
62 99 181
62 99 181
61 98 180
62 99 181
62 99 181
62 99 181
61 98 181
62 99 179
61 98 180
62 99 181
61 98 180
61 98 179
62 99 181
61 98 179
62 99 180
62 99 180
62 99 180
62 99 179
61 99 181
62 99 179
62 99 176
62 99 180
62 99 179
62 99 178
62 98 176
61 97 173
61 97 175
62 98 177
62 98 177
62 98 176
61 98 178
62 98 177
61 98 177
62 98 176
62 98 175
60 95 165
106 134 141
168 191 31
170 193 0
170 193 0
170 193 0
173 195 0
168 192 0
171 194 0
171 193 0
170 194 0
140 147 42
136 130 64
139 133 68
141 135 69
126 121 67
149 143 74
149 144 81
138 133 71
143 139 81
138 133 80
139 135 76
133 130 75
145 141 87
138 134 81
139 135 85
143 139 88
139 135 83
143 139 84
129 127 85
140 137 89
141 138 88
142 139 92
139 135 85
153 149 94
141 137 89
140 138 91
139 137 92
139 136 92
141 139 90
142 140 93
140 138 92
147 144 97
136 135 92
147 145 96
142 141 97
149 147 98
152 149 100
144 142 97
152 150 103
148 146 99
149 147 98
163 160 109
151 149 100
156 154 105
153 152 102
154 152 103
149 147 100
159 156 104
153 151 103
161 158 105
161 158 106
161 158 107
161 158 104
156 153 103
162 160 107
162 159 106
159 157 106
166 163 108
162 159 106
166 163 109
162 160 108
168 164 109
166 162 108
169 166 109
169 165 110
167 165 111
163 159 105
166 163 108
167 163 106
172 168 111
169 166 108
171 167 111
169 166 110
169 166 110
170 167 110
171 168 111
172 168 111
172 169 111
171 167 111
172 168 109
176 171 111
174 170 112
174 171 112
175 171 113
174 169 112
176 170 111
173 169 112
173 168 110
176 171 111
170 166 107
172 168 111
176 171 112
174 170 111
173 169 109
174 170 112
172 168 109
172 167 109
171 166 107
168 163 104
175 170 111
174 170 111
171 167 110
169 165 109
171 167 108
173 168 109
176 171 110
169 165 107
173 168 109
172 167 108
170 165 107
171 166 106
168 164 103
165 161 104
167 163 104
167 162 106
170 165 106
165 160 103
166 161 102
167 162 104
167 162 101
165 161 103
171 166 105
162 156 97
163 158 97
165 159 101
163 158 98
162 157 99
168 162 100
165 160 98
161 156 97
162 156 96
167 161 95
161 155 94
160 154 97
162 157 95
161 155 93
146 142 84
162 155 93
162 156 95
154 149 86
157 151 90
143 138 79
158 151 93
152 146 84
146 140 78
151 145 86
148 141 77
146 140 81
146 139 82
142 137 73
142 137 77
146 140 75
136 131 70
137 132 73
134 129 65
166 185 25
174 197 0
172 195 0
174 197 0
173 195 0
176 199 0
173 197 0
170 193 0
173 197 0
175 198 0
175 198 0
174 197 0
173 196 0
175 198 0
174 197 0
175 198 0
172 196 0
173 196 0
176 199 0
174 197 0
176 198 0
172 196 0
174 197 0
172 196 0
172 196 0
175 198 0
172 196 0
171 195 0
173 197 0
174 197 0
176 198 0
171 194 0
173 196 0
173 197 0
174 198 0
172 196 0
172 196 0
172 195 0
171 195 0
171 195 0
171 195 0
173 196 0
172 196 0
174 197 0
171 195 0
173 197 0
173 196 0
172 195 0
174 197 0
175 198 0
175 198 0
173 197 0
172 196 0
173 196 0
173 197 0
174 198 0
174 198 0
171 194 0
172 196 0
173 196 0
173 196 0
173 196 0
172 195 0
172 195 0
171 195 0
174 197 0
173 196 0
171 195 0
175 197 0
171 195 0
174 197 0
172 195 0
173 196 0
173 196 0
173 196 0
174 197 0
172 196 0
174 198 0
172 195 0
171 195 0
173 197 0
173 196 0
173 197 0
175 198 0
172 195 0
174 197 0
171 194 0
172 196 0
174 197 0
172 196 0
172 196 0
173 197 0
173 195 0
173 197 0
172 195 0
169 192 0
173 196 0
172 195 0
171 195 0
173 197 0
172 196 0
175 198 0
172 196 0
171 194 0
172 196 0
173 196 0
171 195 0
174 196 0
172 195 0
173 196 0
172 196 0
173 196 0
173 197 0
173 197 0
173 195 0
172 196 0
175 197 0
174 197 0
172 196 0
174 197 0
171 195 0
171 195 0
172 196 0
171 195 0
169 192 0
171 195 0
170 193 0
172 195 0
170 193 25
111 138 135
61 98 176
62 99 178
62 99 174
63 100 180
63 100 179
62 99 180
62 99 178
61 99 177
61 99 180
61 99 181
62 99 179
62 99 179
62 99 179
62 99 181
62 99 177
62 99 180
62 99 180
62 99 181
62 99 181
62 99 179
62 99 180
61 99 181
61 99 181
62 99 181
61 99 180
62 99 181
62 99 180
62 99 180
62 99 180
61 98 181
62 99 180
62 99 181
62 99 181
61 99 181
62 99 181
61 99 181
62 99 181
61 99 181
61 99 181
61 98 181
62 99 181
62 99 181
62 99 181
62 99 181
61 99 181
62 99 181
61 98 181
61 98 180
62 99 181
61 98 181
61 99 181
61 98 181
61 99 181
62 99 181
61 99 181
61 99 181
61 99 181
62 99 181
61 99 181
62 99 181
61 98 181
62 99 181
61 99 181
62 99 181
62 99 181
62 99 181
62 99 181
62 99 181
62 99 181
61 99 180
61 99 181
62 99 181
61 99 181
62 99 180
62 99 180
62 99 180
62 99 181
61 99 180
62 99 180
61 99 181
61 99 181
62 99 181
62 99 179
61 98 180
61 98 178
62 99 180
62 99 179
62 99 179
60 97 177
61 98 179
62 99 181
62 99 180
62 98 179
62 99 179
62 99 179
61 98 177
61 98 174
62 99 179
62 98 176
61 97 176
62 98 175
61 97 173
62 98 174
61 97 176
61 97 173
61 97 173
77 109 163
147 171 90
168 192 0
173 194 0
171 193 0
171 193 0
168 190 0
172 195 0
166 188 11
124 122 44
136 130 63
130 125 66
124 119 63
121 118 63
142 137 74
139 134 77
129 126 69
135 131 71
140 136 78
132 127 75
134 130 72
135 131 84
140 136 84
136 132 84
129 126 81
143 140 88
133 131 87
141 139 87
137 133 86
147 143 92
138 135 89
144 140 92
140 138 92
147 143 95
148 145 94
135 134 91
134 132 89
145 143 94
139 137 92
148 146 98
139 137 92
146 145 97
141 139 94
140 138 93
151 149 101
149 147 99
153 150 101
152 149 99
144 142 97
155 153 104
145 143 98
154 152 102
152 149 100
147 144 96
152 150 102
151 149 101
155 153 102
156 153 103
154 152 104
158 155 104
161 158 105
158 154 104
157 155 104
154 152 102
154 153 104
164 160 107
164 161 106
159 157 106
172 167 110
167 164 110
164 160 107
172 168 110
158 156 104
166 163 110
165 162 109
168 165 111
173 169 111
166 162 108
172 168 111
167 165 109
170 166 108
169 165 108
169 166 109
167 164 109
171 168 110
175 171 113
171 168 111
171 166 108
173 169 110
172 168 111
173 169 111
173 169 110
176 172 113
174 170 111
173 169 109
172 168 108
175 171 112
176 171 111
173 169 110
174 170 112
178 172 113
172 169 111
173 169 111
173 168 111
170 166 107
174 169 110
174 170 111
168 165 108
171 167 106
172 168 110
174 169 109
169 165 108
172 168 109
172 167 106
168 165 105
169 165 106
170 165 103
167 163 106
169 165 107
168 163 106
175 170 108
172 167 108
170 165 104
167 163 104
170 165 106
166 161 104
170 163 104
163 158 101
163 158 99
168 163 103
167 161 100
158 153 96
165 160 103
162 157 98
162 157 96
163 158 97
164 157 99
163 159 97
168 163 103
166 160 101
159 154 94
162 156 94
162 157 96
158 153 94
152 148 86
155 150 91
157 152 91
154 148 89
159 153 93
155 149 89
159 152 85
158 151 87
160 154 88
160 154 93
151 146 87
144 138 74
146 140 78
143 136 81
152 145 83
135 131 71
137 131 63
135 129 69
132 127 71
133 126 66
151 160 45
171 195 0
172 195 0
175 198 0
174 197 0
173 195 0
174 197 0
175 197 0
173 197 0
174 196 0
173 197 0
172 196 0
173 196 0
174 197 0
174 198 0
172 195 0
170 194 0
174 197 0
173 196 0
175 198 0
174 197 0
174 197 0
170 194 0
174 197 0
171 194 0
175 198 0
171 195 0
174 197 0
175 198 0
173 196 0
172 196 0
174 197 0
172 195 0
172 195 0
174 197 0
172 196 0
173 197 0
171 194 0
174 197 0
174 196 0
172 196 0
175 198 0
173 197 0
174 197 0
175 198 0
172 196 0
171 195 0
170 194 0
175 198 0
174 198 0
173 195 0
175 198 0
174 197 0
173 196 0
175 198 0
175 198 0
172 196 0
174 197 0
173 196 0
172 195 0
172 196 0
174 197 0
174 197 0
170 193 0
173 196 0
173 196 0
171 195 0
173 196 0
173 197 0
172 195 0
172 196 0
175 198 0
174 197 0
174 197 0
169 193 0
175 198 0
171 195 0
171 195 0
173 196 0
172 195 0
172 196 0
171 194 0
173 196 0
172 196 0
173 196 0
171 194 0
170 194 0
173 196 0
171 195 0
171 194 0
173 197 0
173 197 0
172 196 0
171 195 0
171 194 0
172 195 0
173 197 0
175 198 0
173 196 0
174 197 0
173 196 0
173 196 0
171 195 0
173 196 0
174 197 0
171 195 0
172 194 0
173 196 0
172 195 0
174 197 0
172 195 0
172 196 0
174 196 0
172 195 0
172 196 0
174 197 0
173 195 0
172 196 0
173 197 0
173 197 0
173 195 0
173 197 0
168 192 0
171 195 0
172 195 0
174 198 0
173 196 0
161 185 62
96 125 159
62 99 176
62 99 176
62 99 176
62 99 176
62 99 179
62 99 179
62 99 176
62 99 179
62 99 180
62 99 181
62 99 178
62 99 180
62 99 181
62 99 179
62 99 179
62 99 179
62 99 178
62 99 178
62 99 180
61 98 180
62 99 180
62 99 181
61 98 180
62 99 180
62 99 181
62 99 181
62 99 181
61 99 181
62 99 181
62 99 180
61 98 181
61 99 181
61 99 181
62 99 181
62 99 181
62 99 181
62 99 181
61 98 181
62 99 181
62 99 181
62 99 181
61 99 181
61 98 181
61 99 181
61 99 181
61 99 181
62 99 181
61 99 181
61 98 180
62 99 181
62 99 181
62 99 181
62 99 181
61 99 181
62 99 181
62 99 181
61 98 181
62 99 181
62 99 181
61 98 181
61 99 181
61 99 180
61 99 181
61 99 181
61 99 181
62 99 180
62 99 180
61 99 181
62 99 180
62 99 181
61 98 181
61 99 180
62 99 181
61 99 181
61 98 181
62 99 181
61 99 181
61 99 181
62 99 181
62 99 180
62 99 180
61 98 179
61 99 179
62 99 180
62 99 180
62 99 180
61 98 176
62 99 180
61 98 179
62 99 179
61 99 181
62 99 179
61 98 178
61 98 180
62 99 180
61 98 178
62 99 178
62 99 177
61 98 177
62 99 178
60 97 175
60 97 175
62 98 174
62 98 177
61 97 175
62 97 174
61 97 175
62 98 175
69 102 165
142 166 102
169 193 0
171 194 0
173 196 0
172 194 0
170 191 0
156 174 22
130 124 64
136 131 67
128 124 65
133 128 63
132 128 69
142 136 77
137 132 73
134 130 77
135 130 73
136 132 76
134 130 79
136 133 82
133 130 80
132 128 80
141 138 85
133 131 83
130 128 81
132 129 80
151 146 90
127 126 83
137 135 86
144 141 92
134 133 90
136 135 89
137 135 90
135 133 89
143 141 95
137 135 89
134 133 90
144 142 96
146 144 98
141 139 93
143 140 95
149 146 96
143 142 97
145 143 97
150 148 101
151 148 100
154 152 103
150 149 101
152 149 101
151 150 102
152 149 100
157 155 105
154 152 102
151 149 101
148 147 101
150 149 101
156 152 102
161 159 107
159 157 106
163 160 107
160 157 104
161 158 106
164 161 108
163 160 106
159 156 105
164 160 107
161 158 106
162 160 107
158 157 106
162 159 107
160 158 107
167 163 109
166 164 109
167 163 108
168 165 109
165 163 108
167 164 108
175 170 111
171 166 107
173 169 111
172 169 111
169 165 105
171 168 111
172 168 111
172 169 113
173 169 110
170 166 107
174 170 111
169 166 110
175 171 112
172 168 110
175 170 112
173 169 111
173 169 109
175 170 111
175 170 110
175 171 111
172 169 108
173 169 112
172 168 110
171 167 110
169 165 107
174 169 109
173 168 111
173 168 108
173 169 110
171 167 108
173 169 110
171 166 108
171 168 107
172 167 108
173 168 109
174 169 111
170 165 105
172 168 109
166 162 104
174 169 108
169 165 106
172 167 108
170 165 103
169 164 104
166 161 103
168 163 101
169 164 101
169 163 102
164 160 101
170 164 103
172 166 106
165 160 99
165 161 99
171 166 103
167 162 103
160 155 97
166 162 99
163 158 97
161 156 97
167 161 97
160 155 90
165 159 99
160 155 98
167 160 96
153 148 87
163 156 93
160 153 92
151 146 85
165 159 96
164 158 95
153 147 87
157 151 88
158 151 86
150 145 85
156 149 89
151 146 84
153 147 87
152 145 85
142 137 73
150 144 81
148 142 81
148 142 79
141 135 74
132 127 67
140 134 68
133 127 65
143 144 59
173 196 0
173 197 0
171 194 0
174 197 0
174 197 0
174 197 0
174 197 0
173 196 0
171 195 0
174 197 0
173 197 0
175 198 0
173 197 0
174 198 0
171 195 0
174 197 0
175 198 0
173 196 0
173 196 0
172 195 0
173 196 0
173 197 0
172 196 0
174 197 0
174 196 0
175 198 0
173 196 0
172 197 0
173 196 0
174 197 0
173 197 0
174 198 0
174 197 0
172 196 0
173 197 0
174 197 0
172 195 0
174 196 0
173 197 0
175 198 0
173 197 0
175 198 0
175 198 0
176 198 0
174 196 0
174 196 0
173 196 0
175 198 0
173 197 0
172 196 0
175 198 0
173 195 0
174 197 0
170 194 0
172 195 0
170 194 0
173 197 0
172 196 0
171 195 0
174 198 0
173 196 0
173 197 0
174 198 0
172 195 0
172 195 0
173 196 0
172 195 0
171 195 0
174 197 0
172 196 0
174 198 0
175 197 0
171 194 0
169 192 0
172 195 0
174 197 0
172 195 0
172 196 0
174 197 0
173 197 0
173 197 0
172 196 0
174 196 0
173 196 0
173 196 0
171 195 0
172 196 0
172 196 0
173 196 0
172 196 0
173 197 0
173 196 0
175 197 0
171 194 0
174 197 0
171 194 0
171 195 0
172 196 0
172 196 0
173 197 0
173 196 0
173 196 0
173 196 0
171 195 0
173 197 0
173 196 0
172 196 0
174 197 0
173 196 0
172 196 0
173 197 0
173 196 0
171 195 0
170 194 0
171 194 0
172 196 0
173 197 0
171 193 0
173 196 0
174 197 0
171 196 0
174 196 0
173 197 0
170 194 0
170 194 0
143 167 107
75 108 165
62 99 178
61 98 176
62 99 178
62 99 174
63 99 177
62 99 175
62 99 177
61 99 180
62 99 181
62 99 181
62 99 179
62 99 180
62 99 180
62 99 181
61 99 181
61 99 181
61 99 181
61 98 179
62 99 180
62 99 181
62 99 181
62 99 181
62 99 180
62 99 181
62 99 181
61 98 180
61 98 180
62 99 181
62 99 181
62 99 180
62 99 180
62 99 181
61 98 181
62 99 181
63 100 181
62 99 181
61 98 181
62 99 181
61 98 181
61 99 181
62 99 181
62 99 181
62 99 181
62 99 181
62 99 181
61 99 181
62 99 181
61 99 181
62 99 181
61 99 181
61 99 181
62 99 181
61 99 181
61 99 181
61 99 181
61 98 181
61 99 181
62 99 181
62 99 181
62 99 181
61 99 181
61 99 181
62 99 181
61 98 181
62 99 181
62 99 181
61 99 181
61 99 181
61 99 181
61 99 181
61 98 181
62 99 181
61 99 181
62 99 181
61 99 181
62 99 181
61 99 181
62 99 178
61 99 181
61 99 180
62 99 181
62 99 181
61 98 180
61 99 181
61 99 179
62 99 181
61 98 179
62 99 180
62 99 180
62 99 178
62 99 180
62 99 181
61 98 178
62 99 180
62 99 180
62 99 178
62 99 178
62 99 180
61 98 178
62 99 179
62 98 174
61 98 175
62 99 178
62 98 174
62 98 177
60 97 173
61 98 176
61 98 177
61 97 171
61 97 173
62 97 171
118 143 134
171 193 0
171 193 0
173 196 0
168 191 0
138 149 30
125 120 59
120 116 59
137 132 71
141 136 71
132 127 65
139 134 78
136 131 72
137 132 76
131 128 75
138 134 80
145 141 87
140 136 83
149 144 89
135 132 85
138 134 84
138 135 82
130 127 81
137 134 82
128 126 80
130 128 80
132 131 86
129 129 87
137 135 88
143 140 93
138 137 92
125 124 84
130 129 88
146 143 94
137 135 91
140 138 93
147 145 97
145 143 97
145 143 96
150 148 99
145 144 98
149 147 100
136 135 93
141 141 97
154 151 101
144 143 99
152 149 101
151 149 101
152 150 101
148 146 100
152 151 103
152 150 102
157 153 102
155 152 101
163 160 105
154 153 103
154 152 104
154 153 105
160 157 105
168 165 109
158 157 104
159 156 105
155 153 103
161 159 105
159 156 105
165 162 108
160 158 105
164 161 109
165 163 108
174 169 111
167 164 107
168 164 108
166 163 108
168 164 109
169 166 108
164 161 106
172 168 110
171 168 110
167 163 108
171 168 110
170 166 108
175 171 111
172 167 109
171 168 109
174 170 109
171 168 110
173 169 109
175 171 112
168 165 108
173 169 112
174 170 109
172 169 112
175 170 110
172 168 108
174 170 110
172 168 108
173 169 109
172 169 110
175 171 110
171 166 108
170 167 108
173 169 108
173 168 110
173 168 109
171 167 106
173 169 109
174 169 109
171 166 106
172 168 109
173 168 107
172 167 105
170 165 106
168 164 104
173 166 107
171 167 108
168 162 104
170 166 106
171 167 109
170 165 106
167 162 103
170 165 106
167 162 104
174 168 109
167 162 103
170 165 104
172 167 106
169 164 101
167 161 104
166 160 101
162 157 97
168 162 104
163 158 99
169 164 103
169 162 102
164 159 98
164 159 99
163 158 97
156 150 94
163 158 97
159 153 93
163 157 95
159 153 92
161 155 93
153 148 87
158 151 88
162 155 91
163 155 93
160 153 89
154 148 85
150 145 86
154 147 87
146 140 80
153 146 85
148 142 79
153 146 85
153 147 84
145 139 75
138 133 70
138 132 70
144 138 72
138 133 67
128 123 57
171 194 0
175 197 0
174 196 0
174 197 0
174 197 0
175 198 0
174 196 0
172 195 0
173 196 0
174 197 0
172 196 0
174 197 0
173 196 0
174 197 0
175 198 0
174 197 0
173 197 0
174 198 0
174 197 0
175 198 0
173 197 0
173 196 0
173 197 0
171 195 0
173 196 0
173 196 0
168 192 0
174 197 0
173 197 0
176 199 0
175 198 0
174 197 0
173 196 0
174 198 0
172 196 0
175 198 0
172 196 0
175 198 0
173 196 0
174 197 0
172 196 0
173 197 0
173 196 0
174 197 0
173 196 0
172 196 0
172 195 0
172 196 0
175 198 0
172 196 0
173 197 0
174 197 0
175 198 0
174 197 0
175 198 0
174 197 0
172 195 0
172 195 0
174 196 0
174 197 0
174 197 0
174 198 0
172 195 0
172 196 0
174 197 0
172 195 0
172 196 0
175 198 0
171 194 0
173 197 0
175 197 0
174 197 0
174 197 0
174 198 0
174 198 0
174 197 0
172 195 0
173 197 0
175 197 0
173 196 0
173 196 0
172 195 0
171 195 0
172 196 0
172 194 0
171 194 0
173 196 0
171 194 0
173 196 0
171 194 0
173 196 0
176 199 0
174 197 0
173 197 0
170 193 0
172 195 0
173 197 0
172 195 0
174 197 0
172 196 0
171 194 0
174 197 0
172 196 0
172 196 0
174 196 0
171 194 0
174 197 0
174 197 0
172 196 0
171 194 0
172 195 0
173 196 0
173 197 0
171 195 0
170 194 0
173 196 0
174 197 0
175 198 0
174 196 0
171 194 0
171 195 0
171 194 0
170 194 0
173 196 0
135 159 114
62 99 175
62 99 175
61 98 173
62 99 179
62 98 174
63 99 178
62 99 177
62 99 179
62 99 178
62 99 177
62 99 180
61 98 178
62 99 181
62 99 181
62 99 179
61 98 178
62 99 179
62 99 179
62 99 180
62 99 181
62 99 180
62 99 181
62 99 179
62 99 181
61 99 180
61 99 181
62 99 179
62 99 181
62 99 181
61 99 180
62 99 181
62 99 181
61 99 181
61 99 181
61 99 181
62 99 181
62 99 180
62 99 181
62 99 181
61 99 181
62 99 181
62 99 181
62 99 181
62 99 181
61 98 181
61 99 181
61 99 181
61 98 181
62 99 181
62 99 181
62 99 181
62 99 181
61 98 181
61 98 181
61 99 181
61 99 181
62 99 181
61 99 181
61 99 181
61 99 181
62 99 181
62 99 181
62 99 181
63 99 180
62 99 181
62 99 181
62 99 181
61 99 181
62 99 181
62 99 181
61 99 181
61 99 181
62 99 181
62 99 181
62 99 181
62 99 181
62 99 181
61 99 179
61 99 181
62 99 180
61 98 181
62 99 181
61 98 177
62 99 180
62 99 180
62 99 180
62 99 180
62 99 181
61 98 176
62 99 179
62 99 181
62 99 181
62 99 179
62 99 180
62 99 178
62 99 178
62 99 178
62 99 178
61 98 177
62 99 180
62 99 178
62 99 176
62 99 176
61 98 174
62 99 176
62 98 176
61 97 173
62 98 177
61 97 172
62 99 176
62 98 177
61 97 172
61 97 171
61 97 175
97 125 151
161 182 53
175 197 0
172 195 0
130 130 48
129 124 63
132 128 69
126 122 63
133 128 65
142 136 78
135 130 73
146 140 83
139 134 75
145 140 74
142 137 79
142 138 81
133 131 78
139 134 83
123 122 78
132 129 76
118 118 77
134 133 84
127 125 81
146 142 90
139 137 87
138 136 87
136 135 86
138 135 88
139 137 89
139 137 90
125 125 86
127 127 87
134 133 90
132 130 87
146 143 97
134 133 91
134 134 92
140 139 96
131 132 90
144 141 95
136 137 94
149 147 99
148 146 99
139 139 97
148 146 99
142 142 95
150 149 102
152 150 102
154 151 100
150 147 99
154 152 103
150 149 101
155 152 102
158 156 105
151 149 102
156 154 105
159 157 105
160 157 105
162 159 107
164 161 108
156 154 102
157 155 104
158 155 103
162 158 105
163 160 107
168 165 110
167 164 109
163 161 108
163 160 105
168 165 111
167 164 109
165 162 105
172 167 111
168 165 109
168 165 110
172 168 110
173 168 110
172 169 110
174 169 111
172 168 109
171 167 109
172 167 109
176 172 112
171 167 110
172 168 109
172 168 110
173 170 110
172 168 108
170 167 108
170 166 108
175 170 111
172 169 111
174 169 110
174 170 111
174 170 110
172 169 109
173 168 106
174 169 108
174 169 110
172 169 110
171 167 109
174 169 109
176 171 109
175 170 110
173 169 108
171 167 108
172 167 106
171 167 106
171 166 108
168 163 106
172 167 106
174 169 109
169 165 106
172 167 106
171 165 104
172 167 106
166 162 104
173 167 104
167 162 101
168 163 100
169 163 101
175 169 108
166 162 101
169 163 101
169 164 101
169 164 103
166 160 101
169 164 103
170 164 103
168 162 100
164 158 97
165 159 96
166 160 99
164 157 99
161 156 94
152 147 90
162 157 95
166 160 96
162 156 95
159 154 89
163 157 92
161 154 95
159 153 91
152 147 84
158 152 87
159 153 93
157 151 89
158 153 91
157 150 82
156 149 86
158 152 88
157 150 86
150 143 79
146 140 79
134 129 64
143 138 74
139 134 73
145 139 74
141 135 67
131 124 63
134 128 60
167 185 30
175 197 0
173 196 0
172 196 0
174 197 0
173 196 0
172 195 0
173 196 0
173 196 0
175 198 0
174 197 0
174 197 0
175 198 0
173 196 0
174 197 0
173 197 0
174 197 0
173 196 0
174 197 0
174 197 0
175 197 0
173 196 0
173 196 0
173 197 0
172 196 0
173 196 0
172 196 0
173 196 0
174 197 0
172 195 0
172 196 0
174 197 0
173 197 0
173 197 0
172 196 0
173 197 0
174 197 0
175 198 0
174 198 0
172 196 0
174 197 0
172 196 0
172 197 0
175 198 0
170 193 0
173 195 0
173 196 0
174 198 0
173 196 0
171 194 0
172 196 0
172 195 0
171 195 0
172 196 0
173 196 0
175 198 0
172 196 0
172 196 0
171 195 0
172 196 0
175 198 0
172 196 0
173 196 0
174 198 0
172 196 0
175 198 0
172 196 0
173 196 0
171 195 0
172 195 0
172 196 0
172 196 0
171 195 0
173 196 0
174 198 0
174 196 0
174 197 0
173 197 0
175 197 0
171 195 0
173 197 0
174 197 0
174 197 0
175 198 0
173 197 0
170 193 0
175 198 0
173 196 0
171 195 0
172 197 0
172 195 0
174 197 0
174 197 0
171 194 0
173 197 0
171 194 0
174 197 0
174 196 0
170 194 0
173 197 0
173 196 0
174 197 0
173 196 0
172 196 0
171 193 0
175 198 0
174 196 0
174 196 0
175 197 0
172 195 0
170 193 0
173 197 0
171 195 0
172 196 0
172 196 0
172 195 0
169 192 0
172 195 0
170 194 0
173 196 0
172 196 0
175 198 0
172 195 0
115 142 136
62 99 175
62 99 176
62 98 178
62 98 173
62 99 176
62 99 177
61 98 177
62 99 174
62 99 179
63 100 181
62 99 174
61 99 180
62 99 179
62 99 181
63 100 181
62 99 180
62 99 178
62 99 180
62 99 180
62 99 180
62 99 181
61 99 180
62 99 179
62 99 179
61 98 180
62 99 181
62 99 180
61 99 181
62 99 181
61 98 181
62 99 181
62 99 179
62 99 181
61 99 180
62 99 180
62 99 181
61 99 181
62 99 181
62 99 181
61 99 181
61 98 181
62 99 181
61 99 181
62 99 181
62 99 181
62 99 181
61 99 181
61 99 181
62 99 181
62 99 181
61 99 181
62 99 181
61 99 181
61 98 181
62 99 181
61 99 181
62 99 181
62 99 180
62 99 181
62 99 181
62 99 181
61 99 181
62 99 180
61 99 181
62 99 181
61 98 180
61 98 181
62 99 181
62 99 181
61 99 180
62 99 181
62 99 181
62 99 181
62 99 181
61 99 181
62 99 181
62 99 181
62 99 180
61 99 181
61 99 181
61 99 179
61 99 181
61 98 181
62 99 181
61 99 181
61 98 180
62 99 180
62 99 180
61 99 178
62 99 179
62 99 179
61 99 180
62 99 179
61 98 177
62 99 181
61 98 178
62 98 177
62 99 179
62 99 177
62 99 176
61 99 181
62 98 174
62 99 180
62 99 178
61 98 178
61 97 174
62 98 174
61 98 178
60 96 173
62 98 176
61 96 170
60 96 173
61 98 175
62 98 174
61 97 171
62 98 173
71 104 167
161 185 55
171 190 19
118 113 53
138 132 69
134 128 63
121 118 60
139 134 77
134 130 65
138 134 77
145 141 76
131 127 71
130 126 75
131 128 78
122 118 71
123 120 70
132 129 80
132 129 79
127 124 77
140 137 88
140 136 85
143 140 90
133 131 85
134 132 88
140 137 89
135 133 89
130 129 88
142 139 91
122 122 84
142 140 91
143 141 94
143 140 94
136 135 86
133 133 92
141 140 96
138 137 91
141 141 96
141 140 96
145 144 97
142 142 97
151 149 100
142 141 97
150 148 101
145 144 98
153 151 103
145 143 96
151 148 100
152 150 102
150 148 100
147 146 100
153 150 101
147 145 98
156 155 104
163 159 105
156 153 103
151 150 101
155 152 102
157 154 104
157 155 103
163 160 106
166 163 106
159 157 105
164 161 107
164 162 108
159 156 102
163 160 106
160 157 103
164 161 108
165 161 104
169 165 108
168 164 109
168 165 109
166 163 109
172 168 109
172 168 109
174 170 112
172 168 109
172 168 110
170 167 110
175 170 112
169 166 108
169 166 109
169 165 107
171 167 108
173 168 109
176 170 112
172 168 109
171 168 110
172 168 108
175 171 110
173 169 108
173 169 111
172 168 108
175 170 108
175 170 110
177 172 111
173 168 106
171 167 108
173 169 110
172 168 109
174 170 109
170 166 104
171 167 104
176 170 109
171 166 108
173 168 106
170 166 104
173 168 107
176 170 108
169 165 106
169 164 106
168 164 104
172 166 108
170 165 106
170 165 103
167 162 103
169 164 104
166 161 103
171 166 103
173 168 104
167 162 105
172 166 104
169 163 100
167 163 106
171 165 103
171 166 104
170 164 102
169 164 104
165 161 102
166 162 102
167 162 99
164 158 97
163 159 100
165 160 95
165 159 100
168 162 99
156 151 92
160 154 93
160 155 89
160 154 92
157 152 87
165 158 95
160 154 91
153 147 87
160 155 90
159 152 88
161 155 92
153 147 81
160 153 87
150 143 80
145 140 79
148 142 80
147 141 80
143 138 76
146 141 79
142 136 72
144 138 70
149 142 75
134 127 64
138 132 69
149 160 42
173 196 0
172 195 0
173 197 0
172 196 0
173 197 0
172 195 0
176 198 0
174 197 0
175 197 0
174 198 0
171 195 0
175 198 0
172 196 0
175 198 0
173 196 0
172 196 0
171 196 0
174 198 0
173 197 0
172 196 0
174 197 0
173 197 0
173 197 0
175 197 0
172 196 0
174 198 0
172 196 0
173 196 0
173 196 0
174 197 0
173 196 0
171 196 0
175 198 0
174 197 0
171 194 0
170 194 0
174 198 0
173 197 0
173 197 0
172 196 0
173 196 0
172 196 0
173 196 0
172 196 0
171 195 0
172 196 0
172 195 0
172 196 0
173 196 0
173 196 0
173 197 0
173 196 0
174 197 0
175 197 0
172 196 0
170 194 0
177 199 0
174 197 0
172 196 0
172 195 0
172 195 0
171 195 0
172 195 0
172 196 0
173 196 0
174 197 0
173 197 0
175 197 0
175 198 0
172 195 0
174 197 0
175 198 0
172 196 0
171 195 0
170 193 0
174 197 0
174 197 0
173 197 0
173 197 0
173 196 0
174 197 0
171 195 0
174 198 0
173 195 0
173 196 0
174 197 0
171 195 0
174 197 0
170 194 0
171 194 0
171 195 0
169 192 0
175 198 0
170 194 0
172 195 0
172 195 0
173 196 0
175 198 0
174 197 0
172 195 0
169 192 0
172 195 0
172 196 0
173 196 0
170 193 0
173 196 0
173 195 0
170 195 0
172 195 0
174 197 0
174 197 0
173 196 0
172 196 0
173 197 0
174 197 0
172 195 0
172 195 0
173 196 0
175 197 0
172 196 0
170 193 36
116 142 136
62 99 173
62 99 176
63 100 178
62 99 174
63 100 180
62 99 177
62 99 177
62 99 173
62 99 179
62 99 179
61 98 178
61 99 180
62 99 181
62 99 180
62 99 179
62 99 178
62 99 180
62 99 179
62 99 181
62 99 179
62 99 181
62 99 181
62 99 178
61 99 180
61 98 178
61 99 180
62 99 181
61 99 181
61 99 179
62 99 181
61 98 180
62 99 181
62 99 181
62 99 181
61 99 181
61 99 181
62 99 181
62 99 181
62 99 181
62 99 181
61 98 181
62 99 181
62 99 181
61 99 181
62 99 181
62 99 181
61 99 180
62 99 181
62 99 181
62 99 180
62 99 181
61 99 181
61 99 181
62 99 181
62 99 181
61 99 181
62 99 181
62 99 181
62 99 181
62 99 181
62 99 181
61 99 181
61 99 181
62 99 181
62 99 181
61 99 181
62 99 180
61 99 181
61 98 181
61 99 180
62 99 181
61 98 181
62 99 181
62 99 180
62 99 181
61 99 181
62 99 181
62 99 181
62 99 181
62 99 181
62 99 180
62 99 181
62 99 178
62 99 180
61 98 178
62 99 180
62 99 181
61 98 180
62 99 181
62 99 180
62 99 180
62 99 180
62 99 181
62 99 180
62 99 179
61 98 180
62 99 179
62 99 180
62 99 179
62 99 180
62 99 177
62 99 179
62 99 179
62 99 180
61 99 180
62 99 180
62 99 177
62 99 181
61 97 175
61 98 175
62 98 177
62 98 177
61 97 172
61 97 174
61 97 173
60 96 170
61 97 174
60 96 168
74 106 165
133 148 101
126 121 58
119 115 53
125 120 56
135 131 72
138 133 71
139 133 75
132 127 71
127 123 74
131 127 75
138 133 77
132 128 75
130 127 78
131 127 77
129 127 71
132 129 79
121 121 82
139 136 86
129 126 82
126 124 80
135 132 81
122 121 82
137 135 88
133 131 87
129 127 88
134 132 88
127 126 82
135 133 90
133 133 91
144 142 93
141 140 94
143 141 96
127 127 87
138 137 92
135 135 93
134 133 90
132 131 92
148 146 100
139 139 95
139 139 95
137 137 96
140 138 94
141 140 97
135 135 93
147 146 100
150 149 102
155 152 104
142 142 98
149 148 101
152 151 103
158 155 103
154 153 102
155 153 103
156 154 103
150 149 100
153 152 103
160 157 103
158 155 103
156 154 105
159 156 103
158 156 105
160 157 104
163 161 107
158 156 104
162 159 107
168 164 109
165 162 107
167 164 107
164 161 107
167 164 108
172 167 109
167 164 108
165 162 107
171 167 108
171 167 110
172 168 107
170 167 110
171 167 109
172 168 106
172 167 108
173 169 111
174 169 110
175 170 111
173 169 110
175 171 111
172 168 109
172 167 108
172 167 110
175 171 113
175 170 108
174 170 112
176 171 112
176 171 109
174 170 110
175 170 109
176 171 110
172 167 107
169 166 105
176 171 109
174 170 109
176 171 112
173 169 108
172 166 108
172 168 108
171 166 106
172 168 108
173 167 108
174 169 108
175 170 109
167 163 104
171 166 106
174 167 106
166 162 105
173 168 108
173 168 104
171 166 106
170 164 103
167 161 102
169 164 104
170 165 102
169 164 103
169 164 104
164 159 95
172 166 106
168 163 100
169 164 103
163 158 97
162 157 97
170 164 101
163 158 95
166 160 96
162 158 98
160 154 93
163 157 94
167 161 99
156 151 92
158 153 93
159 153 93
160 154 93
161 155 92
154 147 85
155 149 87
157 151 90
160 153 87
151 146 81
153 146 87
159 152 90
156 150 85
146 141 81
155 148 80
146 140 84
142 136 74
143 137 76
147 140 82
142 136 75
146 140 77
133 128 58
130 125 61
137 143 48
173 196 0
171 193 0
172 196 0
173 197 0
176 197 0
172 194 0
172 196 0
171 195 0
174 197 0
170 193 0
173 196 0
172 196 0
172 195 0
173 196 0
171 195 0
173 197 0
174 198 0
173 196 0
171 195 0
174 198 0
173 196 0
172 196 0
172 196 0
175 197 0
172 196 0
173 196 0
176 198 0
172 196 0
173 197 0
172 196 0
175 198 0
173 197 0
169 193 0
174 197 0
174 198 0
171 195 0
171 196 0
173 197 0
171 195 0
172 196 0
174 197 0
173 197 0
174 197 0
171 195 0
172 196 0
173 196 0
172 196 0
176 198 0
174 197 0
173 196 0
173 196 0
172 196 0
174 197 0
172 195 0
173 197 0
172 195 0
173 197 0
172 195 0
172 196 0
173 197 0
174 197 0
170 193 0
176 198 0
173 196 0
172 195 0
172 196 0
173 196 0
172 196 0
172 195 0
172 195 0
173 197 0
173 197 0
173 197 0
172 195 0
171 194 0
172 196 0
173 197 0
174 197 0
172 196 0
173 196 0
173 197 0
172 195 0
173 196 0
173 197 0
171 194 0
171 195 0
173 197 0
171 194 0
173 196 0
172 196 0
172 195 0
174 197 0
173 196 0
171 195 0
172 195 0
174 195 0
173 197 0
173 197 0
172 195 0
173 196 0
174 198 0
171 195 0
172 196 0
173 197 0
168 192 0
169 192 0
172 195 0
172 195 0
169 193 0
174 197 0
170 193 0
171 194 0
174 196 0
174 197 0
172 196 0
172 196 0
172 195 0
172 195 0
173 196 0
165 188 57
100 128 152
62 98 171
62 99 175
62 99 176
63 99 177
62 99 177
62 99 179
62 99 178
61 98 174
62 99 177
62 99 178
61 98 175
62 99 179
62 98 173
62 99 179
62 99 180
62 99 174
62 99 181
62 99 180
62 99 181
62 99 180
61 99 179
62 99 180
62 99 179
62 99 180
62 99 181
61 99 180
62 99 180
62 99 180
62 99 180
62 99 180
62 99 180
62 99 181
62 99 181
62 99 180
61 99 181
62 99 181
61 99 181
62 99 181
62 99 181
62 99 181
61 99 181
62 99 181
62 99 181
61 99 181
61 99 180
62 99 181
62 99 181
62 99 181
62 99 181
62 99 181
61 98 180
62 99 181
61 98 181
62 99 181
61 98 180
61 99 181
62 99 180
62 99 181
61 98 180
62 99 181
61 99 180
62 99 181
62 99 181
61 99 181
62 99 181
61 99 181
61 99 181
61 99 181
61 99 181
62 99 181
61 98 181
62 99 181
61 98 181
62 99 181
62 99 181
61 99 181
62 99 180
62 99 181
61 98 181
61 99 180
62 99 181
61 99 181
62 99 180
62 99 181
61 99 178
62 99 180
61 99 179
62 99 179
62 99 181
62 99 181
62 99 180
62 99 181
62 99 180
62 99 179
62 99 180
62 99 179
62 99 180
62 99 180
61 98 177
62 99 178
61 98 177
61 98 174
62 99 179
61 98 174
62 99 177
62 99 179
62 99 179
62 99 179
62 99 176
61 97 173
62 98 175
61 98 177
61 97 172
61 98 173
60 96 172
61 97 174
62 98 174
61 97 170
61 97 171
61 96 170
61 96 170
112 116 105
144 138 71
148 143 70
127 122 63
126 121 64
131 127 71
129 125 67
138 134 79
142 137 83
136 133 78
141 137 83
121 119 71
122 120 74
124 122 79
125 122 78
118 117 76
123 121 77
128 125 81
129 128 85
119 119 78
134 132 85
134 131 83
131 130 86
128 127 86
135 134 92
127 126 84
140 138 94
139 137 90
139 138 95
140 139 92
135 134 92
131 131 90
132 132 91
144 142 93
135 135 93
131 131 91
135 135 93
138 136 91
143 143 100
146 145 100
141 140 95
149 147 100
157 155 104
148 147 102
150 149 101
156 153 104
152 150 101
154 150 102
160 157 106
146 144 97
157 155 104
156 153 104
145 145 98
155 154 104
156 153 103
157 155 104
162 158 106
160 158 106
160 158 103
170 165 107
161 158 105
166 163 108
161 159 107
158 156 104
171 167 109
168 165 108
159 157 104
163 160 105
168 164 108
169 165 107
171 168 110
173 168 108
170 166 109
170 166 108
169 166 109
169 165 106
175 170 109
171 167 109
169 166 108
172 169 111
166 162 105
172 168 109
171 166 108
172 169 110
175 170 111
176 171 111
173 170 110
173 168 107
173 169 109
174 170 112
173 169 109
176 171 110
169 165 108
176 171 109
173 168 107
172 169 108
176 171 111
175 170 109
174 169 107
174 169 108
171 166 104
173 168 106
174 169 106
170 167 106
176 170 108
171 166 102
175 169 106
171 167 108
173 168 104
172 167 105
170 166 105
174 169 109
175 170 108
170 165 102
169 164 105
167 163 103
170 164 101
171 166 106
165 159 99
167 162 101
171 166 106
170 165 103
170 164 99
164 158 95
166 162 100
171 166 102
167 161 99
157 152 95
164 159 97
169 162 98
162 157 94
163 157 95
168 161 97
157 152 88
166 160 95
165 158 95
161 155 94
158 152 90
161 155 95
156 149 84
162 156 95
157 152 89
158 152 90
150 144 84
156 150 88
151 145 85
150 144 81
157 150 86
155 149 84
150 144 80
145 139 76
139 134 71
138 132 72
154 148 80
138 132 72
128 123 63
139 134 69
129 131 49
175 197 0
172 195 0
174 197 0
175 197 0
175 197 0
172 196 0
174 198 0
172 196 0
172 196 0
174 197 0
173 196 0
175 198 0
174 197 0
173 196 0
174 197 0
175 198 0
174 196 0
173 197 0
173 196 0
170 194 0
172 195 0
172 196 0
174 197 0
174 198 0
174 198 0
173 196 0
174 198 0
175 198 0
172 196 0
172 196 0
170 194 0
174 197 0
172 196 0
174 197 0
172 196 0
172 195 0
172 195 0
174 197 0
172 195 0
170 192 0
171 194 0
172 196 0
174 197 0
174 197 0
174 197 0
170 193 0
171 195 0
172 196 0
172 196 0
172 195 0
173 196 0
174 197 0
174 197 0
173 197 0
173 196 0
175 198 0
173 197 0
173 197 0
171 195 0
173 197 0
172 195 0
172 196 0
172 195 0
174 197 0
173 195 0
173 196 0
173 195 0
174 197 0
171 195 0
173 197 0
173 197 0
173 195 0
171 194 0
173 197 0
170 194 0
173 196 0
174 196 0
171 195 0
174 197 0
172 196 0
173 196 0
170 193 0
174 197 0
174 197 0
173 196 0
172 196 0
173 196 0
173 196 0
172 196 0
173 197 0
174 197 0
173 196 0
174 197 0
173 196 0
172 195 0
174 197 0
172 195 0
171 193 0
174 197 0
170 194 0
170 193 0
171 195 0
173 196 0
171 194 0
170 194 0
171 195 0
173 197 0
171 193 0
172 196 0
171 194 0
173 196 0
173 196 0
174 197 0
174 197 0
173 197 0
171 194 0
173 197 0
171 194 0
165 188 47
95 124 157
62 99 173
62 99 177
63 99 176
61 98 173
62 99 178
62 99 179
62 99 178
62 99 179
61 99 180
62 99 177
62 99 177
62 99 179
62 99 178
62 99 178
62 99 180
62 99 178
62 99 178
62 99 179
62 99 179
62 99 179
61 99 179
61 98 180
62 99 180
62 99 178
62 99 180
62 99 179
62 99 181
62 99 181
61 99 179
61 99 179
62 99 181
62 99 180
62 99 181
62 99 181
62 99 181
62 99 180
62 99 181
63 100 181
62 99 181
62 99 181
62 99 181
62 99 181
62 99 181
62 99 181
61 99 181
61 99 181
62 99 181
62 99 180
61 99 181
62 99 181
62 99 181
62 99 181
62 99 181
61 99 181
61 99 181
61 99 181
62 99 181
62 99 181
61 99 180
62 99 181
61 99 181
62 99 180
62 99 181
62 99 181
62 99 181
62 99 181
62 99 181
61 99 181
62 99 181
62 99 181
61 98 180
61 99 181
61 98 179
62 99 179
61 99 180
61 99 180
62 99 180
62 99 181
62 99 179
62 99 181
62 99 181
61 98 179
62 99 181
62 99 179
62 99 180
62 99 180
61 99 181
62 99 180
62 99 176
61 98 180
62 99 180
62 99 180
62 99 179
62 99 181
62 99 180
62 99 179
62 99 180
61 98 176
62 99 179
62 99 179
61 98 177
62 99 180
62 99 180
62 99 178
62 99 179
62 99 176
62 99 180
62 99 180
62 99 179
61 97 174
61 98 176
62 99 179
61 98 177
61 98 174
61 98 176
61 97 170
61 97 175
62 97 173
61 97 171
61 96 169
61 97 173
60 96 173
60 95 165
108 114 121
131 127 64
126 122 64
124 120 62
135 130 73
131 127 72
126 123 70
133 129 76
139 134 79
124 121 73
132 129 80
121 118 71
124 122 72
122 121 78
124 121 79
140 137 88
124 121 74
132 129 85
128 126 82
127 126 85
125 124 83
120 120 78
133 131 85
123 123 84
130 129 89
139 136 89
125 126 88
125 125 87
130 130 89
121 122 83
130 130 89
130 131 91
134 134 94
138 137 93
129 130 90
140 138 94
136 135 94
144 143 98
153 151 101
150 148 101
145 145 99
160 156 104
142 141 93
141 141 97
151 149 102
153 150 101
149 148 101
149 147 100
146 145 99
157 154 103
153 151 101
161 160 108
151 149 101
156 154 105
159 157 105
160 158 105
159 156 104
155 153 103
162 159 108
159 157 103
161 159 105
160 157 106
161 158 104
165 161 107
167 164 107
165 162 107
167 164 108
170 166 110
166 163 105
164 161 104
169 165 109
171 167 110
169 165 106
170 166 107
168 164 109
170 167 110
170 167 110
170 167 110
173 168 107
175 170 110
173 169 109
171 168 108
171 167 108
175 171 110
176 171 110
171 167 109
171 168 111
173 169 108
176 171 112
175 170 109
173 168 108
175 171 110
174 169 108
173 168 107
173 168 108
174 170 109
177 171 109
172 167 108
177 172 110
171 166 106
176 171 106
176 170 108
174 169 109
171 166 106
168 164 105
167 163 104
172 167 104
169 164 104
169 164 101
168 163 102
168 164 103
170 164 106
171 166 105
175 169 106
171 166 106
173 168 104
168 163 101
171 167 104
171 165 103
165 160 97
172 167 104
166 160 97
164 158 101
166 161 101
165 160 99
170 164 101
168 161 101
172 165 103
165 160 95
152 147 87
167 161 100
161 155 92
166 160 93
164 158 97
158 152 88
165 158 95
162 157 92
157 151 91
160 153 87
150 144 86
159 153 90
159 152 87
158 153 83
156 149 87
155 148 84
151 145 84
153 146 87
150 143 75
151 145 80
150 143 82
147 141 81
136 132 68
151 144 80
142 136 76
132 127 60
140 133 70
112 107 52
169 191 0
173 195 0
175 198 0
174 197 0
172 195 0
174 197 0
172 195 0
174 197 0
173 197 0
172 196 0
176 198 0
173 196 0
174 197 0
173 197 0
175 198 0
175 198 0
174 196 0
174 197 0
171 194 0
174 197 0
173 196 0
172 196 0
172 196 0
173 196 0
172 195 0
173 197 0
171 195 0
173 196 0
171 195 0
173 196 0
173 197 0
173 197 0
173 197 0
174 197 0
174 197 0
170 194 0
172 196 0
173 197 0
173 196 0
172 196 0
173 196 0
169 194 0
170 194 0
172 195 0
173 196 0
174 198 0
172 195 0
171 194 0
173 196 0
173 196 0
174 196 0
175 198 0
173 196 0
174 198 0
171 194 0
175 198 0
173 197 0
170 194 0
172 196 0
173 195 0
174 197 0
174 196 0
172 195 0
175 198 0
171 194 0
173 196 0
170 194 0
173 195 0
171 195 0
170 194 0
173 196 0
174 197 0
172 194 0
174 197 0
172 195 0
175 197 0
172 195 0
174 197 0
172 196 0
170 193 0
171 194 0
172 196 0
174 197 0
173 197 0
172 195 0
172 197 0
170 193 0
173 196 0
175 197 0
168 191 0
172 195 0
173 196 0
174 197 0
170 195 0
172 196 0
173 197 0
172 196 0
174 197 0
172 196 0
175 197 0
171 194 0
172 196 0
174 197 0
173 197 0
172 195 0
173 196 0
171 194 0
172 195 0
173 196 0
171 195 0
172 195 0
172 195 0
173 197 0
173 196 0
172 195 0
170 194 0
172 194 0
161 184 57
74 108 170
63 100 174
62 99 173
62 99 176
63 100 176
62 99 176
62 99 175
62 99 176
62 99 177
62 99 176
61 99 178
62 99 177
61 98 172
62 99 179
62 99 179
62 99 181
62 99 178
62 99 178
62 99 181
62 99 180
61 99 179
61 98 179
62 99 179
62 99 180
62 99 179
62 99 181
62 99 180
62 99 180
61 99 179
62 99 179
61 99 180
62 99 181
62 99 180
62 99 179
62 99 180
62 99 181
62 99 181
62 99 180
62 99 178
62 99 180
62 99 180
61 99 181
61 99 181
62 99 181
62 99 181
61 98 181
61 99 181
61 99 181
62 99 181
62 99 180
61 98 181
61 99 180
62 99 181
62 99 181
61 99 180
61 99 181
61 99 181
62 99 181
61 98 181
61 99 181
61 99 181
62 99 179
62 99 180
62 99 181
61 99 181
61 99 181
62 99 181
62 99 181
61 98 181
62 99 181
62 99 181
61 98 180
61 99 181
62 99 180
62 99 181
62 99 181
61 99 180
62 99 181
62 99 181
61 98 179
62 99 181
62 99 181
61 98 180
62 99 180
62 99 180
62 99 179
62 99 181
62 99 181
62 99 179
62 99 180
62 99 180
62 99 179
62 99 181
61 98 178
63 99 180
61 98 178
62 99 179
62 99 178
62 99 178
61 98 177
62 99 180
62 99 179
62 99 180
62 99 178
61 98 179
62 99 177
62 99 177
61 98 174
63 100 181
62 99 177
62 98 175
61 98 175
62 99 176
62 99 177
62 99 179
62 99 176
61 98 177
62 99 177
61 97 170
61 98 172
59 95 169
61 98 173
62 98 173
61 96 170
60 94 163
60 94 162
112 116 110
130 125 65
136 130 67
136 130 72
126 122 69
122 119 69
133 130 75
132 130 77
137 133 84
128 125 76
121 119 77
127 124 79
124 122 81
112 111 72
131 130 85
121 119 73
130 127 83
137 134 86
117 117 78
134 133 88
123 122 82
122 122 83
132 131 90
132 130 87
128 128 87
118 118 82
121 121 83
128 128 89
134 133 92
134 133 92
131 131 90
133 133 92
131 130 90
142 140 93
137 138 96
140 139 95
139 138 93
132 133 94
137 136 94
130 131 92
148 147 99
152 150 103
137 138 97
148 146 98
151 149 100
153 150 101
154 152 102
156 154 103
146 145 100
150 148 98
157 155 103
153 151 98
156 154 103
160 157 104
156 154 104
158 155 104
156 154 103
158 156 103
163 161 105
170 166 110
164 161 107
167 164 107
162 159 104
170 165 108
169 165 109
165 161 103
168 164 106
168 164 106
167 164 108
166 163 103
168 165 109
171 167 110
167 164 108
173 168 108
174 169 108
170 165 105
173 169 108
171 168 108
172 168 109
174 170 109
172 167 108
174 169 108
175 170 108
169 166 108
175 170 111
174 169 109
176 171 108
174 170 111
177 172 109
171 167 108
171 167 108
175 169 108
173 168 106
176 170 108
173 169 108
172 168 106
177 171 110
170 166 105
174 168 105
177 170 106
171 167 107
172 167 106
173 168 103
169 165 102
173 168 106
175 169 107
170 166 106
173 168 105
170 165 103
173 168 104
169 163 102
167 162 99
173 168 106
170 165 106
171 165 104
165 160 100
166 162 101
168 163 103
168 163 101
169 163 102
169 164 101
171 165 102
170 164 102
170 163 100
160 156 96
165 159 95
166 160 99
167 162 97
162 157 95
157 153 89
162 155 93
161 156 95
167 161 101
168 162 97
162 156 92
159 153 93
157 150 87
164 158 95
156 151 89
154 149 81
159 153 90
157 150 84
149 143 83
153 147 84
159 152 84
150 144 79
138 132 70
153 147 80
158 151 84
140 134 69
142 136 72
130 124 63
129 123 65
146 139 75
133 128 63
124 119 58
169 188 28
172 195 0
169 192 0
171 194 0
174 198 0
172 194 0
174 197 0
172 196 0
174 197 0
173 196 0
175 198 0
176 198 0
175 198 0
170 193 0
174 197 0
169 193 0
174 197 0
173 197 0
172 196 0
173 196 0
174 197 0
174 198 0
173 197 0
172 195 0
174 197 0
169 193 0
173 196 0
174 197 0
174 197 0
174 197 0
173 196 0
175 198 0
174 197 0
175 198 0
172 196 0
171 195 0
172 196 0
172 196 0
174 197 0
174 198 0
171 195 0
171 195 0
174 197 0
174 197 0
174 197 0
172 195 0
173 196 0
172 195 0
172 196 0
173 197 0
173 197 0
173 197 0
172 195 0
173 195 0
174 197 0
172 196 0
172 196 0
172 195 0
171 195 0
171 195 0
171 195 0
173 196 0
173 196 0
173 196 0
173 197 0
172 195 0
170 193 0
171 195 0
174 198 0
172 196 0
174 196 0
173 196 0
173 196 0
172 195 0
174 198 0
171 195 0
173 196 0
172 196 0
174 196 0
174 197 0
175 198 0
173 196 0
174 196 0
173 197 0
172 196 0
170 193 0
174 197 0
172 196 0
172 195 0
174 198 0
170 194 0
171 195 0
174 197 0
171 194 0
174 197 0
173 197 0
173 196 0
170 194 0
174 197 0
171 195 0
173 196 0
174 197 0
173 196 0
173 197 0
173 196 0
173 196 0
173 197 0
172 196 0
174 196 0
172 195 0
171 195 0
171 194 0
170 193 0
170 194 0
171 195 0
172 195 0
161 184 65
81 113 160
62 99 174
62 99 174
62 99 176
62 99 172
62 98 173
63 99 178
62 99 179
62 99 175
61 98 175
62 99 177
62 99 178
62 99 178
62 99 177
62 99 175
63 99 179
62 99 177
62 99 180
62 99 179
62 99 179
62 99 178
62 99 178
62 99 181
62 99 180
62 99 179
62 99 180
61 99 180
62 99 180
62 99 181
62 99 181
62 99 181
62 99 181
62 99 181
62 99 181
62 99 181
62 99 181
62 99 181
62 99 181
62 99 179
62 99 180
62 99 181
61 99 180
61 98 181
62 99 181
61 99 181
61 99 181
61 99 181
61 98 181
62 99 180
62 99 181
61 98 181
62 99 181
62 99 181
62 99 181
61 99 181
62 99 180
62 99 181
62 99 180
61 99 181
61 98 181
62 99 181
61 99 181
62 99 181
62 99 181
61 98 179
61 99 181
62 99 181
62 99 181
62 99 180
62 99 181
62 99 180
62 99 180
62 99 181
62 99 180
61 99 181
62 99 181
62 99 180
61 99 179
61 99 181
62 99 180
63 100 181
61 98 178
62 99 181
61 99 180
62 99 181
62 99 181
61 99 181
62 99 180
62 99 181
62 99 180
61 99 179
62 99 180
62 99 181
61 98 178
62 99 179
62 99 179
61 99 177
62 99 178
61 98 180
62 99 178
62 99 179
62 99 178
62 99 180
62 99 181
61 99 178
62 99 178
62 99 178
61 98 178
61 99 179
61 98 176
61 98 176
61 97 174
62 99 175
62 99 180
62 98 176
62 99 179
61 97 172
62 99 176
61 98 176
61 96 169
61 97 173
62 98 176
62 98 173
61 97 171
61 97 170
62 97 172
61 98 174
61 96 166
109 114 107
119 116 56
126 123 64
132 128 74
128 124 73
129 125 71
128 124 72
122 119 75
129 127 78
138 134 83
126 123 72
114 113 74
140 136 86
101 102 69
127 126 84
124 122 80
128 127 84
122 121 79
126 125 82
123 123 83
122 121 82
117 118 81
131 129 86
127 128 88
130 130 88
132 131 89
128 128 88
119 119 82
135 134 93
131 131 90
142 140 95
136 135 91
146 145 99
145 143 97
137 136 93
127 129 90
144 143 98
142 140 95
139 138 95
147 145 99
146 145 99
146 145 98
137 137 96
138 138 93
149 148 100
152 150 99
150 148 99
145 145 98
153 151 102
156 154 105
159 156 103
153 152 104
158 156 104
159 157 103
154 152 102
152 149 100
162 159 106
158 156 103
164 161 107
161 159 105
162 159 106
162 159 105
162 159 104
157 154 103
168 165 108
169 164 106
172 167 109
171 167 109
165 162 108
169 165 107
173 169 110
173 168 108
168 164 105
172 167 108
174 170 111
168 165 106
174 169 109
175 170 110
171 167 108
173 169 110
173 168 109
172 167 104
175 170 110
175 170 108
174 169 108
172 168 106
175 171 109
177 171 108
171 167 108
175 170 109
174 170 107
171 167 103
176 170 108
176 171 110
175 170 106
173 169 107
175 170 108
174 169 107
173 168 104
169 163 103
171 165 104
172 167 106
174 169 109
177 171 108
175 170 106
171 166 103
172 167 106
175 169 104
173 167 106
171 166 106
173 167 106
173 167 101
165 161 101
167 162 102
169 165 103
167 161 98
175 168 106
168 163 100
170 164 101
172 166 101
166 161 99
167 161 99
167 161 95
167 161 99
162 157 92
162 156 93
167 160 98
167 161 98
163 158 98
164 158 92
160 155 93
170 164 97
163 156 91
160 154 92
167 160 90
163 156 95
163 157 93
163 157 93
159 154 90
162 156 93
153 147 84
146 141 81
160 155 90
158 151 87
158 150 86
157 151 80
147 140 80
156 148 84
155 148 82
139 133 65
137 131 69
145 138 71
138 133 61
129 125 59
133 127 62
152 167 22
174 197 0
173 196 0
175 198 0
173 195 0
172 194 0
174 197 0
174 198 0
173 197 0
174 197 0
173 196 0
172 196 0
173 196 0
174 196 0
173 196 0
174 197 0
174 197 0
168 192 0
173 196 0
171 195 0
174 197 0
175 198 0
172 195 0
170 194 0
175 198 0
173 196 0
173 195 0
172 195 0
172 195 0
172 196 0
174 197 0
172 195 0
171 195 0
173 196 0
173 196 0
171 194 0
173 196 0
172 196 0
173 197 0
174 198 0
174 197 0
174 197 0
170 194 0
173 196 0
171 195 0
173 196 0
174 197 0
175 198 0
174 198 0
175 198 0
171 195 0
174 197 0
172 195 0
174 197 0
174 197 0
173 197 0
173 197 0
170 194 0
175 198 0
173 197 0
173 197 0
173 196 0
174 197 0
172 195 0
171 194 0
173 196 0
171 195 0
172 195 0
172 196 0
174 197 0
172 196 0
172 196 0
174 197 0
172 196 0
169 193 0
172 196 0
172 195 0
171 195 0
173 196 0
174 197 0
174 196 0
173 195 0
173 196 0
172 196 0
173 196 0
171 194 0
172 195 0
174 196 0
172 195 0
172 195 0
172 196 0
174 197 0
173 196 0
173 197 0
173 196 0
172 196 0
173 196 0
171 194 0
173 197 0
172 195 0
171 196 0
172 195 0
170 194 0
169 192 0
169 192 0
172 195 0
174 196 0
173 196 0
172 195 0
172 196 0
171 194 0
174 197 0
174 197 0
171 194 0
175 197 0
164 187 60
80 112 161
61 98 175
62 99 172
62 99 173
62 98 169
62 99 174
63 99 175
62 99 176
62 99 174
62 99 175
63 100 179
62 99 176
62 99 177
62 99 175
62 99 179
62 99 179
62 99 180
62 99 178
62 99 178
62 99 180
62 99 179
61 99 181
62 99 180
61 99 179
62 99 178
62 99 179
62 99 181
62 99 181
62 99 179
62 99 180
62 99 181
63 100 181
62 99 180
62 99 180
62 99 180
62 99 181
62 99 181
61 99 181
61 98 180
62 99 180
62 99 180
62 99 181
61 99 181
62 99 180
62 99 181
62 99 181
61 99 178
61 98 181
62 99 181
61 99 179
61 99 181
62 99 181
61 98 180
62 99 181
62 99 181
62 99 181
62 99 180
62 99 180
61 99 180
62 99 180
62 99 181
62 99 181
61 98 180
62 99 181
62 99 180
62 99 181
61 99 181
63 100 181
62 99 180
62 99 181
62 99 180
62 99 181
62 99 181
62 99 180
62 99 180
62 99 180
62 99 180
62 99 180
62 99 181
62 99 181
62 99 181
62 99 179
61 99 181
62 99 180
62 99 181
62 99 181
62 99 180
62 99 180
62 99 179
62 99 180
61 98 179
61 98 180
62 99 181
62 99 181
61 98 179
61 99 179
62 99 180
62 99 180
62 99 181
62 99 181
62 99 180
62 99 179
62 99 181
62 99 179
63 99 178
62 99 178
62 99 176
61 98 177
62 99 178
62 99 177
62 99 178
62 98 178
61 98 174
62 99 174
63 99 176
61 98 172
60 97 172
61 97 173
61 98 176
62 98 173
61 97 170
63 99 173
61 98 174
61 97 175
61 97 170
61 97 173
61 97 172
61 98 175
60 94 161
60 94 163
99 111 127
128 125 72
130 126 74
132 128 74
131 127 72
125 121 70
127 124 75
118 115 69
126 124 72
125 122 78
128 126 84
116 115 77
123 121 78
124 123 82
115 114 75
134 132 84
121 120 79
126 127 87
125 125 85
124 124 80
130 130 87
117 118 82
118 118 80
121 121 84
125 125 87
127 126 83
119 120 86
112 114 80
117 118 85
135 134 92
138 136 91
135 134 92
141 140 95
135 134 92
155 152 102
137 137 94
141 139 95
134 134 92
155 153 104
144 142 96
147 146 100
147 146 99
145 145 99
151 149 101
141 140 93
152 150 100
146 146 100
154 152 103
158 155 103
148 147 99
149 148 98
157 154 102
162 158 106
159 156 104
157 155 102
158 156 102
162 159 103
162 159 107
158 156 103
163 161 108
161 157 103
167 164 109
164 160 107
166 162 107
162 159 107
162 159 104
168 165 107
167 164 105
170 166 109
171 167 109
167 163 107
169 165 107
166 162 104
171 166 107
173 168 110
172 168 109
172 168 105
174 169 108
176 170 110
176 171 108
171 167 104
175 170 108
174 169 103
172 167 105
176 170 107
174 169 110
176 170 110
174 170 109
177 172 112
173 169 108
175 169 106
175 170 109
175 171 110
177 171 108
174 169 104
170 165 104
173 168 104
175 170 108
175 170 109
178 171 108
173 168 106
176 169 106
175 170 106
176 170 106
174 169 108
172 166 104
173 167 103
173 168 104
173 168 104
169 164 97
169 163 101
173 167 106
169 164 101
167 162 99
170 165 104
168 163 102
170 165 99
165 159 95
170 164 100
167 161 99
166 160 94
170 164 103
169 163 98
164 159 96
156 151 91
157 151 93
169 163 95
166 160 97
162 157 96
161 154 92
160 154 93
157 152 87
162 157 95
162 156 93
159 153 91
161 155 90
161 155 87
153 147 84
160 155 89
160 153 93
156 149 85
133 128 67
156 150 84
153 147 82
150 145 79
153 146 80
145 140 76
141 136 75
147 142 75
150 143 75
142 136 67
137 130 64
128 123 61
127 122 62
147 160 34
173 195 0
173 194 0
174 196 0
174 197 0
172 193 0
174 197 0
174 197 0
174 197 0
173 196 0
172 195 0
174 197 0
174 197 0
174 197 0
174 198 0
171 195 0
173 196 0
173 196 0
172 196 0
172 196 0
171 195 0
173 197 0
174 197 0
171 195 0
173 197 0
174 197 0
174 197 0
171 195 0
170 194 0
171 194 0
176 199 0
174 196 0
173 197 0
173 197 0
172 196 0
170 192 0
172 196 0
174 196 0
172 196 0
172 196 0
174 197 0
172 196 0
171 195 0
172 196 0
171 195 0
175 198 0
175 198 0
172 195 0
173 197 0
171 194 0
171 195 0
174 196 0
173 196 0
173 196 0
173 196 0
172 196 0
173 197 0
174 197 0
171 195 0
173 196 0
174 197 0
172 197 0
171 195 0
174 197 0
172 195 0
173 196 0
169 192 0
171 194 0
174 196 0
171 195 0
174 197 0
173 196 0
173 197 0
174 196 0
174 197 0
173 197 0
172 195 0
170 193 0
171 195 0
171 195 0
171 195 0
172 194 0
172 196 0
172 195 0
173 195 0
171 193 0
171 194 0
171 194 0
171 194 0
173 195 0
168 192 0
172 195 0
174 197 0
172 195 0
172 196 0
171 194 0
173 196 0
173 196 0
171 195 0
171 193 0
174 197 0
172 196 0
171 195 0
172 196 0
171 195 0
173 195 0
173 196 0
173 196 0
170 193 0
171 194 0
171 194 0
171 195 0
173 196 0
172 196 0
167 190 36
84 116 160
62 99 170
63 100 179
62 99 174
63 99 175
62 99 179
61 98 174
62 99 178
62 99 176
62 99 178
62 99 175
63 100 179
62 99 179
62 99 179
62 99 175
62 99 179
62 99 177
61 99 178
62 99 179
62 99 179
62 99 180
61 98 177
61 99 181
62 99 176
62 99 180
62 99 181
61 98 175
61 99 180
62 99 180
62 99 181
62 99 181
62 99 180
62 99 180
62 99 178
62 99 180
62 99 177
62 99 180
62 99 181
62 99 180
61 99 181
62 99 180
63 100 180
62 99 181
62 99 180
62 99 180
62 99 180
61 99 179
62 99 180
61 99 180
61 99 181
62 99 180
61 99 181
62 99 181
61 99 181
61 99 181
62 99 181
62 99 180
62 99 180
61 99 181
61 99 180
61 98 181
62 99 181
61 99 181
61 99 181
61 98 180
62 99 180
62 99 180
62 99 181
62 99 180
62 99 181
61 99 180
63 100 181
61 99 179
61 98 180
61 99 180
62 99 181
61 99 181
62 99 181
62 99 180
62 99 181
62 99 181
62 99 180
61 98 178
61 98 178
62 99 181
62 99 180
62 99 181
62 99 179
62 99 180
62 99 181
62 99 181
62 99 178
62 99 179
63 100 180
62 99 180
62 99 179
62 99 179
62 99 179
62 99 178
63 100 180
62 99 180
62 99 181
62 99 179
62 99 178
63 100 179
62 99 178
62 99 174
61 98 177
61 98 178
61 98 179
62 98 172
62 98 177
62 99 175
62 98 176
61 98 174
62 99 179
62 98 177
61 98 177
61 97 169
62 99 175
61 97 173
61 97 168
62 98 174
61 98 174
62 98 174
61 96 170
61 97 173
61 97 174
61 98 171
60 95 164
60 96 168
61 94 162
109 114 116
123 120 71
138 134 76
134 129 71
119 117 69
125 123 71
127 124 70
120 118 74
121 119 74
130 128 79
122 121 81
120 120 79
126 124 80
109 110 74
124 123 79
115 116 76
122 121 79
115 116 79
119 120 84
120 120 83
123 123 83
132 132 89
121 121 83
128 128 88
120 120 83
126 126 86
120 120 84
128 129 91
127 128 89
121 123 87
127 126 87
142 141 98
147 144 97
133 133 94
131 131 88
144 142 96
149 147 98
150 148 101
142 140 96
145 144 98
145 144 97
148 147 100
149 147 101
147 146 99
151 149 101
146 145 98
142 142 96
151 149 100
152 150 100
155 152 100
149 147 99
147 146 96
158 155 104
157 155 103
166 162 106
165 162 107
160 157 104
161 158 103
161 158 104
166 162 106
160 157 104
162 158 103
161 159 104
163 159 105
163 161 105
169 165 105
171 166 107
167 163 104
173 169 109
166 162 102
171 166 107
173 168 109
169 166 108
172 168 106
171 167 109
173 169 109
174 170 110
171 167 104
173 169 107
173 169 109
174 169 109
175 170 107
173 168 107
174 170 109
172 167 106
171 167 104
175 171 110
173 168 105
177 171 110
176 171 108
171 167 106
175 170 104
173 169 106
174 169 110
175 169 106
171 167 104
176 171 107
174 168 106
175 169 106
173 169 109
172 167 103
175 170 106
171 166 104
172 167 104
172 166 104
172 168 104
169 165 101
174 168 106
170 164 99
171 165 101
170 164 102
166 160 97
171 165 103
170 165 101
166 161 97
168 161 98
168 162 101
171 165 101
175 168 104
169 163 101
167 162 99
168 162 97
170 164 103
166 159 92
166 161 97
168 161 98
166 159 99
165 159 95
163 157 88
164 158 94
172 165 99
153 147 84
162 155 91
149 143 85
156 149 86
157 150 86
161 155 87
158 153 84
156 150 86
155 149 83
157 150 81
154 148 85
151 146 75
153 146 81
150 145 75
148 142 82
150 144 78
134 129 69
138 132 63
137 131 67
135 129 70
137 131 70
132 126 59
136 145 37
174 196 0
175 197 0
172 195 0
174 196 0
172 195 0
172 195 0
173 197 0
173 197 0
173 197 0
172 196 0
172 195 0
173 196 0
173 196 0
174 198 0
174 196 0
171 195 0
174 198 0
173 197 0
173 197 0
174 197 0
171 194 0
172 196 0
174 197 0
175 198 0
172 196 0
171 195 0
173 197 0
173 197 0
172 195 0
174 198 0
174 197 0
173 196 0
175 198 0
172 196 0
173 197 0
173 197 0
173 197 0
172 196 0
171 195 0
173 197 0
172 194 0
172 195 0
174 197 0
172 196 0
172 196 0
173 196 0
173 196 0
173 197 0
174 197 0
174 197 0
170 194 0
169 192 0
173 197 0
172 196 0
175 198 0
175 198 0
173 196 0
170 194 0
172 195 0
173 197 0
172 196 0
172 196 0
174 196 0
173 197 0
173 196 0
173 197 0
170 194 0
173 196 0
172 195 0
173 196 0
171 194 0
171 194 0
172 195 0
171 194 0
173 196 0
172 196 0
173 196 0
172 195 0
173 196 0
173 197 0
171 194 0
173 197 0
172 195 0
172 195 0
171 195 0
172 196 0
172 195 0
171 194 0
170 193 0
172 195 0
173 196 0
171 195 0
173 196 0
172 195 0
172 195 0
172 196 0
172 195 0
175 198 0
172 196 0
173 195 0
175 198 0
172 196 0
170 193 0
172 195 0
172 195 0
170 193 0
172 196 0
173 196 0
169 193 0
173 196 0
171 196 0
174 197 0
170 194 31
117 143 130
63 100 178
62 98 171
62 99 175
62 99 173
63 99 175
61 98 171
63 99 176
62 99 179
62 99 178
62 99 174
62 99 179
62 99 178
62 98 175
62 99 175
62 99 177
62 99 176
62 99 179
62 99 179
62 99 177
62 99 180
62 99 179
61 99 180
62 99 180
62 99 180
62 99 180
62 99 179
62 99 180
63 100 180
62 99 181
62 100 181
61 99 180
62 99 180
62 99 181
62 99 181
62 99 180
61 98 180
61 99 179
62 99 181
61 98 180
62 99 181
61 98 177
61 99 180
61 99 180
62 99 181
62 99 180
62 99 180
61 99 181
61 99 181
61 98 181
62 99 180
61 99 180
62 99 181
62 99 181
62 99 180
62 99 181
62 99 181
62 99 180
62 99 181
62 99 181
62 99 181
61 98 181
61 98 181
61 99 181
61 99 181
62 99 181
62 99 181
61 99 181
62 99 181
62 99 178
62 99 179
62 99 181
61 98 181
62 99 179
62 99 180
62 99 181
61 98 180
62 99 180
62 99 181
62 99 181
62 99 180
61 99 179
63 100 180
62 99 180
62 99 180
61 99 180
62 99 179
61 98 177
62 99 179
62 99 180
61 99 180
62 99 181
63 100 181
62 99 180
62 99 181
62 99 180
62 99 180
62 99 179
62 99 181
62 99 179
63 99 178
63 100 180
62 99 180
62 99 179
62 99 177
62 99 175
62 99 181
61 98 178
62 99 175
62 99 179
62 99 179
62 99 181
62 99 178
62 98 176
62 99 177
62 98 176
62 98 176
62 98 178
63 99 175
62 98 178
62 99 176
62 99 177
61 98 175
62 98 174
61 98 173
61 97 172
61 98 174
62 98 174
61 97 169
60 95 168
61 96 168
60 95 167
60 96 172
63 95 160
111 113 97
127 124 68
124 120 66
130 126 73
119 116 65
124 121 71
133 130 81
126 124 78
115 114 71
122 120 74
115 114 77
123 122 77
115 114 76
113 113 75
120 119 80
116 116 79
124 123 82
125 125 87
118 118 80
121 121 85
120 120 83
122 122 85
126 128 90
125 125 85
124 124 86
111 113 82
130 131 92
134 134 93
130 130 90
130 130 89
126 128 90
133 133 88
129 130 92
139 139 98
137 136 94
146 145 98
148 148 101
144 143 98
145 144 98
151 150 101
140 139 95
146 145 100
147 147 99
138 137 92
151 149 98
144 143 98
143 143 97
152 150 101
160 156 103
152 150 101
154 152 102
155 153 103
167 163 106
154 152 103
156 154 101
165 162 108
162 159 104
157 154 100
166 163 107
168 164 107
161 158 102
170 166 110
169 165 104
168 164 107
171 166 106
165 161 103
169 165 106
171 166 107
170 167 110
173 168 108
169 165 107
171 167 109
170 165 103
173 168 106
175 170 108
175 170 108
173 169 107
172 167 107
177 171 109
168 164 103
174 168 102
173 168 109
176 171 111
169 165 100
173 168 106
174 170 109
177 171 107
173 169 106
172 168 106
173 169 106
173 168 107
174 168 103
173 169 106
173 169 108
176 170 108
173 169 108
176 171 110
172 167 103
172 167 105
172 167 101
171 164 101
174 168 104
170 165 104
170 166 105
174 169 106
176 169 108
175 169 105
173 167 103
169 163 102
171 166 99
173 167 102
167 163 98
168 163 95
173 167 103
171 166 102
168 162 100
171 165 99
169 164 97
174 168 103
168 162 100
171 164 99
166 159 95
166 160 93
167 161 94
169 162 98
158 152 91
165 160 95
165 158 95
159 153 92
161 155 93
160 153 89
166 159 95
159 153 85
161 156 93
159 152 89
162 156 91
156 150 81
160 153 87
155 149 83
158 151 85
158 152 85
149 143 78
155 148 83
146 140 75
147 141 81
148 141 77
136 131 62
141 135 66
147 141 75
137 131 64
130 125 60
124 119 54
150 155 52
172 196 0
172 195 0
174 197 0
172 194 0
173 196 0
173 195 0
174 197 0
171 195 0
173 196 0
173 197 0
172 196 0
173 197 0
175 198 0
172 195 0
172 195 0
172 195 0
173 197 0
173 197 0
174 197 0
172 196 0
172 196 0
174 197 0
172 196 0
170 194 0
174 197 0
174 197 0
173 196 0
173 197 0
172 195 0
175 198 0
175 198 0
173 197 0
171 195 0
174 197 0
175 197 0
172 195 0
173 197 0
173 196 0
172 196 0
173 197 0
172 194 0
173 197 0
174 197 0
172 196 0
170 194 0
173 197 0
173 196 0
173 196 0
171 195 0
172 195 0
173 197 0
172 196 0
173 196 0
172 195 0
173 196 0
173 197 0
175 198 0
171 194 0
174 197 0
174 197 0
173 196 0
171 194 0
173 196 0
171 195 0
174 197 0
175 198 0
172 195 0
173 196 0
174 197 0
174 197 0
171 195 0
174 197 0
169 192 0
171 196 0
175 197 0
173 196 0
172 194 0
171 194 0
171 194 0
173 196 0
170 193 0
171 195 0
173 196 0
171 194 0
171 195 0
169 192 0
167 190 0
174 197 0
170 193 0
171 194 0
174 196 0
170 193 0
170 193 0
171 195 0
174 198 0
170 193 0
173 195 0
171 194 0
173 197 0
173 195 0
173 196 0
173 195 0
169 192 0
173 195 0
174 196 0
170 193 0
171 194 0
172 194 0
173 196 0
174 197 0
174 198 0
171 194 0
107 135 142
61 98 170
62 98 170
62 99 177
62 99 173
63 99 174
62 99 176
62 99 177
62 99 177
62 99 175
62 99 180
62 99 178
62 99 177
62 99 179
63 99 175
62 99 179
62 99 179
62 99 178
62 99 178
62 99 180
62 99 180
62 99 179
61 98 179
62 99 176
62 99 179
62 99 180
62 99 178
62 99 179
62 99 180
62 99 179
61 98 179
62 99 181
62 99 180
62 99 181
62 99 181
62 99 180
62 99 181
62 99 181
62 99 180
62 99 179
62 99 181
62 99 180
62 99 180
62 99 181
62 99 180
62 99 181
63 100 179
62 99 181
61 99 181
62 99 181
62 99 180
62 99 180
61 98 179
62 99 181
62 99 180
62 99 181
62 99 180
61 99 180
61 99 181
61 99 180
63 100 181
61 99 179
62 99 181
62 99 181
63 100 181
62 99 181
61 99 180
62 99 180
62 99 181
62 99 181
61 99 180
62 99 180
61 98 181
61 99 180
61 99 181
61 98 179
61 99 181
62 99 181
62 99 180
62 99 177
61 99 181
62 99 180
62 99 178
62 99 181
61 99 177
62 99 181
62 99 181
62 99 180
62 99 181
61 98 181
62 99 181
62 99 181
62 99 179
62 99 178
62 99 179
62 99 180
61 98 177
62 99 181
62 99 181
62 99 179
62 99 180
62 99 179
62 99 177
62 99 177
61 98 178
62 99 179
62 99 175
62 99 178
62 99 176
62 99 177
62 99 180
62 99 179
62 98 174
62 98 176
62 99 174
62 99 178
62 98 176
62 98 175
61 98 179
62 99 176
61 98 174
62 99 180
62 98 174
62 99 177
61 97 173
62 98 174
62 99 175
61 98 172
61 97 173
62 97 171
60 96 171
61 97 173
61 97 171
59 95 164
61 97 171
61 93 156
123 123 91
119 116 65
113 112 67
118 116 69
106 105 62
124 122 74
120 119 77
116 113 70
112 112 73
118 118 79
111 111 76
111 111 76
121 120 80
115 115 78
123 123 84
113 113 76
111 112 79
109 111 77
121 120 81
123 123 83
116 117 81
119 120 83
126 125 86
132 130 89
121 122 86
121 122 88
121 122 86
127 127 89
128 129 90
131 131 92
138 137 94
131 131 90
125 126 86
132 132 92
138 138 94
129 129 92
146 145 99
139 139 94
136 136 94
149 147 99
146 144 97
144 142 96
145 145 98
158 155 103
148 146 97
147 146 96
156 155 104
152 150 102
153 151 100
153 152 103
165 161 106
163 159 104
159 157 105
163 160 105
162 158 102
162 160 105
163 160 103
162 159 107
162 159 102
168 164 106
166 163 107
163 160 105
165 162 106
167 164 103
168 164 104
170 166 108
173 168 108
169 166 108
171 167 105
166 162 104
169 166 106
170 167 107
169 165 104
173 168 104
171 166 105
170 165 104
174 169 108
173 169 108
172 167 103
173 168 103
173 168 103
176 171 108
177 171 108
173 169 108
173 168 105
172 168 107
174 168 105
174 168 104
172 167 105
171 167 105
176 170 108
174 168 103
175 169 104
176 171 108
171 167 106
170 166 101
173 168 106
173 168 104
172 167 105
173 167 103
169 163 99
168 163 99
175 170 108
172 167 104
168 163 106
169 163 100
174 168 104
168 163 97
167 162 97
171 166 102
166 160 96
169 163 100
167 163 97
172 166 99
171 165 100
168 163 101
171 164 98
171 164 98
168 162 101
164 158 93
168 162 95
160 154 92
165 160 94
164 158 90
160 155 95
160 154 88
160 155 92
166 160 97
154 149 86
165 159 93
166 159 90
161 155 89
153 148 83
156 149 83
154 149 87
156 150 85
160 153 88
159 152 84
151 145 81
153 146 80
153 147 82
152 146 80
146 140 75
148 141 74
132 127 64
150 144 74
139 134 65
141 136 71
147 139 77
135 130 63
121 117 64
148 150 53
172 195 0
172 195 0
173 196 0
172 196 0
171 193 0
171 194 0
172 196 0
173 196 0
173 197 0
175 198 0
173 196 0
175 198 0
174 196 0
169 193 0
174 197 0
172 196 0
174 197 0
173 197 0
172 195 0
174 198 0
173 197 0
173 196 0
174 197 0
172 196 0
170 194 0
175 198 0
173 197 0
176 199 0
173 197 0
172 196 0
173 197 0
173 197 0
170 194 0
173 196 0
174 197 0
173 197 0
173 197 0
174 198 0
174 197 0
174 196 0
170 194 0
170 194 0
171 195 0
173 197 0
173 197 0
172 196 0
174 197 0
174 197 0
174 198 0
170 193 0
171 195 0
174 198 0
172 195 0
171 195 0
173 197 0
172 196 0
172 195 0
173 197 0
176 198 0
174 198 0
172 195 0
172 195 0
174 197 0
174 197 0
170 195 0
172 196 0
172 195 0
171 195 0
173 195 0
172 195 0
173 196 0
171 195 0
171 194 0
174 196 0
173 196 0
173 196 0
173 196 0
172 195 0
175 197 0
172 195 0
171 194 0
172 195 0
170 193 0
171 194 0
171 194 0
171 195 0
174 197 0
173 196 0
171 195 0
174 198 0
171 195 0
172 196 0
173 196 0
170 193 0
168 191 0
173 197 0
174 197 0
171 194 0
175 197 0
174 197 0
172 195 0
171 194 0
172 195 0
172 195 0
173 196 0
170 194 0
171 195 0
173 196 0
170 194 0
173 197 0
171 195 0
122 148 129
63 99 177
63 99 176
63 99 173
62 99 173
62 99 177
62 99 176
62 99 173
62 99 176
63 100 177
63 99 178
62 99 179
62 99 172
62 99 177
62 99 173
63 100 177
62 99 175
61 98 175
62 99 179
62 99 180
62 99 179
62 99 177
62 98 174
62 99 181
62 99 178
62 99 178
63 100 177
62 99 179
62 99 179
62 99 179
62 99 180
61 98 178
62 99 178
63 99 179
63 99 178
62 99 180
62 99 181
62 99 180
62 99 180
62 99 179
62 99 177
62 99 180
62 99 181
62 99 178
61 99 181
62 99 181
62 99 178
61 98 180
62 99 181
62 99 181
62 99 181
61 99 181
61 99 181
61 99 181
62 99 180
62 99 181
62 99 181
61 98 179
62 99 180
61 98 179
62 99 181
62 99 181
62 99 179
62 99 179
62 99 181
62 99 180
61 99 181
62 99 181
62 99 181
62 99 179
61 98 181
61 99 179
62 99 180
62 99 180
61 99 180
61 99 179
62 99 180
61 99 180
62 99 177
62 99 181
62 99 180
61 99 180
62 99 179
62 99 181
61 99 181
62 99 180
62 99 181
61 98 178
62 99 181
62 99 181
62 99 180
62 99 177
62 99 180
62 99 179
62 99 181
61 99 180
63 100 180
61 98 180
62 99 178
62 99 178
62 99 180
62 99 176
62 99 180
62 99 178
62 99 177
62 99 180
62 99 180
63 99 180
61 98 179
61 98 176
62 99 177
62 99 177
61 98 176
62 99 177
62 99 176
62 99 176
62 98 174
62 99 178
61 97 173
62 99 180
62 98 173
62 99 177
61 97 172
62 98 174
62 99 176
62 98 176
61 98 175
62 99 177
62 98 173
62 99 175
62 98 172
61 96 167
62 97 168
60 96 169
61 96 164
61 97 167
59 94 162
76 101 156
124 123 84
118 116 67
116 116 72
121 119 78
118 117 72
100 101 67
117 117 71
118 117 78
121 119 77
114 113 72
113 111 72
103 104 72
109 110 75
102 104 73
123 123 82
118 117 81
109 111 78
111 111 78
113 115 80
126 125 82
123 123 84
118 119 84
126 125 86
119 120 84
120 122 86
131 131 89
125 126 88
127 126 88
128 129 89
124 125 86
126 128 91
131 130 89
129 130 92
125 126 87
133 133 91
136 135 93
145 143 97
146 145 100
142 141 95
148 147 98
149 147 100
148 147 101
142 141 93
155 153 104
153 151 101
149 147 99
150 148 98
156 153 102
153 150 99
153 151 102
161 158 105
161 158 104
144 142 90
159 156 100
161 158 104
158 155 102
163 159 103
165 162 102
163 159 103
168 164 108
164 160 101
165 161 104
162 159 104
166 162 105
163 159 102
168 165 104
169 165 103
171 166 104
173 168 108
174 169 110
174 169 107
172 167 108
173 169 107
173 168 108
172 167 103
170 166 106
176 171 109
178 172 111
175 170 110
172 167 104
177 172 109
174 169 107
174 169 108
174 170 108
178 171 105
174 169 106
174 168 105
177 171 108
177 171 106
174 168 107
172 168 104
173 168 102
173 168 103
171 165 103
174 169 104
177 170 106
174 169 99
172 165 101
176 169 104
172 167 103
175 167 105
166 161 99
174 168 103
173 168 101
170 166 101
173 167 102
168 162 97
171 166 103
171 166 101
172 167 103
169 164 101
173 167 101
168 163 101
166 161 95
174 167 101
172 165 101
164 158 92
171 165 98
169 164 100
165 159 93
167 161 96
162 157 92
168 161 96
163 157 93
168 161 96
160 154 90
164 159 90
162 156 92
159 153 84
161 155 90
164 157 90
157 151 86
159 153 88
158 152 84
160 153 88
149 144 78
154 148 82
156 151 84
148 144 71
153 147 80
152 145 77
146 141 75
144 139 72
154 147 84
144 138 75
146 141 72
128 123 60
141 135 68
145 138 75
127 123 59
141 138 60
173 196 0
171 194 0
174 196 0
174 196 0
174 197 0
173 196 0
172 195 0
172 196 0
171 195 0
172 196 0
174 198 0
173 197 0
173 197 0
173 197 0
169 194 0
171 194 0
173 196 0
173 197 0
175 198 0
173 196 0
172 195 0
173 196 0
172 195 0
175 198 0
171 195 0
174 197 0
174 197 0
173 195 0
173 196 0
171 196 0
174 197 0
174 197 0
174 197 0
173 196 0
173 196 0
175 198 0
173 197 0
172 196 0
174 197 0
173 197 0
170 193 0
172 195 0
173 197 0
172 196 0
170 194 0
171 194 0
172 195 0
173 197 0
173 197 0
173 196 0
174 197 0
176 199 0
173 197 0
173 196 0
171 194 0
171 194 0
173 197 0
173 197 0
174 197 0
172 195 0
170 194 0
173 196 0
173 196 0
173 196 0
174 197 0
173 196 0
172 195 0
171 194 0
173 196 0
171 194 0
171 194 0
173 196 0
171 195 0
172 195 0
173 196 0
174 197 0
174 197 0
172 195 0
173 197 0
173 197 0
171 194 0
172 196 0
172 195 0
170 192 0
173 196 0
172 196 0
171 195 0
169 193 0
173 196 0
173 197 0
173 197 0
173 196 0
172 195 0
170 193 0
175 198 0
169 193 0
174 197 0
170 194 0
171 194 0
173 196 0
169 192 0
173 196 0
172 194 0
169 194 0
169 193 0
172 194 0
173 196 0
172 195 0
172 195 0
171 194 0
138 162 108
62 99 170
62 99 172
62 99 175
61 98 174
61 98 173
62 99 175
62 98 173
63 99 175
63 100 178
61 98 177
61 98 178
63 99 172
62 99 175
62 98 173
62 99 179
62 99 178
62 99 178
62 99 180
62 99 179
62 99 177
62 99 178
62 99 179
62 99 178
62 99 179
62 99 174
62 99 179
62 99 178
62 99 180
61 98 178
63 99 179
61 99 180
62 99 181
62 99 178
62 99 180
62 99 180
62 99 178
62 99 181
61 99 181
63 100 181
62 99 181
61 99 181
62 99 181
63 100 181
62 99 181
62 99 179
61 98 180
62 99 181
62 99 180
62 99 180
63 100 181
62 99 180
62 99 179
61 99 180
62 99 180
63 100 181
62 99 180
62 99 178
62 99 178
62 99 179
62 99 180
61 98 181
61 99 179
62 99 181
61 98 180
62 99 179
61 98 177
62 99 181
62 99 179
61 99 179
62 99 181
62 99 181
62 99 181
62 99 179
62 99 178
62 99 179
62 99 181
62 99 181
62 99 179
62 99 180
62 99 180
62 99 181
62 99 180
62 99 178
62 100 181
62 99 179
62 99 177
62 99 179
62 99 178
61 98 176
61 98 179
62 99 181
62 99 179
62 99 181
61 99 178
62 99 179
62 99 179
62 99 180
62 99 181
62 99 180
62 100 181
61 99 181
62 99 178
62 99 178
62 99 178
62 99 179
62 99 178
62 99 178
62 99 179
63 100 180
62 99 177
62 99 174
61 98 176
62 99 175
62 99 179
62 99 179
62 99 175
62 99 180
62 99 178
62 99 178
62 98 178
62 99 176
61 98 177
61 98 174
61 98 173
62 99 173
62 98 172
62 99 177
62 98 173
61 97 167
61 98 173
61 98 171
61 96 167
62 98 172
62 98 175
61 96 168
59 94 165
62 98 174
58 92 158
77 98 143
115 114 74
117 114 70
115 112 67
114 112 67
114 113 71
110 110 72
118 117 73
98 100 69
122 121 79
98 98 67
117 117 77
119 118 79
110 111 76
112 113 79
105 107 75
114 115 79
108 110 79
96 100 73
114 115 80
117 116 80
115 117 85
123 123 86
116 117 81
125 125 87
125 126 89
125 127 89
119 121 84
132 133 93
128 129 91
130 131 91
120 121 85
133 132 92
142 141 97
127 127 88
143 143 98
134 134 93
143 143 98
137 137 95
142 141 96
141 141 96
149 147 98
144 143 96
155 152 101
152 150 97
156 153 103
148 146 96
146 146 99
150 149 97
159 156 104
157 154 103
161 156 102
160 156 102
156 153 100
161 158 103
152 151 101
161 159 102
162 158 101
162 157 100
161 158 101
159 156 104
170 166 106
170 166 107
167 163 105
168 164 105
173 168 109
168 163 106
166 163 103
172 168 107
172 167 105
171 167 108
171 166 102
172 167 105
172 167 105
162 160 99
172 166 103
173 169 109
173 169 105
171 167 105
173 168 105
174 169 105
176 171 107
175 169 106
172 166 102
174 170 107
176 171 109
176 170 105
173 169 105
174 168 107
177 171 108
175 169 103
175 170 106
175 169 105
173 168 102
174 167 106
171 166 103
174 168 101
176 170 106
170 165 101
174 169 104
177 171 107
168 162 96
174 168 105
177 171 106
171 166 102
174 167 102
166 161 99
171 165 99
174 167 101
168 163 97
173 166 100
169 162 101
168 163 96
169 163 99
169 163 96
166 160 91
161 155 93
164 159 95
170 164 97
167 162 95
170 165 95
172 166 98
163 157 93
162 157 90
157 151 84
159 153 85
169 161 96
153 148 87
164 158 94
167 160 93
163 157 92
158 151 85
152 147 82
161 154 87
150 144 79
161 154 89
147 140 76
157 151 84
151 146 79
150 145 76
157 152 81
153 147 75
155 148 83
145 139 71
142 136 68
142 136 68
145 138 69
130 125 63
134 129 64
133 127 62
139 134 69
170 194 0
173 195 0
174 197 0
172 196 0
173 196 0
172 194 0
173 196 0
174 197 0
174 198 0
173 196 0
173 197 0
173 196 0
173 196 0
175 198 0
172 196 0
172 196 0
173 196 0
175 198 0
173 196 0
170 193 0
174 198 0
171 194 0
172 196 0
172 196 0
174 197 0
172 195 0
174 197 0
174 198 0
175 198 0
173 196 0
175 197 0
173 197 0
173 197 0
172 196 0
175 198 0
172 196 0
173 197 0
171 195 0
173 197 0
174 197 0
172 196 0
173 196 0
172 196 0
173 196 0
170 193 0
172 196 0
172 196 0
173 196 0
174 197 0
172 196 0
172 194 0
174 197 0
169 192 0
172 195 0
175 198 0
170 194 0
173 196 0
172 196 0
173 196 0
172 196 0
173 196 0
174 197 0
171 195 0
171 194 0
171 194 0
174 197 0
170 193 0
174 197 0
172 196 0
171 195 0
172 195 0
172 195 0
171 194 0
169 192 0
172 196 0
171 194 0
172 195 0
174 197 0
170 194 0
173 196 0
175 198 0
171 194 0
171 195 0
170 194 0
171 195 0
172 196 0
173 196 0
171 194 0
172 196 0
171 194 0
172 195 0
173 197 0
171 195 0
170 194 0
169 193 0
171 195 0
170 194 0
174 197 0
170 193 0
171 194 0
174 197 0
169 193 0
170 193 0
174 196 0
172 195 0
172 195 0
169 193 0
174 196 0
173 196 0
155 179 74
67 102 165
62 99 175
62 99 171
62 99 174
62 98 171
62 99 173
62 99 175
62 99 178
62 99 175
63 99 176
62 98 173
62 99 177
63 99 177
62 99 180
62 99 178
62 99 177
62 99 177
62 99 175
62 99 177
61 98 180
62 99 178
62 99 180
61 98 174
62 99 178
62 99 177
61 99 180
62 99 178
62 99 180
62 99 181
62 99 178
62 99 180
62 99 180
62 99 181
62 99 180
62 99 179
61 99 181
62 99 177
62 99 180
62 99 180
62 99 181
62 99 181
62 99 181
61 98 178
62 99 179
62 99 181
62 99 181
62 99 180
62 99 181
62 99 181
62 99 181
61 99 180
62 99 180
62 99 179
62 99 181
62 99 180
62 99 180
62 99 179
61 98 179
62 99 181
61 98 178
62 99 181
62 99 178
62 99 181
62 99 180
62 99 180
62 99 181
62 99 181
61 99 181
62 99 181
61 99 179
62 99 179
61 99 180
62 99 180
62 99 181
62 99 178
62 99 179
62 99 178
62 99 180
62 99 179
62 99 180
62 99 180
62 99 180
62 99 180
62 99 179
62 99 181
62 99 180
62 99 178
61 98 177
61 98 179
62 99 180
62 99 178
62 99 180
61 98 179
62 99 179
62 99 180
62 99 180
62 99 179
61 99 178
62 99 181
62 99 180
61 98 176
61 98 178
62 99 181
62 99 181
62 99 177
62 99 177
62 99 175
61 98 176
62 99 177
62 99 177
62 99 179
62 99 177
61 98 176
62 99 177
62 99 177
62 98 177
62 98 175
61 98 175
61 98 173
62 99 173
62 99 177
61 98 174
61 98 176
61 98 176
61 97 171
62 98 174
62 98 175
62 99 179
61 97 174
61 97 171
61 97 170
61 96 169
62 98 170
62 97 169
61 96 171
61 96 167
61 97 170
61 96 169
60 96 169
60 95 168
88 103 135
110 109 61
123 120 73
114 113 71
122 121 77
110 109 69
105 104 66
119 118 73
107 106 67
122 120 82
118 118 76
111 112 75
105 107 74
106 106 72
108 109 72
111 112 79
116 117 81
110 111 77
115 116 80
108 110 79
122 123 86
118 119 83
114 116 83
124 124 86
113 115 79
137 135 92
111 112 80
126 126 88
129 128 86
130 131 91
127 128 89
130 130 91
127 128 91
132 132 90
133 133 90
142 141 96
143 142 98
150 148 101
138 137 92
144 143 98
151 150 101
151 149 101
147 146 97
152 150 100
145 144 96
153 152 100
163 159 104
150 149 100
149 147 98
157 155 102
156 153 99
162 157 102
157 155 102
156 153 102
157 155 101
157 154 100
163 160 102
166 161 104
163 160 102
167 163 105
161 158 103
169 164 105
169 165 105
169 166 104
167 163 103
167 163 103
169 165 103
170 166 104
170 166 104
171 166 107
170 166 108
171 166 102
172 168 107
171 166 103
175 170 108
167 164 104
176 170 104
173 168 106
174 170 106
174 169 103
174 168 107
171 166 102
177 171 110
175 170 106
172 168 105
176 170 105
175 169 103
175 169 104
176 170 101
176 170 105
175 170 107
176 171 108
171 166 104
175 169 104
173 167 103
171 166 103
172 165 99
173 167 103
175 169 106
174 168 103
175 169 107
172 166 98
174 168 101
170 165 98
170 165 101
167 161 95
165 159 97
165 159 97
170 164 101
170 164 101
168 163 95
168 163 101
162 157 90
173 166 97
163 158 95
167 160 93
169 163 95
164 158 92
167 160 99
169 162 97
158 152 88
162 157 92
162 157 90
161 156 93
161 155 90
164 157 92
164 158 90
169 162 91
156 150 78
154 148 81
152 147 88
150 144 78
162 156 86
160 154 85
150 145 83
155 149 81
148 142 72
153 147 83
143 138 66
150 145 77
156 150 75
147 142 77
146 140 75
146 139 73
147 141 73
144 138 76
144 138 69
136 131 62
128 123 61
134 128 63
169 192 0
173 197 0
171 193 0
170 193 0
173 196 0
174 197 0
174 198 0
173 197 0
175 198 0
172 195 0
173 196 0
174 198 0
174 197 0
173 195 0
172 196 0
175 198 0
172 196 0
174 197 0
175 198 0
174 197 0
175 198 0
175 198 0
173 197 0
174 197 0
171 195 0
171 196 0
172 196 0
172 196 0
172 195 0
173 196 0
172 196 0
170 194 0
174 196 0
173 197 0
173 197 0
172 196 0
173 196 0
170 193 0
173 197 0
169 193 0
172 196 0
174 197 0
170 193 0
173 196 0
172 195 0
171 196 0
171 195 0
170 194 0
171 194 0
171 195 0
171 195 0
175 197 0
171 195 0
171 195 0
169 193 0
173 197 0
174 197 0
171 194 0
172 195 0
172 195 0
174 198 0
173 197 0
171 194 0
173 195 0
172 196 0
172 196 0
172 196 0
175 197 0
173 197 0
173 196 0
172 195 0
170 194 0
169 193 0
171 195 0
174 197 0
171 195 0
169 193 0
175 198 0
172 196 0
172 195 0
170 194 0
173 196 0
173 197 0
171 195 0
172 195 0
172 195 0
171 193 0
173 197 0
174 198 0
169 192 0
172 196 0
171 194 0
169 193 0
172 195 0
171 194 0
172 195 0
170 194 0
173 196 0
171 195 0
172 195 0
175 197 0
171 195 0
172 194 0
171 194 0
172 194 0
172 195 0
172 196 0
168 191 0
168 191 40
79 111 161
62 99 172
63 99 174
63 99 175
62 99 177
62 98 173
62 99 174
62 99 176
62 99 173
62 98 171
62 99 178
62 99 177
62 99 178
62 99 178
62 99 177
63 100 180
62 99 176
62 99 178
62 99 180
62 99 179
62 99 179
62 99 181
62 99 178
62 99 177
62 99 175
61 98 179
62 99 178
62 99 180
62 99 179
62 99 180
62 99 178
62 99 179
62 99 180
62 99 180
61 98 178
62 99 179
62 99 180
62 99 179
62 99 179
61 99 179
62 99 181
62 99 181
62 99 180
62 99 180
62 99 181
62 99 181
62 99 181
61 99 179
62 99 179
62 99 181
62 99 181
62 99 180
61 99 181
61 99 181
62 99 178
62 99 179
61 99 181
62 99 179
62 99 181
62 99 179
62 99 180
62 99 181
62 99 179
61 99 180
62 99 180
61 99 181
62 99 180
62 99 179
61 99 181
62 99 180
61 98 178
62 99 179
62 99 179
62 99 179
61 99 181
61 99 178
62 99 180
61 99 180
62 99 181
61 99 180
61 98 180
62 99 179
62 99 180
62 99 178
61 99 179
62 99 179
62 99 181
62 99 179
62 99 177
61 99 178
62 99 179
62 99 181
62 99 180
62 99 179
61 98 178
62 99 179
62 99 180
62 99 176
62 99 177
62 100 181
62 99 178
62 99 177
62 99 179
62 99 178
62 99 179
61 99 180
62 99 179
62 99 176
63 100 179
62 99 175
62 99 178
62 99 179
61 98 175
61 98 174
62 99 177
62 99 177
62 99 179
61 98 171
62 99 178
62 99 176
62 99 175
62 99 175
62 98 175
62 98 174
62 99 178
61 98 171
62 98 171
62 98 176
61 98 174
62 98 172
60 96 170
62 98 174
62 98 173
61 98 174
63 99 174
62 97 167
62 98 173
60 95 166
62 98 170
60 96 165
59 93 158
61 96 167
96 106 119
116 114 68
108 108 66
104 103 64
109 109 70
105 105 65
117 115 72
111 110 73
101 102 69
95 96 68
98 100 68
112 113 75
99 102 72
104 107 76
102 105 73
113 113 78
110 112 79
117 118 84
108 110 79
110 112 82
121 122 86
114 116 82
120 121 86
123 124 87
123 125 90
118 120 85
124 125 87
127 127 89
134 133 93
140 139 95
136 135 93
137 136 93
125 125 88
131 131 90
140 139 89
128 129 88
132 132 90
119 121 85
146 144 95
139 138 92
140 139 93
142 141 94
142 141 93
147 146 98
150 148 97
154 152 99
150 147 96
149 147 99
159 155 102
151 150 100
159 156 101
153 150 96
160 157 100
159 156 101
167 164 105
155 153 101
161 157 100
163 160 102
164 161 106
169 165 106
164 160 100
171 167 107
169 164 105
162 160 102
166 162 100
172 167 107
171 166 106
169 165 106
171 167 107
167 163 102
173 167 102
172 166 102
173 168 107
171 166 101
174 169 107
175 170 110
177 171 109
168 162 99
175 170 108
173 168 103
173 169 103
177 171 107
176 171 108
172 167 103
179 172 109
176 170 104
177 171 108
169 164 101
176 171 108
170 166 102
174 169 103
175 169 104
174 168 103
175 168 105
170 165 100
175 169 102
171 166 99
174 168 103
173 167 102
171 165 98
174 168 102
174 169 104
169 163 101
174 168 106
167 161 95
171 166 104
171 166 102
168 162 95
168 163 99
172 166 103
174 167 101
170 164 101
165 161 93
164 159 96
167 161 93
169 163 96
167 160 93
172 165 93
163 157 90
165 159 94
162 155 90
168 161 96
165 159 95
163 157 96
168 161 94
156 150 90
162 155 89
155 149 84
161 155 89
151 146 78
153 147 81
162 155 91
152 146 80
147 141 75
159 153 82
158 151 87
152 146 83
145 139 81
147 142 80
151 145 76
157 150 76
149 143 74
143 136 70
147 141 75
150 143 76
137 132 62
129 125 59
138 132 62
130 125 59
172 192 22
174 195 0
173 195 0
171 194 0
174 197 0
174 198 0
174 198 0
173 196 0
172 195 0
174 198 0
174 197 0
173 196 0
174 197 0
172 195 0
172 196 0
173 196 0
172 196 0
172 195 0
172 196 0
170 193 0
173 197 0
170 193 0
169 193 0
174 197 0
172 195 0
174 197 0
172 195 0
172 196 0
174 197 0
173 197 0
173 195 0
171 195 0
175 198 0
170 194 0
170 194 0
174 197 0
170 194 0
172 195 0
172 196 0
174 197 0
172 196 0
175 197 0
175 198 0
173 197 0
171 195 0
172 196 0
174 197 0
171 195 0
170 194 0
172 195 0
173 197 0
171 195 0
170 193 0
175 198 0
172 195 0
175 197 0
171 194 0
172 194 0
173 196 0
172 196 0
172 195 0
173 197 0
171 194 0
170 194 0
172 195 0
172 195 0
171 194 0
176 199 0
172 196 0
171 195 0
172 194 0
172 196 0
173 195 0
173 196 0
174 197 0
172 196 0
173 196 0
171 195 0
173 196 0
170 194 0
171 194 0
173 196 0
171 195 0
172 196 0
174 197 0
171 195 0
172 196 0
171 195 0
169 192 0
172 194 0
170 194 0
171 194 0
171 195 0
173 197 0
172 195 0
172 197 0
171 194 0
168 192 0
171 194 0
171 193 0
171 194 0
172 195 0
174 197 0
173 196 0
173 196 0
170 193 0
169 192 0
173 196 0
110 137 140
61 98 171
62 99 170
62 98 168
61 98 174
62 99 175
61 98 175
62 99 172
63 100 176
62 99 174
63 99 175
63 100 177
62 98 172
62 99 176
62 99 172
62 99 177
63 100 178
62 99 177
62 98 175
63 99 178
62 99 179
63 100 180
63 99 178
62 99 180
62 99 180
62 99 179
62 99 179
61 98 178
63 100 178
62 99 178
62 99 179
62 99 181
63 100 181
62 99 180
62 99 180
61 99 180
62 99 180
62 99 179
61 98 177
62 99 179
62 99 179
61 99 179
62 99 180
62 99 179
62 99 179
62 99 180
62 99 181
63 100 180
62 99 180
61 98 179
62 99 181
62 99 180
62 99 180
62 99 179
62 99 179
62 99 179
61 99 180
61 98 179
62 99 181
62 99 180
62 99 180
61 99 180
61 98 180
62 99 180
61 99 181
62 99 179
62 99 181
61 99 179
62 99 181
62 99 179
62 99 181
62 99 181
62 99 180
62 99 179
61 99 181
62 99 181
61 99 181
62 99 179
62 99 180
62 99 180
62 99 181
61 98 179
62 99 180
62 99 179
61 99 181
61 99 179
61 99 180
62 99 180
62 99 179
62 99 181
61 99 180
62 99 179
63 99 178
62 99 181
62 99 178
62 99 180
63 100 179
62 99 177
62 99 176
62 99 180
62 99 180
62 99 176
62 99 178
63 100 180
61 99 179
62 99 178
62 99 179
62 99 178
63 100 177
62 98 178
61 98 176
61 98 176
61 98 178
62 99 177
62 99 180
62 99 174
62 99 178
61 98 175
62 99 179
62 99 176
61 98 176
62 99 175
62 99 177
62 99 178
63 99 175
62 99 176
62 98 171
62 99 175
63 99 177
62 99 174
62 99 174
63 99 174
61 97 169
62 98 174
61 97 169
61 98 176
61 97 169
61 96 167
62 98 175
62 98 174
60 95 165
59 93 156
60 94 158
59 94 165
100 105 102
109 108 67
104 103 64
110 109 70
87 88 58
113 112 74
105 106 72
106 107 71
111 111 73
95 97 64
100 103 75
105 107 74
112 112 76
103 105 74
108 110 78
123 122 85
108 111 80
115 117 82
119 120 84
111 112 78
131 131 90
119 120 85
124 125 86
108 112 80
127 127 86
121 122 86
128 129 91
122 121 83
124 125 86
134 133 91
130 130 91
129 128 89
136 136 92
132 131 90
144 142 94
140 138 92
146 144 96
142 141 96
143 142 93
149 147 97
152 148 97
156 153 101
153 151 100
154 152 100
152 149 99
149 148 96
156 153 99
147 146 94
152 151 99
158 155 100
154 152 100
152 149 96
158 155 101
165 161 103
163 159 102
161 158 102
165 162 101
164 160 105
164 161 105
165 162 103
169 163 102
168 163 105
162 158 102
164 161 103
173 167 105
165 162 103
166 162 104
173 168 104
170 165 104
170 165 103
169 165 103
172 167 104
169 165 104
173 168 103
171 167 103
170 166 104
178 171 106
175 169 106
172 167 102
177 171 109
175 170 107
173 169 105
174 169 106
174 168 102
177 171 105
177 171 103
173 168 104
171 166 103
175 168 103
176 170 108
171 167 103
175 169 103
173 167 95
172 166 97
176 170 101
174 169 105
170 164 99
175 169 100
172 167 99
169 164 101
172 167 106
171 165 101
173 166 102
163 157 93
169 164 99
173 167 101
165 160 94
168 162 95
169 163 98
170 164 95
163 158 94
165 159 94
167 162 96
170 163 95
171 164 97
166 160 98
169 162 99
166 160 96
160 154 90
166 160 95
166 158 91
160 155 87
164 158 90
150 146 79
163 158 94
157 151 83
157 151 90
160 155 88
150 145 84
154 149 84
158 152 87
153 149 85
153 147 82
155 148 84
163 156 87
153 147 77
146 140 79
140 135 70
150 145 74
139 133 68
149 144 72
150 143 75
147 141 71
136 130 65
137 131 71
134 128 69
131 125 61
130 124 59
171 192 16
171 195 0
174 196 0
172 195 0
171 193 0
172 194 0
175 198 0
173 196 0
174 197 0
171 194 0
172 195 0
174 198 0
174 198 0
172 196 0
171 195 0
172 195 0
173 197 0
174 198 0
169 193 0
172 195 0
173 197 0
174 197 0
172 195 0
173 196 0
172 196 0
173 196 0
173 196 0
173 196 0
173 197 0
173 197 0
172 195 0
174 197 0
171 195 0
174 197 0
171 195 0
172 195 0
168 193 0
173 195 0
174 197 0
173 197 0
173 196 0
172 195 0
171 195 0
171 194 0
174 197 0
172 196 0
171 195 0
172 196 0
171 195 0
171 195 0
171 194 0
174 197 0
172 195 0
172 196 0
171 194 0
172 196 0
172 196 0
173 195 0
172 196 0
171 195 0
172 196 0
171 195 0
171 195 0
172 195 0
173 197 0
171 195 0
170 194 0
171 194 0
174 197 0
172 195 0
171 195 0
173 197 0
173 196 0
172 195 0
172 195 0
170 194 0
172 196 0
174 197 0
173 196 0
170 193 0
173 196 0
174 198 0
171 195 0
170 194 0
171 193 0
173 197 0
172 196 0
174 198 0
170 194 0
172 195 0
173 197 0
170 194 0
168 192 0
173 197 0
172 195 0
171 194 0
172 195 0
173 195 0
173 196 0
172 195 0
170 194 0
174 197 0
171 194 0
171 194 0
168 192 0
172 196 0
173 196 0
144 169 102
62 99 169
62 99 170
62 99 172
62 99 174
62 99 172
62 99 173
62 99 173
63 99 175
62 99 175
62 99 172
62 99 177
63 99 177
62 99 173
62 99 179
61 98 175
62 99 177
62 99 175
62 99 181
62 99 179
62 99 177
62 99 175
62 99 179
62 99 174
63 100 178
62 99 178
62 99 178
62 99 179
62 99 180
62 99 179
62 99 179
62 99 178
62 99 180
62 99 180
63 100 180
62 99 180
61 98 180
62 99 181
62 99 180
62 99 178
62 99 180
63 99 180
62 99 179
62 99 178
61 99 180
62 99 179
62 99 179
62 99 179
61 99 181
62 99 179
62 99 181
62 99 180
62 99 178
62 99 181
62 99 181
62 99 180
62 99 181
62 99 178
62 99 180
62 99 180
61 99 179
62 99 180
62 99 180
62 99 181
62 99 180
61 99 180
62 99 179
61 99 180
62 99 180
61 98 181
62 99 180
62 99 181
62 99 181
62 99 178
61 98 178
62 99 178
62 99 178
62 99 180
62 99 178
61 99 180
62 99 180
61 98 178
62 99 180
62 99 179
61 98 176
62 99 179
62 99 176
62 99 180
62 99 177
62 99 178
62 99 179
62 99 181
62 99 180
62 99 178
62 99 179
62 99 181
62 99 175
63 99 178
62 99 181
62 99 178
62 99 177
62 99 176
62 99 180
62 99 180
62 99 180
62 99 177
62 99 178
62 99 180
63 100 178
62 99 175
62 99 178
62 99 177
61 99 179
62 99 179
61 98 172
62 99 178
62 99 177
62 99 177
62 99 179
62 99 177
61 98 174
62 99 177
62 99 177
61 98 176
61 98 176
61 98 172
62 98 172
61 98 173
62 98 174
62 99 174
62 98 175
62 98 174
62 98 168
62 99 171
62 98 172
61 98 173
62 98 172
61 98 172
61 96 163
61 97 173
61 97 170
61 97 171
60 96 168
60 95 166
61 95 164
70 99 162
107 108 78
108 106 63
102 103 67
106 106 71
95 95 65
105 105 70
110 109 72
99 101 68
96 99 71
95 97 68
98 100 71
92 94 66
111 112 75
107 108 77
106 107 75
110 110 77
106 108 76
114 115 78
107 109 80
103 107 79
114 116 80
112 113 80
118 119 84
121 122 83
115 117 84
129 129 87
128 128 90
123 123 85
133 133 89
131 131 91
126 127 86
137 137 93
126 127 90
132 131 89
140 139 93
130 129 87
143 142 95
142 142 97
136 135 92
148 146 92
145 143 97
155 152 99
148 147 98
146 144 97
153 150 98
151 149 97
162 159 103
154 152 97
150 148 100
158 155 100
159 155 101
163 160 101
165 160 103
156 154 100
161 158 100
165 161 103
161 157 100
164 160 103
167 163 106
166 162 103
164 161 99
165 162 103
162 159 98
170 165 104
169 164 101
163 160 96
171 166 102
175 169 107
168 163 102
168 164 103
172 168 105
174 169 104
176 170 106
173 168 108
174 169 106
172 167 104
174 169 103
174 168 106
176 169 103
170 166 103
173 168 104
172 166 104
173 168 103
174 168 102
176 169 100
175 169 101
175 170 102
169 164 102
170 165 102
175 169 104
174 168 105
177 171 103
175 168 104
173 167 100
175 168 100
173 167 101
175 169 102
175 169 104
169 165 99
174 168 105
172 165 98
171 165 100
169 163 97
175 169 103
174 167 99
171 165 100
170 164 93
171 164 99
162 156 90
167 161 98
168 161 96
170 164 95
168 163 92
166 160 91
166 159 95
170 163 93
171 164 99
166 160 95
157 152 86
167 161 91
165 158 88
159 153 87
163 157 90
155 148 80
161 155 86
159 153 89
158 152 86
158 152 84
158 153 84
153 148 77
152 145 85
154 149 77
154 147 85
154 148 84
144 139 70
150 145 75
145 140 73
148 142 80
151 145 81
139 134 65
151 143 75
147 141 71
140 134 70
148 141 73
134 128 64
130 125 52
126 121 59
165 183 22
171 193 0
172 194 0
171 194 0
173 197 0
173 196 0
172 196 0
175 198 0
172 196 0
173 196 0
173 196 0
171 195 0
172 195 0
172 195 0
174 197 0
174 197 0
172 196 0
173 197 0
173 196 0
173 197 0
173 196 0
174 198 0
172 196 0
173 195 0
172 195 0
174 197 0
173 196 0
172 195 0
174 197 0
173 196 0
175 198 0
173 197 0
173 197 0
173 197 0
174 197 0
172 195 0
172 196 0
171 194 0
173 196 0
172 196 0
172 195 0
172 195 0
171 195 0
172 195 0
173 197 0
174 197 0
172 195 0
171 195 0
171 195 0
170 194 0
175 197 0
171 194 0
172 195 0
175 198 0
172 194 0
169 193 0
174 197 0
172 196 0
171 194 0
175 198 0
171 195 0
170 193 0
172 196 0
173 197 0
171 194 0
173 197 0
171 195 0
169 193 0
174 197 0
171 195 0
174 198 0
170 194 0
172 195 0
172 196 0
172 195 0
173 196 0
171 195 0
173 196 0
170 194 0
170 194 0
174 197 0
174 197 0
173 196 0
171 195 0
173 196 0
172 195 0
171 194 0
172 196 0
170 195 0
172 195 0
171 196 0
172 196 0
172 196 0
174 198 0
172 195 0
169 193 0
168 193 0
169 192 0
173 197 0
174 196 0
170 193 0
171 195 0
172 195 0
169 193 0
172 195 0
171 193 0
159 183 70
66 102 171
63 99 173
61 98 169
62 99 173
62 99 172
62 99 172
62 99 173
62 99 175
62 99 174
62 99 173
63 99 173
62 99 177
62 99 177
62 99 176
62 99 178
61 98 171
62 99 176
63 100 177
62 99 178
62 99 176
62 99 179
62 99 179
63 99 177
62 99 180
62 99 174
62 99 177
62 99 180
62 99 179
62 99 178
63 100 178
62 99 181
61 99 180
62 99 181
62 99 177
62 99 178
62 99 181
61 99 179
62 99 181
62 99 181
62 99 180
62 99 179
61 99 181
62 99 179
63 100 180
63 100 179
62 99 178
63 100 179
62 99 179
62 99 179
62 99 181
61 99 180
62 99 179
63 100 180
61 98 178
62 99 178
62 99 181
62 99 181
62 99 180
63 100 180
62 99 179
62 99 180
62 99 180
61 98 178
61 99 179
63 100 180
62 99 181
61 98 179
62 99 179
62 99 180
62 99 180
62 99 180
61 98 180
62 99 180
62 99 178
63 100 181
62 99 180
61 99 179
63 100 178
62 99 180
61 98 179
61 99 181
62 99 177
62 99 180
62 99 177
62 99 181
62 99 179
62 99 181
62 99 179
62 99 177
61 99 178
62 99 180
62 99 177
62 99 180
62 99 181
62 99 178
62 99 176
62 99 179
62 99 179
62 99 180
62 99 180
63 99 179
62 99 180
62 99 177
62 99 178
62 99 180
62 99 178
62 99 178
62 99 176
62 99 176
62 99 180
62 99 178
62 99 179
61 98 174
62 99 178
61 98 176
62 99 179
62 99 177
61 98 173
63 100 180
62 99 178
62 99 176
61 98 177
63 99 177
62 99 174
61 98 173
62 99 174
63 100 180
62 99 175
62 99 176
62 98 173
63 99 177
61 98 176
62 98 175
62 98 175
62 98 173
61 98 173
61 97 170
62 99 174
62 98 169
62 99 172
62 98 172
62 97 167
62 97 169
61 95 165
61 96 165
60 95 163
79 97 131
109 107 68
108 108 73
81 83 58
104 104 70
99 99 66
91 95 64
95 96 62
99 101 70
112 112 78
103 106 75
98 102 74
99 101 72
104 106 76
93 97 70
99 101 72
104 106 75
96 100 71
103 106 75
106 107 75
122 123 86
119 119 84
113 114 79
120 122 86
119 120 83
109 111 81
108 111 79
131 131 90
124 124 85
131 131 90
137 136 93
129 129 90
138 136 91
142 141 92
136 135 89
134 135 90
140 139 92
149 147 98
142 140 94
147 145 96
144 142 95
150 148 96
155 154 103
142 142 96
155 152 98
144 143 96
159 156 101
150 148 97
152 149 95
152 151 99
163 159 102
160 156 100
161 157 96
162 158 101
159 155 97
161 157 101
162 158 100
169 165 105
162 158 100
165 160 99
166 162 103
165 162 101
171 166 104
167 162 102
164 160 99
173 168 107
167 163 101
173 168 106
172 167 103
171 166 102
173 168 105
171 167 101
177 171 105
175 169 102
175 170 103
171 167 100
175 169 104
175 169 105
172 167 101
173 168 101
175 169 105
175 169 103
176 170 103
175 169 103
176 170 106
176 169 104
175 170 105
173 166 99
172 167 101
176 170 103
172 166 99
173 168 103
169 164 96
171 165 97
170 165 101
172 166 98
171 165 101
171 165 103
172 165 99
173 167 102
168 162 96
174 168 98
174 168 102
169 164 101
173 167 100
165 159 94
171 165 96
172 166 101
164 158 92
165 160 95
167 161 93
162 156 91
171 165 96
166 161 97
174 166 97
162 156 87
164 157 93
157 151 87
175 168 101
167 161 93
159 152 86
167 161 95
164 158 90
161 155 88
157 150 86
157 151 87
159 153 84
149 143 75
156 150 76
158 151 86
155 150 79
154 148 80
156 149 81
151 144 77
142 136 72
161 155 87
152 147 79
156 150 77
143 137 71
150 143 76
133 128 60
149 143 69
143 138 66
148 141 73
141 135 68
136 130 62
129 123 58
170 190 19
173 196 0
172 195 0
174 196 0
172 195 0
175 197 0
174 197 0
175 198 0
175 198 0
173 195 0
174 197 0
173 197 0
172 196 0
174 197 0
174 197 0
173 197 0
173 197 0
173 197 0
171 195 0
172 195 0
174 198 0
175 198 0
171 194 0
171 195 0
173 196 0
173 196 0
171 196 0
174 197 0
173 197 0
172 196 0
172 195 0
171 195 0
172 194 0
172 196 0
170 194 0
173 197 0
172 195 0
171 195 0
170 194 0
173 196 0
172 197 0
172 196 0
171 194 0
171 194 0
171 195 0
172 195 0
173 196 0
172 196 0
172 196 0
173 196 0
171 196 0
173 197 0
172 195 0
172 196 0
173 197 0
170 194 0
171 195 0
171 195 0
171 195 0
174 197 0
174 198 0
171 195 0
173 195 0
173 197 0
171 195 0
173 196 0
168 192 0
169 193 0
170 194 0
171 194 0
172 196 0
171 195 0
171 195 0
173 196 0
172 196 0
172 196 0
174 197 0
173 196 0
171 193 0
171 195 0
173 196 0
171 195 0
172 195 0
171 194 0
174 197 0
171 194 0
168 192 0
170 193 0
171 194 0
171 194 0
173 197 0
171 194 0
174 197 0
169 192 0
171 194 0
170 194 0
171 195 0
173 196 0
172 195 0
171 194 0
171 195 0
172 195 0
170 193 0
172 196 0
171 194 0
172 195 25
86 117 154
62 98 170
62 99 170
61 98 168
62 98 169
61 98 166
63 99 177
62 99 176
62 99 174
62 99 173
62 99 173
62 99 174
62 99 174
62 99 173
61 98 173
62 99 178
63 99 174
62 99 177
63 100 179
62 99 175
62 99 179
62 99 176
62 99 178
62 99 175
62 99 179
62 99 177
62 99 179
63 100 181
61 99 180
62 99 175
61 99 178
62 99 179
62 99 181
63 100 181
62 99 180
62 99 178
62 99 177
62 99 178
62 99 180
62 99 181
62 99 179
62 99 180
62 99 179
61 98 181
62 99 178
62 99 179
63 99 178
62 99 178
62 99 178
62 99 178
62 99 181
62 99 181
62 99 179
61 99 178
62 99 181
62 99 181
62 99 180
62 99 179
62 100 181
61 98 177
62 99 181
62 99 179
62 99 181
62 99 181
62 99 181
62 99 180
62 99 180
63 100 181
62 99 179
62 99 179
61 98 179
62 99 179
61 98 179
62 99 179
61 99 180
62 99 181
61 99 179
62 99 181
62 99 179
61 99 178
62 99 177
61 98 178
61 99 179
62 99 180
62 99 178
63 100 181
62 99 180
62 99 180
62 99 180
61 98 178
61 99 178
63 99 180
62 99 180
62 99 181
62 99 180
62 99 180
61 98 177
62 99 176
62 99 179
62 99 178
62 99 180
62 99 178
61 98 176
62 99 179
62 99 180
62 99 180
62 99 178
62 99 180
62 99 180
62 98 175
61 98 176
62 99 179
63 99 178
62 99 175
62 99 172
61 98 173
62 99 179
62 99 180
62 99 178
62 99 178
62 99 171
62 99 178
61 98 175
62 99 176
61 98 173
62 98 174
62 99 176
62 99 175
62 99 180
62 98 173
62 99 175
62 98 174
62 98 175
62 99 175
62 99 174
61 97 171
61 97 171
61 97 169
62 98 175
61 97 166
61 97 173
61 96 164
61 96 165
61 96 167
61 96 166
60 94 159
58 92 159
60 94 161
80 91 104
94 94 61
90 92 62
91 92 62
95 95 64
105 106 73
103 104 68
92 94 63
105 106 72
93 95 70
108 108 74
90 93 66
105 106 75
104 107 75
100 102 72
92 96 70
111 113 81
117 118 80
105 108 78
127 127 89
121 123 86
115 117 81
110 113 81
121 122 85
122 123 84
121 122 86
119 121 85
134 133 91
129 129 88
132 132 90
127 126 85
131 131 89
130 130 85
136 135 89
134 133 90
134 134 85
144 143 96
140 140 93
143 142 92
143 142 93
140 139 89
147 145 96
148 147 99
154 151 98
150 148 95
150 149 93
153 151 95
147 145 94
155 153 93
157 155 94
159 156 98
154 151 97
154 152 97
158 155 101
166 161 102
163 159 101
166 162 104
166 162 103
167 163 104
171 166 104
161 158 98
167 163 102
167 163 102
170 166 104
170 165 102
170 165 103
174 168 105
165 161 100
168 163 100
167 163 100
170 166 101
168 164 97
173 168 101
173 167 103
174 169 104
175 169 103
174 168 104
173 168 103
175 169 104
173 168 102
175 169 104
174 169 104
171 166 102
176 170 104
172 167 100
173 167 99
170 164 98
172 167 102
178 170 103
171 165 99
175 170 104
175 168 101
173 167 101
174 168 101
169 164 97
175 168 103
166 161 93
175 168 99
173 167 101
173 167 101
172 165 96
170 165 100
172 166 98
165 160 95
166 160 95
165 160 92
166 160 92
173 167 101
168 162 93
167 161 94
168 163 95
171 165 96
163 159 93
170 164 96
170 163 95
165 158 93
160 154 89
163 156 89
158 153 86
157 151 87
160 154 86
161 154 90
163 156 88
160 154 84
166 160 90
160 153 88
166 159 92
155 149 72
166 159 87
162 155 89
161 154 81
155 148 82
153 147 81
146 141 73
150 143 78
151 144 76
151 145 73
154 148 75
151 146 73
154 146 78
134 129 64
145 139 71
136 131 59
136 129 60
132 127 56
130 124 56
164 183 22
173 194 0
173 194 0
173 196 0
172 194 0
171 194 0
175 198 0
172 195 0
173 196 0
172 197 0
173 197 0
172 196 0
172 195 0
171 194 0
173 197 0
175 198 0
172 196 0
174 197 0
174 197 0
174 196 0
174 197 0
174 197 0
173 197 0
174 198 0
173 196 0
173 196 0
174 197 0
174 198 0
171 194 0
170 194 0
173 197 0
171 195 0
172 195 0
171 195 0
170 193 0
173 196 0
171 194 0
174 197 0
175 198 0
173 196 0
172 196 0
173 196 0
173 196 0
170 194 0
172 195 0
173 196 0
172 194 0
172 196 0
173 196 0
169 193 0
171 195 0
172 196 0
169 192 0
172 195 0
174 198 0
171 195 0
170 194 0
171 195 0
170 194 0
173 196 0
172 194 0
174 196 0
173 196 0
168 192 0
172 195 0
174 197 0
171 195 0
170 194 0
173 197 0
170 193 0
171 194 0
170 193 0
171 194 0
174 197 0
174 197 0
169 193 0
173 196 0
169 193 0
171 194 0
169 193 0
173 195 0
172 196 0
173 196 0
172 196 0
171 194 0
172 196 0
172 194 0
172 195 0
172 196 0
172 195 0
172 196 0
171 194 0
168 192 0
171 195 0
172 196 0
172 196 0
170 194 0
170 194 0
172 196 0
172 195 0
173 196 0
170 194 0
170 194 0
174 197 0
171 194 0
126 151 115
62 98 165
62 99 169
63 99 170
61 98 168
62 99 170
62 99 172
62 98 169
62 99 173
62 99 176
62 99 173
62 99 173
62 99 171
62 99 177
62 99 175
62 99 178
61 98 176
62 99 173
62 99 176
62 99 176
62 99 179
62 99 177
62 99 177
62 99 177
62 99 179
62 99 181
62 99 177
62 99 178
62 99 178
62 99 176
63 100 180
62 99 179
62 99 180
62 99 178
62 99 179
61 99 179
63 100 181
62 99 178
61 98 177
62 99 180
62 99 181
62 99 180
62 99 178
62 99 180
62 99 179
62 99 178
62 99 180
62 99 179
62 99 180
62 99 181
62 99 179
61 99 180
62 99 178
61 99 179
62 99 180
62 99 179
62 99 179
62 99 178
62 99 180
62 99 179
62 99 179
61 98 179
62 99 180
62 99 178
62 99 179
61 98 178
62 99 180
62 99 181
61 99 178
61 98 175
62 99 180
62 99 180
62 99 180
62 99 180
62 99 179
62 99 178
62 99 181
62 99 179
62 99 179
61 98 178
62 99 178
63 100 181
63 99 179
62 99 177
62 99 179
62 99 179
62 99 179
62 99 179
62 99 180
62 99 181
62 99 178
62 99 178
62 99 181
62 99 178
62 99 178
62 99 178
62 99 179
63 100 181
62 99 175
62 99 177
62 99 178
62 99 177
62 99 178
62 99 179
62 99 180
62 99 178
62 98 174
61 99 178
63 99 177
62 99 177
62 99 174
62 99 179
61 98 176
62 99 177
62 99 176
62 99 178
62 98 172
62 98 175
62 99 178
62 99 174
62 99 177
61 98 175
62 99 179
61 98 175
62 98 174
62 98 175
61 98 174
62 99 176
61 97 168
61 98 172
62 99 177
61 97 170
62 98 173
61 98 173
60 95 165
62 98 173
62 98 172
62 98 170
63 99 173
62 99 173
61 97 171
61 97 167
62 98 172
62 97 165
61 96 170
60 95 162
61 97 170
61 95 160
60 94 162
59 92 157
78 84 70
92 92 60
95 96 64
96 97 67
85 87 58
92 93 63
99 100 68
101 102 72
97 98 65
99 102 70
93 95 66
97 99 71
87 92 69
95 97 68
107 107 74
97 101 75
99 102 72
96 100 70
113 115 83
116 116 82
115 116 79
119 120 83
108 110 78
108 111 79
111 112 77
132 132 88
122 123 85
126 125 86
136 136 91
126 126 84
130 129 88
142 140 92
139 138 91
142 140 92
138 136 90
140 139 93
139 138 92
149 147 98
148 145 95
138 138 91
149 147 93
139 138 93
148 146 96
150 149 99
144 142 93
161 157 101
152 149 100
154 151 97
158 155 102
152 150 94
155 152 97
162 158 102
161 158 96
164 160 97
152 150 93
166 162 102
167 162 102
165 161 100
167 163 100
163 159 102
162 158 95
166 161 99
169 164 101
169 164 97
175 168 105
170 165 99
166 162 98
163 160 96
166 162 97
174 169 105
175 170 105
167 163 101
172 167 100
172 167 103
180 173 108
177 171 103
174 169 103
177 171 106
177 170 101
171 166 100
174 169 105
174 168 103
169 164 99
175 169 101
173 168 105
172 167 97
173 168 101
174 168 99
175 169 104
174 168 101
170 165 97
172 166 103
172 166 99
171 165 99
164 159 90
172 167 100
168 162 92
169 163 96
172 167 101
168 162 93
169 163 91
166 162 97
171 164 98
165 159 93
168 162 97
166 160 93
169 162 93
168 162 95
162 157 86
169 162 95
170 163 95
164 158 90
163 158 88
165 157 87
165 160 89
164 158 96
164 157 91
167 160 93
158 153 87
163 156 84
169 163 93
166 159 90
161 155 88
162 154 88
157 151 83
160 154 86
163 158 92
154 148 78
159 152 84
161 155 80
159 152 87
153 147 79
153 147 80
151 143 82
147 142 72
146 140 70
151 145 70
139 134 67
143 139 69
138 132 70
147 140 69
140 134 67
137 132 64
137 131 63
128 123 56
167 188 16
173 196 0
171 194 0
173 196 0
173 196 0
170 192 0
174 197 0
175 198 0
172 195 0
171 195 0
174 197 0
172 195 0
173 196 0
174 197 0
173 197 0
173 196 0
175 198 0
173 196 0
172 195 0
172 196 0
172 196 0
172 196 0
175 198 0
173 197 0
174 197 0
174 197 0
174 197 0
173 197 0
173 196 0
173 196 0
173 196 0
171 194 0
172 196 0
174 198 0
169 193 0
169 193 0
174 197 0
172 196 0
173 195 0
171 194 0
173 195 0
173 197 0
169 192 0
169 193 0
170 193 0
173 196 0
171 194 0
172 195 0
172 195 0
174 197 0
170 194 0
171 195 0
173 196 0
173 196 0
173 196 0
172 195 0
170 194 0
173 196 0
172 196 0
173 196 0
171 194 0
172 195 0
174 196 0
173 197 0
174 196 0
170 193 0
169 193 0
170 193 0
173 196 0
169 193 0
171 194 0
170 193 0
172 196 0
171 195 0
172 196 0
174 197 0
173 196 0
174 197 0
173 196 0
174 198 0
175 198 0
174 196 0
171 195 0
172 195 0
174 197 0
168 192 0
173 196 0
172 194 0
171 195 0
169 192 0
169 193 0
171 194 0
170 194 0
170 192 0
172 196 0
175 197 0
170 193 0
170 194 0
171 195 0
174 197 0
171 194 0
171 194 0
172 195 0
168 192 0
155 180 78
64 100 165
62 98 168
62 98 170
62 99 174
62 98 174
62 98 168
62 99 175
62 99 175
62 98 171
62 99 176
62 99 170
63 99 174
63 99 175
62 98 172
62 99 172
62 99 176
62 99 177
62 99 176
62 98 172
63 99 178
63 100 177
62 99 177
62 99 176
62 99 179
62 99 179
62 99 176
62 99 178
62 99 179
62 99 178
62 99 177
62 99 179
62 99 179
62 99 180
62 99 179
62 99 178
61 98 176
62 99 180
62 99 180
62 99 179
62 99 180
62 99 179
62 99 178
62 99 179
62 99 179
62 99 180
62 99 178
62 99 178
62 99 176
62 99 177
62 99 179
62 99 181
62 99 178
62 99 178
62 99 180
61 99 178
62 99 180
62 99 179
62 99 179
63 100 180
62 99 180
62 99 180
63 99 178
62 99 178
62 99 179
62 99 181
62 99 179
62 99 179
62 99 181
62 99 180
61 99 179
62 99 180
62 99 178
62 99 179
62 99 181
61 99 179
61 98 175
62 99 180
62 99 177
62 99 178
62 99 179
62 99 179
62 99 176
62 99 180
63 100 181
62 99 178
62 99 178
62 99 179
61 99 179
62 99 178
62 99 178
61 98 176
62 99 177
61 98 178
62 99 179
62 99 180
61 98 178
62 99 177
62 99 175
62 99 180
62 99 181
62 99 177
63 100 177
62 99 178
62 99 178
61 99 178
62 99 179
62 99 176
62 99 179
62 99 176
62 99 179
63 100 173
62 99 179
61 99 177
63 99 178
63 99 178
62 99 177
62 99 171
62 99 176
62 98 170
62 99 175
61 98 172
61 98 176
62 99 178
62 99 176
61 98 176
62 98 171
62 99 174
62 99 175
61 99 177
62 99 174
62 98 171
62 98 175
61 98 172
62 98 173
61 98 172
61 98 171
61 97 167
62 99 176
61 97 169
62 98 170
62 98 165
61 97 168
61 96 163
62 98 170
61 97 171
62 97 169
60 95 161
61 96 165
58 92 158
59 92 151
66 89 136
94 96 61
83 84 55
96 97 67
87 89 61
95 96 66
96 99 71
87 89 58
94 97 69
95 97 69
93 96 65
109 109 76
89 91 64
100 102 72
105 107 76
88 93 70
101 103 75
113 114 78
104 106 75
103 106 75
115 117 83
109 111 81
103 106 77
113 114 80
122 123 85
117 119 81
116 118 84
132 131 90
137 136 92
136 135 89
126 127 89
133 132 88
132 133 89
142 141 95
137 136 90
142 141 93
143 142 94
142 140 91
139 139 95
143 141 92
145 143 92
140 138 93
148 147 94
155 153 97
155 152 97
155 152 98
153 150 97
158 156 100
157 154 98
154 150 94
157 155 101
162 158 98
153 151 96
163 158 97
164 161 98
160 158 99
156 153 93
164 160 99
165 160 100
168 163 105
169 164 102
171 166 104
166 162 97
165 162 102
173 167 102
168 164 97
169 164 103
170 165 98
173 168 104
172 167 103
176 170 103
174 168 100
172 168 103
171 166 101
170 165 99
177 171 108
172 167 99
177 170 104
174 169 103
176 169 103
174 169 103
170 165 98
171 166 98
177 171 104
173 168 100
168 163 98
174 168 101
173 166 97
171 165 99
176 170 105
169 162 93
171 165 99
174 168 100
170 165 101
175 169 102
173 167 101
172 165 98
169 164 95
170 164 99
165 160 88
168 162 93
175 168 100
172 165 96
175 168 100
169 162 97
171 165 97
167 162 97
169 163 97
170 164 93
167 160 93
167 161 94
160 155 87
168 161 95
162 156 93
171 165 93
164 159 89
165 159 90
165 159 89
167 160 90
161 156 84
163 156 89
167 160 92
165 157 92
160 154 87
160 154 82
158 153 87
156 149 86
160 154 84
154 147 81
156 149 79
160 154 87
158 151 82
151 145 71
142 137 71
149 142 76
144 138 73
152 146 75
139 133 67
157 150 78
158 152 80
142 136 66
139 134 61
134 128 63
136 131 57
118 113 48
171 192 19
172 195 0
173 195 0
173 196 0
173 194 0
173 196 0
170 194 0
172 195 0
174 197 0
174 198 0
174 198 0
173 197 0
175 198 0
174 197 0
172 195 0
170 193 0
174 197 0
171 194 0
171 195 0
173 196 0
174 197 0
173 196 0
171 194 0
171 194 0
173 196 0
170 194 0
173 196 0
174 197 0
172 196 0
173 197 0
171 195 0
171 195 0
173 197 0
174 197 0
172 196 0
174 197 0
173 197 0
172 196 0
172 195 0
174 197 0
172 195 0
173 197 0
175 197 0
176 198 0
172 196 0
174 197 0
173 197 0
174 197 0
173 197 0
171 193 0
172 195 0
172 195 0
173 197 0
172 195 0
170 194 0
171 195 0
170 194 0
171 195 0
173 197 0
171 195 0
174 197 0
173 196 0
173 195 0
172 196 0
170 193 0
174 197 0
170 194 0
172 195 0
173 196 0
172 196 0
171 194 0
171 195 0
172 195 0
173 195 0
173 196 0
171 194 0
172 195 0
172 195 0
170 193 0
171 195 0
172 195 0
172 195 0
170 193 0
171 194 0
169 193 0
172 194 0
171 195 0
171 194 0
169 194 0
172 195 0
174 197 0
170 193 0
173 196 0
172 196 0
170 194 0
170 193 0
172 194 0
172 195 0
172 195 0
173 196 0
168 192 0
171 195 0
169 193 0
168 191 31
80 112 153
61 98 164
62 99 172
63 99 171
62 98 167
63 100 177
62 99 169
63 100 174
62 99 172
62 99 175
62 99 172
62 98 173
62 99 175
62 98 168
62 99 172
62 99 173
62 99 178
63 100 180
62 99 179
62 99 177
63 100 179
62 99 177
62 99 179
62 99 178
63 100 176
62 99 177
62 99 177
62 99 177
62 99 178
62 99 180
62 99 178
63 99 180
62 99 175
62 99 178
63 100 181
63 99 177
62 99 173
63 100 180
62 99 176
62 99 177
62 99 179
62 99 179
61 99 180
62 99 178
62 99 181
62 99 178
62 99 179
62 99 178
62 99 181
62 99 178
62 99 179
62 99 180
63 100 180
62 99 180
62 99 178
62 99 181
62 99 179
62 99 178
62 99 178
61 98 177
61 99 178
61 99 181
62 99 179
62 99 179
63 100 181
63 100 179
61 99 181
62 99 180
62 99 181
61 99 179
61 98 178
62 99 181
62 99 181
62 99 180
62 99 181
61 98 177
62 99 177
62 99 179
62 99 180
62 99 180
62 99 178
62 99 177
62 99 179
61 99 181
62 99 179
62 99 180
62 99 178
63 99 178
62 99 179
62 99 177
61 99 179
62 99 180
62 99 180
62 99 178
63 100 179
62 99 181
62 99 181
62 99 179
62 99 179
62 99 175
63 99 178
61 99 178
61 99 179
62 99 178
62 99 178
62 99 177
62 99 177
61 98 175
63 100 179
62 99 177
62 99 178
62 99 177
62 99 176
62 99 178
62 99 177
62 99 176
62 99 178
62 98 174
62 98 171
62 98 176
62 99 178
62 98 175
62 99 177
62 98 177
62 99 176
62 99 176
62 99 174
62 98 173
63 99 174
61 98 172
62 98 171
62 99 177
61 98 170
62 98 170
62 98 171
63 99 171
62 98 170
61 98 172
62 98 172
62 98 172
62 99 174
62 98 170
62 98 171
61 98 169
61 98 170
61 97 165
61 96 164
62 98 168
60 94 160
61 96 166
59 93 156
60 94 158
80 92 114
106 105 69
86 88 58
106 106 69
91 93 66
80 83 58
82 85 62
96 98 69
98 102 71
98 100 71
94 97 72
89 92 68
94 96 67
97 101 72
94 98 74
108 110 77
101 104 76
104 107 76
104 107 76
106 109 77
115 118 84
113 114 81
123 123 83
131 131 89
115 117 84
125 125 84
123 124 87
127 128 89
131 132 89
134 134 91
125 126 84
133 133 86
137 137 90
131 130 85
136 137 92
139 138 90
142 140 95
144 143 94
146 144 96
149 147 95
141 140 93
147 145 92
147 145 94
155 152 99
150 148 93
159 155 99
150 148 94
157 154 98
157 153 95
154 151 100
168 163 101
162 158 98
152 149 95
161 157 98
153 151 94
157 154 92
161 158 93
166 161 100
169 164 103
164 160 100
167 162 99
168 163 100
165 161 98
170 165 98
170 164 100
171 165 101
167 162 98
173 167 99
173 167 103
169 164 98
172 166 106
176 170 102
170 166 103
172 166 100
169 165 102
173 168 104
175 169 103
173 168 103
174 168 104
177 170 104
177 171 106
171 165 98
172 167 99
173 168 105
170 166 95
171 166 97
172 166 98
172 166 101
174 169 104
171 166 95
170 165 100
173 166 99
168 163 95
173 167 99
174 168 99
172 166 94
173 166 101
173 167 99
164 160 93
172 165 97
170 164 95
172 165 97
171 164 97
170 163 95
166 159 87
167 161 95
169 162 93
165 159 87
167 161 92
166 160 91
165 159 85
167 161 90
165 159 89
166 160 89
168 160 92
162 157 81
165 158 90
167 160 93
163 156 88
163 157 90
162 157 87
161 155 81
164 157 93
163 157 88
161 154 80
164 157 88
159 152 81
155 149 80
154 147 80
153 146 76
153 148 73
147 140 77
146 140 75
152 145 78
139 133 69
150 145 71
148 141 71
147 141 69
150 143 75
136 130 65
143 136 70
127 122 52
127 122 53
126 120 58
173 194 16
171 195 0
173 195 0
174 197 0
170 193 0
172 195 0
174 197 0
172 196 0
174 197 0
174 197 0
172 195 0
171 195 0
172 195 0
171 195 0
175 198 0
174 197 0
173 196 0
169 192 0
174 197 0
172 196 0
173 196 0
173 196 0
171 195 0
175 198 0
172 196 0
171 194 0
172 196 0
174 197 0
172 196 0
174 197 0
173 196 0
174 197 0
171 195 0
173 197 0
172 196 0
169 192 0
174 196 0
172 195 0
175 198 0
172 195 0
169 191 0
171 195 0
173 197 0
173 196 0
174 197 0
174 197 0
174 197 0
172 196 0
172 196 0
170 194 0
174 197 0
172 195 0
170 194 0
172 196 0
170 194 0
173 196 0
173 197 0
174 197 0
172 196 0
169 192 0
169 193 0
172 194 0
170 193 0
169 192 0
170 194 0
172 195 0
170 193 0
171 195 0
173 196 0
172 195 0
171 195 0
173 196 0
173 196 0
171 194 0
171 195 0
170 194 0
170 193 0
175 198 0
170 194 0
168 191 0
172 196 0
174 197 0
175 198 0
171 195 0
169 192 0
170 195 0
174 196 0
172 195 0
170 194 0
173 196 0
170 194 0
170 194 0
172 195 0
171 194 0
173 195 0
172 194 0
170 194 0
173 196 0
170 193 0
169 192 0
171 194 0
171 194 0
172 195 0
133 158 113
62 98 165
61 98 164
62 99 171
62 99 175
62 99 167
62 99 171
62 98 170
63 99 172
62 98 171
62 99 174
62 99 171
62 99 172
62 99 175
61 98 165
62 99 174
62 99 175
62 99 177
61 98 175
62 99 173
62 99 176
62 99 178
62 99 180
63 100 177
62 99 179
62 99 175
62 99 178
62 99 176
62 99 178
62 99 178
62 99 175
62 99 178
62 99 177
63 100 179
62 99 178
62 99 178
62 99 181
62 99 180
62 99 179
61 99 178
62 99 179
61 99 180
62 99 178
62 99 178
63 99 179
62 99 179
62 99 179
62 99 176
62 99 179
62 99 179
61 98 177
62 99 180
63 99 179
62 99 180
62 99 181
63 99 180
62 99 178
62 99 180
61 99 180
63 100 181
62 99 179
61 98 177
62 99 179
62 99 178
62 99 180
62 99 181
62 99 180
62 99 180
62 100 181
61 98 177
62 99 180
62 99 179
62 99 181
62 99 176
62 99 178
62 99 181
62 99 178
63 99 179
62 99 176
62 99 179
62 99 179
62 99 176
62 99 177
62 99 179
62 99 176
62 99 177
62 99 180
62 99 179
62 99 179
62 99 177
62 99 178
62 99 177
61 98 174
62 99 179
62 99 178
62 99 177
62 99 179
62 99 180
62 99 178
62 99 177
61 98 177
62 99 179
62 99 179
62 99 179
62 99 179
63 99 179
61 99 177
62 99 180
62 99 178
63 100 179
63 99 176
62 99 174
62 98 173
62 99 178
62 99 178
62 99 176
62 99 176
62 99 179
62 99 176
62 99 177
62 99 174
62 99 177
62 99 177
62 99 175
62 99 177
62 98 172
62 99 178
62 98 173
63 99 177
62 98 175
61 98 175
62 99 174
62 98 173
62 98 169
61 97 168
62 98 174
62 98 174
61 97 168
61 97 167
62 98 171
62 98 172
62 98 177
60 96 166
61 97 170
62 97 168
62 97 170
60 95 165
61 97 167
60 96 161
59 93 158
59 94 162
60 94 163
59 93 156
57 88 148
105 107 82
79 82 57
87 88 58
79 82 56
94 95 66
91 93 64
106 106 70
83 85 60
99 101 70
77 83 63
94 97 70
85 88 62
94 97 71
104 107 73
85 91 69
101 104 74
105 108 78
110 113 82
102 105 73
108 110 78
122 122 84
112 114 81
115 118 83
122 123 83
118 119 82
126 127 90
125 125 86
128 128 88
122 123 84
120 122 85
129 128 85
120 122 85
138 137 91
139 138 92
136 136 88
140 139 91
142 141 93
140 139 93
141 140 91
143 141 91
145 144 93
147 145 92
150 148 96
151 149 89
154 151 98
148 147 92
159 155 99
160 156 98
157 154 95
163 159 99
158 154 99
159 156 100
161 157 95
166 162 103
167 163 103
166 162 101
165 161 99
160 157 96
164 160 99
168 163 99
172 167 101
168 162 96
164 159 97
171 165 101
166 161 96
169 164 98
175 170 106
170 164 99
169 164 99
172 167 100
170 165 101
174 168 101
169 164 100
174 168 100
170 165 98
174 168 102
175 169 103
174 168 97
176 170 104
173 167 99
175 170 103
175 168 97
173 167 100
175 168 97
174 169 101
175 169 101
173 167 97
172 166 97
171 166 96
172 167 99
178 171 100
172 166 99
172 166 97
177 170 103
173 166 98
174 168 99
169 164 95
173 167 99
174 167 100
169 162 93
165 159 90
168 162 93
171 165 97
167 161 93
166 162 95
169 162 93
167 161 94
168 162 93
168 161 93
164 158 87
167 160 92
164 158 92
166 159 94
164 158 87
156 151 86
173 165 97
159 154 82
164 158 87
159 152 87
155 149 83
164 157 87
168 161 88
159 153 83
143 137 73
157 151 80
153 147 76
157 151 83
160 152 82
147 140 75
147 140 75
157 150 78
150 144 75
154 147 75
151 145 71
143 137 65
140 135 62
141 136 68
152 146 70
148 141 76
136 130 66
138 132 67
135 129 62
123 121 47
174 196 0
174 197 0
170 194 0
173 196 0
172 194 0
172 195 0
173 197 0
173 197 0
175 198 0
174 197 0
170 194 0
169 193 0
174 197 0
174 198 0
175 198 0
172 196 0
173 197 0
173 196 0
172 196 0
172 195 0
172 195 0
174 197 0
171 196 0
172 196 0
173 197 0
171 195 0
172 196 0
170 193 0
175 198 0
173 196 0
170 193 0
174 198 0
173 197 0
170 194 0
171 195 0
172 195 0
171 194 0
171 195 0
171 194 0
173 197 0
172 196 0
171 194 0
172 195 0
172 195 0
168 191 0
174 197 0
172 196 0
171 194 0
168 192 0
170 194 0
172 196 0
172 196 0
173 196 0
171 195 0
172 195 0
168 192 0
173 196 0
171 194 0
171 195 0
171 193 0
174 198 0
173 196 0
172 195 0
170 193 0
172 195 0
174 198 0
172 195 0
170 193 0
172 196 0
168 192 0
172 195 0
173 196 0
172 196 0
173 196 0
172 196 0
172 195 0
168 192 0
171 195 0
173 196 0
171 195 0
171 194 0
172 195 0
171 194 0
172 195 0
171 196 0
170 194 0
171 195 0
173 196 0
168 191 0
169 194 0
172 195 0
173 197 0
173 196 0
175 197 0
172 194 0
169 191 0
172 195 0
170 194 0
171 194 0
170 194 0
170 193 0
169 192 0
163 187 51
68 102 161
62 99 167
62 99 170
62 98 166
62 98 168
62 98 173
63 99 172
62 99 175
62 99 179
62 99 172
62 99 173
62 99 170
62 99 173
62 99 173
62 99 172
62 98 172
62 99 174
62 99 174
62 99 175
62 99 174
62 99 175
62 99 180
62 99 176
63 99 176
62 99 175
62 99 174
62 99 174
62 99 176
62 99 178
62 99 177
62 99 180
62 99 180
62 99 179
62 99 178
63 99 177
62 99 180
62 99 177
62 99 178
63 100 181
62 99 179
62 99 178
62 99 179
62 99 181
62 99 179
61 98 179
63 100 180
62 99 177
61 99 177
62 99 179
63 100 180
62 99 180
61 99 180
62 99 181
62 99 179
62 99 179
61 98 177
62 99 177
63 99 180
61 99 178
62 99 178
63 100 180
62 99 180
62 99 176
62 99 180
62 99 179
61 99 179
62 99 179
62 99 177
62 99 179
62 99 179
61 99 180
62 99 178
62 99 180
62 99 178
62 99 178
61 98 178
63 100 180
62 99 178
62 99 179
62 99 179
62 99 180
62 99 178
62 99 178
62 99 180
62 99 180
61 99 180
62 99 176
61 98 176
62 99 179
62 99 177
61 99 178
63 99 179
62 99 177
61 98 179
61 99 178
62 99 178
61 98 179
62 99 179
62 99 177
62 99 178
62 99 177
62 99 179
62 99 173
62 99 177
61 99 177
62 99 177
62 99 174
62 99 179
63 99 177
62 99 174
61 98 176
62 99 178
62 99 172
62 99 180
63 99 173
62 99 175
62 99 176
62 99 176
62 99 179
62 99 175
61 98 173
62 99 174
62 99 176
62 99 177
62 99 175
62 99 174
62 98 173
62 99 177
62 99 175
62 99 172
62 99 178
61 98 169
62 98 175
62 99 176
61 98 174
62 98 171
62 98 173
62 98 169
62 98 174
61 97 167
62 98 170
61 97 170
61 98 175
62 98 172
62 98 175
61 97 164
61 97 171
61 96 169
61 96 164
61 97 162
62 96 161
59 93 156
61 96 165
58 92 158
73 89 121
88 90 58
77 78 54
90 92 66
82 85 62
81 85 61
109 109 75
90 92 64
91 94 68
111 112 77
98 101 70
94 97 70
82 88 66
91 95 70
86 90 65
90 95 69
102 104 74
104 106 72
97 100 71
104 107 75
97 101 75
109 111 77
106 109 76
113 115 79
119 120 83
128 129 87
116 119 81
121 122 80
131 131 89
130 131 89
120 122 83
134 133 88
128 128 83
128 128 84
135 135 93
136 135 90
137 136 89
143 141 91
153 150 97
149 146 95
142 140 90
154 150 93
146 144 94
150 148 93
157 154 97
154 151 97
156 153 99
151 149 89
147 145 94
159 155 95
156 153 93
160 156 98
156 154 95
157 154 93
159 156 97
160 156 98
162 158 97
162 158 99
175 169 107
163 159 98
165 161 99
172 167 102
165 161 97
167 162 99
169 164 100
173 168 102
163 159 98
171 166 97
169 164 98
172 167 100
171 166 95
168 164 104
173 168 100
175 169 103
172 166 103
173 167 95
173 168 100
170 165 99
175 169 101
174 168 101
172 167 98
171 166 97
171 165 94
173 167 98
177 170 101
170 165 97
169 164 94
170 165 98
174 168 99
174 168 101
168 163 94
170 164 92
170 164 97
172 166 98
175 169 100
168 163 93
168 162 95
168 162 93
172 166 102
167 160 92
168 161 93
168 162 93
170 163 94
167 162 93
164 157 92
170 163 92
166 161 93
163 157 88
170 165 97
165 159 92
171 164 95
171 164 90
167 160 89
166 161 87
162 156 89
161 156 84
167 160 87
165 158 88
164 158 87
160 154 81
157 149 80
165 159 89
158 153 84
154 148 77
160 154 80
163 156 87
162 155 80
159 152 80
151 145 77
148 143 69
154 147 75
150 144 73
149 143 72
145 138 70
147 140 72
143 137 69
142 136 67
149 142 72
135 129 62
135 129 60
134 129 59
134 128 64
129 127 51
172 194 0
173 197 0
173 195 0
171 193 0
173 195 0
173 197 0
173 196 0
172 196 0
174 197 0
174 197 0
171 195 0
173 196 0
173 197 0
172 196 0
171 195 0
172 196 0
173 197 0
175 198 0
174 197 0
173 197 0
175 198 0
173 196 0
173 196 0
172 195 0
172 195 0
170 194 0
170 193 0
172 196 0
172 196 0
171 195 0
173 196 0
173 197 0
172 196 0
172 196 0
173 195 0
171 195 0
172 195 0
173 196 0
171 195 0
171 194 0
173 196 0
174 197 0
174 197 0
169 193 0
172 195 0
175 198 0
172 195 0
172 196 0
169 193 0
173 195 0
173 195 0
173 195 0
171 195 0
169 193 0
171 194 0
173 197 0
169 193 0
173 196 0
170 193 0
171 195 0
172 195 0
170 193 0
169 192 0
175 198 0
171 194 0
173 196 0
171 194 0
169 192 0
170 193 0
170 193 0
166 189 0
173 197 0
174 197 0
173 195 0
171 195 0
173 197 0
171 194 0
173 196 0
172 195 0
170 194 0
173 197 0
172 194 0
171 194 0
168 192 0
171 193 0
171 194 0
171 194 0
171 195 0
170 194 0
171 194 0
171 195 0
172 195 0
169 193 0
171 194 0
173 197 0
170 193 0
171 194 0
172 196 0
171 194 0
171 194 0
168 192 0
174 197 0
104 132 139
62 98 165
61 98 164
62 98 160
62 98 169
62 99 168
62 99 172
62 99 176
62 99 172
62 99 173
63 99 177
62 99 173
63 99 177
63 99 176
62 99 175
63 99 176
62 99 172
62 99 176
62 99 176
62 99 170
62 99 178
61 98 177
62 99 175
63 99 177
62 99 176
62 99 176
62 99 175
63 99 178
62 99 179
62 99 179
63 99 175
62 99 178
63 99 177
62 99 178
62 99 179
63 99 176
63 100 178
62 99 176
62 99 181
62 99 178
62 99 177
62 99 178
62 99 179
62 99 180
62 99 178
62 99 180
63 99 177
62 99 180
62 99 179
62 99 179
62 99 178
62 99 179
62 99 180
61 98 180
62 99 179
62 99 180
62 99 178
62 99 181
63 100 181
62 99 178
62 99 179
63 100 179
62 99 180
62 99 180
62 99 177
62 99 175
62 99 179
62 99 179
62 99 180
62 99 178
62 99 180
62 99 178
61 98 178
62 99 179
61 99 178
62 99 180
62 99 180
62 99 179
62 99 178
62 99 181
62 99 178
62 99 179
62 99 177
62 99 180
62 99 175
62 99 178
62 99 179
61 99 178
62 99 178
62 99 175
62 99 176
62 99 179
62 99 179
61 98 177
62 99 179
62 99 181
62 99 178
62 99 178
62 99 175
62 99 175
61 99 179
63 100 180
62 99 178
62 99 177
61 99 180
62 99 176
62 99 176
62 99 178
62 99 174
62 99 177
61 99 179
63 99 179
61 98 175
62 99 176
62 99 175
62 99 177
62 99 173
62 99 178
62 99 174
62 99 175
62 99 175
62 99 172
63 100 177
62 99 173
63 99 177
62 99 174
62 99 177
62 99 176
63 99 177
62 99 173
62 99 176
62 98 172
62 98 169
62 99 173
62 98 173
62 99 172
62 98 170
61 98 173
61 97 167
62 99 174
63 99 174
62 98 173
63 98 171
62 98 175
63 99 174
63 99 168
61 98 174
62 97 169
61 96 165
60 95 163
61 96 168
61 96 162
60 95 161
61 95 158
60 94 159
58 92 153
81 88 85
78 81 57
88 89 60
79 81 55
88 89 63
91 94 67
88 91 62
101 103 70
78 83 62
82 87 63
86 89 66
95 98 70
94 98 70
103 106 76
95 99 73
100 102 70
109 111 77
102 105 72
107 109 75
111 113 80
101 105 75
106 109 77
114 116 79
124 124 83
111 113 79
107 109 72
126 127 87
122 123 85
125 125 83
139 138 92
129 128 83
135 134 88
133 134 91
134 134 87
138 137 90
138 138 91
134 133 84
149 147 93
148 145 92
153 149 93
146 144 91
150 147 93
156 153 92
155 152 98
159 154 97
150 148 90
156 152 95
160 156 97
160 156 98
153 151 94
155 152 91
157 153 93
157 154 94
159 155 99
165 161 103
160 156 93
158 155 99
161 157 97
168 163 99
167 162 99
169 164 101
169 163 97
164 160 96
167 163 98
170 164 99
173 167 100
172 166 97
169 164 97
171 165 97
173 167 100
172 165 99
169 162 97
170 165 98
171 165 94
168 163 97
174 168 98
172 166 103
175 169 101
177 170 102
170 165 95
173 167 101
172 166 94
174 168 100
172 165 95
176 169 97
176 169 101
174 167 99
173 166 95
169 163 92
173 166 96
170 164 95
176 168 101
173 165 97
175 168 99
168 162 87
170 164 93
174 167 101
166 160 92
169 164 93
167 161 94
172 166 96
167 161 95
168 162 93
168 162 94
169 163 95
168 162 97
164 158 94
166 160 90
164 158 87
166 158 91
164 158 87
168 161 92
165 159 86
170 163 93
167 161 92
158 151 84
159 153 84
164 157 87
155 149 75
156 150 80
159 154 80
162 156 85
160 155 85
168 161 90
153 147 76
153 147 75
153 147 81
153 147 74
153 147 78
155 149 80
147 141 75
151 145 73
141 135 65
143 137 68
140 134 66
137 132 60
140 135 66
143 138 65
135 131 60
127 122 56
117 113 44
136 139 44
173 194 0
171 194 0
172 194 0
173 195 0
172 194 0
175 198 0
173 197 0
171 194 0
173 196 0
173 197 0
169 193 0
172 195 0
172 196 0
175 197 0
174 197 0
172 196 0
170 194 0
173 197 0
172 195 0
173 196 0
175 198 0
173 196 0
172 195 0
170 194 0
174 197 0
173 196 0
174 197 0
174 197 0
172 195 0
174 198 0
173 196 0
172 195 0
171 195 0
170 194 0
172 196 0
173 196 0
174 197 0
172 196 0
173 196 0
171 195 0
173 197 0
172 195 0
173 196 0
172 195 0
173 196 0
171 195 0
171 194 0
173 197 0
171 195 0
170 193 0
171 195 0
172 196 0
171 195 0
172 195 0
172 196 0
171 195 0
174 196 0
171 194 0
172 196 0
171 194 0
170 193 0
173 197 0
173 197 0
171 194 0
170 193 0
172 195 0
173 195 0
172 196 0
172 195 0
168 192 0
174 196 0
172 195 0
172 196 0
173 195 0
174 198 0
169 193 0
173 197 0
172 195 0
171 194 0
171 195 0
170 193 0
172 196 0
170 193 0
172 195 0
170 194 0
171 193 0
174 197 0
168 192 0
171 194 0
171 194 0
170 194 0
172 194 0
172 196 0
170 194 0
170 193 0
173 196 0
172 196 0
170 194 0
171 195 0
172 195 0
172 196 0
154 177 86
62 98 167
62 98 163
62 99 172
63 99 171
62 98 170
62 99 172
62 99 171
62 98 168
62 99 173
63 99 175
61 98 168
62 99 170
62 98 169
62 99 175
62 99 172
62 99 175
62 99 175
62 99 173
62 98 169
63 100 178
61 98 175
62 99 175
62 99 176
62 99 175
62 99 173
63 100 180
63 99 178
62 99 180
62 99 179
62 98 173
62 99 180
62 99 177
63 99 179
62 99 178
62 99 177
62 99 179
61 99 177
63 100 178
62 99 179
62 99 176
62 99 179
63 99 180
63 100 180
62 99 178
62 99 177
62 99 178
62 99 178
62 99 180
63 100 179
62 99 177
62 98 175
62 99 180
62 99 180
61 98 178
62 99 176
61 98 178
62 99 179
62 99 177
62 99 179
62 99 180
62 99 180
61 99 179
62 99 180
63 100 180
62 99 178
62 99 180
62 99 181
62 99 180
62 99 178
62 99 178
61 98 176
62 99 177
62 99 178
62 99 178
62 99 178
62 99 177
62 99 179
62 99 180
62 99 180
63 100 179
61 98 174
62 99 180
62 99 178
62 99 177
62 99 177
61 98 179
62 99 180
62 99 179
62 99 179
61 98 177
62 99 180
62 99 177
61 99 180
62 99 179
62 99 181
63 100 180
63 100 179
62 99 180
62 99 178
62 99 174
61 98 173
62 99 175
62 99 179
62 99 179
62 99 180
62 99 175
62 99 175
62 99 177
62 99 176
63 99 174
62 99 177
62 99 179
62 99 177
62 99 176
62 99 177
62 98 172
62 99 173
63 99 178
62 99 174
62 98 173
63 99 177
62 99 177
62 99 176
62 99 175
62 99 175
62 99 174
62 98 174
62 99 176
62 99 178
62 99 176
62 99 172
62 99 176
62 98 169
61 97 164
62 99 173
62 98 171
62 98 171
62 99 174
62 98 169
62 99 172
62 98 171
62 98 173
61 97 166
61 97 169
62 98 170
62 98 170
62 99 172
62 98 171
61 96 166
60 95 161
60 95 165
61 96 159
60 96 163
61 96 165
61 97 168
59 93 159
71 93 134
76 78 53
87 89 59
89 91 63
75 79 57
82 87 66
83 86 60
69 73 56
74 79 58
87 90 65
87 91 67
92 95 68
91 94 68
90 93 68
99 102 73
90 93 65
89 93 66
98 100 68
126 124 82
109 112 80
107 109 75
106 108 75
110 112 78
119 120 82
116 118 82
120 121 77
120 121 80
127 127 83
119 121 81
125 125 81
124 124 80
139 138 89
135 134 85
132 132 87
130 129 84
138 137 89
148 147 98
143 141 89
143 141 93
143 142 87
150 148 92
145 143 91
141 140 85
148 146 92
149 147 91
157 153 94
153 150 96
155 152 93
155 151 93
164 160 98
151 148 92
164 160 99
157 153 96
158 154 95
159 156 95
162 159 98
161 157 96
166 161 96
160 156 92
165 160 94
167 162 95
166 161 98
171 166 101
169 164 95
168 164 97
171 165 101
171 166 95
168 164 100
172 166 99
170 164 95
171 166 103
170 165 96
175 168 101
178 171 102
173 167 97
170 165 97
171 165 95
171 166 96
173 167 102
170 164 96
173 167 98
173 167 97
174 168 101
171 165 97
172 166 96
171 165 94
172 166 97
175 168 100
172 166 99
173 167 96
167 161 89
173 166 97
168 163 95
172 166 96
172 165 95
170 164 94
171 165 95
172 165 100
167 161 88
175 169 101
170 164 96
169 163 92
166 160 90
169 163 95
163 157 85
164 158 88
163 157 84
165 159 91
169 162 93
169 162 93
164 157 85
168 160 89
159 153 89
163 157 86
160 154 80
159 153 82
168 160 94
159 153 80
161 155 84
153 148 74
159 153 83
155 150 77
157 151 81
155 148 80
158 152 84
160 153 83
155 149 80
152 145 78
151 144 75
151 145 80
163 156 81
149 143 73
151 144 71
151 145 72
143 138 68
138 132 66
143 137 64
141 135 63
141 134 69
136 130 61
118 113 52
140 141 51
173 196 0
173 194 0
172 195 0
173 196 0
174 197 0
171 193 0
173 196 0
172 196 0
174 198 0
172 196 0
172 196 0
174 197 0
170 195 0
172 196 0
172 195 0
174 197 0
171 194 0
171 195 0
171 194 0
171 195 0
169 193 0
172 196 0
172 196 0
172 195 0
174 196 0
174 197 0
173 196 0
171 195 0
170 194 0
169 193 0
173 197 0
171 195 0
171 195 0
172 196 0
173 197 0
169 192 0
172 196 0
171 194 0
171 194 0
171 195 0
172 196 0
172 195 0
174 196 0
172 196 0
171 195 0
173 197 0
171 195 0
169 193 0
170 194 0
173 196 0
173 196 0
173 195 0
173 196 0
172 194 0
173 197 0
174 197 0
173 197 0
168 192 0
170 194 0
169 193 0
170 193 0
174 197 0
169 193 0
173 196 0
172 195 0
173 196 0
171 195 0
169 192 0
170 194 0
174 197 0
170 193 0
172 196 0
170 193 0
172 195 0
171 194 0
172 196 0
172 195 0
169 192 0
172 196 0
172 195 0
171 194 0
172 196 0
172 194 0
173 196 0
166 190 0
173 196 0
172 195 0
169 193 0
171 194 0
171 195 0
174 196 0
168 192 0
169 192 0
170 194 0
171 194 0
173 196 0
172 194 0
168 192 0
170 193 0
170 193 0
172 196 18
107 134 140
61 98 164
61 98 163
62 98 165
62 98 169
62 98 168
61 98 167
63 99 175
62 98 167
62 98 174
62 99 170
63 100 178
62 99 172
63 99 176
62 99 176
62 99 174
62 99 179
62 99 174
62 99 176
62 99 171
62 99 174
61 98 175
63 100 174
62 99 177
62 99 178
62 99 179
62 99 176
62 99 174
62 99 178
62 99 179
63 99 173
62 99 180
62 99 179
62 99 177
61 99 178
63 100 181
62 99 178
62 99 178
62 98 175
62 99 181
62 99 178
62 99 179
62 99 180
62 99 179
62 99 178
62 99 178
62 99 176
62 99 180
62 99 178
61 99 179
62 99 181
63 100 180
62 99 177
62 99 177
63 100 178
62 99 177
62 99 180
62 99 177
62 99 180
62 99 180
62 99 178
63 100 180
62 99 180
63 99 179
63 100 179
62 99 180
62 99 178
62 99 180
62 98 174
62 99 179
62 99 179
62 99 178
62 99 177
62 99 178
61 99 178
61 98 177
62 99 178
61 98 176
61 98 176
63 100 179
62 99 180
62 99 177
62 99 177
62 99 178
62 99 177
62 99 177
61 98 175
62 99 180
62 99 176
63 100 178
62 99 180
63 99 179
62 99 180
62 99 177
62 99 176
62 99 177
61 98 173
63 99 178
62 99 178
62 99 178
63 99 179
62 99 178
62 99 178
62 99 179
63 100 181
63 100 181
63 100 179
63 100 179
62 99 176
62 99 176
62 99 175
63 100 180
62 99 174
62 99 179
63 100 179
61 98 174
62 99 173
63 100 177
61 98 174
62 99 176
62 98 170
62 99 177
62 99 175
62 99 176
62 98 173
62 99 177
62 99 174
62 98 174
62 99 176
62 99 174
61 98 170
62 99 177
61 98 173
62 99 175
62 99 169
61 98 173
62 98 175
62 98 172
62 98 172
61 98 175
62 98 168
61 98 169
62 98 171
62 98 170
62 98 170
62 97 170
61 96 163
61 96 167
62 98 173
62 99 169
61 97 165
62 98 167
61 96 165
60 96 162
61 96 163
60 95 161
60 95 160
59 92 151
74 83 97
83 85 56
63 67 47
79 81 55
71 77 58
73 77 57
66 72 51
74 78 56
91 94 68
77 81 58
88 91 64
98 102 73
93 97 71
96 99 71
81 85 59
96 100 72
88 93 64
110 112 79
104 107 75
104 107 76
111 114 79
98 100 67
114 114 73
112 115 79
114 116 76
120 121 79
124 124 83
124 124 81
128 128 83
126 125 80
137 135 89
123 124 83
141 140 94
132 131 84
144 142 93
148 146 92
140 139 87
147 144 91
138 136 89
139 138 87
139 137 88
143 141 88
156 152 95
155 152 95
157 153 96
154 151 89
155 152 93
162 158 95
164 160 99
158 154 93
161 157 94
157 153 96
164 160 95
153 150 88
164 159 94
166 162 102
161 158 94
163 159 95
168 163 100
164 160 96
169 164 99
164 160 95
170 165 98
165 160 93
170 164 97
168 162 96
171 165 97
172 166 99
168 163 96
173 167 99
173 167 99
173 167 96
172 166 100
172 166 98
172 166 98
176 169 99
169 164 95
173 168 94
174 167 98
174 168 98
169 164 94
172 166 95
171 165 96
174 168 97
172 167 95
170 164 96
174 167 97
175 168 97
174 167 97
176 169 99
171 165 95
165 159 91
173 167 95
175 167 95
173 167 95
171 165 96
169 163 88
167 161 90
170 163 93
170 163 93
169 162 91
167 161 91
170 164 95
167 161 90
168 161 87
165 159 87
168 162 88
167 160 84
161 156 90
167 159 90
157 151 80
166 159 83
164 157 89
164 158 89
163 156 84
161 156 81
160 154 82
160 154 82
151 146 73
153 148 76
160 153 84
154 148 75
162 155 79
146 140 72
150 144 78
162 155 80
144 139 75
153 147 75
152 147 73
155 149 73
146 140 73
142 137 62
138 132 63
135 128 69
145 139 68
146 140 67
142 136 63
136 130 61
140 133 63
124 120 52
142 147 42
171 194 0
171 193 0
175 196 0
172 194 0
172 195 0
169 192 0
170 194 0
173 196 0
172 194 0
172 196 0
170 193 0
171 195 0
172 194 0
172 196 0
174 197 0
168 192 0
173 196 0
173 195 0
173 195 0
169 192 0
171 195 0
174 198 0
172 195 0
170 194 0
171 195 0
172 195 0
173 196 0
173 197 0
174 198 0
170 194 0
172 195 0
173 196 0
169 192 0
173 197 0
172 196 0
172 196 0
175 198 0
172 195 0
171 195 0
174 197 0
172 196 0
173 195 0
173 197 0
172 195 0
172 196 0
172 195 0
171 194 0
173 197 0
172 196 0
171 196 0
172 195 0
172 195 0
173 196 0
171 194 0
171 193 0
172 196 0
171 194 0
174 198 0
171 194 0
170 194 0
171 195 0
172 195 0
171 195 0
171 195 0
169 192 0
169 193 0
172 195 0
169 193 0
170 192 0
174 197 0
172 196 0
172 195 0
172 196 0
171 195 0
172 195 0
169 193 0
171 194 0
170 193 0
175 198 0
170 193 0
171 194 0
170 193 0
173 196 0
170 194 0
172 195 0
172 195 0
171 194 0
171 195 0
172 195 0
171 195 0
172 195 0
170 193 0
171 195 0
167 190 0
170 192 0
173 196 0
171 195 0
169 193 0
173 196 0
171 195 0
145 169 95
62 99 164
62 98 165
62 99 169
61 98 165
62 98 166
62 98 168
62 99 170
63 99 169
62 99 168
62 99 172
61 98 166
61 98 167
63 100 177
62 99 175
62 99 171
62 98 173
63 99 175
62 99 170
62 99 176
63 99 180
62 99 178
61 98 177
62 98 176
63 100 179
62 99 179
62 99 177
61 98 175
62 99 174
62 99 175
62 99 179
63 99 176
62 99 180
62 99 178
62 99 175
62 99 179
62 99 174
62 99 178
62 98 174
62 99 179
62 99 177
62 99 177
62 99 176
62 99 180
62 99 177
62 99 176
62 99 180
62 98 174
63 100 179
62 99 179
63 100 177
62 99 180
62 99 180
62 99 181
62 99 178
62 99 179
62 99 177
62 99 178
62 99 178
62 99 179
62 99 180
61 98 177
63 100 180
62 99 179
62 99 178
62 99 181
62 99 179
62 99 176
62 99 179
62 99 179
62 99 177
61 99 178
62 99 179
62 99 179
62 99 178
62 99 179
61 98 176
62 99 178
62 99 178
62 99 181
62 99 175
62 99 179
62 99 178
61 98 174
61 98 177
62 99 179
62 99 180
61 98 176
62 99 177
63 100 179
62 99 180
62 99 180
62 99 181
61 98 172
62 99 177
62 99 178
62 99 178
62 98 175
62 99 176
62 99 179
62 99 177
62 99 175
62 99 176
62 99 176
62 99 176
62 99 176
62 99 180
62 99 177
62 99 174
62 99 179
62 99 178
62 99 177
62 99 176
61 98 174
62 99 179
62 99 174
61 98 177
62 99 178
63 99 178
62 99 171
62 99 176
61 98 174
62 99 174
62 98 175
62 99 176
62 99 175
61 98 172
62 99 174
62 99 174
63 99 172
62 98 172
61 98 167
62 99 175
61 97 170
62 98 170
63 99 174
62 98 172
62 98 171
62 99 172
62 98 174
62 98 174
62 98 172
62 98 168
63 99 176
62 99 174
62 98 169
62 98 176
62 98 170
60 96 158
61 97 167
62 98 169
62 97 167
61 97 170
61 96 166
60 96 162
60 94 159
59 95 157
61 96 167
59 93 155
64 89 136
68 72 54
76 79 57
78 80 57
65 70 50
64 70 53
80 83 58
57 66 54
78 82 60
72 76 55
85 90 66
83 86 62
88 92 69
98 100 72
89 94 70
93 98 71
95 98 68
108 110 73
97 100 68
110 111 73
118 118 80
123 123 81
113 115 79
120 122 83
115 117 80
123 123 84
120 120 79
110 113 75
127 128 86
126 126 84
132 131 84
134 133 87
131 131 84
136 136 89
131 130 87
140 139 89
139 138 86
138 137 89
139 137 83
154 151 95
146 143 91
145 143 87
148 147 89
145 143 91
148 145 89
151 149 88
156 153 95
162 157 97
161 157 94
157 153 95
162 158 94
158 154 92
159 155 92
155 152 92
156 154 93
159 155 93
163 159 93
163 159 96
165 161 98
164 159 94
168 163 99
168 164 98
164 160 95
168 163 96
172 166 102
169 164 95
171 165 93
169 163 92
167 163 92
167 162 95
172 166 100
174 167 100
173 166 93
169 164 96
176 169 99
171 165 97
173 167 97
170 165 94
176 169 101
173 167 101
175 168 97
171 165 94
174 168 101
172 167 93
174 167 101
175 168 96
168 163 97
173 167 97
170 164 93
174 167 101
171 164 95
174 167 99
169 162 94
173 166 95
170 164 94
171 164 95
170 164 91
171 164 93
164 159 88
169 163 95
171 164 93
167 162 86
166 160 86
166 159 91
168 161 97
158 152 80
160 154 86
161 156 87
164 158 87
166 160 87
167 160 84
165 159 88
162 156 88
159 153 90
166 160 87
163 158 83
162 156 81
153 147 75
160 154 81
152 146 76
160 153 80
159 153 81
155 148 80
162 157 82
153 147 75
157 151 80
144 138 70
147 142 67
153 147 75
150 144 72
148 142 74
139 134 64
149 143 68
138 132 67
150 143 73
142 136 60
129 125 56
136 130 63
138 132 60
135 130 62
140 151 32
170 192 0
171 194 0
172 195 0
174 195 0
171 194 0
173 195 0
172 196 0
171 195 0
172 195 0
173 196 0
171 195 0
174 197 0
172 194 0
173 197 0
171 195 0
174 197 0
171 194 0
173 197 0
173 196 0
169 193 0
175 198 0
172 195 0
173 196 0
171 194 0
172 195 0
169 192 0
171 195 0
174 197 0
173 197 0
174 197 0
171 194 0
170 194 0
173 197 0
169 194 0
174 197 0
173 196 0
174 196 0
172 195 0
172 196 0
174 197 0
169 193 0
172 195 0
174 197 0
173 196 0
174 197 0
170 194 0
172 196 0
171 195 0
172 194 0
171 195 0
171 195 0
174 197 0
171 194 0
173 196 0
172 195 0
174 197 0
172 195 0
168 191 0
171 195 0
168 192 0
171 194 0
171 194 0
168 191 0
171 194 0
168 192 0
173 196 0
170 193 0
172 196 0
173 196 0
173 195 0
170 193 0
173 196 0
172 195 0
173 196 0
169 192 0
172 195 0
172 195 0
172 195 0
171 194 0
169 193 0
172 196 0
172 196 0
173 196 0
170 194 0
173 197 0
171 194 0
169 193 0
169 193 0
170 193 0
168 192 0
172 195 0
172 195 0
168 192 0
167 191 0
171 194 0
168 192 0
166 188 0
170 193 0
173 196 0
170 193 0
87 117 153
62 98 167
62 98 167
62 99 173
62 99 169
62 98 169
62 99 171
62 98 168
61 97 161
62 98 167
62 98 169
62 99 175
63 100 174
62 99 173
62 99 172
63 100 176
63 99 174
62 99 173
63 100 177
62 98 167
62 99 176
61 98 175
62 99 175
62 99 177
62 99 175
62 99 175
62 99 177
62 99 180
61 98 171
61 98 176
62 99 178
63 99 175
62 99 176
61 98 175
62 99 179
62 99 177
62 98 174
62 99 180
62 99 180
62 99 176
62 99 174
62 99 177
62 99 178
63 100 179
63 100 180
61 98 176
62 99 177
62 99 179
62 99 180
63 100 178
63 100 179
62 99 175
63 100 180
62 99 181
62 99 177
62 99 177
62 99 176
62 99 180
62 99 179
61 99 179
61 99 178
62 98 175
62 99 179
62 99 178
62 99 177
62 99 180
62 99 177
62 99 178
62 99 179
62 99 179
62 99 178
62 99 180
62 99 177
62 99 177
61 99 179
62 99 180
62 99 181
62 99 175
61 99 179
62 99 177
63 100 180
62 99 177
62 99 175
62 99 179
62 99 178
62 99 177
62 99 180
61 98 172
62 99 178
63 100 180
62 99 176
62 99 178
61 98 177
62 99 179
62 99 173
63 99 179
62 99 175
62 99 174
62 99 176
62 99 179
61 99 176
61 98 175
61 98 171
62 99 176
63 99 177
63 100 181
62 99 178
62 99 173
62 99 178
62 99 176
63 99 179
62 99 179
62 98 176
62 99 176
63 99 176
61 98 173
62 98 171
62 99 174
62 99 174
62 99 175
62 99 177
61 98 175
62 99 174
62 99 177
62 99 176
62 99 176
61 98 174
62 99 177
62 99 176
62 99 175
62 99 174
62 99 174
62 99 171
62 99 175
62 99 174
62 99 174
62 98 170
62 99 175
61 97 164
61 98 171
61 98 166
62 98 170
62 99 171
62 99 175
62 98 168
62 98 171
62 98 169
60 96 158
62 97 165
61 97 168
62 97 170
61 96 165
60 96 159
61 97 164
61 96 167
61 96 164
60 95 157
61 95 162
60 94 153
59 92 152
85 95 111
75 77 54
82 85 60
74 78 56
63 67 52
76 81 59
77 81 58
81 85 59
82 85 61
71 79 62
100 101 68
72 79 62
97 99 67
98 101 68
93 97 70
90 93 64
93 97 70
107 109 75
105 107 76
106 107 73
112 113 77
101 105 73
100 104 73
111 113 74
120 120 79
117 118 79
123 125 81
122 122 78
126 125 81
135 133 89
126 126 78
131 130 81
126 125 78
139 138 88
135 132 83
144 142 93
128 129 86
140 138 85
141 139 87
146 144 85
146 144 87
156 152 92
149 146 91
152 149 93
155 151 90
154 151 91
148 145 88
152 150 89
151 149 92
155 152 90
157 154 97
160 156 91
162 158 96
157 154 89
166 160 91
162 158 95
163 159 96
163 159 94
168 163 96
162 158 93
168 163 98
167 163 98
163 159 93
169 164 97
168 163 94
169 164 95
170 164 94
170 164 94
167 163 98
172 167 98
169 164 98
172 166 100
169 164 90
169 164 91
173 167 99
174 168 99
170 165 97
175 168 99
172 166 95
169 163 95
169 163 91
174 167 93
173 167 96
170 164 94
175 168 99
173 167 93
171 164 93
171 165 93
169 163 95
171 164 97
175 168 95
171 163 95
172 166 98
166 161 90
171 164 93
170 164 97
167 162 89
167 161 93
172 165 92
170 163 93
173 166 97
174 166 94
168 161 89
166 160 86
168 161 90
167 161 87
164 158 87
168 162 90
163 157 84
165 157 83
164 158 86
159 153 75
165 158 87
163 157 85
156 150 84
154 148 80
161 155 83
158 152 81
155 149 77
153 147 76
157 151 80
153 147 74
159 152 81
149 144 71
156 149 75
153 148 79
153 146 77
156 150 75
148 142 67
145 139 68
150 144 72
143 137 65
152 145 70
137 132 68
134 128 64
129 125 54
129 124 65
135 129 60
124 119 56
156 170 30
172 193 0
171 193 0
170 193 0
174 196 0
172 194 0
170 193 0
173 196 0
173 197 0
171 195 0
171 195 0
174 197 0
171 195 0
171 195 0
174 197 0
174 197 0
173 197 0
173 196 0
173 196 0
174 197 0
172 196 0
173 197 0
173 197 0
172 195 0
173 196 0
175 198 0
173 196 0
174 197 0
173 196 0
170 194 0
167 191 0
172 194 0
174 197 0
171 195 0
174 197 0
173 196 0
171 194 0
171 195 0
173 196 0
172 196 0
171 195 0
169 193 0
171 195 0
168 192 0
172 195 0
171 195 0
172 196 0
171 194 0
170 193 0
171 195 0
173 196 0
173 196 0
172 195 0
173 197 0
172 195 0
170 194 0
173 196 0
171 195 0
170 193 0
169 193 0
171 195 0
172 195 0
172 194 0
171 194 0
171 194 0
171 195 0
170 194 0
172 195 0
170 194 0
172 194 0
170 194 0
173 196 0
173 197 0
173 196 0
170 193 0
170 193 0
169 192 0
173 196 0
173 196 0
171 196 0
170 194 0
172 194 0
168 192 0
174 197 0
173 196 0
169 191 0
173 196 0
170 194 0
173 197 0
171 194 0
171 195 0
170 194 0
171 196 0
171 194 0
170 193 0
168 192 0
172 195 0
170 194 0
172 195 0
174 196 0
145 169 88
61 97 161
62 99 167
62 98 166
63 99 167
62 99 173
62 99 170
62 98 166
62 99 172
63 99 172
62 98 169
62 99 172
63 100 176
62 98 169
63 99 174
62 99 170
61 98 166
62 99 175
61 98 173
62 99 177
62 99 173
63 100 180
62 99 176
62 99 173
62 99 176
61 99 178
63 100 178
62 99 174
62 99 179
63 100 179
62 99 180
61 98 171
62 99 179
62 99 176
62 99 172
62 99 176
62 99 175
62 99 177
63 100 180
62 99 176
62 99 180
62 99 179
62 99 179
62 99 180
62 99 180
62 99 177
62 99 177
62 99 176
61 99 178
62 99 177
62 99 180
62 99 180
62 99 181
63 100 180
61 98 176
62 99 178
63 100 178
63 99 178
62 99 175
62 99 179
62 99 180
62 99 179
62 99 179
61 98 175
61 98 175
62 99 179
63 100 180
62 99 175
62 99 179
62 99 180
63 100 179
62 99 176
61 99 179
62 99 176
62 99 179
63 100 180
62 99 174
62 99 177
62 99 176
62 99 177
63 99 174
62 99 180
63 99 178
62 99 177
62 98 173
62 99 177
62 99 177
62 99 176
63 99 180
62 99 176
62 99 174
63 100 180
62 99 176
62 99 179
62 99 179
62 99 177
62 99 177
62 99 177
63 99 179
63 100 179
62 99 174
63 99 177
62 99 178
62 99 176
62 99 177
61 98 177
62 99 176
61 98 173
61 98 172
62 99 178
62 99 174
61 98 171
62 99 177
63 100 178
61 98 175
62 99 179
62 99 178
62 99 175
62 98 171
62 98 171
62 99 174
62 99 172
62 99 179
62 99 177
62 99 177
62 99 178
62 98 172
62 99 174
63 100 177
63 100 179
62 98 174
62 99 175
62 99 176
62 99 174
62 99 169
62 99 171
62 99 176
62 98 171
62 98 174
63 100 177
62 98 170
62 99 173
62 99 172
61 98 171
61 98 169
62 99 171
62 98 170
61 97 165
62 99 173
61 96 163
61 97 167
61 97 168
62 98 169
62 98 167
60 95 163
61 96 160
60 95 159
62 97 167
60 95 158
59 93 155
61 95 164
61 90 144
75 78 50
69 73 52
55 60 45
78 79 56
61 67 49
65 72 55
84 86 60
72 75 54
82 85 56
89 93 67
83 87 62
77 81 56
93 95 64
89 93 67
87 92 65
83 88 60
87 91 68
91 95 64
102 105 73
105 107 74
102 105 71
109 110 70
113 115 71
124 124 82
118 119 77
128 128 82
125 125 81
124 124 81
132 130 83
133 132 83
133 132 87
119 120 82
127 127 83
133 132 80
138 136 86
140 138 87
140 139 83
145 143 88
149 148 94
151 148 93
150 146 87
149 146 92
151 149 94
147 145 86
152 149 93
154 152 92
160 156 98
156 152 91
156 152 92
158 153 90
161 156 90
158 155 95
165 160 94
158 155 95
161 157 91
159 155 92
163 158 94
163 160 92
168 163 94
165 160 96
166 162 97
166 161 97
169 164 95
169 164 97
163 159 95
168 162 99
172 166 96
171 164 92
173 166 97
173 166 101
171 165 98
168 163 91
173 167 97
169 164 92
172 166 95
172 166 97
170 164 90
168 162 93
172 167 96
170 164 94
173 167 99
172 166 96
173 167 92
174 168 99
173 166 94
175 169 97
173 167 94
172 165 91
170 164 97
173 167 98
167 162 87
169 163 92
171 163 93
169 162 90
169 163 93
166 159 89
170 164 90
166 160 90
167 161 91
168 162 93
165 158 93
167 160 88
162 156 84
166 159 84
164 158 87
169 162 92
168 161 87
163 156 81
156 150 79
164 157 88
162 156 87
157 150 78
165 158 86
156 151 77
157 151 82
160 153 75
161 154 81
157 150 75
156 149 83
154 148 80
158 152 82
153 148 78
159 153 81
151 146 67
151 144 77
151 146 69
153 147 70
147 140 70
150 143 72
149 143 70
145 139 68
151 144 75
128 123 54
139 134 60
134 128 62
130 125 56
120 116 48
121 116 51
163 181 11
171 195 0
171 193 0
172 195 0
172 194 0
171 191 0
173 196 0
173 196 0
173 196 0
173 195 0
172 196 0
170 194 0
174 197 0
170 193 0
172 196 0
174 197 0
169 194 0
173 196 0
172 195 0
169 193 0
172 196 0
174 197 0
172 196 0
172 196 0
172 196 0
172 195 0
170 193 0
173 197 0
174 198 0
172 196 0
174 196 0
173 195 0
173 196 0
172 195 0
170 193 0
172 195 0
172 195 0
171 195 0
172 195 0
170 194 0
171 195 0
175 198 0
173 196 0
171 195 0
169 194 0
171 195 0
171 194 0
173 196 0
171 195 0
173 196 0
170 194 0
172 195 0
174 197 0
172 196 0
171 193 0
174 198 0
172 195 0
172 195 0
171 194 0
172 196 0
172 195 0
170 193 0
170 194 0
171 195 0
172 196 0
173 197 0
169 192 0
173 197 0
173 196 0
171 195 0
173 197 0
170 195 0
173 196 0
173 197 0
171 195 0
173 197 0
171 195 0
170 193 0
172 195 0
172 195 0
169 192 0
171 194 0
171 193 0
169 193 0
172 195 0
171 193 0
173 196 0
172 196 0
173 196 0
170 193 0
173 196 0
170 193 0
173 196 0
173 196 0
171 194 0
170 193 0
171 194 0
171 195 0
171 194 0
169 192 0
78 110 156
62 98 160
61 97 161
61 98 164
63 99 171
63 99 170
63 100 171
62 98 163
61 97 166
62 99 169
62 99 174
62 99 174
63 99 175
62 99 174
62 99 174
62 99 175
62 99 171
62 99 173
62 99 174
62 98 171
62 99 172
63 99 173
62 99 172
63 99 175
62 99 176
62 99 179
62 99 178
61 98 175
62 99 175
62 99 178
62 99 176
63 100 177
62 99 176
63 100 178
62 99 176
61 98 176
62 99 177
62 99 176
62 99 176
62 99 178
62 99 176
62 99 176
63 100 180
62 99 177
62 99 178
62 99 174
62 99 177
62 99 179
62 99 179
62 99 179
62 99 177
62 99 178
63 100 177
62 99 179
62 99 180
62 99 175
61 98 177
62 99 180
62 99 180
62 99 178
62 99 176
62 99 178
62 99 180
62 99 176
64 100 181
63 100 179
62 99 180
62 99 180
62 99 177
62 99 179
62 99 181
62 99 180
61 98 177
62 99 179
63 100 177
62 99 179
61 99 179
62 99 178
62 99 176
62 99 179
62 99 176
62 99 180
62 99 179
62 99 179
62 99 179
61 98 175
62 99 174
62 99 174
62 98 175
62 99 178
62 99 177
62 99 173
62 99 177
61 99 178
62 99 179
62 99 174
62 99 178
62 99 179
61 98 175
63 100 179
62 99 175
62 99 178
63 99 178
62 99 178
62 99 177
62 98 173
62 99 177
63 99 175
62 99 179
63 99 175
62 99 176
62 99 176
62 99 179
62 99 175
63 100 180
62 98 171
62 99 175
61 98 176
63 99 177
62 99 179
63 99 176
61 98 177
62 99 177
62 99 178
62 98 173
62 99 176
62 99 173
62 98 168
62 99 173
62 99 173
62 99 174
61 97 168
63 99 175
62 98 174
62 98 170
62 99 173
61 98 170
62 99 174
62 99 173
62 98 174
62 98 170
62 99 173
62 98 170
61 96 165
62 98 168
61 98 168
62 98 172
60 96 164
61 97 163
63 99 174
61 98 170
62 97 163
61 97 170
61 97 164
60 95 160
61 97 161
61 96 156
62 97 167
59 94 158
60 94 159
58 92 157
60 94 155
73 86 103
69 72 49
67 70 49
62 69 53
56 63 50
64 70 53
84 88 62
77 82 57
79 82 57
79 85 62
80 84 61
83 89 66
92 97 70
81 85 60
89 93 64
86 91 67
100 103 70
106 109 76
102 106 73
92 95 61
112 114 74
103 106 70
107 109 74
113 114 74
114 115 76
126 126 82
118 118 75
121 121 80
113 115 78
134 133 85
132 131 83
125 124 78
129 128 78
135 133 80
137 135 84
137 136 83
144 142 88
142 139 88
137 136 84
143 140 86
153 149 91
153 149 90
157 154 93
142 140 86
158 154 93
149 146 89
155 152 93
161 156 94
154 150 91
156 152 89
160 156 85
167 162 94
166 160 95
164 158 99
162 157 93
165 160 95
161 157 89
160 156 90
162 158 93
165 160 93
169 164 99
168 163 94
170 164 96
169 164 99
168 163 92
167 163 93
170 164 95
168 162 89
171 166 97
168 162 91
175 169 99
172 166 97
171 165 93
171 166 92
171 166 93
174 167 99
168 163 91
170 165 94
175 169 101
171 165 93
170 163 90
174 167 97
172 165 95
171 165 89
167 161 91
174 167 95
168 162 87
171 165 97
170 164 90
166 160 85
170 164 94
171 165 95
169 162 95
170 164 91
172 165 92
165 159 81
170 163 94
167 162 87
167 160 88
166 159 89
167 161 90
166 159 94
165 159 81
164 157 87
164 158 87
164 158 84
159 153 81
157 151 84
164 158 86
166 160 91
159 154 80
159 153 84
161 155 77
156 149 75
165 158 88
157 152 74
147 141 69
155 148 74
160 153 79
157 150 78
163 156 80
159 153 84
154 148 80
143 137 63
153 147 75
154 148 73
150 144 74
144 138 68
145 139 69
147 141 72
150 144 74
137 131 65
144 137 68
129 123 54
143 136 64
131 126 53
136 130 65
124 120 52
167 188 0
174 197 0
172 193 0
170 192 0
171 194 0
171 191 0
172 194 0
173 197 0
172 196 0
172 196 0
173 196 0
172 195 0
171 194 0
172 195 0
174 197 0
172 196 0
172 196 0
175 198 0
171 195 0
174 198 0
174 197 0
173 196 0
171 195 0
172 195 0
175 198 0
171 195 0
172 196 0
172 196 0
172 196 0
170 195 0
172 196 0
172 196 0
173 196 0
168 192 0
171 196 0
173 196 0
171 194 0
172 195 0
173 196 0
171 194 0
171 195 0
171 195 0
169 192 0
174 197 0
173 196 0
171 194 0
171 195 0
171 195 0
172 195 0
172 195 0
171 195 0
173 196 0
172 194 0
171 196 0
171 195 0
173 196 0
172 196 0
171 195 0
173 197 0
172 196 0
172 195 0
171 194 0
171 194 0
173 196 0
172 196 0
171 193 0
169 192 0
172 195 0
172 195 0
174 197 0
171 194 0
172 196 0
172 195 0
173 196 0
167 190 0
173 197 0
175 197 0
171 194 0
170 194 0
171 194 0
170 193 0
172 195 0
172 194 0
169 193 0
171 195 0
173 196 0
173 196 0
172 195 0
169 192 0
170 192 0
171 194 0
171 194 0
172 195 0
170 193 0
171 194 0
170 192 0
169 193 0
169 191 0
171 195 0
145 170 82
62 98 163
63 99 168
63 99 171
62 99 166
63 99 167
62 98 167
62 99 171
62 99 173
62 98 170
62 99 173
62 98 170
62 99 174
62 99 170
61 98 169
62 98 167
62 99 173
62 99 172
62 98 169
62 99 175
61 98 170
62 99 176
62 99 176
62 98 169
62 98 175
63 100 176
62 99 175
62 99 178
62 99 176
62 99 178
62 99 173
62 99 177
62 98 174
62 99 174
62 99 173
62 99 175
62 99 171
63 99 173
62 99 177
62 99 177
62 99 177
63 100 178
62 99 175
62 99 176
62 99 177
62 99 177
62 99 178
62 99 178
63 100 179
62 99 176
62 99 175
62 99 177
62 99 175
62 99 178
62 99 179
62 99 176
63 99 179
62 99 180
63 100 180
62 99 178
62 99 177
63 100 178
62 99 180
62 99 178
61 98 175
62 99 179
62 99 177
62 99 174
62 99 179
62 99 179
62 99 179
62 99 179
62 99 179
62 99 176
62 99 177
62 99 177
63 99 177
62 99 178
62 99 176
61 98 175
62 99 177
62 99 178
62 99 177
61 99 178
62 99 174
61 98 176
62 99 178
62 99 178
63 99 178
62 99 176
62 99 178
62 98 177
62 99 178
62 99 176
62 99 177
62 99 177
61 98 172
62 99 175
62 98 175
62 99 174
62 99 178
62 99 176
63 99 177
61 98 176
61 99 178
62 99 176
62 99 176
63 100 180
62 99 172
62 99 176
62 99 173
62 99 177
62 99 175
62 99 176
62 99 178
62 99 176
62 99 174
61 98 171
62 98 173
63 100 179
62 99 172
62 99 174
62 99 173
61 98 173
62 99 173
62 98 171
62 98 171
62 99 176
62 99 178
62 98 170
62 99 172
62 99 172
62 99 172
63 99 174
62 98 169
62 99 176
62 99 171
62 99 177
63 99 177
61 97 163
62 99 175
61 97 167
62 99 171
61 97 166
62 99 171
62 98 169
61 97 163
61 97 161
61 97 167
61 97 166
62 97 167
62 98 170
62 97 164
60 95 156
61 97 164
61 96 161
61 98 170
61 96 163
61 96 159
60 95 157
60 94 153
60 94 158
59 92 148
59 87 139
69 74 57
60 64 45
49 56 43
59 65 49
75 79 58
68 74 54
73 78 58
66 72 54
70 77 58
68 74 52
81 86 65
78 83 61
90 93 64
89 93 64
100 101 68
96 100 67
98 101 68
102 105 72
111 112 73
109 111 68
111 113 76
119 119 75
110 113 75
107 109 69
115 115 73
117 119 78
122 122 78
134 133 80
139 136 85
129 129 81
135 134 84
128 128 77
132 132 83
140 138 85
137 135 85
140 138 84
144 141 86
146 144 90
152 148 93
141 139 85
143 141 89
147 145 84
150 147 89
146 143 84
156 151 93
149 146 84
157 153 92
156 152 90
144 142 84
157 154 94
156 152 86
164 159 89
165 161 94
160 157 97
160 155 94
168 162 92
168 163 99
170 164 95
159 155 91
173 166 100
164 160 91
167 162 91
166 160 91
166 161 91
168 162 95
168 163 97
171 165 97
170 165 94
168 163 90
169 164 93
169 163 94
171 165 94
174 167 97
172 166 96
169 163 93
173 167 99
171 165 88
173 166 98
173 166 95
171 165 97
172 166 92
175 168 99
169 164 90
167 160 91
171 165 93
171 164 91
171 164 97
165 159 85
172 164 95
169 163 95
172 165 95
168 162 85
173 166 90
169 162 90
170 163 89
168 162 91
165 158 86
167 161 90
163 157 86
169 163 87
166 159 87
170 164 93
168 161 93
164 157 86
159 153 85
169 162 93
162 155 82
160 154 87
162 156 81
167 160 87
165 158 87
164 157 80
155 149 71
158 153 78
155 148 77
164 156 83
164 156 86
162 155 84
163 156 78
144 138 72
151 146 73
148 141 78
152 147 67
152 147 75
146 140 69
150 144 70
145 140 66
146 140 73
135 129 66
140 135 58
159 151 76
142 137 65
144 138 62
142 136 60
123 118 51
133 129 61
129 124 54
173 195 0
169 189 0
171 194 0
172 193 0
172 195 0
168 191 0
171 194 0
173 197 0
174 197 0
172 195 0
173 197 0
172 196 0
171 194 0
170 194 0
171 194 0
174 197 0
170 194 0
175 197 0
175 198 0
171 195 0
170 195 0
174 197 0
173 196 0
170 193 0
170 193 0
171 194 0
174 197 0
171 194 0
173 196 0
172 194 0
171 194 0
170 193 0
172 196 0
174 197 0
172 195 0
173 196 0
171 195 0
172 196 0
171 195 0
173 196 0
171 195 0
171 195 0
173 197 0
171 194 0
173 196 0
171 195 0
173 196 0
170 194 0
171 195 0
174 197 0
172 195 0
170 194 0
167 190 0
172 196 0
173 196 0
170 194 0
170 194 0
170 194 0
170 194 0
170 193 0
168 191 0
172 196 0
171 194 0
169 193 0
171 195 0
173 197 0
171 194 0
172 195 0
175 198 0
168 191 0
172 195 0
171 194 0
172 195 0
171 195 0
171 195 0
172 195 0
171 195 0
171 195 0
171 194 0
174 197 0
172 195 0
168 192 0
169 192 0
170 192 0
171 195 0
170 193 0
167 190 0
168 191 0
174 197 0
170 193 0
172 195 0
168 192 0
171 193 0
171 194 0
170 193 0
172 195 0
173 196 0
170 193 0
172 195 0
103 131 143
61 98 160
62 98 166
62 99 169
62 98 165
62 98 163
62 98 167
62 98 164
62 99 173
62 98 173
62 98 166
62 99 173
62 99 168
62 99 174
63 99 175
62 99 173
63 100 175
62 99 169
62 98 168
62 99 173
61 98 172
62 99 170
62 99 174
63 99 177
62 99 178
62 99 174
63 100 179
61 98 172
62 99 173
62 98 167
62 99 171
62 99 175
62 98 175
62 99 175
62 99 178
63 100 177
62 99 176
62 99 177
62 99 177
62 99 180
62 99 176
62 99 178
62 99 177
61 98 174
62 99 177
62 99 178
62 99 175
62 99 178
63 100 179
62 99 178
62 99 176
62 99 176
62 99 178
61 98 174
62 99 178
62 99 175
63 99 176
62 99 181
62 99 178
62 99 179
62 99 176
62 99 173
62 99 178
62 99 175
62 99 177
63 100 178
62 99 178
62 99 178
62 99 179
62 98 173
62 99 178
62 99 177
62 99 179
62 99 180
62 99 178
61 98 178
62 99 178
62 99 176
62 99 180
62 99 177
61 98 175
63 99 179
62 99 178
62 99 176
62 99 176
61 98 176
63 100 177
62 99 175
62 98 169
62 99 175
63 100 177
62 99 175
62 99 176
62 99 177
62 99 176
62 99 174
62 99 174
61 98 175
62 99 175
62 99 178
62 99 174
62 99 176
62 99 178
62 98 174
63 99 179
63 100 177
63 100 177
62 99 174
63 100 179
62 99 173
62 99 173
62 99 171
62 99 174
62 99 175
63 100 180
62 99 180
62 99 172
62 99 178
62 99 174
62 99 177
62 99 173
62 99 174
62 99 176
62 99 174
62 99 174
62 99 175
62 99 176
62 99 174
62 99 174
62 99 173
62 99 174
62 99 175
62 99 175
62 98 171
63 100 180
62 99 174
62 99 175
62 99 169
61 97 169
62 98 171
63 99 174
62 99 173
61 97 170
62 98 169
61 97 159
63 99 171
62 99 172
62 98 170
62 97 166
61 97 164
61 97 167
62 98 168
61 97 169
61 97 165
62 98 169
61 97 166
62 98 167
61 97 162
59 93 156
61 96 161
61 95 160
60 95 166
59 93 158
60 93 157
63 77 93
59 65 49
64 68 48
64 68 47
72 76 54
65 72 55
66 71 55
67 73 51
80 84 59
67 73 54
80 84 57
76 80 58
84 89 62
79 83 56
87 90 57
89 94 66
98 101 70
96 99 67
111 113 73
107 107 69
102 104 71
109 112 75
109 110 74
116 116 75
119 119 77
114 116 76
125 125 80
122 123 79
131 130 80
126 125 79
130 129 79
133 131 81
132 132 80
139 137 89
135 134 80
131 129 77
148 145 86
144 141 87
142 140 89
140 139 87
147 144 87
150 146 89
145 142 84
149 146 89
149 146 88
164 159 95
148 145 86
156 153 95
153 150 81
156 152 92
160 155 93
163 159 90
164 159 96
160 156 90
156 152 86
164 159 95
161 156 91
170 164 98
168 162 89
170 164 93
169 163 93
171 165 97
168 163 99
161 156 87
168 162 95
168 162 93
169 164 96
171 165 95
169 163 91
169 163 92
171 165 91
169 163 96
176 169 102
170 165 88
169 163 93
172 165 93
172 166 95
172 165 94
170 164 96
172 165 98
175 168 94
173 166 94
163 158 85
172 165 96
172 165 95
169 163 93
174 167 92
173 165 87
164 159 81
169 162 92
169 162 91
171 164 91
162 156 84
167 161 84
173 166 89
172 165 89
168 162 87
168 162 87
164 158 85
166 160 88
163 157 89
167 162 87
167 161 88
162 156 84
162 156 87
161 156 84
167 159 90
161 154 75
162 156 83
155 149 75
164 157 87
165 158 81
153 147 78
155 149 79
160 154 79
157 150 80
159 153 75
154 149 73
158 152 77
158 151 78
154 147 76
146 141 73
149 142 75
152 146 70
151 146 69
144 138 65
135 131 51
149 143 66
148 142 65
146 140 68
135 129 54
145 138 61
137 130 54
140 135 58
132 126 60
133 128 62
136 144 32
168 189 0
170 193 0
171 191 0
171 193 0
171 194 0
171 192 0
170 193 0
172 196 0
172 196 0
173 197 0
172 195 0
173 197 0
173 197 0
172 196 0
173 196 0
174 198 0
174 197 0
171 195 0
173 196 0
173 197 0
174 196 0
172 195 0
173 197 0
169 193 0
173 196 0
171 194 0
170 194 0
173 196 0
172 196 0
173 196 0
172 195 0
172 195 0
171 195 0
172 196 0
172 196 0
172 195 0
170 195 0
172 196 0
170 193 0
170 194 0
174 197 0
173 196 0
173 196 0
173 196 0
174 197 0
172 195 0
172 196 0
171 194 0
171 195 0
173 196 0
172 195 0
172 196 0
171 194 0
172 195 0
173 196 0
172 196 0
170 194 0
170 194 0
172 195 0
172 195 0
172 196 0
171 195 0
172 196 0
168 191 0
173 196 0
170 193 0
170 194 0
175 198 0
170 194 0
170 193 0
171 193 0
171 194 0
172 196 0
172 195 0
171 195 0
169 192 0
174 196 0
170 193 0
173 195 0
174 196 0
170 193 0
171 195 0
171 195 0
169 193 0
171 195 0
170 193 0
171 194 0
168 191 0
171 195 0
169 192 0
171 194 0
169 193 0
170 193 0
170 193 0
168 191 0
171 195 0
171 194 0
168 192 0
158 180 72
61 97 158
62 98 156
62 98 159
62 98 165
62 98 167
62 98 167
63 99 173
62 98 166
62 99 169
62 98 163
61 98 166
62 98 167
62 98 169
62 98 171
62 98 168
61 98 171
62 99 176
62 99 169
62 98 175
62 99 177
62 99 176
62 98 173
63 99 175
63 99 176
63 100 176
62 99 172
62 99 175
63 99 176
62 99 175
62 99 175
62 99 174
62 99 174
61 98 171
62 99 175
62 98 171
62 99 177
62 99 175
61 98 174
62 98 170
62 99 179
62 99 173
62 99 175
62 99 178
62 99 176
61 98 173
63 100 177
62 99 177
62 99 177
61 99 177
62 99 175
61 98 178
63 100 180
62 99 179
62 99 175
62 99 176
62 99 178
61 99 177
63 99 178
62 99 175
62 99 178
62 99 177
62 99 180
62 99 177
63 99 178
62 99 174
62 99 180
62 99 180
62 99 177
63 100 177
62 99 180
62 99 175
62 99 177
62 99 179
62 99 175
62 99 178
62 99 179
62 99 175
62 99 175
62 99 181
63 99 176
62 99 174
62 99 176
63 99 176
61 98 176
62 99 176
62 98 175
62 99 175
62 99 177
62 99 176
62 99 175
61 98 172
62 99 176
62 99 174
61 98 175
62 99 178
62 99 179
62 99 179
62 99 178
62 99 177
62 99 177
62 99 176
62 99 177
62 99 177
62 99 177
62 99 174
63 99 177
62 99 177
62 99 175
62 99 172
62 99 179
62 99 174
62 99 179
63 99 175
62 99 175
62 99 174
62 99 177
62 99 174
61 98 173
62 99 176
63 99 176
62 99 175
61 98 174
62 99 173
61 98 174
62 99 175
63 99 171
62 99 170
62 99 177
62 98 171
62 98 171
63 99 175
61 98 169
61 98 169
62 99 174
63 100 176
62 99 176
62 98 172
62 99 175
62 99 176
62 99 175
62 98 172
63 99 175
62 98 167
62 98 169
63 99 173
61 98 169
61 97 165
62 97 158
62 98 171
61 98 169
61 97 164
63 99 171
61 97 164
61 97 168
61 97 160
62 97 165
61 96 159
61 97 164
61 95 155
60 95 162
60 96 166
60 94 155
61 95 156
59 94 157
55 85 138
49 54 38
49 56 47
61 67 52
65 69 50
56 63 48
59 67 49
54 62 46
75 80 57
75 81 59
70 78 55
85 88 55
93 97 69
91 93 61
76 82 57
95 97 64
97 99 64
108 110 73
112 112 72
110 112 70
102 105 70
114 115 75
114 116 75
109 111 73
114 115 76
111 113 72
127 127 85
129 128 76
122 123 79
129 128 82
132 130 79
138 136 84
136 134 78
136 135 85
137 135 83
134 132 77
143 141 87
150 147 88
135 135 84
140 138 82
146 143 87
148 145 90
149 145 88
151 147 85
153 150 88
150 148 83
150 147 88
157 153 93
156 152 91
155 151 89
162 157 93
165 159 87
163 159 91
163 159 94
160 156 86
161 156 91
163 157 92
167 161 94
160 156 90
169 163 94
163 160 90
165 160 86
166 161 93
166 161 91
162 158 89
168 162 94
167 161 88
171 164 90
170 163 89
169 162 93
175 168 102
172 166 95
172 166 88
167 162 87
173 166 89
170 163 90
170 164 94
172 166 93
167 161 89
173 166 91
171 164 87
170 164 87
172 166 91
171 164 91
167 160 82
169 163 89
168 161 88
172 166 95
171 164 87
171 164 87
167 161 90
167 161 90
171 164 91
169 163 91
167 161 87
165 158 84
166 160 89
169 162 90
162 156 87
169 161 93
160 154 84
166 160 84
162 157 84
157 152 80
165 159 87
163 157 87
160 153 80
164 158 86
164 157 83
164 158 87
160 153 80
161 154 82
156 150 79
159 153 77
160 153 82
158 152 77
152 146 75
162 155 80
149 143 74
150 145 75
155 149 75
154 148 75
149 144 72
150 145 69
149 143 68
151 144 73
151 145 67
145 139 64
157 150 70
145 140 65
146 141 63
142 136 63
126 121 49
127 122 54
131 126 51
131 125 51
151 160 41
173 195 0
171 193 0
174 196 0
172 194 0
171 193 0
171 193 0
169 191 0
172 195 0
169 193 0
173 196 0
170 194 0
172 196 0
172 195 0
173 197 0
173 196 0
171 195 0
172 196 0
174 196 0
170 193 0
174 197 0
175 198 0
170 194 0
167 190 0
171 195 0
172 196 0
175 198 0
173 196 0
169 194 0
171 194 0
171 195 0
168 192 0
171 194 0
170 194 0
171 195 0
169 193 0
172 196 0
174 197 0
170 194 0
172 196 0
170 194 0
174 197 0
172 195 0
171 194 0
173 196 0
172 196 0
170 194 0
170 194 0
171 194 0
171 194 0
171 194 0
169 193 0
171 194 0
170 193 0
169 193 0
173 196 0
173 196 0
172 195 0
175 198 0
169 192 0
170 193 0
171 194 0
169 193 0
170 194 0
172 196 0
171 194 0
171 195 0
172 195 0
171 194 0
169 192 0
171 194 0
168 192 0
169 193 0
170 194 0
169 192 0
171 196 0
171 195 0
170 193 0
171 194 0
172 195 0
172 195 0
173 196 0
170 194 0
171 195 0
172 196 0
171 195 0
172 195 0
171 193 0
168 192 0
169 192 0
167 190 0
171 194 0
170 194 0
165 189 0
170 194 0
171 196 0
175 197 0
170 192 0
169 193 0
117 143 121
62 98 160
62 98 164
61 97 158
62 98 164
62 98 167
62 98 163
62 98 167
62 98 168
62 99 170
62 99 171
62 99 172
62 99 175
62 99 172
62 99 176
62 99 174
63 99 175
61 98 166
62 98 170
62 99 175
62 99 170
62 98 169
62 99 170
63 100 177
63 100 172
62 99 170
61 98 178
63 99 175
62 99 174
62 99 175
62 99 175
62 99 177
62 99 172
62 99 177
63 99 176
62 99 178
62 99 178
62 99 179
62 98 176
62 99 177
62 99 177
62 99 177
61 98 175
62 99 177
62 99 177
62 99 179
62 99 175
62 99 180
62 99 174
62 99 176
62 99 178
62 99 179
62 99 175
62 99 179
62 99 176
62 99 179
62 99 177
62 99 178
62 99 177
62 99 178
62 99 174
63 99 176
62 99 178
62 99 176
62 99 177
61 98 176
62 99 179
62 99 180
62 99 176
62 99 175
62 99 177
61 99 177
62 99 177
62 98 173
61 99 178
63 99 177
62 98 174
61 98 172
62 99 175
62 99 177
62 99 175
62 99 176
62 99 175
62 99 179
62 99 179
62 99 178
62 99 178
62 99 177
62 99 175
62 98 176
62 99 176
62 99 176
62 99 178
62 99 179
62 99 176
62 99 177
62 99 176
62 99 176
62 98 173
62 99 174
62 99 177
61 98 176
62 99 179
62 99 174
62 99 174
63 100 178
62 99 176
62 99 174
62 99 180
62 99 177
62 99 177
63 99 175
62 99 173
62 99 177
62 99 176
62 99 179
62 99 174
62 99 176
62 99 173
62 99 176
61 98 176
63 99 173
62 99 172
62 99 171
62 99 172
62 99 177
62 99 175
62 99 176
62 99 172
62 99 174
62 99 174
62 99 173
62 98 171
61 98 167
63 99 172
63 99 176
62 99 171
62 99 174
63 99 173
62 99 175
62 98 168
62 98 171
62 98 173
62 98 171
62 98 173
62 99 172
62 99 172
61 98 166
61 97 168
62 99 170
62 97 167
62 98 167
62 98 168
61 97 162
61 97 170
61 96 156
62 98 169
60 95 157
62 98 168
61 97 166
59 94 159
59 94 157
60 94 159
59 93 150
61 95 161
58 91 147
47 59 62
62 64 38
61 66 49
55 62 46
64 70 50
64 70 53
72 77 55
65 70 48
68 74 55
73 79 59
71 77 53
79 85 60
90 94 66
85 90 55
93 96 67
99 102 69
98 101 71
105 106 69
102 104 70
120 119 72
114 114 75
111 113 72
116 117 75
120 120 75
123 125 80
122 123 77
119 119 78
128 127 81
124 124 80
136 135 81
127 127 79
133 133 84
141 139 85
133 133 82
138 136 83
141 139 78
136 135 81
149 145 84
139 136 77
143 141 84
144 142 82
144 141 86
150 147 87
152 149 91
157 153 88
150 146 85
153 149 82
150 146 84
156 152 90
154 150 89
157 152 88
162 157 89
159 155 91
159 155 88
163 158 92
160 156 88
165 160 91
168 163 93
164 160 93
162 157 94
165 159 91
173 166 100
173 167 95
166 160 93
165 161 90
169 163 89
167 162 90
170 163 96
169 163 90
169 162 92
170 165 88
167 162 87
166 161 84
169 163 91
170 164 90
166 161 86
171 166 94
171 164 86
168 161 81
170 164 93
168 162 87
163 158 85
166 161 87
170 162 84
169 162 90
167 162 86
165 158 86
166 161 88
171 164 90
170 163 90
166 160 86
170 163 87
168 162 95
162 156 79
172 164 95
169 162 87
171 164 91
166 160 84
171 163 94
165 159 80
157 151 80
162 155 81
161 155 84
162 156 77
160 154 80
162 155 80
160 154 82
164 157 88
168 161 93
159 153 80
157 151 75
159 153 75
162 156 83
158 152 84
151 146 75
155 149 75
147 142 71
146 140 71
158 151 75
150 144 74
160 154 75
145 139 71
152 146 75
151 144 70
137 131 59
152 146 73
150 144 64
149 142 66
141 136 60
144 138 63
138 134 54
132 127 57
128 122 54
123 119 42
128 122 57
159 174 32
171 193 0
174 195 0
174 195 0
171 194 0
173 194 0
174 195 0
169 191 0
172 195 0
175 198 0
168 192 0
172 196 0
173 197 0
173 196 0
171 194 0
171 195 0
172 196 0
173 197 0
175 198 0
168 192 0
172 196 0
174 197 0
173 197 0
172 196 0
171 194 0
172 196 0
172 194 0
173 196 0
172 195 0
174 197 0
173 196 0
172 195 0
171 195 0
171 194 0
173 195 0
172 195 0
174 197 0
171 194 0
173 195 0
170 194 0
173 197 0
171 194 0
170 193 0
172 196 0
171 194 0
172 195 0
171 195 0
172 195 0
171 195 0
171 195 0
169 192 0
171 195 0
172 196 0
171 193 0
171 195 0
171 194 0
171 193 0
171 195 0
175 198 0
173 196 0
172 195 0
171 193 0
169 192 0
171 195 0
170 193 0
168 192 0
171 194 0
171 195 0
172 195 0
175 198 0
169 192 0
172 196 0
169 192 0
171 194 0
171 195 0
170 194 0
171 194 0
172 195 0
173 196 0
173 196 0
169 193 0
167 191 0
167 191 0
169 192 0
171 195 0
171 194 0
174 196 0
171 195 0
169 193 0
167 191 0
170 194 0
171 194 0
169 192 0
171 194 0
172 194 0
173 195 0
171 195 0
170 193 0
161 184 54
68 102 158
62 99 167
61 97 156
62 99 168
63 99 169
62 99 163
62 98 166
62 99 167
63 99 173
62 98 169
61 97 165
62 99 175
61 98 165
63 99 174
61 98 165
63 100 174
62 99 169
62 98 173
63 100 177
61 98 165
62 99 170
62 98 166
63 99 176
62 99 173
62 98 172
62 99 175
62 98 171
62 99 173
62 99 174
62 99 176
63 99 175
62 99 176
63 100 180
63 99 174
63 100 176
62 99 174
62 99 176
62 98 171
62 98 175
62 99 176
61 98 173
62 99 178
62 99 178
62 99 179
63 100 179
62 99 178
62 98 176
62 99 177
63 100 180
62 99 171
62 99 174
62 99 178
62 99 179
62 99 175
62 99 178
61 98 177
62 99 176
62 99 177
62 99 178
62 99 176
62 99 177
62 99 176
63 99 177
62 99 178
62 99 181
62 99 176
62 99 177
62 99 177
62 99 177
62 99 176
62 98 173
62 99 179
62 99 175
62 99 178
62 98 174
62 98 175
62 99 177
63 100 179
62 99 176
61 99 179
62 98 175
62 99 178
62 99 178
62 99 173
62 99 175
63 100 179
62 98 173
63 99 178
62 99 174
63 100 179
61 98 174
62 99 175
61 98 170
63 100 180
62 99 176
61 98 171
63 100 180
62 99 175
62 99 175
62 99 178
62 99 173
62 99 179
63 100 176
62 99 177
62 99 177
62 99 176
62 99 174
62 99 175
61 98 173
62 99 176
62 99 176
62 99 174
63 99 176
61 98 175
61 98 173
62 99 167
62 99 173
62 99 177
62 98 171
62 99 175
62 99 174
63 100 177
62 98 172
62 99 175
63 100 178
63 99 173
62 99 173
62 99 173
63 99 171
62 98 169
62 99 175
62 98 172
62 99 171
61 98 171
62 99 174
63 100 176
62 98 171
62 98 167
63 99 172
62 98 164
62 99 169
62 99 177
62 98 172
62 98 169
63 99 166
62 99 173
62 98 170
62 98 170
62 99 175
62 99 168
63 98 168
62 98 165
62 97 168
60 96 156
61 97 167
61 96 160
63 98 169
60 95 159
62 97 166
60 95 158
61 96 160
62 97 165
61 96 165
61 97 165
59 93 155
58 90 148
61 84 125
56 62 45
50 56 40
50 58 45
60 65 45
61 67 47
61 66 47
64 69 48
80 84 59
73 78 54
73 79 57
81 84 56
80 83 56
84 88 58
95 97 64
86 90 65
90 93 60
96 100 68
102 104 64
104 106 65
108 111 73
95 98 65
111 112 68
109 110 70
125 124 73
123 123 78
127 125 78
123 122 76
127 127 83
131 129 74
128 126 73
123 123 75
138 136 82
132 131 76
139 137 81
141 139 83
148 145 85
146 144 89
144 142 83
144 141 82
150 146 85
150 146 85
141 139 83
151 148 89
148 146 84
147 144 88
153 149 83
157 152 92
157 152 88
153 149 86
163 157 89
162 157 88
161 156 88
161 156 88
164 159 89
161 156 93
164 158 90
165 159 86
169 163 94
167 162 93
167 161 92
166 160 87
170 164 90
169 164 96
162 158 86
169 163 92
164 159 86
162 157 88
168 163 89
170 163 89
166 161 93
166 161 86
169 164 92
168 163 92
174 167 97
166 160 87
173 166 95
168 162 83
168 162 93
173 166 94
170 163 86
169 163 86
167 161 87
166 160 84
174 166 95
169 162 90
168 162 86
170 164 85
168 162 88
170 163 90
169 162 87
170 163 89
166 160 84
166 159 87
164 157 82
168 162 87
165 158 87
162 157 86
163 156 79
161 154 80
165 159 84
161 154 87
162 156 80
165 158 85
166 160 87
160 154 77
156 150 80
156 151 74
160 154 80
160 154 76
161 156 81
159 153 80
148 142 72
153 147 77
156 150 79
158 151 77
158 152 75
148 143 72
144 138 65
157 151 75
147 141 67
154 147 79
143 138 63
155 149 73
141 136 62
142 136 63
144 139 63
141 136 57
134 129 54
138 131 60
138 132 65
135 130 59
133 129 49
128 123 52
110 105 42
170 189 22
171 191 0
173 193 0
170 192 0
170 190 0
170 194 0
168 191 0
173 196 0
172 195 0
172 196 0
173 196 0
173 197 0
174 197 0
174 197 0
173 196 0
171 195 0
170 193 0
171 194 0
174 197 0
172 196 0
170 193 0
170 194 0
172 195 0
175 198 0
172 195 0
173 196 0
173 197 0
173 197 0
172 195 0
172 195 0
170 195 0
175 198 0
171 194 0
174 197 0
171 194 0
172 195 0
171 195 0
175 198 0
171 194 0
169 193 0
171 194 0
171 195 0
172 196 0
171 194 0
172 195 0
173 196 0
174 197 0
171 195 0
171 195 0
173 196 0
173 197 0
169 193 0
169 193 0
171 194 0
169 192 0
169 192 0
170 194 0
170 194 0
170 193 0
172 196 0
170 193 0
171 195 0
170 193 0
171 194 0
170 194 0
171 195 0
170 193 0
173 196 0
171 194 0
171 194 0
172 196 0
171 195 0
173 197 0
173 196 0
168 191 0
171 194 0
168 192 0
167 191 0
168 191 0
169 193 0
171 194 0
172 194 0
171 195 0
169 191 0
171 195 0
172 194 0
168 190 0
171 195 0
170 192 0
169 192 0
171 193 0
168 192 0
172 196 0
172 195 0
171 194 0
172 195 0
172 195 0
170 192 0
133 158 113
61 97 155
62 98 169
62 98 160
61 98 161
62 99 175
62 99 165
63 99 171
62 98 166
61 97 160
61 97 162
61 98 167
62 99 172
62 98 167
62 98 167
62 99 173
61 97 161
62 99 166
62 98 167
62 99 174
63 100 176
61 98 170
63 100 176
62 98 172
62 99 173
62 99 175
62 99 175
62 99 175
63 100 179
62 99 176
62 99 174
62 98 172
63 99 174
63 99 171
63 99 176
62 99 175
62 99 174
61 98 174
63 99 177
62 99 177
62 99 175
62 99 176
62 99 179
62 99 177
62 99 176
62 99 177
63 100 177
62 99 179
62 99 180
62 99 180
62 99 179
62 99 179
62 99 175
62 99 179
63 99 178
61 98 176
62 99 177
62 99 175
62 98 174
62 99 178
62 99 173
62 99 179
62 99 178
62 99 171
63 100 178
62 99 177
62 99 177
62 99 179
62 99 176
62 99 178
62 99 175
62 99 176
62 99 179
62 99 179
62 99 177
62 99 177
63 99 177
63 100 179
62 99 180
62 99 176
62 99 178
62 99 174
62 99 176
62 99 175
62 99 179
63 100 180
62 99 175
62 99 174
62 99 177
62 99 176
62 99 177
62 99 174
63 100 178
62 98 169
62 99 175
63 100 179
61 98 172
62 99 177
61 98 176
63 99 178
61 98 175
62 99 176
62 99 175
62 99 175
61 98 174
62 99 176
63 99 179
62 99 175
62 99 175
62 99 173
62 99 173
63 100 177
61 98 176
62 99 174
62 99 172
63 99 177
62 99 178
62 99 174
62 98 172
62 99 174
63 99 174
62 99 172
62 99 179
62 99 176
62 99 172
62 98 170
63 100 175
61 98 168
62 98 173
62 98 169
62 99 176
61 98 174
62 98 171
62 98 171
62 99 174
62 99 178
62 98 169
61 97 166
63 99 170
62 99 171
62 98 170
62 98 171
62 98 173
62 98 170
63 99 172
63 99 174
61 97 163
62 97 165
63 99 168
62 99 173
62 98 170
61 97 165
62 99 166
63 99 170
62 98 167
62 98 165
61 97 160
61 97 168
61 96 161
61 97 163
62 98 172
61 96 163
60 94 160
61 96 158
61 96 163
60 94 155
60 94 154
57 89 143
59 65 53
49 56 39
51 57 37
54 61 48
58 66 49
59 64 45
55 62 46
71 76 54
66 71 53
67 73 51
78 83 57
79 84 56
80 84 57
83 87 61
94 96 66
79 85 62
91 95 64
106 108 71
105 108 70
110 112 71
106 108 70
101 104 62
116 116 68
122 121 73
117 117 68
113 114 70
112 114 67
120 120 73
134 133 81
135 133 82
129 128 78
138 136 80
137 134 78
133 133 76
144 142 84
137 134 80
140 137 85
154 150 88
147 145 82
146 144 80
143 141 84
147 143 85
148 145 82
148 145 83
160 155 93
153 149 83
145 143 84
153 149 82
151 148 83
155 150 83
165 160 91
158 154 89
164 159 93
167 161 95
168 162 99
167 162 90
163 158 90
165 160 91
171 164 95
172 165 94
165 160 94
169 162 92
164 160 89
169 163 90
173 166 96
165 160 85
168 162 91
169 162 86
171 165 90
172 164 97
164 159 83
168 162 90
171 165 93
169 163 86
169 163 93
166 160 90
165 159 82
168 162 87
170 164 85
167 162 91
171 164 89
169 163 86
167 161 87
170 163 91
173 167 97
162 156 84
167 162 87
172 165 93
169 162 87
171 163 90
166 160 86
165 159 86
165 159 82
168 161 93
166 159 85
166 160 85
157 152 73
164 157 84
164 158 81
164 157 81
160 154 82
156 151 69
157 151 80
172 164 85
162 156 79
153 148 70
155 151 74
156 150 77
157 151 78
162 156 78
159 152 77
152 147 75
162 155 80
150 144 66
153 147 70
151 144 64
147 141 69
146 140 73
152 146 72
155 148 74
144 139 67
147 140 68
149 143 67
144 138 68
139 134 53
144 137 66
147 140 73
143 137 65
146 141 59
133 128 53
137 132 54
130 126 51
125 120 48
126 125 45
173 193 0
170 192 0
170 192 0
172 192 0
171 191 0
170 193 0
172 193 0
175 197 0
171 195 0
173 196 0
171 194 0
172 195 0
172 195 0
173 196 0
171 195 0
174 197 0
172 195 0
173 197 0
174 197 0
169 192 0
171 195 0
171 194 0
172 196 0
173 196 0
172 196 0
172 196 0
173 196 0
172 195 0
171 195 0
172 196 0
174 197 0
173 196 0
174 197 0
174 198 0
171 195 0
173 197 0
171 193 0
171 195 0
170 193 0
171 194 0
172 196 0
170 194 0
172 195 0
172 196 0
170 193 0
170 194 0
171 195 0
168 191 0
172 195 0
173 196 0
173 196 0
172 195 0
171 194 0
172 195 0
171 194 0
172 195 0
170 193 0
168 192 0
172 195 0
172 196 0
169 193 0
171 195 0
170 194 0
171 195 0
174 198 0
173 196 0
169 192 0
170 193 0
170 194 0
169 192 0
169 192 0
170 194 0
171 195 0
169 193 0
171 194 0
172 196 0
173 196 0
170 193 0
170 193 0
171 194 0
171 195 0
168 190 0
174 198 0
167 190 0
172 194 0
172 195 0
171 195 0
171 194 0
171 194 0
168 192 0
171 194 0
166 191 0
167 190 0
173 196 0
168 192 0
170 193 0
170 193 0
169 193 0
80 111 139
62 98 164
62 98 167
61 97 164
62 98 167
62 98 165
63 99 167
62 98 160
62 98 166
61 97 163
61 98 166
62 98 165
62 99 172
62 99 171
63 99 171
62 99 170
63 99 170
62 99 173
61 98 167
62 99 172
62 98 172
62 99 174
62 98 171
62 99 171
62 99 175
62 99 178
61 98 170
62 99 175
61 98 174
62 99 173
62 99 176
63 100 179
62 99 176
62 98 175
62 99 172
62 99 173
62 99 176
63 99 176
62 99 174
62 99 176
62 99 177
62 99 177
62 99 174
62 99 179
61 98 178
62 99 176
62 98 172
62 99 177
62 99 178
62 99 177
62 99 174
63 99 176
63 100 178
62 99 178
62 99 175
62 99 176
62 99 180
62 99 174
63 99 177
62 99 177
63 99 176
63 99 175
62 99 173
63 99 175
62 99 178
63 100 177
62 99 178
61 98 174
62 99 177
62 99 175
62 99 176
62 99 177
62 98 174
62 99 176
62 99 175
62 99 174
62 99 175
62 99 176
62 99 177
62 99 176
62 98 175
62 98 175
62 99 174
62 98 173
63 100 179
62 99 177
62 99 176
61 98 176
62 99 175
61 98 172
62 99 179
62 99 175
62 99 178
63 100 178
62 99 175
61 98 172
62 99 177
62 99 174
62 99 178
62 99 176
62 99 172
63 99 173
62 99 172
61 98 170
62 99 173
62 99 177
62 99 178
62 99 173
61 98 175
63 99 176
61 98 170
62 99 172
62 99 173
62 99 178
62 99 176
62 99 176
62 99 176
62 99 173
62 99 177
62 99 172
62 99 175
62 99 175
62 99 171
62 99 175
61 98 175
62 99 174
63 99 172
62 99 175
62 99 175
62 98 170
62 99 176
62 98 171
62 98 168
62 99 177
62 99 169
62 98 170
62 99 173
62 99 174
62 98 172
61 98 168
62 98 171
61 98 167
62 99 169
62 98 171
62 99 169
62 99 170
62 98 168
62 99 173
63 98 169
62 98 168
61 97 168
62 98 169
61 98 170
62 98 170
62 98 170
61 97 163
62 98 165
60 95 155
61 97 163
60 95 163
61 97 167
62 97 165
61 96 159
61 96 165
60 93 151
59 93 157
60 93 151
59 93 150
49 66 90
35 44 36
64 67 43
56 60 41
63 69 50
56 63 46
68 73 50
73 77 52
66 72 52
76 81 58
84 86 53
70 75 52
97 100 68
86 90 58
91 95 63
92 95 58
95 99 64
95 98 63
106 108 65
100 103 62
103 104 66
101 103 65
117 117 67
117 119 73
114 115 75
111 113 72
130 129 77
114 114 72
128 128 78
139 137 78
129 127 76
136 135 78
121 121 71
134 134 82
134 133 74
136 135 80
137 136 81
137 134 80
147 143 88
145 142 83
142 140 85
148 144 89
145 142 82
151 147 85
151 148 81
152 149 85
159 154 92
154 150 88
155 151 85
160 156 89
155 150 86
156 151 87
156 151 81
159 154 88
164 159 90
164 158 89
162 157 88
157 152 80
166 160 90
157 153 84
170 164 92
164 158 89
164 158 93
167 161 94
163 158 84
171 165 95
162 158 87
170 163 92
173 167 90
170 164 94
168 162 84
170 163 86
170 163 88
168 162 86
165 160 90
174 168 101
168 162 92
165 160 84
170 164 94
170 164 84
167 160 87
165 159 84
165 159 86
168 161 86
168 162 89
164 157 85
177 169 99
167 161 90
167 160 87
166 161 82
167 160 85
168 161 90
159 154 80
171 164 90
166 161 84
167 161 83
167 160 89
166 159 87
158 151 75
163 157 82
162 156 82
169 161 89
164 157 86
160 154 75
161 155 77
156 151 74
166 159 84
151 146 67
162 154 86
162 156 80
151 145 71
158 151 69
162 155 75
157 151 78
156 149 79
156 151 72
155 149 72
157 150 75
153 147 72
155 148 77
146 140 66
153 146 71
135 131 60
139 133 61
143 137 65
134 129 56
137 132 59
138 134 58
130 126 52
129 125 48
130 125 52
124 119 48
133 128 52
136 146 28
171 193 0
171 194 0
173 194 0
174 196 0
173 196 0
171 192 0
173 195 0
170 191 0
173 196 0
172 195 0
174 197 0
172 196 0
171 194 0
172 194 0
169 193 0
172 196 0
172 195 0
173 196 0
170 192 0
171 195 0
172 195 0
172 196 0
175 198 0
173 196 0
174 197 0
172 195 0
172 196 0
171 195 0
171 195 0
172 196 0
171 194 0
173 197 0
169 192 0
169 193 0
172 195 0
172 195 0
169 193 0
171 195 0
169 192 0
170 194 0
173 196 0
172 196 0
172 196 0
171 195 0
169 192 0
172 195 0
174 196 0
172 195 0
173 195 0
172 195 0
169 193 0
172 195 0
168 192 0
170 194 0
172 194 0
172 196 0
172 195 0
171 194 0
168 191 0
170 193 0
168 191 0
172 195 0
172 194 0
170 194 0
169 192 0
173 196 0
171 193 0
171 194 0
170 194 0
172 195 0
173 196 0
171 195 0
172 195 0
166 190 0
170 193 0
174 197 0
171 195 0
170 193 0
168 192 0
170 194 0
170 194 0
173 196 0
169 193 0
172 196 0
167 190 0
174 197 0
170 193 0
170 194 0
169 192 0
169 192 0
167 191 0
173 195 0
169 192 0
167 191 0
167 190 0
172 194 0
169 192 0
142 166 94
62 98 160
62 98 158
62 99 167
62 99 166
62 98 165
61 98 166
62 98 170
62 98 168
62 98 168
62 98 166
63 99 172
63 99 171
63 99 170
63 99 170
62 98 171
62 99 171
62 98 165
62 99 168
62 99 173
62 99 172
63 99 168
62 98 172
62 99 174
62 99 171
62 99 171
62 99 173
62 98 171
62 98 171
62 99 176
63 99 177
62 99 172
63 99 176
63 99 178
62 98 173
61 98 171
62 99 170
62 99 177
62 98 175
62 99 176
62 99 180
62 99 176
63 100 177
62 98 170
62 99 178
62 99 174
62 99 175
62 99 175
62 99 179
62 99 177
62 99 180
62 99 178
62 98 172
62 99 177
62 98 172
62 99 177
63 99 179
62 99 178
62 98 172
62 99 177
62 99 171
63 99 173
63 100 176
61 98 178
62 98 170
62 99 180
62 99 177
63 100 179
62 99 174
62 99 177
62 99 179
62 99 175
63 99 176
62 99 174
63 99 179
61 98 175
62 98 174
61 99 179
62 99 176
62 99 175
63 99 178
63 100 180
62 99 172
62 99 176
62 99 176
62 98 176
62 99 176
62 99 178
62 98 173
63 100 179
63 100 179
62 99 179
63 99 175
62 99 174
62 99 177
63 99 176
63 100 178
63 99 173
62 98 172
62 99 173
61 98 177
62 99 176
62 98 172
62 99 176
62 99 174
62 99 175
61 98 171
62 99 176
62 99 174
62 99 176
61 98 169
62 99 177
62 99 176
61 98 171
62 98 173
62 99 177
62 99 175
62 99 178
63 100 176
61 98 171
62 99 174
63 99 174
63 99 173
62 98 170
63 99 172
62 99 174
62 98 173
62 98 172
62 98 175
62 99 176
62 99 174
62 99 171
62 98 170
62 99 173
62 99 172
61 98 169
62 99 172
62 99 170
62 99 175
63 99 172
62 99 172
63 99 173
62 99 175
62 98 169
62 98 165
62 98 173
63 99 171
62 98 164
62 98 169
62 98 169
62 98 164
62 98 167
61 97 162
61 97 158
62 99 174
62 97 163
62 98 164
61 97 164
60 96 163
61 97 163
62 98 165
61 96 160
61 96 164
61 96 159
61 96 159
61 96 162
61 96 163
59 93 151
59 93 146
56 84 131
46 54 42
49 58 44
49 57 43
57 61 42
66 69 43
50 57 42
49 55 40
71 75 50
60 68 50
76 81 50
69 76 53
82 85 56
80 85 60
92 96 63
101 102 67
90 93 61
98 100 64
99 102 65
89 93 60
107 108 62
105 108 63
113 113 63
118 118 75
100 103 61
115 116 72
125 125 77
117 117 68
129 128 72
128 128 74
118 118 65
127 125 71
128 127 77
134 132 78
141 139 83
127 127 76
137 135 78
147 143 84
138 136 82
146 144 86
148 145 85
141 139 79
149 145 83
146 143 81
157 153 84
151 147 83
154 151 76
156 152 89
153 150 80
164 158 88
152 149 85
159 154 86
158 154 81
159 155 89
168 161 93
168 161 90
158 153 85
167 161 88
160 156 86
167 162 87
165 159 88
165 160 85
162 157 79
163 158 88
167 160 89
167 161 80
165 159 83
173 166 87
167 161 87
168 161 90
173 166 96
168 162 87
169 162 85
173 166 93
169 163 91
169 163 87
167 161 87
170 163 85
169 162 87
170 163 90
167 160 86
169 162 87
173 166 95
165 159 81
170 163 85
165 159 80
172 165 86
169 162 78
164 158 80
166 160 86
165 159 85
167 160 88
168 161 89
171 164 87
164 157 84
168 162 86
165 158 84
163 157 84
168 160 84
163 157 79
169 162 87
165 158 82
161 155 77
154 148 75
161 155 76
151 145 70
162 155 82
153 148 68
152 145 73
156 148 75
155 149 71
159 152 85
158 152 73
154 147 80
155 148 71
154 147 75
143 139 60
146 140 66
153 147 70
142 137 60
144 137 64
145 139 68
152 147 66
138 133 59
142 136 63
142 136 64
140 134 60
132 127 53
142 136 59
135 129 64
127 122 49
137 130 52
128 121 49
159 174 22
167 189 0
171 192 0
171 194 0
167 189 0
173 195 0
172 194 0
169 191 0
169 190 0
171 194 0
171 194 0
171 195 0
172 195 0
171 195 0
170 193 0
172 196 0
172 196 0
173 196 0
174 198 0
172 196 0
174 197 0
171 194 0
168 193 0
173 197 0
172 196 0
172 195 0
173 197 0
172 196 0
171 194 0
171 194 0
175 197 0
173 197 0
172 195 0
172 195 0
173 196 0
172 194 0
172 196 0
170 194 0
171 194 0
170 193 0
173 196 0
173 196 0
170 195 0
169 192 0
174 198 0
173 196 0
172 196 0
172 195 0
171 194 0
170 194 0
171 195 0
171 195 0
170 193 0
171 195 0
174 197 0
173 196 0
170 193 0
171 196 0
170 194 0
171 194 0
172 195 0
171 194 0
171 193 0
169 192 0
171 195 0
172 195 0
171 195 0
172 196 0
168 193 0
170 193 0
173 196 0
171 194 0
169 193 0
168 192 0
168 191 0
169 192 0
171 194 0
171 194 0
170 194 0
169 192 0
170 194 0
171 194 0
170 193 0
170 194 0
170 194 0
168 192 0
169 193 0
169 192 0
170 193 0
171 193 0
171 195 0
171 194 0
169 191 0
173 196 0
170 193 0
172 195 0
168 191 0
169 192 0
118 144 122
61 97 158
61 98 162
62 99 167
61 98 161
62 98 164
62 98 169
61 97 162
62 98 167
61 98 164
62 98 163
62 98 166
61 98 170
62 99 172
62 99 170
62 98 167
62 99 175
61 98 167
62 99 168
63 99 173
62 99 174
63 100 177
62 99 174
61 98 169
62 98 167
62 99 172
62 98 173
63 99 176
62 99 175
61 98 169
63 99 177
62 99 177
62 99 176
62 99 173
62 98 171
62 99 176
63 99 173
62 98 171
62 99 176
62 99 177
62 98 173
62 98 172
62 99 175
62 98 174
63 99 174
63 100 178
62 99 174
62 99 177
63 100 176
62 99 174
61 98 176
62 99 175
62 99 175
62 99 177
62 99 175
62 99 178
61 98 178
62 99 176
63 100 180
62 98 171
63 99 177
62 98 174
62 99 177
62 99 174
62 99 178
63 99 178
63 99 176
62 99 176
63 99 177
62 99 175
62 99 178
62 99 178
62 99 176
62 99 178
60 97 171
62 99 177
62 99 178
62 99 174
62 99 178
62 99 172
62 99 177
62 99 173
63 100 176
62 99 178
62 99 177
62 99 180
61 98 175
62 99 175
62 99 180
62 99 172
62 99 178
62 98 173
62 99 176
63 99 176
62 98 172
62 99 177
61 98 173
62 99 174
62 99 173
62 99 169
62 99 173
62 99 179
62 99 174
61 98 176
61 98 177
61 98 168
63 99 177
62 99 176
63 99 173
62 99 180
62 99 177
62 99 171
62 99 179
62 99 174
63 99 178
61 98 171
62 99 177
62 99 174
62 99 175
62 98 171
63 100 178
62 99 176
62 99 175
62 99 174
62 99 173
63 100 177
61 97 164
63 99 171
62 99 175
62 98 164
63 99 176
62 99 171
62 99 173
61 98 171
62 99 174
63 100 178
62 98 171
63 99 173
63 99 174
63 99 172
61 98 169
62 98 170
61 98 169
61 97 169
62 99 169
61 98 169
63 99 171
62 98 166
62 99 170
62 98 170
62 98 167
62 98 167
62 97 168
63 99 164
62 99 171
62 98 164
62 98 169
62 97 159
62 98 166
62 98 170
61 97 165
61 96 162
61 97 164
61 97 162
61 96 160
60 95 158
61 95 156
60 95 157
59 93 151
58 91 143
44 54 53
50 56 40
61 66 41
56 60 38
54 61 43
54 60 44
63 68 45
56 63 49
58 66 48
74 77 45
83 86 59
91 94 61
88 91 60
75 80 50
90 94 61
87 91 60
99 100 66
105 107 66
101 102 67
108 109 65
101 103 59
105 108 64
113 114 68
112 114 71
118 117 68
112 113 70
109 111 68
115 115 69
135 132 76
127 127 78
130 128 75
134 133 78
133 132 73
139 137 80
139 137 76
132 131 76
143 140 81
146 142 78
140 138 78
145 142 82
146 144 82
147 143 83
144 141 76
144 140 79
152 149 86
150 147 80
161 156 91
157 153 88
153 150 84
158 153 84
156 152 80
164 158 90
152 149 80
165 159 87
168 162 88
166 160 96
164 159 90
160 154 86
162 157 88
166 160 90
163 158 89
166 160 87
165 159 86
167 161 93
169 162 88
173 167 95
166 161 87
164 159 86
170 163 91
168 162 89
167 161 84
167 161 85
169 163 91
166 160 84
168 162 84
172 164 91
169 163 89
167 161 83
165 159 82
165 160 85
169 162 83
168 161 86
168 161 83
167 160 86
170 164 88
166 161 83
168 162 88
171 164 89
164 158 79
166 159 82
167 160 91
162 156 75
164 158 83
169 161 87
165 158 83
161 155 77
164 157 82
166 159 84
162 155 81
158 152 80
156 150 76
159 152 78
162 156 83
160 153 78
157 151 75
169 161 87
161 154 75
158 151 80
154 148 72
158 151 77
155 149 74
156 149 70
152 146 72
149 141 71
147 141 68
158 152 78
153 147 71
142 138 60
149 142 66
144 138 63
144 139 58
142 136 62
142 136 61
150 144 65
139 133 62
130 125 48
134 129 52
139 134 61
138 131 62
134 128 54
135 129 48
125 120 39
170 190 11
171 193 0
168 190 0
173 195 0
172 194 0
173 193 0
170 192 0
172 194 0
173 195 0
170 193 0
175 198 0
173 197 0
171 194 0
171 195 0
172 196 0
172 196 0
173 197 0
172 195 0
174 197 0
174 197 0
175 198 0
174 197 0
169 191 0
172 195 0
171 194 0
171 195 0
172 195 0
173 197 0
171 195 0
172 195 0
173 196 0
171 194 0
173 197 0
171 194 0
171 195 0
172 196 0
173 197 0
167 191 0
169 193 0
169 192 0
173 196 0
173 196 0
171 194 0
171 194 0
174 196 0
172 195 0
172 196 0
172 195 0
170 194 0
173 196 0
175 198 0
170 194 0
170 193 0
172 195 0
171 194 0
170 193 0
173 196 0
172 195 0
172 195 0
171 195 0
167 191 0
171 194 0
170 194 0
172 196 0
171 196 0
172 195 0
170 193 0
168 190 0
169 193 0
170 194 0
166 190 0
171 194 0
168 192 0
172 196 0
168 191 0
168 192 0
172 195 0
172 195 0
171 194 0
172 196 0
169 193 0
168 192 0
172 195 0
171 194 0
169 192 0
167 190 0
173 196 0
170 193 0
175 198 0
169 192 0
168 192 0
170 194 0
168 192 0
171 194 0
169 193 0
170 193 0
163 185 0
166 189 18
81 113 151
62 98 165
62 98 159
63 99 165
62 98 162
62 98 160
62 98 164
62 98 167
62 98 164
61 98 165
62 98 164
62 98 170
61 98 166
62 98 168
63 99 168
62 98 168
62 99 171
62 99 172
62 99 172
62 99 173
62 99 171
61 98 170
62 98 167
63 99 176
62 99 172
62 99 171
62 99 172
62 99 180
62 99 172
62 99 170
62 99 175
62 99 173
62 99 174
61 98 175
62 99 171
62 99 171
62 99 172
62 99 173
63 99 175
62 99 176
62 99 176
62 98 170
62 99 173
62 99 176
62 98 172
62 99 175
63 99 177
62 99 175
62 98 172
63 100 176
62 99 171
63 100 178
62 99 173
63 100 180
62 99 178
62 99 175
63 99 176
62 99 179
62 98 169
61 98 174
62 99 176
62 98 170
62 99 177
63 99 178
62 99 174
62 99 176
61 98 173
62 99 178
62 99 175
62 98 173
62 99 178
62 99 172
62 99 176
62 99 176
62 99 177
62 99 175
63 99 176
61 98 176
63 99 173
62 99 174
62 99 174
63 100 178
62 99 178
62 99 174
62 98 170
61 98 177
62 99 178
62 99 175
62 99 179
61 98 170
62 99 177
61 98 173
61 98 173
63 99 172
62 99 176
63 99 177
62 99 177
62 99 175
62 99 173
62 99 179
61 98 175
62 99 176
62 99 175
62 98 172
61 98 172
61 98 173
62 99 177
62 99 176
63 99 177
62 99 178
62 99 174
62 99 175
62 98 173
63 100 177
62 99 176
62 99 171
61 98 170
62 99 177
63 100 177
62 98 169
62 99 177
63 99 175
61 98 170
63 100 174
62 99 174
62 99 171
63 99 171
62 99 179
61 98 170
63 99 173
62 99 172
62 98 169
62 99 171
61 97 166
63 100 176
62 98 172
62 98 173
62 99 171
62 98 170
62 98 167
62 98 164
62 98 168
62 98 169
62 99 171
62 98 169
62 98 170
61 98 162
61 97 165
62 99 168
62 99 170
62 98 171
62 98 170
61 96 158
62 98 171
61 97 163
62 97 161
63 99 174
61 96 156
61 97 159
62 98 169
61 96 160
61 97 160
62 97 162
61 97 167
61 97 168
61 96 160
60 93 149
60 94 153
59 93 144
59 92 148
52 72 103
54 58 37
54 59 39
46 54 38
47 53 37
55 61 38
63 66 42
76 80 48
77 81 49
66 73 50
79 83 52
85 87 50
81 86 60
75 79 49
82 86 54
99 101 65
87 91 58
98 101 63
110 110 66
101 103 61
100 102 64
113 114 73
109 111 63
118 118 68
110 111 70
119 118 70
119 119 70
125 124 75
128 127 77
129 128 77
143 141 78
124 124 74
139 137 78
121 122 72
130 129 74
139 136 82
151 146 86
144 141 81
149 144 80
148 144 82
145 143 81
146 142 77
142 140 80
142 139 81
156 151 88
155 151 87
163 157 85
161 156 86
155 150 81
158 153 83
161 156 87
155 151 82
158 153 84
161 156 87
166 160 86
161 155 77
167 161 91
154 150 80
163 158 85
166 159 87
160 154 85
167 161 93
164 159 83
162 156 81
168 162 89
163 158 84
168 161 87
162 157 80
169 162 85
165 160 80
163 159 79
170 163 89
167 162 88
170 163 84
171 166 94
166 159 80
164 159 82
174 166 94
168 161 84
169 163 88
162 157 78
173 165 90
160 154 77
168 161 86
169 162 80
167 160 84
164 158 81
168 160 83
166 160 83
159 154 75
167 161 86
169 162 95
165 158 82
167 160 84
165 158 83
164 158 82
167 160 84
165 158 79
163 156 84
163 156 75
153 148 67
165 158 79
155 149 74
160 154 75
162 156 84
164 157 77
155 149 66
160 153 82
160 154 82
163 156 77
154 147 71
150 144 69
152 147 65
146 139 69
152 146 73
148 142 69
149 144 67
156 149 74
151 145 68
149 143 68
147 141 60
145 138 68
145 140 61
149 143 69
141 135 59
141 135 60
132 127 52
135 129 60
121 117 45
128 123 51
130 123 53
135 140 36
171 194 0
171 193 0
170 192 0
167 189 0
173 194 0
170 191 0
174 196 0
173 196 0
171 192 0
173 196 0
172 196 0
173 197 0
174 197 0
174 198 0
172 195 0
172 195 0
171 195 0
171 194 0
173 196 0
171 195 0
170 193 0
173 196 0
169 193 0
174 197 0
172 196 0
174 197 0
172 196 0
170 194 0
169 192 0
171 194 0
169 193 0
172 195 0
169 193 0
171 194 0
171 194 0
172 196 0
169 193 0
171 194 0
172 195 0
174 196 0
169 192 0
172 196 0
173 196 0
171 195 0
171 194 0
171 195 0
173 196 0
171 195 0
174 197 0
171 195 0
172 195 0
170 194 0
173 196 0
169 193 0
173 196 0
173 196 0
169 192 0
173 196 0
170 194 0
172 195 0
173 196 0
169 191 0
170 193 0
169 192 0
173 196 0
170 193 0
171 194 0
168 191 0
172 196 0
172 195 0
169 193 0
167 190 0
171 194 0
169 192 0
168 190 0
168 191 0
170 193 0
171 194 0
171 194 0
168 192 0
171 194 0
171 195 0
170 193 0
170 193 0
169 192 0
170 193 0
167 189 0
173 196 0
169 193 0
170 193 0
168 192 0
167 190 0
170 194 0
169 193 0
170 193 0
170 192 0
172 196 0
146 170 84
62 98 160
62 98 160
61 97 159
62 98 163
62 98 164
61 97 164
63 99 170
61 97 165
62 98 164
62 98 163
61 98 168
62 99 168
62 98 166
62 98 170
62 98 168
62 99 165
62 99 172
62 98 169
62 98 170
63 99 173
63 99 174
62 99 172
62 99 174
63 99 176
62 99 175
62 98 174
62 99 172
62 98 168
62 99 172
62 99 171
62 99 172
62 99 176
62 99 170
63 100 178
61 98 172
62 98 169
63 100 177
62 99 175
61 98 171
62 99 173
63 99 177
62 99 174
62 99 177
61 98 174
62 99 175
62 99 176
62 99 178
62 99 176
62 99 176
63 100 177
62 99 178
62 99 179
62 99 173
63 99 176
62 99 177
62 99 175
62 99 179
61 98 174
62 99 170
63 100 178
62 98 174
62 99 178
61 98 174
63 100 176
62 99 178
62 99 176
62 99 177
61 98 173
62 99 180
62 99 179
62 98 172
62 99 176
62 99 175
62 99 177
62 99 174
62 98 174
62 99 175
62 99 175
62 99 174
62 98 172
62 99 176
62 99 177
62 99 178
62 98 174
62 98 173
62 99 173
61 98 175
62 98 173
62 99 176
62 99 178
61 98 169
62 99 173
62 99 174
62 99 176
63 99 176
63 99 174
63 99 176
62 99 174
63 99 173
62 99 175
63 99 173
62 99 176
62 98 171
61 98 166
63 99 177
61 98 173
62 99 175
62 99 174
62 98 168
63 100 178
62 99 174
62 98 171
62 99 177
63 99 173
62 99 175
62 99 168
62 98 169
62 99 174
62 99 175
63 99 173
62 99 174
62 99 174
62 99 174
62 99 174
62 99 173
62 98 169
62 99 171
62 98 166
63 100 176
62 98 171
62 99 170
62 99 172
62 99 171
62 98 169
62 99 171
62 99 170
62 98 167
62 98 171
63 99 173
62 99 175
62 98 169
63 99 171
63 99 169
62 98 171
62 98 167
62 98 173
62 98 165
63 100 176
62 98 170
61 97 166
62 98 162
63 99 175
62 99 169
62 98 167
62 98 165
61 97 166
61 96 159
62 97 160
61 96 156
62 97 165
62 98 173
62 96 160
60 95 159
61 96 161
59 94 153
61 96 161
60 94 152
61 96 155
62 98 166
59 92 145
61 89 136
45 51 34
44 52 35
61 65 43
51 58 41
51 58 45
51 60 44
54 62 47
59 65 40
66 70 45
77 81 47
88 90 59
77 82 52
75 80 49
87 90 58
88 90 59
81 85 52
101 103 61
99 101 59
89 94 58
94 97 61
100 102 60
110 112 65
127 124 73
112 112 71
108 109 67
117 117 70
122 122 70
121 120 70
130 129 76
138 135 78
135 132 75
134 132 76
139 136 80
127 126 67
145 142 83
143 140 73
139 136 76
129 128 71
143 140 81
150 146 84
149 145 82
143 140 81
147 143 78
147 144 77
146 143 70
148 145 78
157 152 82
151 148 82
163 158 89
166 160 88
155 150 83
159 154 82
162 156 86
151 147 75
162 157 81
159 154 80
165 159 87
159 155 81
169 163 89
166 160 88
164 159 82
172 164 92
165 160 87
159 153 80
164 159 88
161 155 81
165 160 81
162 156 83
168 161 88
165 159 88
168 161 89
162 157 80
169 162 88
164 159 82
170 163 86
165 159 82
170 163 85
168 162 84
169 163 84
167 161 82
167 161 94
165 159 84
166 160 86
166 159 80
167 160 85
160 155 75
169 162 85
162 155 77
167 160 87
163 157 83
165 158 84
161 155 80
159 154 79
159 153 76
163 156 83
163 157 80
165 159 80
164 157 78
168 161 84
158 151 84
160 153 76
158 152 78
162 155 82
168 160 86
162 155 82
146 142 64
149 143 71
158 152 69
160 153 80
153 148 71
149 143 70
150 144 67
155 148 73
159 151 79
153 147 64
147 142 67
153 146 73
156 149 76
145 140 69
142 137 62
138 132 62
143 138 65
132 127 56
142 136 61
140 135 59
136 130 59
129 124 47
133 127 54
130 125 53
115 109 45
139 148 36
170 191 0
170 191 0
169 190 0
170 191 0
170 191 0
173 195 0
170 192 0
168 189 0
171 191 0
171 193 0
170 193 0
175 198 0
173 196 0
171 194 0
172 196 0
172 197 0
171 195 0
173 196 0
171 195 0
174 196 0
173 196 0
172 195 0
170 194 0
173 196 0
168 192 0
173 197 0
172 196 0
170 194 0
175 197 0
171 194 0
170 194 0
171 194 0
172 196 0
171 195 0
171 195 0
171 195 0
171 193 0
170 193 0
173 196 0
171 195 0
170 194 0
173 196 0
174 197 0
172 196 0
171 195 0
172 196 0
172 196 0
167 192 0
172 196 0
171 194 0
170 194 0
171 195 0
168 191 0
168 191 0
168 192 0
169 192 0
172 196 0
170 194 0
170 194 0
167 190 0
173 196 0
172 196 0
171 194 0
173 197 0
172 196 0
172 195 0
169 191 0
171 194 0
169 193 0
169 193 0
172 195 0
172 195 0
170 193 0
171 194 0
170 193 0
172 196 0
170 193 0
170 194 0
169 192 0
171 194 0
170 193 0
168 191 0
172 194 0
170 194 0
169 191 0
170 194 0
170 193 0
166 189 0
171 194 0
171 195 0
166 190 0
171 194 0
172 195 0
172 196 0
170 193 0
172 195 0
166 189 0
104 132 131
62 98 158
62 98 167
62 98 163
62 98 162
62 98 162
62 98 161
63 99 167
61 98 166
62 99 167
62 99 173
62 99 167
62 98 166
62 98 168
62 99 170
62 98 167
62 98 163
61 98 168
63 99 170
63 99 169
62 98 171
63 99 175
62 99 173
62 99 171
62 99 173
62 99 173
62 99 174
62 99 175
62 99 178
62 99 173
62 98 166
62 98 172
61 98 170
63 100 178
62 99 173
61 98 170
62 99 173
62 99 175
62 98 172
62 99 171
62 99 176
62 99 174
61 98 174
63 99 177
62 99 175
61 98 176
62 99 173
62 99 173
63 99 174
63 100 176
62 99 178
61 98 173
62 98 174
62 98 170
62 99 176
62 99 177
63 99 178
62 98 174
62 98 175
63 100 179
63 100 177
61 98 173
61 98 173
63 99 177
63 100 177
62 99 177
62 99 176
62 99 176
62 99 175
62 99 175
63 100 176
63 100 176
62 99 175
61 98 176
62 99 176
62 99 177
62 99 175
62 99 174
63 99 177
61 98 172
62 99 176
62 98 173
62 99 175
62 99 174
62 99 176
62 99 176
62 99 176
63 99 176
62 99 179
63 99 173
62 99 178
62 99 175
62 99 176
63 99 179
62 99 174
62 99 178
62 99 173
63 99 176
62 99 174
63 100 175
61 98 174
62 99 177
62 98 171
61 98 173
62 99 178
62 99 173
62 99 172
62 99 174
62 99 175
63 99 171
62 99 177
62 99 167
63 99 175
62 99 174
62 99 174
63 99 172
63 99 173
62 99 175
62 99 177
62 99 173
62 98 169
62 98 168
62 99 168
61 97 169
62 98 171
62 98 169
62 99 172
62 99 168
62 98 169
62 99 170
62 98 169
62 98 167
62 98 166
62 98 173
62 99 171
61 98 165
62 99 173
63 99 174
62 98 167
62 98 169
62 99 173
61 98 169
63 99 173
62 98 169
63 99 169
63 100 177
62 99 170
61 97 166
62 99 168
61 97 164
62 99 167
62 98 161
63 99 170
62 98 171
62 98 169
61 97 164
62 98 166
61 97 166
62 98 165
62 98 166
61 97 163
62 98 167
59 93 150
62 98 167
61 97 163
62 97 155
61 96 160
60 96 156
60 94 150
60 94 149
59 93 153
58 91 148
49 59 66
53 56 39
48 54 36
39 49 38
49 56 40
62 67 44
61 67 43
65 68 40
78 83 48
75 79 46
85 86 49
85 88 60
75 80 54
77 81 50
93 96 63
99 101 65
100 101 59
96 98 60
99 101 66
105 106 61
99 102 62
112 112 67
109 110 64
115 116 73
110 111 63
115 115 73
130 128 76
130 128 74
119 119 64
130 128 75
129 128 70
122 121 69
131 130 78
130 129 72
135 133 73
132 131 74
139 137 78
138 135 76
146 142 77
144 141 80
146 144 80
145 142 81
151 146 75
155 150 82
151 148 81
153 149 81
152 148 78
157 152 81
146 142 80
150 146 74
163 156 82
160 155 86
161 155 83
159 154 82
157 153 85
156 152 88
166 160 87
163 157 85
159 154 83
162 157 82
163 157 84
162 156 83
162 157 85
168 161 88
165 159 84
159 153 79
167 160 81
168 161 86
169 162 84
158 152 77
167 161 83
168 162 91
171 164 90
168 162 86
163 157 79
169 162 88
170 163 87
168 162 84
165 159 84
164 158 81
160 154 77
163 157 78
166 160 83
165 158 79
168 160 86
165 160 78
164 157 80
165 157 80
163 157 77
163 157 80
169 162 84
159 154 73
159 153 77
160 154 77
158 152 78
169 163 81
163 158 79
159 152 78
160 153 81
157 151 80
157 151 73
157 151 77
152 146 64
158 152 75
154 149 69
144 138 65
149 144 60
163 156 83
150 145 72
160 153 79
156 149 73
155 150 70
148 142 64
151 145 68
150 144 69
149 142 69
152 146 72
150 143 68
148 143 60
150 145 67
147 141 61
138 133 62
144 137 62
141 135 63
146 140 61
135 130 56
136 130 62
134 130 39
122 118 47
130 124 51
166 184 25
170 192 0
171 192 0
176 198 0
171 192 0
171 193 0
171 194 0
166 187 0
172 193 0
172 194 0
172 195 0
171 194 0
171 195 0
173 197 0
173 197 0
172 196 0
172 195 0
172 196 0
171 195 0
172 196 0
175 198 0
173 196 0
170 194 0
172 196 0
175 198 0
171 195 0
172 195 0
174 196 0
173 196 0
172 196 0
173 197 0
172 196 0
172 196 0
172 195 0
169 192 0
171 195 0
169 193 0
172 196 0
169 192 0
172 196 0
172 195 0
169 193 0
170 193 0
173 197 0
171 195 0
171 195 0
170 194 0
171 194 0
171 194 0
171 194 0
169 192 0
171 195 0
171 194 0
170 193 0
169 193 0
170 194 0
169 192 0
168 191 0
171 194 0
166 190 0
173 197 0
169 193 0
170 193 0
171 194 0
171 194 0
172 196 0
170 194 0
171 194 0
171 194 0
169 193 0
171 194 0
174 197 0
172 195 0
170 194 0
169 193 0
171 194 0
172 196 0
171 195 0
168 191 0
173 196 0
171 195 0
171 194 0
172 195 0
169 193 0
169 192 0
169 191 0
173 196 0
172 195 0
170 192 0
166 190 0
173 194 0
170 193 0
166 190 0
168 192 0
171 194 0
171 194 0
168 191 0
167 190 0
74 107 151
61 97 155
61 98 166
62 98 163
62 98 159
62 98 164
62 99 168
62 98 168
62 98 162
63 99 166
62 98 168
62 99 169
63 99 166
62 98 169
62 98 168
63 99 172
62 98 168
62 98 172
62 98 171
62 98 172
62 98 172
63 100 175
62 99 172
61 98 165
62 98 171
62 99 168
62 99 171
63 99 178
62 98 167
62 99 174
62 98 169
62 99 175
62 98 168
62 98 171
62 98 166
62 98 171
62 99 172
62 99 168
62 99 175
62 99 174
63 99 174
61 98 174
62 98 173
62 99 172
62 99 176
62 99 175
62 99 176
62 99 175
63 99 179
62 99 174
63 99 178
62 99 176
62 99 176
62 99 175
63 99 178
62 98 173
62 99 174
61 99 177
62 99 176
63 100 178
63 100 179
62 99 179
62 99 177
61 98 174
62 99 178
62 99 175
63 100 179
62 99 177
63 99 172
62 99 175
62 99 174
62 99 178
62 99 175
62 99 174
63 100 178
62 99 175
62 99 174
62 99 173
62 99 175
63 99 172
61 99 179
62 99 171
62 99 174
62 99 174
62 99 177
61 98 170
62 99 173
62 99 176
62 99 172
62 99 177
63 99 177
63 99 173
62 99 177
63 99 170
62 98 171
62 99 173
62 99 173
62 98 170
62 98 166
63 100 177
62 99 176
61 98 174
62 99 172
62 99 170
62 99 173
62 99 169
62 99 179
62 99 176
62 99 174
62 98 171
62 99 170
62 99 175
62 98 169
62 99 177
62 99 172
62 99 173
62 99 174
62 99 172
63 100 172
62 99 173
62 99 170
62 98 170
62 98 172
62 99 170
62 98 167
62 98 169
63 99 174
62 99 172
62 99 172
62 99 173
62 99 177
62 98 168
62 99 169
62 98 171
62 99 170
62 98 167
62 98 171
62 99 171
63 99 170
62 98 165
61 98 169
63 99 172
62 98 167
62 99 171
62 98 168
62 99 172
62 99 169
62 98 160
61 97 163
62 98 171
62 99 169
62 98 165
62 98 167
62 99 170
62 98 163
62 98 165
62 99 171
62 98 164
62 98 167
61 98 165
61 96 165
61 96 160
62 96 156
61 97 158
62 97 164
59 94 150
60 95 160
60 96 157
59 93 154
60 95 157
61 94 151
59 92 153
50 72 101
44 48 27
63 67 33
47 54 38
42 51 36
64 69 44
65 70 44
58 65 41
61 69 46
69 73 44
85 88 50
85 87 50
77 81 49
86 89 51
95 97 60
98 100 60
90 93 51
107 107 60
109 111 64
102 104 61
108 109 51
120 118 65
110 111 64
119 119 70
114 115 64
112 113 69
115 116 69
118 117 65
123 124 76
120 121 69
122 122 73
131 129 65
144 141 79
129 128 73
130 128 69
140 137 77
133 131 76
140 137 69
142 139 73
142 139 71
138 136 74
151 146 82
144 142 81
147 144 76
151 147 79
145 142 77
152 147 80
149 145 76
155 150 77
156 151 84
152 147 82
155 150 79
155 150 81
160 155 84
161 156 86
161 156 83
159 154 80
155 150 79
160 155 81
164 158 87
163 158 82
166 160 86
163 157 75
161 156 87
162 156 81
164 157 78
167 161 85
167 161 86
164 158 84
168 162 84
169 163 80
169 163 87
172 165 87
168 162 86
168 162 81
172 164 87
164 158 78
169 162 83
166 160 81
165 159 84
159 153 77
159 153 75
170 163 87
166 159 81
168 161 83
166 160 81
159 153 74
167 161 87
165 158 77
164 158 80
156 150 76
160 155 80
160 154 79
162 157 80
162 155 75
163 157 77
156 150 72
161 153 77
158 152 72
157 152 74
160 154 77
154 147 74
158 153 75
150 144 64
156 151 72
155 149 71
155 149 74
157 150 75
156 151 75
157 149 73
150 143 67
152 145 60
151 145 66
152 147 67
144 138 65
147 140 65
141 136 61
142 137 62
138 132 58
141 136 59
151 145 71
148 141 70
136 131 51
142 136 61
144 137 59
132 127 51
136 131 52
132 127 52
130 124 51
136 136 44
171 192 0
172 193 0
170 191 0
170 193 0
172 193 0
171 192 0
173 194 0
168 189 0
172 194 0
169 191 0
170 193 0
173 196 0
171 195 0
167 192 0
171 194 0
170 194 0
172 196 0
172 196 0
172 196 0
172 195 0
175 198 0
172 196 0
170 194 0
174 196 0
173 196 0
170 194 0
172 196 0
173 196 0
174 197 0
173 197 0
170 194 0
173 196 0
173 196 0
168 192 0
172 195 0
172 195 0
172 194 0
174 198 0
172 196 0
170 194 0
173 196 0
172 194 0
172 195 0
172 195 0
171 194 0
169 192 0
172 195 0
172 195 0
171 194 0
170 194 0
173 196 0
171 194 0
172 195 0
169 193 0
171 194 0
171 194 0
170 194 0
170 194 0
170 193 0
173 196 0
167 191 0
170 193 0
171 195 0
170 193 0
171 194 0
171 194 0
171 194 0
171 194 0
172 196 0
169 193 0
169 193 0
168 191 0
173 196 0
168 192 0
171 193 0
170 193 0
168 191 0
168 191 0
172 195 0
172 195 0
170 193 0
171 194 0
165 188 0
171 195 0
172 195 0
171 195 0
167 190 0
168 191 0
168 191 0
166 190 0
171 195 0
170 193 0
170 193 0
169 192 0
168 192 0
170 193 0
166 189 0
156 181 57
61 97 155
62 98 157
60 96 156
62 98 162
62 98 162
62 99 165
62 98 161
62 98 167
62 99 169
62 99 168
62 99 167
61 98 168
62 99 167
62 98 166
63 100 173
61 97 161
62 99 168
62 98 168
61 98 171
62 98 163
62 98 167
62 99 175
63 99 177
62 99 171
62 99 174
63 99 172
61 98 172
62 98 168
62 98 170
62 98 175
63 99 171
63 99 177
62 98 170
62 99 173
62 99 177
63 100 177
62 99 179
63 99 177
62 98 171
61 98 171
62 99 177
62 99 174
62 99 173
62 99 176
61 98 173
62 98 168
62 99 177
62 99 173
63 99 175
62 99 176
63 99 173
62 98 172
62 99 175
61 98 168
61 98 171
62 99 173
62 99 176
62 99 175
63 99 175
63 100 178
62 99 174
63 100 179
62 99 173
62 99 173
62 99 174
61 98 175
62 98 173
62 99 175
62 99 178
62 99 175
62 99 177
62 98 172
62 99 173
63 99 172
63 99 175
62 99 176
62 98 172
63 100 177
63 99 178
62 98 173
62 98 168
62 99 174
62 98 171
62 99 171
62 99 171
62 99 176
63 99 175
62 99 174
62 99 173
61 98 170
62 99 174
62 99 174
61 98 173
62 99 173
62 98 172
62 99 171
62 99 176
62 99 176
63 99 175
63 99 175
62 99 174
62 99 172
62 98 169
62 99 175
62 99 174
62 99 177
62 99 176
62 99 176
61 98 171
62 99 173
61 98 170
61 98 169
62 99 169
62 98 169
63 99 175
62 99 173
62 98 168
62 99 176
63 99 175
62 98 169
62 98 168
62 99 171
62 99 170
62 99 173
62 98 171
62 99 174
62 99 167
62 99 173
62 98 167
62 99 170
63 99 170
63 99 170
63 99 177
62 98 169
63 99 173
62 98 166
61 98 171
62 98 168
63 99 171
62 98 167
63 99 173
62 99 172
61 97 165
63 99 168
62 99 169
62 99 174
63 99 175
62 98 168
63 99 168
62 98 168
61 97 164
61 97 162
63 99 168
62 98 162
62 98 165
62 98 164
62 98 165
62 98 163
62 98 167
61 97 161
62 97 165
62 96 161
60 96 160
63 99 167
60 95 151
62 98 170
61 97 160
60 96 157
60 95 153
60 94 149
57 90 134
59 93 153
54 83 129
45 49 33
50 55 31
56 61 32
56 60 38
45 54 33
68 71 49
72 76 47
63 67 41
79 81 46
71 75 47
80 84 50
77 83 49
96 97 52
89 93 56
92 95 55
96 97 52
90 94 54
109 109 68
102 104 61
101 101 57
111 112 61
114 115 66
114 114 66
116 116 66
121 121 69
116 116 62
115 115 68
125 124 70
127 125 78
125 123 72
131 129 72
122 122 69
138 136 76
139 136 77
137 135 74
132 130 68
136 133 75
140 137 80
149 145 80
150 146 80
154 150 82
149 145 82
153 148 82
149 146 80
155 150 78
151 147 83
150 147 79
156 150 78
163 157 83
158 153 83
156 152 82
166 159 84
161 155 84
165 159 90
161 155 84
160 155 79
161 155 78
165 159 90
161 156 80
161 156 80
164 158 87
162 157 80
162 157 84
162 156 83
162 155 79
160 154 76
168 162 91
169 162 84
163 158 86
165 159 79
171 164 90
168 161 86
164 158 84
166 159 83
169 161 86
162 155 80
171 165 87
164 158 79
165 158 80
166 160 84
156 150 73
167 161 81
163 156 87
163 157 77
159 153 75
163 157 78
161 155 80
162 155 80
160 153 75
167 161 80
160 154 75
160 154 77
163 157 81
161 154 75
161 155 80
161 155 78
153 148 69
165 157 81
156 150 69
158 152 74
158 151 75
159 153 74
157 150 79
152 146 65
152 146 71
155 149 75
153 146 71
158 151 72
149 143 66
145 138 65
151 145 73
151 145 72
157 151 73
140 135 60
152 146 69
151 145 67
144 138 59
144 138 58
141 136 56
140 134 62
137 132 59
131 127 48
130 125 54
122 116 49
138 132 57
122 117 49
125 120 47
120 115 42
152 163 30
168 187 0
170 191 0
169 190 0
171 192 0
171 192 0
171 192 0
170 190 0
172 194 0
171 193 0
171 194 0
174 197 0
172 195 0
173 197 0
171 195 0
171 195 0
170 193 0
171 195 0
169 193 0
174 197 0
171 195 0
169 193 0
173 196 0
173 197 0
171 195 0
171 195 0
171 194 0
172 196 0
171 195 0
170 193 0
172 196 0
173 196 0
174 197 0
173 196 0
173 196 0
169 193 0
171 195 0
170 193 0
170 194 0
171 194 0
169 193 0
171 194 0
170 194 0
172 196 0
171 195 0
171 195 0
169 193 0
169 191 0
169 192 0
173 196 0
172 196 0
174 197 0
173 196 0
170 194 0
171 194 0
171 194 0
170 192 0
167 190 0
173 195 0
170 194 0
173 196 0
172 195 0
171 194 0
169 193 0
170 194 0
168 191 0
172 195 0
172 195 0
172 196 0
171 195 0
168 192 0
173 196 0
170 193 0
170 193 0
166 189 0
165 190 0
169 192 0
173 196 0
170 194 0
172 195 0
172 195 0
170 194 0
170 192 0
169 193 0
170 194 0
166 189 0
170 194 0
171 193 0
171 195 0
165 189 0
168 190 0
171 194 0
170 193 0
166 189 0
168 191 0
169 192 0
170 194 0
168 192 0
129 154 105
62 97 150
62 98 163
62 98 156
61 97 163
62 98 165
61 98 161
62 99 167
61 98 167
62 99 168
62 99 170
62 98 166
62 98 166
62 98 165
62 99 173
61 98 164
63 99 167
62 99 169
62 99 175
62 98 170
62 98 165
62 99 174
62 99 173
62 99 172
62 99 168
61 97 166
62 99 175
62 98 168
61 98 167
62 99 169
63 99 172
62 98 173
62 99 173
62 98 171
62 98 173
61 98 172
61 98 171
62 99 179
62 99 174
61 98 172
62 99 174
62 98 167
62 99 175
62 98 173
62 98 169
62 99 176
63 99 175
62 99 178
61 98 165
62 99 176
62 99 170
62 99 174
63 99 173
62 99 174
62 99 173
63 99 173
62 98 173
63 99 172
61 98 175
63 99 177
62 99 175
63 99 175
61 98 173
62 99 176
62 98 174
62 99 173
62 99 172
61 98 169
62 98 170
63 99 177
61 98 172
61 98 174
63 100 179
62 98 173
63 99 174
63 99 179
61 98 174
61 98 172
62 99 174
62 99 176
63 99 175
62 99 175
62 99 177
61 98 171
61 98 174
62 99 177
63 100 176
62 99 171
63 100 179
62 99 172
63 99 176
62 99 173
62 99 175
62 99 176
62 98 175
62 99 177
63 99 174
62 99 171
61 98 171
63 100 180
63 100 176
62 99 174
64 100 180
62 99 170
62 98 171
62 98 173
62 98 171
63 99 173
62 99 173
61 98 169
62 99 174
62 99 172
63 99 173
61 98 168
62 99 171
62 98 168
63 99 175
62 99 171
62 98 172
63 99 171
63 99 179
62 99 171
63 100 177
62 99 172
61 98 166
63 99 171
63 99 173
62 98 168
62 99 172
62 99 168
62 99 169
62 99 169
62 99 169
62 98 167
62 99 173
62 99 169
63 99 172
62 98 169
61 98 171
61 98 165
62 98 166
62 99 167
61 98 167
63 100 175
62 99 174
62 98 167
63 99 167
63 99 167
62 98 169
61 97 160
61 97 161
61 97 166
62 98 166
62 98 164
61 97 163
62 98 165
62 98 166
61 98 170
62 98 167
62 98 160
61 97 159
61 97 160
61 96 160
61 96 157
61 96 159
60 95 158
61 95 152
61 96 160
60 95 151
60 95 157
60 95 152
59 92 143
57 89 138
58 90 144
52 59 45
48 52 35
46 53 33
54 60 39
41 50 33
56 64 41
57 61 32
62 67 40
63 69 40
72 76 44
81 84 47
79 82 49
78 83 50
91 94 60
79 84 50
84 88 53
96 98 44
110 109 63
96 98 55
121 120 65
113 111 68
111 112 65
121 120 68
129 128 72
124 122 67
119 119 64
124 122 68
134 133 73
125 123 71
127 126 66
138 135 76
132 130 71
127 126 66
139 136 76
138 135 72
140 137 69
147 143 73
140 137 68
143 139 75
146 143 74
144 142 74
151 146 75
156 151 80
146 143 73
153 149 79
151 146 72
159 154 87
154 150 81
153 149 75
149 145 78
158 152 77
163 157 84
155 150 78
160 155 75
163 157 78
162 156 78
158 154 80
158 153 75
165 159 85
164 156 83
164 159 83
162 157 81
161 156 79
165 159 80
166 160 87
172 164 84
166 160 84
162 157 79
164 158 82
161 156 76
167 161 81
163 157 70
167 161 79
165 159 75
162 157 78
167 161 87
168 162 87
166 160 81
165 159 79
161 155 80
167 159 84
165 159 82
157 152 71
162 155 77
166 159 81
159 153 78
166 159 84
166 160 82
166 160 80
162 155 76
162 155 76
159 152 72
163 156 75
156 150 69
162 155 77
158 151 74
160 153 75
159 153 76
155 149 73
158 151 73
156 150 67
162 155 78
161 155 79
155 149 70
162 154 74
156 149 69
151 144 61
156 150 69
150 144 63
143 139 60
145 139 62
146 140 69
150 144 69
152 146 67
151 143 65
146 140 61
147 142 62
148 142 61
152 145 69
148 141 59
137 131 57
135 129 53
127 122 47
142 136 58
142 137 63
133 128 52
133 128 49
126 121 44
161 179 11
168 189 0
172 193 0
170 191 0
171 193 0
166 189 0
170 191 0
174 195 0
172 192 0
171 192 0
169 190 0
175 197 0
173 197 0
173 196 0
171 194 0
173 196 0
172 196 0
172 196 0
173 196 0
173 196 0
172 196 0
170 193 0
171 195 0
173 196 0
172 194 0
173 197 0
172 196 0
173 196 0
172 196 0
171 195 0
170 192 0
173 196 0
173 196 0
172 195 0
173 196 0
171 194 0
174 197 0
173 196 0
173 197 0
170 194 0
172 195 0
170 192 0
172 195 0
170 193 0
171 195 0
172 196 0
170 193 0
171 194 0
169 193 0
171 194 0
173 196 0
174 198 0
171 193 0
172 196 0
170 194 0
171 195 0
171 194 0
168 191 0
172 196 0
169 193 0
172 196 0
172 195 0
173 196 0
173 194 0
170 193 0
166 189 0
171 195 0
172 196 0
172 195 0
170 194 0
171 194 0
171 194 0
168 191 0
170 193 0
170 192 0
168 191 0
170 194 0
165 189 0
169 193 0
170 194 0
171 194 0
170 193 0
170 193 0
168 191 0
169 192 0
172 195 0
172 196 0
170 193 0
167 191 0
169 193 0
166 190 0
172 195 0
167 190 0
171 194 0
171 194 0
166 189 0
170 194 0
170 193 0
103 131 137
63 98 162
62 98 165
63 99 162
62 98 160
62 98 163
62 98 162
61 98 162
62 98 165
62 99 174
62 98 161
62 98 165
61 97 161
62 98 164
61 98 164
62 98 170
62 99 169
62 99 167
62 98 167
62 98 168
62 99 174
62 99 173
62 98 167
62 99 172
62 99 170
62 98 168
62 99 174
62 99 170
62 98 171
63 99 178
61 98 171
62 99 176
62 99 172
62 99 173
62 99 171
63 99 175
62 98 173
62 99 175
62 98 168
62 98 169
62 99 175
62 98 172
62 99 173
62 99 174
62 99 172
62 99 169
63 99 172
62 99 174
63 99 175
62 99 175
62 99 176
63 99 176
63 99 176
62 99 173
61 98 172
62 99 174
62 99 174
62 99 176
63 99 175
61 97 169
63 100 179
62 98 171
63 99 176
62 99 175
62 99 172
62 99 175
62 99 173
62 99 175
63 100 180
62 99 174
62 98 171
62 99 175
62 99 177
62 99 175
63 100 178
62 99 175
62 99 175
62 99 174
62 99 174
62 99 176
61 99 178
62 99 173
62 99 177
62 99 173
62 99 171
61 98 171
62 99 172
63 99 177
63 99 174
62 99 174
62 99 171
63 99 175
62 99 176
62 99 175
63 99 174
61 98 173
62 98 174
62 99 174
63 99 171
62 99 173
62 99 173
62 99 176
62 98 171
62 98 171
63 100 176
61 98 173
62 99 170
62 99 173
62 98 170
62 99 176
62 99 170
63 99 177
63 99 174
62 99 170
62 98 170
62 99 172
62 99 170
62 99 173
62 99 173
62 99 167
62 99 170
61 99 177
62 99 173
62 98 167
62 99 170
62 99 170
61 98 171
62 99 173
62 99 169
63 99 171
62 98 169
62 99 172
61 98 163
62 98 168
62 98 170
62 99 174
61 97 168
62 99 170
62 99 172
62 99 167
62 99 166
62 98 170
62 99 173
62 98 167
62 98 162
61 97 160
61 98 169
62 98 169
62 98 164
61 98 166
62 98 165
62 99 169
62 98 170
61 98 163
60 96 156
62 98 167
61 97 160
60 95 160
62 98 170
61 96 158
60 96 165
62 97 163
61 96 160
60 95 154
62 98 169
61 97 157
61 96 165
59 94 149
61 97 164
60 94 153
60 94 155
60 94 155
59 93 151
58 90 135
46 61 76
59 62 33
63 66 36
59 63 29
61 68 46
69 72 40
53 60 41
60 66 43
74 77 44
76 78 46
75 80 46
79 84 43
83 87 51
76 80 47
101 102 59
97 99 54
91 94 53
116 115 59
99 100 58
109 110 61
100 101 60
115 114 62
106 108 59
105 106 59
120 119 68
115 115 62
121 119 67
128 127 72
126 124 73
135 132 72
121 120 61
126 124 70
131 129 72
139 137 75
132 131 65
136 134 71
143 140 73
145 142 70
143 141 72
140 137 71
150 146 82
147 142 73
150 146 80
149 146 72
145 142 77
154 149 79
152 148 78
151 145 81
147 144 79
150 146 74
156 151 82
153 149 73
156 151 78
159 154 84
166 160 91
151 146 77
156 151 80
160 154 78
170 163 87
155 150 75
159 155 79
164 158 84
164 158 80
167 161 83
162 156 76
160 155 80
167 160 87
167 160 80
167 161 79
160 155 78
166 159 80
163 158 80
166 160 83
163 157 75
168 161 88
165 159 77
166 160 83
161 156 77
163 156 78
167 159 80
165 157 77
168 161 79
164 158 78
163 157 83
163 157 80
161 154 71
163 157 80
158 152 75
161 155 71
163 157 78
154 148 68
158 153 74
160 154 73
158 151 72
156 150 75
160 154 75
156 150 74
155 148 74
162 155 80
157 151 72
162 156 75
160 153 75
155 149 73
165 157 79
156 150 72
156 149 73
150 143 68
155 149 72
155 149 69
149 143 60
151 145 65
144 139 63
150 144 68
148 142 62
144 138 60
139 133 54
147 142 61
141 135 60
144 138 63
147 142 62
137 131 53
130 125 49
136 130 57
139 133 56
133 128 52
125 120 44
130 124 53
137 142 30
170 192 0
170 191 0
169 189 0
173 194 0
171 192 0
171 192 0
172 193 0
170 191 0
169 189 0
169 189 0
169 189 0
169 192 0
172 195 0
171 194 0
170 194 0
169 193 0
172 195 0
172 194 0
171 194 0
171 194 0
171 194 0
171 194 0
169 193 0
172 195 0
170 193 0
170 194 0
170 194 0
169 193 0
171 193 0
172 196 0
169 193 0
172 196 0
169 193 0
171 193 0
171 195 0
171 195 0
174 197 0
172 194 0
170 194 0
170 193 0
170 194 0
169 192 0
172 196 0
170 193 0
169 193 0
171 194 0
170 193 0
169 193 0
174 197 0
170 193 0
173 196 0
170 194 0
169 193 0
171 194 0
171 194 0
169 192 0
171 195 0
173 195 0
171 193 0
171 194 0
167 191 0
169 191 0
169 193 0
172 195 0
171 194 0
171 193 0
166 190 0
171 195 0
171 194 0
167 191 0
168 191 0
170 194 0
170 194 0
170 193 0
169 193 0
170 193 0
164 187 0
170 194 0
171 193 0
173 196 0
167 190 0
174 197 0
165 189 0
167 190 0
170 194 0
171 195 0
170 193 0
170 192 0
171 195 0
170 194 0
168 191 0
169 192 0
168 192 0
170 193 0
168 190 0
171 195 0
170 193 0
160 183 36
66 101 159
61 98 161
62 99 163
62 98 165
62 98 160
62 98 163
61 97 161
62 98 162
62 98 165
61 97 165
62 98 166
62 98 166
62 98 165
62 98 168
61 97 164
62 99 169
63 99 170
63 99 176
62 98 170
63 99 171
63 99 174
62 98 168
62 99 170
62 99 170
62 99 169
63 99 170
63 99 171
63 99 174
62 99 170
63 99 171
62 99 172
62 98 172
62 99 171
61 98 171
62 99 171
63 99 176
62 99 174
62 99 177
62 98 173
62 99 173
62 99 174
62 98 172
62 99 174
61 98 172
62 99 177
62 99 178
62 99 176
62 99 177
63 99 178
62 99 175
62 99 174
62 99 177
62 99 173
62 99 176
63 100 179
62 99 177
63 100 175
62 99 174
62 98 172
62 98 170
62 98 174
61 98 170
62 99 179
62 98 168
62 99 173
61 98 168
63 99 175
62 98 171
62 99 172
62 99 177
62 99 176
62 99 175
62 99 174
62 99 173
63 100 178
63 99 174
62 99 174
62 98 168
62 99 172
62 99 176
62 99 179
62 98 172
62 99 172
62 99 175
62 98 170
62 99 179
62 99 170
62 99 175
62 99 172
63 100 179
62 99 172
62 99 176
62 99 174
62 99 172
62 99 175
62 98 172
62 99 173
62 99 171
61 98 172
63 99 174
62 99 174
62 99 173
62 99 177
62 99 174
62 99 169
63 99 178
62 99 174
61 98 172
62 99 170
61 98 172
62 98 170
62 98 169
61 98 174
62 99 177
62 98 170
62 98 168
62 99 173
63 99 170
62 99 169
62 99 177
61 98 174
62 99 175
62 99 174
62 98 166
62 98 171
62 98 172
62 98 167
62 99 172
62 98 170
62 99 172
62 99 175
62 98 169
62 98 167
62 99 174
63 99 173
61 98 167
62 99 174
62 98 166
62 98 168
63 99 172
62 98 166
62 98 167
62 98 167
62 98 170
62 98 166
62 99 173
62 99 173
62 99 168
62 98 165
62 98 166
62 98 164
61 97 156
62 98 159
62 99 165
62 99 170
62 99 167
61 97 161
61 97 168
62 98 165
61 97 158
61 97 164
62 98 168
61 96 157
61 96 155
61 96 156
62 97 163
61 97 159
60 95 156
60 95 151
61 97 161
61 95 154
60 95 160
60 93 151
60 94 150
48 71 103
65 66 30
47 54 30
64 69 34
61 64 32
46 54 34
62 67 36
75 79 38
67 71 40
83 86 55
71 76 43
79 81 45
83 85 40
84 86 42
88 90 47
89 90 50
103 105 56
96 97 57
108 109 55
98 100 52
113 113 61
111 112 64
116 115 64
104 104 55
107 107 60
118 117 60
122 121 69
129 126 70
133 130 70
118 116 59
133 131 73
127 126 67
121 120 64
131 129 64
139 137 69
135 132 69
141 137 76
141 138 73
139 136 73
143 139 70
136 133 69
136 134 73
147 144 71
146 143 71
147 143 80
153 148 75
155 151 78
149 144 79
154 149 75
159 153 81
162 156 79
152 147 78
160 155 79
157 152 80
156 150 67
159 153 77
160 155 76
159 154 76
160 154 79
162 156 80
160 154 79
164 158 74
165 159 81
160 154 80
165 158 80
166 160 78
161 155 74
161 155 80
167 160 80
166 160 79
162 156 79
164 158 75
165 158 79
163 158 80
163 158 77
165 159 77
160 154 77
161 154 75
166 159 78
163 157 74
168 161 76
165 159 80
164 157 77
164 157 80
167 160 80
165 159 73
167 159 75
164 157 78
162 156 75
155 149 65
155 149 72
159 153 62
166 159 80
165 159 77
156 149 69
155 150 73
158 152 72
163 157 73
157 151 75
150 144 70
159 153 70
159 152 71
154 148 67
153 147 69
153 148 66
150 145 63
150 144 63
153 147 66
146 140 64
144 138 60
150 144 61
148 143 65
147 141 64
139 134 58
146 139 61
142 136 54
149 142 68
138 132 51
145 137 63
134 130 53
130 125 52
136 132 52
128 124 48
126 122 47
133 127 56
127 122 39
111 107 39
154 169 19
171 192 0
170 190 0
169 190 0
170 192 0
174 196 0
171 192 0
170 191 0
168 190 0
168 190 0
171 193 0
168 190 0
170 194 0
171 195 0
170 194 0
172 195 0
174 197 0
172 196 0
170 194 0
173 197 0
173 196 0
171 194 0
172 196 0
170 194 0
170 193 0
170 193 0
172 195 0
172 196 0
173 196 0
173 196 0
169 193 0
172 196 0
172 196 0
171 194 0
170 193 0
170 194 0
172 196 0
172 194 0
169 193 0
173 196 0
170 193 0
169 193 0
172 195 0
171 195 0
174 197 0
168 191 0
169 193 0
172 196 0
172 194 0
171 195 0
171 194 0
170 194 0
171 195 0
171 195 0
171 194 0
169 192 0
166 190 0
174 197 0
171 194 0
170 194 0
173 196 0
171 194 0
170 193 0
173 196 0
172 195 0
167 191 0
172 195 0
171 195 0
170 194 0
171 195 0
165 189 0
169 193 0
172 196 0
173 196 0
172 196 0
172 195 0
170 194 0
166 189 0
169 192 0
169 192 0
171 194 0
172 196 0
170 193 0
169 193 0
168 191 0
172 194 0
171 195 0
166 190 0
166 189 0
166 189 0
170 192 0
167 191 0
168 192 0
171 194 0
167 190 0
169 192 0
169 192 0
168 190 0
147 171 88
61 97 154
61 97 151
62 98 159
62 99 164
61 98 163
62 98 163
62 98 162
61 98 161
62 98 163
63 99 166
62 99 172
61 98 166
62 98 164
62 98 166
63 99 165
62 99 168
61 97 164
61 98 165
62 98 173
62 98 173
62 99 171
61 98 168
62 98 170
62 98 165
62 99 175
62 99 173
62 99 171
61 98 166
61 98 168
61 97 165
62 99 176
62 99 171
62 99 171
63 99 173
62 99 175
63 99 171
62 99 172
62 98 169
61 97 166
63 99 174
62 98 169
62 99 175
63 99 175
62 99 172
62 98 171
61 98 169
61 98 170
63 99 176
62 99 174
63 99 175
62 99 171
62 98 172
63 99 174
62 98 172
62 99 172
62 99 174
62 98 166
62 99 176
62 99 174
61 98 171
62 99 177
63 99 174
63 99 176
63 99 177
62 99 173
63 100 177
62 99 173
62 99 177
62 99 177
62 98 172
62 99 172
62 99 177
62 99 172
62 99 177
62 99 177
62 99 175
62 99 172
62 99 175
62 99 177
62 99 174
62 99 177
61 98 172
62 99 175
62 99 174
61 98 175
62 99 171
62 99 175
62 99 174
63 100 176
62 98 169
62 98 170
63 100 177
61 98 174
62 99 175
63 99 177
63 99 173
62 99 173
62 99 171
62 98 171
62 99 171
61 98 172
63 99 174
62 98 169
63 99 173
63 99 175
62 98 170
62 99 171
63 99 173
63 99 172
61 97 165
62 98 171
63 99 172
63 100 178
63 99 168
62 99 171
62 99 173
62 99 172
63 99 171
62 98 171
63 99 173
61 98 168
62 99 172
62 98 172
62 98 165
62 98 171
62 98 169
63 99 173
62 99 173
62 99 171
63 99 173
62 98 166
62 98 166
62 99 169
62 98 171
62 98 166
62 98 171
62 99 173
62 98 172
61 98 162
62 99 172
62 99 169
62 98 166
62 99 171
63 99 169
61 98 164
63 99 169
62 98 164
62 99 170
62 99 166
62 99 171
62 98 161
62 98 170
62 97 162
63 99 164
62 98 166
62 97 160
62 98 165
62 97 160
60 96 162
62 97 160
61 96 160
62 98 158
61 97 163
61 96 161
61 96 160
62 97 155
62 97 163
60 95 157
61 95 154
61 95 155
61 94 153
61 95 155
59 93 153
59 93 148
55 85 129
54 59 28
57 62 26
50 54 29
46 55 33
71 73 37
54 61 35
58 63 28
68 73 43
76 79 44
62 68 37
86 88 42
85 87 48
84 87 46
88 91 51
93 94 53
104 105 64
97 98 57
96 99 56
97 99 52
100 101 53
117 116 59
118 116 61
108 109 58
117 116 62
113 114 61
109 111 64
112 113 60
139 136 81
124 122 64
131 129 66
127 126 66
133 131 71
135 131 72
144 141 75
140 137 71
133 130 65
129 127 64
147 143 80
139 136 71
144 140 72
144 140 76
152 147 76
151 146 78
149 145 74
149 145 72
147 144 70
143 139 80
148 144 72
153 148 67
151 147 76
145 142 72
156 151 79
155 150 78
161 156 75
159 153 78
167 159 88
161 155 80
157 152 77
166 160 84
158 153 75
166 161 85
159 154 76
159 154 74
160 155 71
156 150 71
158 152 73
162 156 72
166 159 79
163 157 78
164 158 77
165 158 78
161 155 75
168 161 79
164 156 81
169 161 86
165 158 82
163 158 76
166 158 80
165 157 77
158 153 67
162 156 71
162 155 74
157 151 75
164 157 79
158 152 79
154 149 70
160 153 75
165 158 80
153 147 63
164 156 80
162 155 79
155 150 64
158 151 75
162 155 75
155 150 62
158 151 69
161 155 74
153 148 71
148 142 65
155 148 71
154 148 64
156 150 71
154 148 68
145 139 64
156 150 71
146 141 58
158 152 71
149 143 67
154 148 67
156 150 65
139 132 53
144 140 56
152 146 72
138 131 57
145 139 49
138 132 53
141 136 59
142 136 58
144 137 64
130 125 47
136 131 45
138 133 52
142 136 62
136 130 53
132 126 52
125 122 45
168 189 0
169 188 0
172 191 0
170 190 0
172 194 0
170 190 0
172 192 0
170 192 0
169 189 0
172 193 0
172 193 0
171 190 0
172 195 0
174 196 0
172 196 0
172 196 0
173 197 0
170 193 0
172 196 0
173 196 0
172 196 0
172 195 0
172 195 0
172 194 0
174 196 0
171 195 0
170 195 0
170 193 0
172 196 0
173 196 0
172 194 0
170 194 0
173 196 0
174 197 0
175 198 0
171 195 0
172 196 0
170 194 0
170 194 0
171 194 0
170 193 0
174 197 0
172 195 0
170 193 0
172 196 0
169 193 0
167 191 0
171 195 0
173 196 0
171 194 0
169 192 0
172 195 0
172 195 0
167 191 0
173 197 0
172 195 0
171 195 0
170 193 0
171 194 0
170 192 0
172 195 0
170 194 0
166 188 0
172 195 0
168 190 0
172 195 0
170 193 0
171 194 0
171 194 0
170 193 0
171 195 0
173 196 0
172 195 0
171 195 0
169 193 0
172 194 0
170 193 0
168 191 0
172 195 0
169 193 0
169 192 0
168 192 0
172 196 0
171 195 0
171 194 0
170 194 0
168 192 0
170 192 0
170 194 0
169 192 0
168 191 0
166 189 0
170 193 0
166 189 0
169 193 0
172 195 0
167 191 0
169 193 0
117 142 124
61 97 151
61 97 153
63 99 163
62 98 163
61 97 161
62 98 167
61 97 160
62 98 167
62 98 162
62 99 168
62 98 164
61 97 165
62 99 169
62 98 165
63 99 172
61 97 161
62 98 163
62 99 171
62 99 171
62 98 168
63 99 172
63 99 171
62 99 163
62 99 172
61 98 165
62 98 168
63 99 169
61 98 167
61 98 168
61 98 171
62 99 172
62 99 172
62 99 170
62 99 174
61 97 169
61 98 174
61 98 170
62 98 168
63 100 179
63 99 174
62 99 178
62 98 173
62 99 177
62 98 169
63 99 172
62 99 174
63 100 176
62 99 169
62 99 174
62 99 174
62 98 175
62 98 168
62 99 170
63 100 175
62 99 173
63 99 175
62 99 172
62 99 175
62 99 174
61 98 171
63 99 173
62 98 175
62 99 173
63 100 177
62 99 176
62 99 176
62 99 176
62 98 170
62 99 175
62 99 173
62 99 174
63 99 178
63 99 175
62 99 172
63 100 177
62 99 175
62 98 169
63 99 176
62 98 170
62 99 172
61 98 171
62 98 172
62 98 171
62 99 172
62 99 174
62 99 175
63 99 174
62 99 177
62 99 175
62 98 171
62 99 175
62 99 172
62 98 169
62 98 168
61 98 170
62 99 169
62 98 164
62 98 168
63 100 174
62 99 173
62 99 174
62 99 172
63 99 174
62 98 169
62 99 172
63 99 171
62 98 169
62 98 168
63 99 171
63 99 168
62 98 169
62 99 173
61 98 167
61 98 171
63 99 170
62 98 168
61 98 168
62 99 176
62 99 170
62 98 169
62 99 173
62 99 176
61 98 170
62 99 171
62 98 167
61 98 167
62 98 166
62 98 169
62 99 167
62 99 171
63 99 177
62 98 169
62 99 173
62 99 173
62 98 165
62 98 168
63 99 173
62 98 166
62 98 163
63 100 174
63 99 170
62 99 167
62 98 162
62 98 170
61 97 164
62 98 168
61 96 161
63 99 166
61 97 161
62 98 166
62 98 164
62 98 170
61 97 167
62 97 164
61 97 159
62 98 162
62 97 162
62 98 165
62 98 163
62 98 171
61 97 160
61 97 156
62 97 163
62 97 162
61 96 155
60 95 159
61 96 161
61 97 161
60 95 154
61 96 156
61 95 154
61 96 155
60 94 150
59 92 144
57 89 142
45 53 39
53 57 28
62 65 33
55 60 32
47 55 38
69 71 37
63 69 34
68 72 38
65 70 38
79 82 42
80 82 42
81 83 44
83 84 47
97 98 49
90 92 43
102 102 47
97 98 50
91 94 53
111 110 61
117 115 56
111 110 57
111 110 57
101 103 53
117 115 61
111 111 57
126 124 68
117 116 61
127 125 67
116 116 63
135 132 69
127 126 66
121 120 61
123 121 71
140 136 74
149 145 68
128 126 64
137 134 67
131 128 66
146 143 77
149 145 74
147 143 74
138 136 67
147 143 74
149 144 78
149 144 72
140 138 67
156 151 78
153 148 78
154 149 76
155 150 79
152 148 70
148 145 77
166 159 82
152 148 76
155 150 79
156 151 78
156 151 71
161 155 80
157 151 78
162 156 76
165 159 79
166 159 75
161 156 74
154 148 72
158 153 71
159 153 77
163 157 76
159 153 75
160 153 77
160 154 75
166 160 82
158 153 68
168 162 80
166 159 77
163 156 75
164 157 80
163 156 76
159 152 75
156 151 68
167 160 76
157 152 73
159 153 69
160 153 75
164 157 77
163 156 75
161 155 75
159 153 73
159 153 70
157 151 61
160 154 72
160 153 76
150 145 66
165 159 73
158 153 70
160 154 70
154 147 68
157 151 68
157 151 72
156 149 67
151 145 65
159 152 74
157 150 67
161 153 76
151 146 69
148 143 59
156 150 67
148 143 59
152 146 63
151 145 63
151 146 61
141 135 63
148 141 58
150 144 61
138 133 57
152 145 61
138 131 56
132 126 47
136 131 47
132 127 56
132 126 56
134 129 49
137 131 57
122 119 32
122 118 41
119 113 45
151 161 34
170 192 0
172 193 0
173 194 0
171 191 0
173 195 0
169 190 0
168 190 0
170 191 0
168 189 0
169 191 0
170 189 0
169 189 0
171 194 0
174 197 0
171 194 0
171 194 0
171 195 0
172 196 0
168 191 0
172 196 0
172 194 0
170 194 0
175 198 0
172 195 0
172 196 0
171 194 0
173 196 0
175 197 0
172 196 0
172 196 0
173 197 0
173 196 0
172 195 0
170 194 0
172 194 0
170 194 0
169 193 0
170 194 0
171 194 0
172 196 0
170 193 0
168 191 0
171 195 0
173 197 0
170 194 0
171 194 0
169 193 0
168 192 0
171 194 0
168 192 0
170 193 0
169 192 0
174 197 0
172 196 0
168 192 0
169 192 0
172 195 0
171 194 0
169 192 0
171 194 0
168 192 0
169 192 0
169 191 0
170 194 0
171 194 0
168 191 0
167 190 0
170 193 0
172 196 0
174 198 0
169 194 0
170 194 0
169 192 0
164 187 0
173 196 0
166 189 0
170 193 0
169 193 0
170 194 0
170 193 0
170 193 0
171 194 0
167 190 0
169 193 0
172 196 0
170 193 0
166 189 0
167 191 0
167 190 0
168 193 0
171 194 0
172 196 0
168 193 0
166 189 0
167 190 0
162 186 0
170 194 0
173 196 0
104 132 136
62 98 156
61 97 154
63 99 163
61 97 157
62 98 166
61 98 165
61 97 160
62 98 161
62 98 168
61 98 167
61 97 161
61 98 165
61 98 170
61 98 165
62 98 168
61 98 167
62 98 169
62 99 172
62 98 162
61 97 158
62 98 170
62 99 173
62 98 167
61 97 166
61 98 170
61 98 170
63 99 169
61 98 170
60 97 164
63 99 172
62 99 172
62 98 171
62 99 172
62 98 171
62 98 172
62 98 173
61 98 174
62 99 173
63 99 173
62 98 170
62 99 171
62 99 171
61 97 167
62 99 175
63 99 174
62 99 170
62 99 175
62 99 174
62 99 174
62 99 175
62 99 175
62 99 175
63 99 176
62 99 174
62 99 177
62 99 172
62 98 170
63 99 180
62 99 175
62 99 173
62 99 172
62 98 175
62 99 171
62 99 175
63 99 175
62 99 173
62 98 174
62 99 171
62 99 174
62 99 173
62 98 175
63 99 176
62 98 171
62 99 174
62 98 168
62 99 174
62 99 172
62 99 176
62 98 169
62 99 173
62 99 173
62 98 169
62 99 175
62 98 169
62 99 171
61 98 168
61 98 168
62 99 173
62 99 173
62 98 170
62 99 173
62 99 171
63 99 178
62 99 172
61 98 168
62 99 171
62 99 172
62 99 171
62 98 171
62 98 170
62 98 167
61 98 172
62 98 169
62 99 169
63 100 176
62 99 172
63 99 173
63 99 172
62 99 170
62 99 174
63 99 168
61 98 162
63 99 172
62 98 171
61 98 165
62 99 176
62 98 171
62 99 176
62 99 169
62 99 174
63 99 167
62 99 174
62 98 171
62 99 169
62 98 167
62 98 168
62 99 171
62 98 170
63 99 172
62 99 172
63 99 171
63 99 167
62 99 171
63 99 168
62 99 174
61 98 165
62 98 165
62 98 168
62 99 169
63 99 171
63 99 170
62 98 166
61 97 165
62 98 171
62 98 165
62 99 169
62 99 168
63 99 169
62 99 167
62 98 165
62 98 169
62 98 160
62 98 166
62 98 168
61 97 162
61 97 163
62 98 159
61 96 157
62 98 168
63 99 168
62 99 165
61 97 162
62 98 162
61 96 157
61 97 164
59 93 147
62 98 162
61 97 155
61 96 153
60 94 154
60 94 150
61 96 155
58 91 144
58 91 144
58 89 134
50 64 70
64 67 33
55 59 24
53 58 29
54 59 25
68 71 39
66 68 39
74 76 34
71 74 42
72 75 39
81 81 39
81 83 40
85 88 42
96 96 52
81 83 42
85 87 42
93 95 45
106 106 60
99 101 56
100 100 52
110 111 55
118 119 56
108 108 59
108 109 57
122 121 60
116 116 61
116 115 66
114 115 56
125 123 66
126 124 62
129 127 71
130 128 68
133 131 68
133 130 71
125 123 59
135 132 66
139 135 73
139 136 65
139 136 69
144 140 73
143 140 67
142 140 74
150 146 72
144 140 70
147 144 78
151 146 78
152 147 73
149 146 75
150 146 71
156 151 78
154 150 68
147 143 70
149 145 72
158 153 64
160 154 77
159 152 70
156 152 72
152 148 64
157 152 74
159 153 75
166 160 80
157 151 73
166 160 84
162 156 75
160 153 75
167 161 83
159 154 74
155 149 69
163 158 78
166 158 78
161 155 72
166 159 80
159 153 70
160 155 73
163 157 77
162 156 75
165 158 77
162 156 76
154 148 60
167 160 76
161 155 76
160 154 71
165 158 80
163 157 80
159 153 66
160 154 69
161 155 73
159 154 70
158 152 75
155 149 65
163 156 74
163 155 75
152 147 66
158 152 68
153 146 66
158 152 75
155 148 75
156 150 65
158 152 73
153 147 66
144 139 64
149 143 66
149 144 67
155 148 67
156 149 74
150 144 65
147 141 60
156 150 73
150 143 64
148 142 66
149 144 59
148 143 61
147 141 58
148 142 67
136 131 53
134 129 45
142 137 49
130 125 51
135 130 54
131 126 53
131 126 52
130 126 44
130 124 36
124 119 45
113 109 37
170 190 0
171 193 0
170 191 0
172 193 0
169 190 0
168 188 0
168 188 0
166 186 0
169 190 0
170 191 0
172 194 0
170 192 0
168 189 0
172 196 0
173 197 0
171 195 0
173 197 0
174 197 0
169 192 0
173 195 0
171 195 0
173 196 0
173 197 0
170 194 0
168 192 0
171 194 0
173 197 0
171 194 0
172 196 0
172 195 0
170 194 0
170 194 0
169 194 0
171 194 0
173 196 0
170 193 0
172 195 0
173 196 0
172 195 0
170 194 0
173 196 0
169 193 0
171 194 0
170 193 0
171 195 0
172 196 0
172 196 0
172 195 0
172 196 0
169 193 0
173 196 0
173 197 0
169 192 0
170 193 0
166 190 0
171 194 0
170 193 0
171 194 0
173 196 0
170 193 0
168 192 0
171 195 0
168 192 0
170 193 0
168 192 0
170 193 0
170 193 0
170 193 0
173 195 0
171 195 0
171 193 0
169 193 0
169 191 0
170 194 0
171 194 0
167 190 0
169 193 0
168 191 0
167 190 0
168 191 0
169 192 0
167 190 0
166 189 0
168 192 0
170 193 0
168 190 0
167 191 0
172 195 0
168 191 0
169 191 0
164 188 0
170 193 0
168 191 0
168 192 0
169 192 0
169 193 0
169 192 0
167 190 0
166 190 0
70 103 150
61 96 145
61 97 160
62 98 162
62 98 162
61 97 159
61 97 161
62 98 162
61 97 157
62 98 159
61 96 155
62 99 171
61 98 162
62 98 166
62 98 167
62 99 170
62 98 164
63 100 174
62 99 169
61 97 157
61 98 168
62 98 169
62 99 169
61 98 168
61 98 165
62 98 167
63 99 173
62 99 169
62 98 168
63 100 175
62 98 168
62 98 171
62 99 172
62 99 172
62 98 171
62 99 169
62 99 172
62 99 173
62 99 176
63 99 172
62 98 167
62 99 171
61 98 167
63 100 177
63 100 174
62 99 173
61 98 170
61 98 168
62 99 174
62 99 171
62 98 171
63 99 177
62 98 173
62 99 172
62 98 171
63 99 175
62 99 176
62 99 174
62 99 173
62 98 171
62 99 173
62 99 167
62 99 172
62 98 170
62 99 172
62 99 174
62 99 175
63 99 172
61 98 172
62 98 173
62 98 169
62 98 169
63 99 174
62 99 171
62 99 172
63 99 174
62 98 172
62 98 171
62 98 172
62 99 171
62 99 177
62 99 174
62 99 172
61 98 172
62 99 175
63 100 177
62 98 167
62 98 169
62 99 171
63 99 173
62 98 171
63 99 171
63 99 171
62 98 172
63 99 171
62 99 171
61 98 172
62 99 169
63 99 174
62 98 168
62 98 172
62 99 170
63 99 172
62 99 169
62 98 165
62 99 173
62 99 172
62 99 172
62 99 172
62 99 174
62 99 172
63 99 178
63 99 173
61 98 167
62 99 168
62 99 173
62 99 170
63 99 171
62 99 172
62 98 168
62 99 174
63 100 174
63 99 171
62 98 169
62 99 173
62 99 168
62 99 168
62 98 170
62 98 169
62 99 169
62 99 169
62 99 168
63 99 171
62 99 169
62 98 166
62 99 169
61 98 163
61 98 166
62 98 166
62 98 168
63 99 172
62 98 167
62 99 167
61 98 163
61 98 164
62 98 167
62 98 164
61 97 162
62 98 168
62 98 163
62 97 160
61 97 159
61 97 161
62 97 160
62 98 172
61 97 168
63 99 169
61 97 159
61 96 152
62 98 168
62 98 167
61 97 160
63 99 169
62 98 164
62 97 164
61 96 158
62 97 165
61 96 161
60 95 152
60 94 156
61 96 159
62 97 157
60 95 152
61 96 157
60 93 144
57 88 144
57 75 99
51 53 17
55 60 24
58 64 36
69 71 33
72 73 35
67 71 35
63 66 29
60 63 28
79 80 43
85 87 40
79 83 37
75 80 44
90 91 43
87 87 47
95 97 53
83 87 47
97 98 52
98 100 56
107 107 47
103 104 48
103 104 56
113 113 60
111 112 59
119 119 56
109 109 61
116 114 57
115 115 66
129 128 63
126 124 66
126 123 59
133 131 66
130 127 65
129 127 59
139 135 69
129 128 68
133 130 66
135 132 62
135 132 66
141 138 68
147 143 76
142 138 67
146 142 66
148 143 72
146 142 71
154 149 75
150 145 79
157 150 70
150 145 78
158 152 75
151 146 74
151 147 73
155 150 75
145 140 65
154 149 74
150 146 68
155 148 71
163 157 77
158 153 69
156 150 74
159 153 81
164 158 78
165 158 78
163 158 76
161 155 78
157 152 72
162 155 78
161 156 74
164 159 72
158 153 72
163 157 70
167 160 75
155 150 69
162 156 71
156 150 72
161 155 75
161 154 69
161 155 75
160 154 70
156 151 70
156 150 74
161 154 76
164 158 78
153 148 65
165 158 75
153 149 64
158 152 67
159 153 72
160 154 74
159 153 74
155 149 65
157 151 72
154 148 67
158 152 63
159 153 73
158 152 68
162 156 75
153 148 63
155 148 76
150 143 59
156 150 69
154 150 64
148 142 60
148 142 63
144 138 66
148 143 59
149 143 62
135 131 57
145 141 54
142 137 58
153 147 60
148 141 62
143 137 58
129 124 44
146 139 63
145 139 62
133 128 45
142 136 57
131 126 58
128 123 49
133 128 44
125 119 42
127 122 49
122 117 48
151 159 36
171 192 0
171 193 0
168 190 0
172 194 0
170 192 0
171 192 0
171 193 0
170 189 0
174 194 0
168 189 0
172 193 0
171 192 0
167 188 0
174 196 0
172 195 0
171 194 0
174 197 0
172 195 0
172 195 0
172 196 0
172 195 0
171 194 0
172 196 0
173 196 0
173 195 0
171 194 0
168 191 0
173 197 0
172 195 0
170 193 0
170 193 0
172 195 0
169 194 0
168 191 0
173 196 0
172 196 0
170 194 0
171 195 0
174 197 0
170 193 0
172 195 0
171 195 0
171 194 0
171 194 0
170 193 0
173 196 0
171 194 0
171 194 0
171 194 0
172 195 0
170 194 0
173 196 0
173 197 0
174 196 0
171 193 0
172 195 0
166 191 0
172 196 0
171 195 0
172 195 0
168 191 0
171 194 0
169 193 0
171 194 0
173 196 0
168 192 0
171 194 0
170 193 0
171 195 0
172 195 0
171 194 0
168 192 0
171 194 0
170 194 0
164 187 0
167 190 0
170 194 0
171 195 0
166 190 0
165 190 0
167 191 0
172 195 0
166 189 0
165 189 0
170 193 0
171 193 0
168 192 0
166 190 0
167 190 0
172 194 0
170 193 0
167 190 0
170 192 0
169 192 0
167 191 0
168 192 0
172 195 0
169 192 0
159 184 51
62 98 162
62 99 163
63 99 164
62 98 162
61 97 156
61 97 156
62 98 158
62 98 164
62 98 161
63 99 164
62 98 160
62 98 167
63 99 171
62 99 167
62 98 163
61 98 166
63 99 168
62 98 168
62 98 167
62 98 167
62 99 171
62 99 170
62 99 168
62 98 166
62 99 172
62 98 169
63 100 177
62 99 171
63 99 170
62 98 163
62 98 173
61 98 170
62 98 168
62 99 171
63 99 171
62 99 171
61 97 165
62 99 171
62 99 169
61 97 165
62 99 173
62 98 171
61 98 164
62 99 172
62 98 169
61 98 168
63 99 172
62 98 167
62 99 174
63 99 174
62 99 174
62 98 171
62 99 171
63 100 178
62 98 174
63 99 173
62 99 174
62 99 172
62 99 178
62 99 174
62 98 172
62 99 174
62 99 174
63 99 170
62 99 173
62 99 173
63 100 179
62 99 175
62 99 171
62 99 174
62 98 169
62 99 173
62 99 172
62 98 171
62 99 174
61 98 168
62 99 174
61 98 174
62 99 172
61 98 168
62 98 169
62 99 175
62 98 170
62 98 173
61 98 173
62 99 173
62 98 172
62 99 175
62 99 173
62 98 167
63 99 167
61 98 171
62 98 172
62 99 174
62 99 168
63 99 173
62 99 170
63 100 177
62 99 170
62 98 170
62 99 172
62 99 174
62 98 172
63 99 176
63 99 173
62 98 166
62 99 173
62 98 167
62 99 173
63 99 172
62 99 174
63 99 177
63 99 171
62 98 170
62 99 171
62 99 168
63 99 174
63 99 172
62 99 169
62 98 169
62 99 169
62 99 169
62 99 172
62 98 166
62 99 170
62 99 168
62 99 174
62 98 166
62 99 171
62 99 170
61 98 168
62 98 166
61 97 166
63 99 171
62 98 163
63 99 168
62 98 170
62 98 166
62 98 168
62 98 164
62 99 173
61 97 163
62 98 162
61 98 167
61 98 166
63 99 166
62 98 160
62 98 167
62 98 166
62 98 162
61 98 169
61 97 164
62 99 164
63 99 169
61 97 159
61 96 153
61 97 157
61 97 158
62 98 162
62 98 165
62 98 163
62 98 162
61 97 161
62 98 162
63 98 164
60 95 155
60 94 151
62 97 159
60 95 155
62 97 161
61 96 154
60 95 158
61 96 161
60 94 156
60 94 151
59 93 150
58 83 125
63 66 25
51 56 23
62 66 31
58 62 26
54 59 26
73 75 28
66 69 32
70 75 39
70 74 38
74 77 31
80 83 44
99 99 47
78 81 39
78 82 43
93 95 46
105 104 50
96 98 53
100 100 47
107 106 49
95 95 53
105 105 53
117 117 56
108 107 58
109 110 60
123 121 61
128 126 59
117 117 59
123 121 60
121 119 60
131 128 61
132 130 61
122 122 59
137 134 64
133 130 65
133 131 69
137 134 66
135 133 64
142 140 69
140 138 67
140 136 63
150 146 69
151 147 72
132 130 60
148 143 74
146 142 70
149 145 69
151 146 69
157 151 70
152 146 70
146 142 72
150 146 71
154 149 71
158 152 80
157 152 75
155 149 70
165 158 80
153 148 65
167 159 82
155 150 71
157 152 73
162 156 74
162 156 75
164 158 81
160 154 74
161 154 75
164 158 78
164 157 75
160 154 71
163 157 79
161 154 80
164 157 83
160 155 71
160 155 73
161 155 70
162 155 65
161 155 73
158 151 78
164 158 72
162 156 75
160 154 75
159 153 74
159 153 74
157 152 71
159 153 69
160 153 71
158 152 67
152 147 63
160 154 69
164 158 76
153 148 69
160 154 69
151 146 61
159 152 71
153 148 66
152 146 61
156 150 65
153 148 66
146 141 63
155 148 69
152 146 62
153 145 72
148 142 68
156 150 69
146 141 59
153 148 62
153 147 66
143 137 56
146 141 60
147 141 60
149 143 65
146 141 62
147 141 60
137 131 56
136 131 51
142 136 56
132 127 49
131 125 51
141 135 54
135 129 49
138 133 56
131 126 45
129 124 47
124 118 51
163 181 11
170 191 0
170 191 0
169 190 0
168 188 0
168 190 0
167 189 0
166 184 0
171 192 0
169 190 0
169 190 0
171 192 0
170 191 0
168 189 0
172 195 0
170 194 0
171 194 0
169 192 0
170 193 0
168 192 0
173 195 0
174 197 0
170 193 0
173 197 0
171 195 0
172 195 0
170 194 0
167 191 0
169 194 0
171 194 0
171 194 0
170 194 0
172 195 0
171 194 0
174 197 0
173 196 0
171 195 0
170 193 0
170 194 0
171 196 0
171 194 0
171 194 0
171 194 0
173 197 0
173 195 0
172 194 0
169 193 0
170 193 0
172 195 0
173 197 0
169 192 0
169 192 0
171 194 0
169 193 0
170 193 0
168 191 0
173 196 0
171 194 0
172 196 0
167 190 0
166 188 0
169 192 0
167 190 0
170 194 0
171 193 0
171 195 0
167 190 0
171 194 0
169 193 0
169 193 0
171 194 0
167 191 0
169 192 0
172 195 0
169 192 0
167 191 0
167 189 0
170 194 0
172 195 0
171 194 0
167 190 0
170 193 0
170 193 0
165 188 0
167 191 0
173 195 0
166 190 0
169 193 0
168 191 0
168 191 0
167 189 0
167 190 0
165 188 0
167 191 0
167 190 0
167 191 0
166 189 0
169 193 0
168 191 0
146 170 82
62 98 154
61 97 153
61 97 159
60 96 154
60 97 160
61 97 152
61 97 159
62 98 161
62 98 165
62 98 160
62 98 164
61 97 158
61 98 162
62 98 165
62 98 170
62 98 161
62 99 165
62 99 166
62 98 169
62 98 165
62 98 161
61 98 167
61 98 169
62 98 166
60 97 158
62 98 165
62 98 165
62 99 170
62 99 173
61 97 163
61 97 162
62 98 163
63 99 174
63 99 171
63 99 178
62 98 165
62 98 170
62 98 168
62 98 166
61 98 175
62 98 169
62 98 167
63 99 173
62 99 171
62 98 170
62 99 167
62 99 176
61 98 169
62 99 173
62 98 169
62 99 178
63 100 176
62 99 176
62 98 173
62 99 172
62 99 174
62 99 173
62 99 174
62 98 167
62 99 174
62 99 174
62 99 173
62 99 175
62 99 174
63 100 175
62 99 175
62 98 170
62 99 176
61 98 172
62 99 175
62 99 176
61 98 171
61 98 172
62 99 171
62 99 172
62 99 173
62 99 171
62 99 171
62 99 173
61 99 177
62 98 172
62 98 171
62 99 173
61 98 172
62 99 176
62 98 170
63 99 178
63 100 176
62 99 174
62 99 174
62 99 166
62 99 167
62 99 178
62 99 175
62 99 175
62 99 170
62 99 174
62 99 174
62 98 169
62 98 171
62 99 172
62 99 173
62 99 171
63 99 170
61 98 166
62 99 169
62 99 172
63 99 174
63 100 176
62 98 171
62 99 170
62 99 171
63 100 172
61 98 166
62 99 169
62 98 170
62 99 169
63 99 173
61 98 166
61 98 166
62 98 168
62 98 165
63 99 173
63 99 167
62 99 169
62 98 167
63 99 171
61 98 167
62 98 165
62 98 167
63 99 176
62 98 169
62 98 162
62 98 167
62 99 169
62 99 170
61 98 163
62 98 167
62 98 167
63 99 171
62 99 168
63 99 173
63 99 169
62 98 166
62 98 164
62 98 168
62 98 168
62 98 160
61 97 162
62 98 168
61 97 157
61 97 162
62 99 168
62 98 166
62 98 166
61 96 158
63 99 170
61 97 163
62 98 161
62 98 163
61 97 155
62 97 157
62 99 167
61 97 156
61 97 156
62 98 163
60 96 157
61 97 155
61 97 151
60 95 153
61 96 157
60 95 152
60 95 153
60 93 144
61 94 147
60 94 147
60 91 139
62 65 23
58 63 22
60 63 21
59 62 30
63 68 33
69 73 38
69 73 33
82 85 34
70 73 36
77 81 24
92 92 41
86 87 39
90 92 44
99 101 55
93 95 44
93 94 42
96 97 51
104 104 52
104 103 48
115 115 60
106 107 56
102 103 53
111 111 49
116 115 57
120 118 57
127 126 66
115 113 57
116 116 55
125 123 59
130 128 66
130 128 64
126 125 64
133 131 64
129 127 57
132 130 63
129 126 61
133 131 55
137 134 63
132 129 68
142 139 69
137 134 69
143 139 65
140 137 65
155 149 74
146 143 70
141 137 63
145 140 71
148 144 66
144 140 63
157 152 78
156 151 72
151 146 74
148 143 67
156 151 72
159 153 75
160 154 76
156 151 76
155 151 65
163 157 76
161 155 76
160 154 77
163 158 76
164 158 72
160 154 76
151 145 66
161 154 75
155 148 68
160 153 79
162 156 75
164 157 76
160 154 75
157 151 74
163 157 69
160 155 70
160 153 73
160 154 69
162 155 71
163 157 69
160 153 70
160 153 70
164 158 71
162 155 73
165 158 75
159 153 69
157 150 69
165 158 77
160 153 67
149 144 58
167 160 80
153 147 69
160 154 75
160 153 74
151 146 59
155 149 65
149 143 64
152 147 61
154 148 62
154 148 63
139 134 52
150 144 68
157 149 74
146 140 57
149 143 66
151 145 63
137 132 52
153 148 59
144 138 57
149 144 60
152 146 62
143 138 56
140 134 57
130 125 48
141 136 56
143 137 58
145 138 58
125 120 42
137 131 54
131 126 48
129 124 37
137 132 47
126 120 44
134 129 44
137 143 30
164 183 0
167 188 0
169 190 0
170 190 0
167 185 0
169 187 0
169 190 0
167 188 0
169 190 0
171 192 0
170 192 0
170 191 0
169 191 0
169 190 0
171 195 0
173 196 0
173 196 0
174 197 0
170 193 0
170 193 0
171 195 0
170 194 0
171 195 0
171 193 0
171 194 0
170 193 0
168 191 0
172 195 0
169 193 0
174 196 0
171 195 0
173 196 0
171 194 0
169 194 0
169 193 0
171 195 0
171 194 0
171 194 0
172 195 0
174 197 0
170 193 0
171 196 0
171 195 0
173 197 0
171 194 0
171 195 0
171 194 0
172 195 0
170 194 0
171 194 0
170 194 0
170 194 0
168 192 0
171 194 0
171 194 0
168 190 0
168 192 0
168 192 0
170 194 0
171 194 0
171 195 0
169 193 0
167 191 0
168 191 0
170 193 0
170 193 0
169 192 0
171 194 0
171 194 0
168 191 0
172 195 0
167 190 0
171 194 0
170 193 0
166 188 0
167 190 0
169 192 0
164 187 0
171 194 0
167 190 0
167 191 0
171 195 0
166 188 0
170 194 0
166 189 0
168 190 0
166 188 0
168 191 0
169 193 0
170 192 0
164 188 0
167 191 0
166 190 0
167 191 0
167 190 0
166 190 0
168 191 0
167 190 0
165 189 0
128 152 111
60 95 151
63 99 159
61 97 155
61 97 158
61 98 166
62 98 160
62 98 163
62 98 162
61 97 160
61 98 161
62 98 161
62 98 165
62 97 156
62 98 160
62 98 167
62 98 168
61 97 161
61 97 160
61 97 161
61 98 164
62 98 168
62 98 170
62 98 165
62 98 172
62 98 168
61 97 169
62 98 170
61 97 162
61 97 163
62 99 174
62 99 173
62 99 178
62 99 171
61 97 164
62 99 173
62 98 168
62 99 172
62 98 170
61 98 171
62 99 170
62 99 174
62 99 174
62 98 172
63 100 179
62 99 175
62 99 174
62 99 174
61 98 168
62 99 171
63 99 174
62 99 168
62 99 170
61 98 170
62 98 172
62 99 174
62 98 173
62 99 174
62 99 174
61 98 170
62 99 175
62 99 168
62 99 175
62 99 173
62 99 170
62 99 175
63 99 175
62 99 169
63 99 173
61 98 169
63 99 171
62 99 175
62 98 171
61 98 175
62 99 176
62 99 174
62 99 166
63 100 178
62 98 172
62 99 173
62 98 166
62 99 173
62 99 171
62 99 170
63 100 176
62 99 174
62 99 172
62 99 172
62 98 171
61 98 167
62 98 173
62 98 169
62 99 172
63 99 172
62 99 172
62 99 172
62 99 173
63 99 172
63 99 172
63 99 171
62 99 172
61 98 167
61 98 168
61 98 172
62 98 170
62 98 173
62 99 171
62 98 168
63 99 173
62 99 168
62 98 168
62 99 169
63 99 167
62 99 169
62 98 169
63 99 171
62 99 168
62 98 165
63 100 175
61 98 160
61 98 166
62 99 167
63 99 172
63 99 172
62 99 166
62 98 171
63 99 168
62 99 171
62 98 165
62 98 166
62 98 163
63 99 167
62 99 173
62 98 165
61 97 166
62 99 171
62 98 166
62 98 165
62 98 168
63 99 170
62 98 160
63 99 170
61 98 165
63 99 172
62 98 165
62 98 164
62 98 165
61 97 162
61 97 164
62 98 160
63 99 165
62 98 162
62 99 166
62 98 166
61 97 162
62 97 157
61 97 158
62 98 162
61 96 152
62 98 166
62 97 158
63 99 164
62 98 162
60 96 155
61 96 158
61 97 158
60 95 147
61 96 159
60 96 157
60 95 151
61 95 152
61 95 153
61 96 158
61 95 148
59 92 147
59 93 145
59 93 150
58 91 140
54 60 32
57 61 26
59 62 25
63 68 25
78 81 31
62 65 26
68 71 38
80 81 42
80 82 33
93 93 40
69 73 33
78 81 41
86 89 42
90 91 42
99 100 49
99 101 48
102 102 45
92 94 39
97 99 50
99 101 45
112 111 55
109 109 53
108 109 61
114 114 56
117 115 54
118 117 63
127 126 59
117 116 57
123 122 58
117 117 61
124 123 60
125 123 60
122 120 62
136 134 56
133 130 70
132 129 55
125 124 53
137 133 69
139 136 66
146 141 64
135 133 64
139 136 61
147 143 72
145 141 65
145 141 73
145 141 61
151 146 68
154 149 71
154 149 78
151 145 73
154 149 69
143 139 69
151 147 68
152 146 71
154 149 65
161 156 79
155 149 71
152 148 64
162 155 78
165 158 78
155 149 72
165 158 77
161 155 76
154 149 71
161 155 73
153 148 69
160 155 69
155 149 67
159 153 70
164 158 74
153 148 63
160 154 69
159 153 71
161 155 74
162 156 73
163 157 71
158 150 69
162 155 79
163 156 75
158 151 70
163 156 75
158 151 65
159 152 75
161 154 71
158 151 64
154 149 60
153 146 64
157 150 67
154 148 63
153 148 64
146 141 61
161 154 71
157 151 65
144 138 64
154 148 69
158 152 61
155 147 70
153 146 67
144 138 58
148 143 65
139 133 57
153 147 69
156 150 61
150 143 61
144 139 53
147 141 63
148 143 56
150 144 56
144 137 57
136 130 58
135 130 52
140 135 45
137 132 54
134 129 44
135 130 52
143 137 54
138 134 52
136 131 48
121 115 37
137 131 48
131 128 41
116 110 45
155 173 0
166 186 0
167 188 0
169 189 0
172 191 0
172 194 0
169 192 0
167 188 0
172 193 0
171 193 0
171 192 0
168 188 0
171 191 0
170 191 0
171 193 0
170 193 0
172 196 0
171 194 0
171 195 0
171 195 0
170 194 0
171 195 0
172 195 0
172 195 0
170 194 0
172 195 0
171 194 0
169 192 0
171 195 0
171 195 0
166 189 0
171 194 0
171 195 0
170 194 0
172 195 0
172 195 0
168 193 0
170 194 0
171 194 0
171 196 0
171 195 0
166 190 0
167 190 0
172 196 0
171 195 0
173 196 0
169 192 0
169 192 0
170 193 0
169 192 0
165 189 0
172 196 0
171 194 0
168 192 0
172 195 0
171 194 0
168 191 0
170 194 0
173 196 0
168 191 0
174 197 0
169 193 0
171 195 0
173 197 0
168 192 0
169 192 0
167 191 0
170 193 0
168 191 0
172 195 0
169 193 0
172 195 0
172 194 0
169 192 0
168 191 0
170 193 0
170 194 0
169 193 0
169 193 0
170 193 0
169 192 0
168 191 0
170 194 0
166 190 0
166 189 0
170 193 0
171 195 0
167 190 0
168 192 0
163 185 0
163 185 0
172 196 0
168 191 0
170 193 0
168 192 0
167 191 0
173 196 0
169 192 0
168 191 0
170 193 0
105 131 122
61 97 156
62 97 155
62 98 155
62 97 153
62 98 159
62 98 155
60 96 153
62 98 168
60 96 154
62 99 165
60 96 154
62 98 160
62 98 163
62 98 166
61 98 166
62 99 169
62 99 169
62 99 170
62 98 170
62 98 169
62 98 165
62 99 168
62 99 172
62 98 165
62 98 170
62 99 170
61 98 162
61 98 167
62 98 172
62 99 170
62 99 171
62 98 171
63 99 174
61 98 170
62 98 168
62 98 169
63 100 177
62 98 171
62 98 170
61 98 170
62 98 169
62 98 171
61 98 171
62 99 172
61 98 168
61 98 165
61 98 169
63 100 174
63 99 172
62 99 172
62 98 171
62 99 174
63 99 175
62 98 169
63 99 172
63 100 174
62 98 171
63 99 177
63 99 177
62 99 172
62 98 167
63 99 173
62 98 170
62 98 165
62 99 173
63 99 174
62 98 171
62 99 171
62 99 172
62 98 170
62 98 168
61 98 170
63 99 178
62 98 171
62 98 170
62 99 171
62 99 172
62 99 174
62 99 173
62 99 173
61 98 166
62 99 174
62 99 172
62 99 172
62 98 171
62 99 173
61 98 174
62 99 171
62 98 166
62 98 167
62 99 173
62 98 164
61 98 164
62 99 173
63 99 173
62 99 172
62 98 167
62 99 173
62 98 168
63 99 170
62 99 174
62 99 172
62 99 174
63 99 171
62 98 165
62 99 171
62 98 165
62 98 165
62 99 172
62 98 163
62 99 172
62 98 164
62 99 170
62 99 171
62 99 169
62 98 170
62 99 173
62 99 171
62 98 170
62 98 170
63 99 170
62 99 174
62 99 170
63 99 169
61 98 164
62 99 170
62 98 169
62 99 169
61 97 163
62 98 164
63 99 177
62 99 170
61 98 163
62 98 168
61 98 162
62 99 167
62 99 166
62 99 165
61 98 167
62 99 168
62 98 169
61 97 161
62 98 164
61 97 160
60 96 161
62 98 165
62 98 165
62 98 170
63 99 163
62 98 164
62 98 158
62 98 166
62 98 161
62 97 156
62 97 160
62 98 165
61 97 161
63 99 166
61 96 150
61 97 156
62 98 168
62 98 163
61 97 159
61 97 156
61 95 152
61 97 158
62 98 164
61 97 158
61 96 156
61 96 156
60 95 154
61 95 151
60 95 154
59 93 150
59 93 140
59 93 154
57 88 140
54 64 63
59 62 24
56 58 25
66 69 25
66 69 23
75 77 26
66 69 27
80 82 37
85 86 38
73 75 32
88 90 37
77 80 35
85 85 38
98 98 49
82 85 38
92 94 38
106 106 56
85 87 40
94 96 42
119 117 52
116 114 51
107 107 50
112 112 49
99 100 45
118 117 57
118 117 47
126 123 62
123 120 60
125 122 60
126 125 63
129 127 66
125 123 57
127 124 56
133 131 65
132 128 60
137 133 63
130 129 56
130 127 64
141 137 62
139 135 62
138 134 67
146 142 66
142 138 64
149 144 71
137 133 56
146 142 62
145 141 66
151 146 66
150 145 68
151 146 69
149 145 70
145 141 65
152 147 67
148 143 68
159 153 76
156 150 65
150 145 67
160 154 66
155 150 69
151 146 64
160 155 71
156 151 68
154 148 69
157 151 68
163 156 78
160 154 65
157 152 67
152 147 70
156 150 64
159 153 67
160 154 69
160 154 72
160 154 72
161 154 78
159 153 67
161 155 74
152 147 66
157 151 60
157 152 70
156 150 68
155 150 64
159 153 60
156 150 71
161 154 75
162 156 69
156 149 67
156 148 73
155 149 64
152 146 64
156 150 66
151 145 66
148 142 61
145 140 58
156 148 67
153 147 65
145 140 60
154 147 65
156 150 68
151 145 69
145 139 58
146 139 59
153 146 70
151 144 63
149 142 63
151 145 60
151 145 61
146 140 65
147 142 58
146 139 62
140 135 58
144 139 57
141 135 54
145 139 62
129 123 52
134 129 49
127 122 48
126 121 48
125 120 45
134 129 45
138 132 51
121 116 44
145 153 32
168 187 0
167 187 0
170 192 0
169 189 0
166 187 0
172 193 0
169 189 0
167 188 0
171 192 0
168 188 0
172 193 0
174 194 0
168 188 0
170 192 0
169 189 0
171 195 0
169 192 0
170 193 0
172 196 0
171 194 0
174 197 0
171 193 0
171 195 0
172 195 0
170 193 0
171 195 0
169 193 0
170 193 0
173 196 0
172 195 0
169 193 0
172 196 0
172 195 0
171 195 0
167 191 0
165 189 0
172 196 0
171 195 0
172 195 0
171 194 0
171 195 0
169 192 0
170 194 0
171 195 0
166 190 0
171 195 0
172 195 0
171 195 0
170 194 0
169 192 0
169 192 0
167 190 0
173 196 0
169 192 0
171 194 0
168 191 0
170 194 0
167 189 0
167 190 0
172 197 0
172 195 0
169 193 0
169 192 0
166 189 0
170 194 0
172 194 0
168 193 0
170 193 0
172 195 0
169 192 0
167 189 0
170 194 0
170 194 0
170 192 0
173 197 0
168 191 0
169 193 0
170 193 0
168 192 0
165 189 0
167 190 0
168 192 0
171 194 0
168 190 0
165 188 0
168 191 0
168 190 0
167 190 0
166 189 0
171 195 0
168 191 0
168 191 0
170 193 0
167 190 0
164 188 0
163 186 0
165 189 0
167 190 0
160 183 0
169 192 0
87 117 137
61 97 150
61 97 157
61 97 152
61 97 153
62 98 160
60 96 151
60 97 157
61 98 163
62 98 162
62 98 165
61 97 161
61 97 163
62 98 167
62 98 164
62 99 166
62 98 163
62 98 165
62 98 162
62 99 171
62 98 169
62 99 170
62 98 168
61 98 161
60 97 166
61 98 166
61 97 160
62 99 171
62 99 170
62 99 170
62 98 171
63 99 170
61 98 171
62 99 173
62 99 172
61 98 167
62 99 168
63 99 172
62 99 170
61 98 170
62 99 175
61 98 164
61 98 171
63 100 178
62 99 175
63 99 169
61 98 168
61 97 167
62 98 167
62 99 173
62 99 169
62 99 175
63 99 176
61 98 170
62 98 170
62 98 170
61 97 164
62 99 175
61 98 168
62 99 171
62 98 174
62 99 174
62 98 171
62 98 170
61 98 165
62 99 174
62 99 170
62 99 172
62 99 173
63 99 174
62 99 170
63 99 175
62 99 174
63 99 173
62 98 170
63 99 175
62 99 172
61 98 168
63 99 173
62 98 167
61 98 164
62 99 171
62 99 171
62 99 171
62 98 167
62 99 170
62 99 174
62 99 173
62 99 176
62 98 170
62 98 167
62 99 167
62 99 171
62 98 165
61 98 168
62 99 167
62 98 168
63 99 172
62 98 168
62 98 165
62 99 172
62 99 169
61 98 171
62 99 174
61 98 169
62 99 167
62 99 172
62 98 167
63 99 173
63 99 172
62 99 169
62 99 174
62 98 166
62 99 170
62 98 168
62 98 168
62 98 167
63 99 169
63 99 172
63 99 171
62 98 167
62 98 164
62 99 172
62 98 165
61 98 167
62 99 175
63 99 170
62 98 171
63 100 173
62 99 173
62 99 168
63 99 169
62 98 166
61 98 164
62 98 167
62 98 164
62 99 171
62 99 169
62 98 164
61 98 161
62 99 166
62 99 168
62 99 173
63 99 167
62 98 165
62 98 161
62 98 161
62 98 160
62 99 172
62 98 166
61 97 160
62 98 163
62 98 162
61 98 165
62 98 168
61 98 164
61 97 158
62 97 159
61 96 156
62 98 167
62 97 162
62 97 158
61 97 153
61 97 156
62 98 158
62 97 162
61 97 158
60 96 157
62 97 158
60 95 154
60 94 145
61 96 154
59 93 146
61 95 154
60 94 151
61 95 154
59 93 145
59 93 141
60 79 107
60 64 30
63 67 28
63 64 26
66 70 29
82 84 27
70 73 31
73 73 26
73 74 32
87 88 37
82 84 39
69 72 34
86 88 41
99 99 49
93 93 46
91 90 40
92 95 42
94 95 36
100 102 41
98 97 45
112 112 48
109 108 45
97 99 48
117 115 50
121 118 58
117 116 50
115 115 49
126 123 59
129 127 65
123 122 48
125 124 49
118 117 52
117 117 55
130 127 60
134 131 59
135 133 53
145 141 67
133 131 63
145 140 69
135 132 62
142 139 62
143 139 65
140 136 71
142 139 62
153 148 70
151 146 67
150 145 70
151 146 72
150 145 73
147 143 64
144 140 63
152 147 71
153 147 63
152 147 70
152 147 62
152 147 63
154 147 69
147 144 66
155 149 65
157 151 72
155 150 72
156 150 63
153 150 60
155 149 67
154 148 65
158 151 75
159 153 68
167 159 75
163 156 74
160 153 71
158 153 67
157 152 64
159 153 70
154 149 67
162 156 73
161 155 68
149 144 65
161 155 69
160 154 70
157 151 64
162 155 68
157 151 64
159 152 68
155 149 67
147 143 52
162 155 71
155 149 62
155 148 70
152 146 66
137 132 51
154 147 65
147 142 60
150 145 63
154 149 64
145 140 59
151 145 65
154 149 60
149 143 69
151 146 65
146 140 57
152 147 58
139 135 51
149 143 57
145 139 60
146 139 61
145 139 57
158 151 64
135 130 54
141 135 45
137 131 57
142 136 53
147 142 54
144 138 52
133 128 45
138 133 54
128 124 45
130 124 39
122 118 42
126 121 42
119 114 42
119 115 34
165 180 25
171 191 0
169 189 0
170 190 0
168 188 0
166 186 0
169 190 0
166 185 0
170 190 0
169 189 0
168 189 0
168 189 0
170 190 0
166 186 0
171 191 0
170 190 0
173 196 0
170 192 0
171 194 0
171 195 0
170 193 0
171 194 0
172 196 0
169 192 0
168 192 0
172 196 0
168 192 0
170 193 0
173 197 0
172 194 0
171 194 0
170 194 0
169 193 0
169 193 0
169 193 0
170 193 0
172 195 0
173 197 0
173 197 0
173 195 0
174 198 0
172 195 0
170 194 0
168 192 0
170 192 0
170 193 0
171 194 0
173 197 0
167 190 0
170 194 0
173 195 0
165 188 0
172 194 0
171 194 0
168 192 0
172 195 0
169 192 0
169 193 0
169 192 0
170 194 0
168 191 0
169 192 0
169 191 0
170 193 0
172 195 0
171 194 0
168 192 0
168 193 0
172 195 0
168 192 0
168 191 0
168 191 0
172 196 0
164 187 0
170 194 0
170 193 0
174 196 0
169 192 0
169 193 0
170 193 0
167 191 0
167 191 0
165 188 0
167 190 0
166 190 0
166 189 0
167 190 0
173 195 0
166 189 0
168 191 0
168 192 0
168 191 0
174 196 0
170 193 0
167 190 0
170 192 0
166 189 0
168 190 0
167 189 0
166 189 0
170 194 0
70 104 144
61 97 154
63 99 164
62 98 160
62 98 165
61 97 160
61 98 162
62 98 159
62 98 161
61 97 163
62 98 162
62 98 166
62 98 166
62 98 165
61 98 164
62 98 169
62 98 162
62 98 163
62 98 170
61 98 169
63 99 169
62 99 172
62 98 169
63 99 167
62 99 167
62 99 168
62 99 167
62 99 167
62 99 175
62 98 168
61 97 168
62 98 165
61 98 171
62 99 170
61 98 166
62 98 171
62 99 172
62 98 171
61 98 170
62 98 166
62 99 170
62 99 173
61 98 168
61 98 169
63 99 173
62 99 173
62 99 171
62 99 170
62 99 172
62 99 170
62 99 176
62 98 173
62 99 171
62 99 174
62 99 174
62 98 165
62 99 177
62 99 172
62 99 172
62 99 168
62 98 171
63 99 175
62 99 170
63 100 174
62 99 172
62 99 172
61 98 165
62 99 172
63 99 174
62 98 166
62 98 169
62 99 174
62 99 179
62 99 170
62 99 170
63 99 175
62 99 170
63 99 171
63 99 172
62 99 176
62 98 170
62 99 169
61 98 170
62 98 170
62 99 171
62 98 172
62 98 168
62 98 170
62 99 170
62 99 174
62 98 167
62 99 175
62 98 172
62 98 168
62 99 171
63 99 175
62 99 172
63 99 174
62 98 171
62 99 173
62 99 169
62 99 168
62 98 166
63 99 172
62 98 171
62 98 171
62 99 174
62 98 168
63 99 173
62 99 172
61 98 172
61 98 163
62 99 172
62 99 172
62 98 169
62 99 170
62 99 171
62 98 164
62 98 166
62 98 167
63 99 168
62 99 175
62 99 173
63 99 166
62 99 170
61 97 167
62 98 168
62 98 162
62 99 172
62 98 166
63 99 172
62 98 167
63 99 173
62 98 164
63 99 169
62 98 167
63 99 171
62 98 165
62 98 166
62 98 163
62 98 161
61 98 165
63 99 168
62 99 167
62 98 167
62 97 160
62 99 170
62 98 161
62 98 165
63 99 167
62 98 162
63 99 164
62 98 167
62 98 161
61 97 153
62 98 160
61 98 166
61 97 164
62 97 163
62 98 160
61 96 157
63 98 165
61 97 161
63 98 164
61 96 155
61 96 152
61 96 157
61 97 155
61 96 155
60 96 148
62 97 162
60 94 146
62 96 155
60 94 152
60 93 148
60 94 150
59 93 143
60 95 146
59 80 105
74 74 23
71 72 23
56 59 18
78 80 35
69 71 25
69 71 31
68 70 24
82 82 30
72 76 24
79 82 28
79 82 37
99 100 38
82 83 38
88 89 38
101 101 41
94 96 38
95 97 47
106 106 48
102 101 50
115 115 47
108 108 50
109 109 47
111 110 53
120 118 58
108 109 51
122 121 55
116 115 49
119 118 54
129 127 56
122 120 59
124 122 60
122 121 57
134 132 53
129 126 55
143 139 66
126 123 52
131 128 56
139 135 63
139 135 60
143 138 65
140 136 65
148 143 69
150 146 57
152 147 64
147 142 66
138 134 57
152 147 66
153 147 68
156 150 75
150 146 70
152 146 66
155 148 69
144 140 62
149 144 61
154 148 63
152 147 71
157 151 69
154 149 60
160 155 69
152 147 60
155 149 65
155 149 69
160 154 72
163 157 67
163 157 72
159 153 68
159 153 71
156 151 66
156 151 61
155 149 62
153 148 64
151 146 63
155 149 61
159 151 71
154 148 66
162 156 69
164 157 76
153 148 54
155 149 70
159 151 70
155 149 63
153 147 63
159 152 70
154 147 63
160 154 69
155 148 64
149 143 63
153 147 64
149 142 59
153 148 58
160 153 69
156 150 60
155 148 63
162 155 72
159 152 63
148 143 53
160 154 66
156 149 61
146 140 57
150 144 60
147 141 48
146 141 59
141 136 56
148 143 53
147 141 54
137 132 51
147 141 58
151 144 60
138 134 52
141 135 51
137 131 47
138 133 52
132 127 52
129 123 47
124 119 37
138 131 57
123 117 42
127 122 42
122 117 37
145 153 34
170 191 0
165 183 0
169 188 0
170 189 0
171 190 0
169 189 0
165 186 0
168 187 0
168 189 0
164 185 0
171 191 0
172 193 0
169 190 0
167 187 0
167 188 0
169 190 0
169 192 0
168 192 0
168 191 0
172 195 0
171 194 0
171 195 0
175 198 0
171 194 0
173 196 0
170 193 0
170 194 0
173 196 0
171 195 0
172 195 0
171 194 0
174 198 0
171 195 0
172 195 0
169 192 0
171 195 0
169 192 0
173 196 0
171 195 0
169 193 0
168 192 0
168 191 0
167 191 0
173 197 0
172 196 0
172 196 0
170 194 0
172 196 0
173 196 0
170 194 0
172 195 0
168 191 0
167 189 0
171 195 0
168 192 0
166 189 0
171 193 0
170 193 0
171 195 0
170 193 0
170 194 0
170 194 0
173 196 0
169 192 0
169 193 0
171 194 0
170 195 0
168 190 0
168 191 0
169 192 0
169 192 0
171 195 0
172 196 0
168 191 0
168 191 0
172 196 0
169 192 0
169 193 0
172 195 0
169 193 0
170 193 0
168 191 0
167 190 0
169 192 0
171 194 0
170 193 0
168 192 0
166 189 0
169 192 0
171 194 0
169 191 0
164 188 0
170 193 0
167 190 0
168 191 0
166 190 0
165 189 0
166 189 0
165 188 0
168 191 0
164 186 36
62 98 157
62 98 154
62 98 157
61 97 154
61 97 156
62 98 166
62 97 158
61 97 160
62 98 159
62 98 164
62 98 165
60 96 158
62 98 164
62 98 163
62 99 164
62 98 164
61 98 168
62 98 162
61 98 166
61 97 163
61 97 163
62 99 172
62 98 170
62 98 170
62 99 169
62 98 165
62 98 169
62 99 168
62 98 166
61 97 164
62 98 168
60 96 162
61 97 160
62 98 169
62 99 166
61 98 169
62 98 173
62 99 167
62 98 169
61 98 166
62 98 168
62 99 175
62 99 173
63 99 169
62 98 169
62 99 170
62 98 171
62 98 171
62 98 166
61 98 166
62 99 172
61 97 166
62 98 168
61 98 170
61 98 165
61 97 166
62 99 172
62 99 172
63 99 172
62 98 172
62 99 172
62 99 178
62 99 175
61 98 173
62 98 168
63 100 176
62 99 167
61 98 165
62 98 171
62 98 170
62 98 167
62 99 171
62 99 170
62 98 167
62 99 170
62 99 172
62 98 165
62 99 168
62 98 171
62 98 169
62 98 165
62 98 167
61 98 164
62 98 167
62 99 169
62 98 170
63 99 168
63 99 169
62 99 173
62 99 172
62 99 171
62 98 168
63 99 171
62 98 165
62 99 170
62 98 166
62 98 166
62 98 171
62 99 176
62 98 169
61 97 162
62 98 168
61 98 166
62 99 168
63 99 167
62 99 172
61 98 164
62 99 171
62 99 170
63 99 174
62 99 169
62 98 165
63 99 172
63 99 165
62 98 165
62 98 167
62 98 167
62 98 165
63 99 170
62 99 169
62 98 164
62 99 172
62 99 167
62 98 164
62 99 169
62 98 165
62 98 165
61 97 160
62 99 171
62 98 167
62 99 171
62 98 165
61 98 166
62 98 159
61 98 163
62 98 162
63 99 169
62 98 166
62 98 165
64 100 171
62 98 164
62 98 162
62 98 162
61 97 161
62 98 161
62 99 169
62 98 159
62 98 167
62 98 166
62 98 162
62 98 164
62 98 165
62 98 167
62 98 164
62 97 154
62 98 161
61 97 161
62 98 164
61 97 158
62 98 162
62 98 163
61 97 163
63 98 161
61 97 158
62 98 162
63 99 167
61 96 155
61 96 158
61 96 154
60 95 152
60 95 148
59 93 151
61 95 155
60 95 150
59 92 141
60 95 153
59 92 147
58 91 143
56 79 113
66 66 22
78 79 20
79 81 28
75 77 15
64 67 21
70 71 25
83 86 33
75 78 34
90 90 38
85 87 34
79 81 33
86 88 36
92 93 40
96 97 33
87 87 37
112 111 45
89 91 38
91 92 37
106 106 50
99 100 45
104 104 47
111 112 51
109 109 42
114 113 42
109 109 48
114 114 51
110 111 46
126 123 54
122 121 44
120 117 50
123 121 63
129 127 59
129 126 57
131 129 66
133 131 55
139 135 63
132 130 57
134 130 65
143 139 62
143 138 61
139 135 68
142 138 61
135 131 58
137 134 59
140 137 62
152 148 70
149 144 62
145 142 66
147 142 66
147 143 63
154 148 71
151 147 64
146 141 62
149 144 66
154 149 67
156 151 60
155 149 69
148 143 63
155 149 69
152 147 64
153 148 63
157 151 70
153 147 66
151 147 67
157 151 68
158 152 68
160 155 67
155 149 62
152 146 61
158 152 72
160 153 68
156 151 61
157 151 66
152 146 61
155 149 71
157 150 67
150 144 56
154 147 67
155 151 65
154 147 65
149 144 65
162 155 73
150 145 64
152 147 64
148 142 58
154 147 61
153 148 58
144 139 51
153 146 61
152 145 60
151 144 63
151 145 62
152 146 66
152 147 58
149 143 63
153 148 59
149 143 61
160 154 67
157 151 63
143 137 52
139 134 60
146 141 49
147 140 59
136 131 52
140 135 47
139 134 54
142 136 59
142 137 49
143 137 51
137 132 49
137 132 48
131 127 44
136 131 51
130 125 42
121 116 42
119 115 39
119 114 44
119 113 42
127 128 37
162 181 11
169 188 0
170 189 0
166 184 0
170 189 0
167 187 0
167 185 0
168 187 0
168 187 0
169 190 0
168 189 0
170 189 0
167 187 0
171 192 0
165 186 0
169 189 0
165 185 0
170 193 0
171 195 0
172 195 0
171 193 0
171 195 0
170 194 0
171 195 0
172 195 0
169 193 0
171 194 0
170 194 0
174 197 0
167 191 0
174 197 0
171 195 0
171 195 0
171 195 0
169 192 0
170 193 0
170 193 0
172 195 0
170 194 0
167 191 0
171 194 0
169 192 0
169 192 0
173 197 0
172 195 0
171 194 0
171 194 0
173 195 0
169 192 0
170 193 0
169 193 0
172 195 0
172 195 0
167 190 0
170 193 0
169 192 0
171 195 0
170 195 0
171 195 0
169 192 0
169 192 0
167 191 0
170 193 0
169 192 0
171 194 0
170 193 0
166 189 0
167 192 0
169 193 0
172 194 0
170 193 0
169 193 0
170 194 0
165 189 0
165 188 0
168 191 0
169 192 0
170 193 0
170 193 0
169 193 0
166 190 0
167 191 0
166 190 0
170 194 0
167 190 0
169 192 0
168 191 0
171 194 0
171 194 0
170 193 0
166 189 0
166 188 0
167 190 0
171 195 0
169 192 0
171 194 0
167 190 0
161 184 0
170 193 0
170 193 0
167 191 0
151 175 67
62 98 157
61 97 157
61 97 153
61 97 157
61 97 159
62 98 162
63 98 164
61 97 162
61 97 155
62 98 166
62 98 162
61 98 164
61 98 165
62 98 164
62 98 164
62 98 164
61 97 163
61 98 168
61 97 164
62 99 169
61 97 164
61 97 161
62 98 166
61 97 165
61 97 165
62 98 166
62 98 166
62 98 172
62 98 164
62 99 172
62 99 173
62 99 169
61 98 166
62 99 163
62 98 169
61 97 162
61 98 167
61 97 167
62 98 167
61 98 170
62 98 166
62 98 166
62 99 172
62 98 168
64 100 178
62 99 172
62 99 172
62 98 171
62 99 174
62 98 170
62 99 171
60 97 167
62 98 171
62 98 165
61 98 170
63 99 175
62 98 170
61 98 168
61 98 172
62 98 170
62 99 170
62 98 173
62 98 171
62 98 172
62 99 171
62 99 173
62 98 167
63 99 175
62 99 176
61 98 164
62 98 168
61 97 169
63 100 178
61 98 173
62 99 171
62 98 170
62 99 166
62 98 170
62 99 170
62 98 168
62 98 167
62 98 168
61 97 165
61 97 160
62 98 168
62 98 167
63 99 171
62 99 173
62 99 175
63 99 171
62 99 171
62 98 168
61 98 167
62 99 172
62 98 167
62 98 171
62 98 172
63 99 170
63 99 172
61 98 164
62 99 171
62 99 169
62 99 176
63 100 174
62 98 166
62 98 163
62 98 169
62 98 169
61 98 170
62 98 166
62 99 170
61 97 163
62 99 172
62 99 170
63 100 174
62 99 171
62 99 172
62 98 164
63 99 167
62 98 164
63 99 170
62 99 172
62 99 170
62 98 165
62 98 165
62 99 171
61 98 169
62 98 166
62 98 166
61 98 166
62 98 161
62 98 168
62 98 167
62 98 168
61 98 167
62 98 161
63 99 171
62 98 167
61 97 159
62 99 169
61 97 164
61 97 162
62 98 163
61 97 158
61 97 161
61 97 161
62 98 162
62 97 158
62 98 161
62 99 169
63 99 171
63 98 165
62 98 162
61 97 159
62 98 166
62 97 160
62 98 160
62 99 170
60 96 161
61 97 161
61 97 158
62 98 163
62 98 158
61 96 156
61 97 159
62 98 161
61 97 158
61 95 154
60 95 147
62 97 159
62 97 154
59 93 136
61 95 152
61 96 160
59 94 147
60 94 149
60 94 151
57 89 139
53 82 124
68 70 17
62 65 19
56 60 19
65 69 28
68 70 23
75 78 21
83 83 32
75 77 29
88 89 36
92 92 39
92 93 39
82 84 33
96 97 43
91 92 38
93 93 43
89 92 42
97 98 42
109 107 49
107 107 49
109 109 45
103 103 40
104 104 41
113 111 55
120 117 54
103 103 43
123 120 57
117 116 52
120 118 49
125 123 62
115 114 54
127 125 56
131 129 55
125 123 56
113 111 47
137 134 61
137 135 61
134 132 54
131 128 59
137 134 60
138 135 55
139 134 60
133 131 57
150 144 65
140 135 55
150 145 68
143 139 62
150 144 71
144 140 59
137 133 49
144 140 55
154 149 62
153 147 62
148 144 60
153 147 62
154 148 71
158 152 72
151 147 64
158 151 78
152 147 68
149 143 63
154 149 61
157 150 70
154 148 62
164 157 66
151 146 65
153 147 62
153 147 66
153 147 61
157 151 65
153 148 61
152 146 63
153 147 65
155 149 66
158 152 72
147 142 64
151 146 66
155 149 58
155 148 65
156 150 68
155 149 62
154 148 61
158 151 67
162 155 66
157 151 63
148 142 58
150 145 57
147 142 57
148 143 52
154 149 61
151 145 65
147 142 60
153 146 63
151 145 59
148 142 56
150 144 60
146 141 59
145 139 54
151 145 62
154 148 64
150 144 64
146 140 57
150 142 64
133 129 48
149 143 47
136 131 44
143 138 54
142 137 54
132 125 52
143 137 56
135 130 51
141 134 52
135 129 51
129 123 52
131 126 41
123 117 42
114 111 32
122 116 45
126 120 54
156 168 25
167 188 0
166 185 0
165 182 0
168 187 0
170 189 0
165 185 0
166 185 0
170 189 0
167 187 0
170 188 0
170 189 0
169 189 0
165 184 0
168 189 0
169 188 0
171 194 0
170 191 0
172 195 0
170 194 0
169 191 0
172 196 0
173 196 0
171 194 0
170 193 0
171 194 0
170 193 0
173 197 0
172 195 0
171 194 0
173 196 0
174 197 0
168 191 0
173 196 0
168 193 0
173 196 0
172 195 0
171 195 0
170 194 0
170 193 0
172 195 0
172 196 0
171 194 0
171 195 0
169 193 0
170 193 0
170 194 0
170 193 0
174 196 0
170 193 0
173 196 0
171 193 0
170 193 0
172 194 0
169 192 0
170 194 0
168 192 0
167 191 0
167 191 0
170 193 0
169 192 0
166 190 0
172 195 0
169 193 0
167 191 0
169 192 0
172 195 0
171 194 0
173 196 0
167 191 0
171 195 0
172 196 0
168 191 0
170 193 0
170 194 0
170 194 0
165 189 0
167 189 0
164 187 0
166 188 0
166 189 0
168 192 0
172 194 0
168 192 0
165 189 0
166 190 0
168 192 0
167 190 0
167 191 0
165 188 0
168 191 0
170 193 0
168 191 0
169 192 0
169 193 0
171 194 0
169 192 0
168 191 0
166 189 0
167 190 0
167 190 0
172 196 0
146 170 72
61 97 148
61 97 150
61 97 153
62 97 151
60 96 152
62 98 161
61 97 151
62 98 157
62 98 163
62 98 159
62 99 167
61 96 151
62 98 167
62 98 165
62 98 158
62 98 170
62 98 164
61 97 164
62 98 161
61 98 163
61 97 165
62 98 168
62 98 166
62 98 162
60 96 159
61 98 164
61 97 161
62 98 164
62 98 167
61 97 165
62 98 169
61 98 167
62 99 174
62 98 165
61 98 164
62 99 172
61 98 167
60 96 163
63 100 172
62 98 164
61 98 169
62 98 168
62 98 167
62 98 170
62 98 169
63 99 174
62 98 170
63 99 172
62 99 170
62 99 171
62 98 175
62 98 168
62 99 170
62 99 173
62 98 168
62 98 168
62 98 174
62 99 176
62 98 170
62 99 172
62 98 169
62 99 169
62 98 167
61 98 169
62 98 169
61 98 168
63 99 171
62 98 170
62 99 170
62 98 166
62 98 172
63 99 167
63 100 175
61 97 167
62 99 166
62 99 169
62 99 172
62 99 170
62 99 172
63 99 174
61 98 169
63 99 173
62 98 165
62 99 170
62 98 165
62 99 174
62 99 175
63 99 170
62 98 166
62 99 165
62 99 173
62 98 172
63 100 175
63 99 172
61 97 165
62 98 167
62 98 171
62 98 164
61 98 162
62 98 172
61 98 164
63 99 168
62 99 174
61 98 170
62 99 172
62 99 172
62 99 169
62 99 169
62 98 168
61 97 158
61 98 165
63 99 169
63 99 168
62 99 169
62 99 172
62 99 170
62 99 170
62 98 168
62 99 169
63 99 170
62 99 167
63 99 170
62 99 170
63 99 168
62 99 166
62 98 164
62 98 165
62 98 166
62 99 167
62 98 169
63 99 166
61 98 164
62 98 165
62 98 167
62 99 169
62 98 161
62 98 164
62 99 167
62 98 160
62 99 169
62 99 167
62 99 165
61 97 157
62 98 161
61 97 161
61 97 159
62 98 160
62 99 166
63 99 170
62 98 158
61 97 152
62 99 164
62 98 162
62 99 171
62 99 168
62 98 162
62 98 168
61 97 160
62 98 164
62 98 159
62 98 161
62 98 164
61 97 159
61 97 153
62 98 161
61 97 150
62 98 161
62 98 164
62 98 159
60 95 154
60 94 150
60 95 155
60 94 147
59 93 142
61 95 149
59 93 152
59 93 143
59 92 141
57 87 123
71 72 21
73 74 22
73 74 19
59 64 24
84 85 21
81 82 26
76 76 31
71 72 29
80 81 26
91 91 35
68 72 33
97 96 34
80 82 28
90 90 25
101 102 41
91 92 37
93 93 34
101 102 41
111 110 49
97 100 40
103 104 45
113 112 55
113 112 44
106 106 44
123 120 58
112 111 45
112 112 54
122 120 53
117 116 50
120 118 52
126 123 53
133 130 57
124 122 53
126 123 52
135 132 55
131 128 58
130 128 58
134 132 55
129 126 59
127 125 59
137 133 52
145 142 66
131 129 57
140 136 64
142 137 63
150 145 65
142 138 58
144 140 65
136 132 52
150 146 61
147 141 58
144 139 59
145 140 62
154 148 64
149 145 61
155 149 66
153 148 60
146 142 57
157 151 71
148 144 58
154 148 63
155 149 70
150 144 66
156 151 66
148 143 57
158 151 74
157 151 66
153 147 61
155 150 65
153 148 60
155 149 60
156 150 66
151 146 61
154 149 65
147 141 52
157 151 68
157 151 67
154 149 64
154 148 64
155 147 70
158 150 72
148 144 57
145 140 59
152 146 61
153 147 62
152 146 60
150 144 52
152 146 65
152 146 56
153 146 64
150 144 53
150 144 58
145 140 60
144 138 62
156 149 56
153 147 66
142 136 53
140 136 48
141 136 51
146 139 57
147 140 52
147 141 52
138 133 41
136 130 52
148 143 54
141 134 51
140 135 51
140 135 54
142 135 51
133 126 45
145 139 56
133 127 51
143 137 51
127 122 39
131 125 45
119 114 42
127 121 37
131 136 25
167 185 0
169 188 0
169 188 0
167 186 0
167 187 0
166 185 0
167 184 0
166 186 0
165 185 0
167 185 0
171 192 0
167 187 0
165 184 0
169 190 0
166 186 0
163 183 0
170 190 0
171 192 0
171 195 0
170 194 0
172 196 0
172 195 0
174 197 0
170 194 0
171 194 0
169 193 0
172 195 0
173 196 0
173 197 0
170 194 0
171 195 0
175 198 0
175 198 0
172 195 0
170 194 0
173 196 0
172 195 0
172 196 0
170 193 0
169 194 0
169 192 0
172 196 0
168 191 0
171 194 0
171 194 0
169 193 0
169 192 0
171 194 0
168 192 0
171 195 0
169 192 0
171 193 0
172 195 0
173 196 0
166 190 0
169 193 0
167 190 0
171 195 0
171 194 0
171 195 0
168 192 0
172 196 0
167 190 0
165 189 0
169 192 0
172 195 0
171 194 0
167 190 0
172 195 0
167 190 0
166 189 0
171 194 0
168 192 0
172 195 0
170 193 0
169 192 0
171 195 0
169 192 0
167 190 0
168 191 0
171 194 0
169 192 0
165 188 0
170 194 0
170 194 0
167 191 0
169 192 0
169 192 0
166 189 0
168 191 0
166 190 0
162 185 0
169 192 0
166 190 0
166 189 0
166 189 0
168 190 0
171 194 0
166 190 0
168 191 0
167 190 0
169 192 0
124 148 103
62 98 157
62 98 156
61 96 149
61 97 158
61 97 151
61 96 149
60 96 157
60 96 157
61 97 154
61 98 158
62 98 163
61 97 161
62 98 159
63 99 169
60 97 160
62 98 160
62 98 161
61 97 162
62 98 168
62 98 166
62 98 168
62 98 165
62 98 168
62 98 170
62 97 158
62 99 168
62 98 163
62 98 170
62 98 164
62 98 167
62 98 168
61 98 167
62 98 164
62 98 169
62 99 172
62 98 166
63 99 170
62 99 169
62 99 168
62 99 171
62 98 168
62 99 170
62 98 168
62 98 170
62 99 170
63 99 171
62 99 173
62 98 169
62 98 163
62 99 169
61 97 165
62 99 168
61 98 168
61 98 171
62 99 169
63 99 172
63 99 169
62 98 168
62 98 170
61 98 167
62 99 173
61 98 170
62 99 167
62 98 171
62 99 169
62 99 171
62 98 166
61 98 168
62 99 172
62 99 171
62 99 173
62 99 171
62 98 169
61 98 170
62 99 169
62 99 175
62 98 166
62 99 171
61 98 168
62 98 170
62 99 169
62 98 166
62 99 167
62 98 169
63 100 174
62 98 164
61 98 169
62 99 169
62 99 172
62 98 167
62 99 170
63 99 171
62 98 167
62 98 171
61 98 166
62 98 170
62 98 161
62 98 171
63 99 172
63 100 174
62 99 174
63 99 169
62 98 166
62 99 173
62 98 168
61 97 165
62 98 164
62 98 169
63 99 167
62 98 165
61 98 165
61 98 163
62 98 163
62 98 169
62 98 167
62 98 167
61 98 164
62 98 162
62 99 172
61 98 165
62 98 167
62 99 176
62 98 169
62 99 164
62 99 167
62 98 168
62 98 168
62 98 167
62 98 162
63 99 164
61 97 160
62 99 167
62 99 164
62 99 164
61 98 165
63 99 168
62 99 166
62 98 159
62 99 169
61 97 157
63 99 168
62 98 158
61 97 162
62 99 170
62 98 164
62 98 166
62 99 168
62 98 162
62 99 172
62 98 164
63 99 164
62 98 162
61 96 159
62 98 165
62 98 162
62 98 162
61 97 160
62 98 158
62 97 159
62 97 154
60 96 152
59 95 141
61 97 156
62 97 156
61 96 154
61 96 153
61 97 157
62 98 155
61 96 147
60 95 154
61 97 159
60 95 154
60 96 143
60 95 148
60 95 147
60 93 146
61 96 160
57 89 131
57 89 139
68 70 22
69 71 23
71 73 20
72 75 28
66 69 27
79 82 26
74 75 28
83 84 32
89 88 19
81 82 27
77 81 34
88 89 26
90 91 28
97 98 47
91 91 30
83 85 33
95 96 40
99 101 42
100 99 43
107 106 40
102 102 41
103 102 40
108 109 50
106 104 48
115 114 47
120 117 49
115 113 44
128 125 60
118 116 51
122 120 55
130 126 53
116 115 47
128 126 48
129 126 55
126 123 53
133 129 54
137 132 61
138 134 60
140 135 58
138 135 55
135 132 58
134 131 48
141 136 56
139 136 65
149 145 61
150 146 60
152 147 63
146 141 58
141 137 53
144 139 61
141 137 50
147 142 62
144 139 61
155 149 71
148 143 54
148 142 61
149 144 54
151 146 58
157 151 68
156 150 69
150 144 62
153 148 61
154 148 59
148 142 64
150 144 66
157 151 67
153 147 60
149 143 61
157 151 67
152 147 61
148 142 62
155 150 60
153 148 63
154 148 64
158 152 69
150 144 54
155 149 56
154 147 56
151 145 54
144 140 58
152 147 49
149 144 53
145 140 54
150 145 58
149 143 62
154 148 57
141 136 59
150 146 58
157 150 66
149 144 60
151 145 54
148 143 56
146 141 57
153 147 57
149 143 56
157 150 69
154 148 58
144 140 53
150 143 59
144 139 45
145 140 51
141 134 54
147 140 54
147 139 69
135 130 39
138 133 49
139 133 48
143 138 47
126 121 41
140 133 53
133 127 53
128 123 45
130 124 42
126 121 37
130 124 47
120 116 37
110 108 32
164 181 11
166 185 0
170 189 0
168 188 0
169 188 0
168 187 0
166 186 0
164 184 0
171 190 0
169 188 0
168 187 0
168 189 0
168 188 0
168 189 0
170 190 0
171 191 0
167 188 0
171 192 0
166 187 0
171 194 0
172 196 0
171 195 0
171 194 0
168 192 0
173 196 0
169 193 0
169 194 0
169 192 0
171 194 0
173 196 0
171 195 0
172 195 0
174 197 0
173 196 0
171 194 0
170 194 0
170 193 0
172 196 0
173 196 0
172 196 0
168 192 0
169 193 0
172 196 0
173 196 0
169 193 0
175 197 0
164 188 0
171 195 0
171 195 0
171 194 0
168 192 0
174 197 0
170 193 0
170 194 0
167 191 0
169 193 0
170 193 0
168 192 0
170 193 0
169 192 0
169 192 0
169 192 0
170 194 0
170 193 0
167 190 0
170 193 0
170 194 0
172 195 0
168 192 0
169 193 0
169 193 0
168 192 0
168 192 0
170 193 0
170 194 0
165 188 0
171 194 0
170 194 0
170 193 0
170 193 0
168 191 0
168 191 0
169 193 0
169 191 0
166 190 0
167 191 0
162 186 0
170 194 0
163 186 0
170 192 0
170 194 0
164 189 0
167 191 0
166 189 0
169 193 0
171 195 0
167 190 0
167 191 0
168 192 0
169 192 0
166 189 0
169 192 0
165 187 0
131 155 88
61 96 149
60 96 146
61 97 156
62 98 155
62 98 157
61 96 149
62 98 159
62 98 156
61 97 154
62 98 164
62 98 163
61 97 154
61 97 159
61 97 162
62 98 167
61 97 162
62 98 168
61 97 161
61 97 162
61 97 159
62 98 167
61 97 162
63 99 169
62 98 164
62 99 167
62 98 170
62 98 169
62 99 169
62 98 165
62 98 165
62 98 163
62 98 167
63 99 173
61 97 161
62 99 172
62 98 164
62 98 166
62 98 165
62 98 167
63 99 172
63 99 174
62 98 174
62 98 168
62 99 174
61 97 163
61 98 168
62 99 174
63 99 172
61 97 167
61 97 164
62 99 173
62 99 171
62 99 171
61 97 164
62 98 170
62 98 170
62 99 171
62 99 168
61 98 164
62 99 172
62 99 167
62 99 169
61 98 169
62 99 173
63 99 173
62 99 172
62 99 174
62 98 171
62 98 165
62 99 168
62 98 167
62 98 171
63 99 166
61 98 164
62 98 170
62 98 167
63 99 170
63 99 170
62 98 171
63 99 172
63 99 171
62 98 169
61 97 162
62 98 169
62 99 173
62 99 172
62 98 166
62 99 168
62 99 175
61 97 164
62 98 169
62 98 168
62 99 174
62 99 165
60 96 154
61 97 162
62 98 167
62 99 169
63 99 175
62 99 170
62 99 175
63 99 171
62 98 172
63 99 170
61 98 163
63 100 175
62 99 166
62 99 167
62 99 169
62 98 165
62 98 161
62 98 166
62 99 172
62 99 166
62 99 169
63 99 170
61 98 169
62 98 166
62 98 162
62 99 167
63 99 168
62 98 162
63 99 170
62 99 169
63 99 169
62 98 165
63 99 172
62 98 168
62 98 166
62 99 169
62 99 168
61 97 162
62 98 165
61 98 164
62 98 160
62 98 162
62 98 163
62 98 163
61 98 164
62 98 162
63 99 165
61 98 168
62 98 161
62 98 166
63 99 167
61 97 164
62 98 163
62 98 160
62 98 162
62 98 165
61 97 161
62 98 163
63 99 164
61 96 151
62 99 168
62 97 158
62 98 161
61 97 155
63 99 171
62 98 160
62 98 168
61 97 163
61 97 152
63 99 167
60 95 150
62 97 152
61 96 156
62 97 153
61 96 158
62 97 155
60 95 150
63 98 160
61 95 143
62 96 156
59 93 142
61 96 154
60 94 145
58 91 141
56 88 126
78 82 54
76 76 17
70 73 23
75 78 19
88 88 25
87 86 25
72 75 30
84 84 23
79 81 25
95 94 24
94 94 34
92 93 26
98 98 29
96 96 30
91 92 35
110 107 42
103 102 39
87 89 33
102 101 40
111 109 41
110 109 46
112 111 40
116 114 49
113 111 40
121 119 53
119 118 43
121 119 46
117 115 45
127 125 48
121 119 57
121 120 42
129 127 56
124 121 44
131 128 55
129 125 50
138 135 44
134 132 53
132 129 53
133 130 50
142 138 58
139 135 55
150 144 68
133 130 50
147 141 58
144 139 62
137 133 53
143 138 58
146 141 63
145 139 60
143 138 60
149 145 65
149 144 61
152 146 70
146 141 55
147 142 58
155 149 60
145 141 60
157 151 68
157 151 64
148 144 60
155 148 64
147 143 53
155 150 61
152 146 58
148 143 54
155 149 67
155 149 61
153 147 54
158 151 66
159 154 63
152 144 61
158 151 68
151 146 59
158 152 65
158 151 71
153 147 59
154 147 65
155 150 58
155 150 59
153 146 60
151 145 60
144 140 49
147 142 60
157 151 67
149 143 57
145 139 51
153 146 59
148 143 54
155 149 65
145 141 58
152 146 59
148 143 57
147 142 59
145 140 51
140 135 44
146 141 49
136 132 49
143 136 45
147 140 59
149 143 57
139 133 54
137 133 44
143 138 56
139 133 56
128 124 37
136 132 44
139 133 53
140 133 51
139 132 56
132 126 52
129 122 48
134 128 39
123 118 39
122 117 37
122 116 41
119 114 37
153 165 28
165 187 0
164 184 0
168 186 0
164 181 0
165 183 0
164 183 0
166 186 0
169 188 0
169 189 0
166 185 0
171 192 0
167 187 0
170 189 0
169 190 0
166 184 0
168 188 0
170 189 0
170 189 0
170 189 0
173 196 0
172 196 0
170 193 0
169 193 0
171 194 0
171 194 0
171 195 0
171 194 0
172 194 0
171 194 0
173 197 0
169 193 0
173 196 0
172 194 0
173 195 0
173 196 0
172 196 0
172 196 0
170 194 0
166 190 0
169 193 0
169 193 0
167 191 0
169 192 0
170 193 0
170 194 0
171 194 0
172 195 0
172 196 0
173 196 0
172 196 0
170 193 0
173 196 0
170 194 0
169 192 0
165 189 0
172 196 0
169 192 0
170 194 0
171 194 0
167 190 0
169 192 0
168 191 0
166 189 0
171 195 0
167 190 0
172 194 0
170 193 0
172 196 0
170 193 0
172 195 0
166 190 0
170 194 0
171 194 0
168 191 0
164 187 0
170 192 0
164 188 0
168 191 0
167 191 0
164 187 0
170 193 0
169 193 0
167 191 0
169 193 0
168 191 0
173 196 0
169 192 0
170 193 0
166 190 0
168 192 0
169 191 0
166 189 0
168 191 0
168 191 0
167 189 0
168 192 0
169 192 0
169 192 0
167 191 0
165 189 0
170 193 0
167 191 0
166 188 0
113 139 113
62 97 148
62 97 153
61 96 153
61 97 151
61 97 160
61 96 156
62 98 162
62 98 157
62 98 162
62 98 158
62 98 160
61 96 155
62 98 167
61 97 158
61 96 149
61 98 165
60 96 154
62 98 162
61 97 166
62 98 165
62 98 165
61 98 167
61 98 163
62 98 162
62 98 164
62 98 163
61 97 161
62 98 163
61 96 157
60 96 168
62 99 168
62 98 167
62 98 167
61 97 163
61 97 165
61 98 166
62 98 169
62 98 169
61 98 169
62 99 168
62 99 169
61 97 163
62 98 166
62 98 169
61 98 163
62 99 171
61 97 165
61 97 163
62 98 167
62 98 166
62 98 167
62 98 171
62 98 170
62 99 172
61 98 163
62 98 168
63 99 171
62 98 168
62 99 173
62 98 170
63 99 169
62 99 176
62 98 169
62 98 171
61 98 170
62 98 170
62 98 167
60 97 164
62 99 168
62 98 162
61 98 166
62 98 166
62 99 170
63 99 170
62 99 172
61 98 170
62 98 170
62 99 169
62 99 170
62 99 171
62 98 166
62 99 166
62 98 167
62 99 170
63 99 174
62 99 168
62 98 169
62 99 169
62 98 171
63 99 172
62 98 171
62 98 167
62 98 165
61 97 167
61 98 167
62 99 168
62 98 169
62 98 170
61 98 166
62 98 167
62 98 163
62 99 172
61 98 169
62 99 170
62 98 169
62 99 169
61 98 166
62 98 168
62 98 164
62 99 168
62 99 168
62 99 170
63 99 170
62 98 166
62 98 160
62 99 169
62 98 164
63 99 170
62 99 169
62 99 169
62 99 168
62 98 159
62 98 166
62 98 167
62 98 169
62 98 163
62 98 165
62 99 166
62 98 164
62 98 165
63 100 174
62 98 163
62 99 168
62 98 166
61 97 163
61 98 162
62 98 163
63 99 168
62 98 168
63 99 167
62 98 163
62 99 167
62 98 162
62 98 159
62 98 164
62 98 161
62 98 165
63 99 164
62 98 160
62 98 165
62 98 163
61 97 155
62 98 165
62 98 161
62 98 161
62 98 161
62 97 156
62 98 160
61 97 156
62 98 161
62 98 164
61 97 161
61 96 159
61 97 157
61 97 156
60 95 152
61 96 154
61 97 156
62 97 156
62 97 158
61 96 152
62 98 161
62 97 157
60 95 152
59 93 142
61 95 149
60 95 151
60 94 147
58 91 140
76 81 54
69 72 11
74 74 11
66 68 23
68 70 17
80 82 24
66 69 22
69 72 27
84 85 22
83 84 32
87 88 26
89 90 22
84 86 38
98 97 37
100 100 35
88 88 31
100 100 29
103 102 41
103 103 37
103 102 35
105 103 40
112 111 41
107 106 38
122 120 43
120 117 49
119 117 45
119 117 46
122 118 47
119 117 53
113 112 43
124 122 49
128 127 50
115 113 41
130 128 53
131 128 60
125 123 50
133 130 47
116 115 47
139 135 63
132 129 56
129 126 51
140 137 51
137 134 57
141 136 64
147 142 57
141 138 57
136 133 54
143 137 62
150 145 62
140 136 57
139 135 55
146 140 58
143 139 51
143 138 51
153 148 64
154 148 62
148 141 62
157 150 68
153 148 60
152 147 60
150 147 52
154 148 61
147 142 48
146 141 49
154 148 65
160 154 64
149 143 58
152 147 59
157 150 69
155 148 58
156 150 65
155 148 67
156 149 63
156 150 58
146 141 56
152 147 56
155 149 62
151 145 58
148 143 61
150 146 57
144 138 52
143 138 57
149 143 57
157 151 65
153 147 53
146 139 59
156 150 59
149 144 54
140 135 52
152 146 57
147 141 57
145 140 57
145 139 60
147 142 54
149 143 58
153 147 49
144 138 53
140 135 53
143 137 54
142 136 45
138 133 45
145 141 49
132 128 39
136 131 42
132 125 52
136 131 48
141 136 49
133 127 51
136 130 52
129 125 36
135 129 45
123 117 51
126 122 41
122 118 37
119 113 41
127 129 30
164 183 0
168 188 0
166 184 0
169 189 0
169 189 0
170 188 0
166 184 0
170 190 0
166 184 0
170 189 0
170 189 0
169 189 0
169 188 0
169 189 0
167 186 0
169 188 0
169 189 0
167 186 0
168 186 0
169 190 0
169 192 0
171 195 0
171 195 0
171 193 0
169 193 0
171 195 0
171 195 0
169 193 0
170 194 0
174 196 0
172 196 0
169 192 0
174 198 0
169 192 0
171 195 0
173 196 0
170 193 0
169 193 0
168 191 0
171 195 0
169 193 0
172 196 0
168 192 0
168 191 0
170 194 0
171 194 0
168 191 0
169 192 0
172 195 0
168 193 0
171 195 0
172 196 0
167 189 0
168 192 0
167 190 0
169 193 0
168 193 0
168 191 0
169 192 0
168 191 0
170 194 0
168 192 0
172 195 0
170 193 0
169 192 0
171 195 0
173 196 0
170 193 0
169 192 0
169 192 0
166 190 0
165 189 0
166 188 0
170 193 0
172 194 0
167 190 0
169 193 0
172 195 0
169 192 0
171 194 0
170 193 0
164 187 0
169 192 0
169 192 0
168 192 0
165 188 0
166 188 0
166 190 0
168 191 0
164 188 0
168 192 0
166 189 0
168 191 0
168 191 0
168 191 0
170 194 0
167 191 0
164 187 0
165 188 0
169 192 0
169 192 0
168 191 0
170 193 0
166 189 0
116 142 110
62 97 151
61 97 154
61 96 154
61 98 159
62 98 159
61 97 155
61 97 159
60 96 157
62 98 166
61 97 158
62 98 163
60 96 153
61 97 157
62 98 158
61 98 164
61 98 167
60 96 155
61 98 169
61 97 155
61 98 160
61 97 159
61 97 165
61 97 160
62 99 170
61 97 162
62 98 162
62 98 161
62 99 165
62 98 167
62 98 166
62 98 163
62 98 167
62 98 167
62 98 170
61 98 165
62 99 169
61 98 167
61 97 167
61 98 166
62 99 171
61 98 166
62 99 170
62 99 173
62 99 172
61 97 165
62 98 166
62 98 167
61 98 168
62 99 173
61 97 167
62 99 170
62 98 162
62 98 166
60 97 164
61 98 170
62 98 171
62 98 166
62 99 170
62 99 173
61 98 170
61 98 169
61 98 169
61 98 172
63 99 166
61 98 168
62 99 169
62 98 168
62 98 170
62 98 169
63 100 177
62 99 170
62 98 171
62 99 172
62 98 170
62 98 170
62 99 172
62 98 165
62 98 167
61 98 167
62 98 168
62 99 171
62 98 171
62 99 166
62 99 170
62 98 167
62 98 163
62 98 167
62 99 167
62 99 172
62 98 173
63 99 170
62 98 167
63 99 174
62 98 163
63 99 173
61 98 166
63 99 169
62 99 172
62 99 167
62 99 168
62 99 172
62 99 170
62 99 170
62 98 163
63 100 177
62 99 167
62 99 168
62 98 163
63 100 175
62 99 170
62 98 165
62 98 165
62 99 168
62 99 166
61 98 163
62 98 161
62 98 165
61 98 164
62 98 164
62 98 163
63 99 168
63 99 171
62 98 168
62 99 167
62 98 167
62 98 164
62 98 161
62 98 163
63 99 165
62 98 167
62 98 164
61 97 161
62 99 168
62 99 168
63 99 169
62 99 171
61 98 164
62 97 159
62 98 164
62 98 163
62 98 162
62 98 163
62 98 169
61 97 160
62 98 162
61 98 161
62 99 166
62 98 166
63 99 169
62 98 166
62 98 157
62 98 164
62 98 160
62 97 160
60 96 149
62 98 164
60 96 156
61 97 162
62 98 160
62 98 158
61 97 159
61 96 156
61 96 156
62 98 160
62 98 163
61 96 153
61 96 153
61 97 151
62 97 158
61 97 160
61 96 158
60 94 141
61 97 154
61 95 147
60 94 148
59 93 146
58 91 140
59 94 146
58 91 133
64 75 77
73 74 17
73 76 15
66 67 14
70 70 15
64 66 23
67 68 20
69 72 30
82 83 29
82 83 24
74 75 24
85 86 31
92 92 30
85 87 22
97 98 30
87 88 30
99 100 34
100 100 35
105 104 36
100 99 32
102 100 36
107 106 32
111 109 40
104 103 40
121 119 45
120 117 45
124 120 47
123 121 54
123 121 50
107 107 37
129 126 42
121 120 50
112 112 42
132 129 50
126 124 50
132 129 48
127 124 43
143 139 56
132 128 48
141 136 53
132 128 55
134 130 48
139 135 58
138 135 54
136 133 52
139 135 59
144 139 57
144 141 52
147 142 64
146 141 60
146 141 64
148 145 57
150 145 64
144 140 62
137 134 53
148 144 56
150 144 59
153 148 62
150 144 54
156 148 64
155 149 70
152 146 58
149 143 58
152 147 58
153 146 54
150 144 59
151 145 67
151 145 57
149 143 60
151 145 53
155 150 56
153 147 63
147 141 60
145 140 49
144 139 45
158 152 59
157 151 61
158 151 64
152 146 62
149 143 54
151 146 59
149 143 51
153 148 56
152 145 59
147 142 53
149 143 57
145 139 62
151 145 61
142 136 49
143 138 57
154 148 63
131 127 36
142 137 54
147 141 49
142 136 52
149 144 53
144 139 56
141 134 53
137 131 49
140 136 48
144 137 47
133 128 42
141 136 45
141 135 47
128 123 42
135 130 48
137 132 48
134 129 51
138 131 52
130 124 39
126 121 30
128 121 44
122 118 39
127 122 37
126 123 37
163 180 25
168 185 0
166 183 0
170 188 0
165 182 0
167 189 0
165 185 0
164 182 0
169 187 0
165 186 0
170 190 0
171 189 0
164 183 0
168 186 0
168 186 0
170 190 0
165 184 0
167 187 0
168 187 0
168 188 0
168 189 0
169 193 0
172 195 0
171 194 0
168 192 0
169 192 0
171 195 0
171 195 0
170 194 0
170 194 0
170 193 0
170 194 0
170 193 0
171 195 0
170 194 0
170 193 0
174 197 0
171 194 0
170 194 0
167 191 0
171 194 0
170 194 0
172 195 0
166 189 0
171 196 0
170 194 0
171 193 0
169 192 0
171 195 0
171 194 0
168 192 0
167 191 0
170 194 0
165 189 0
172 195 0
162 185 0
169 192 0
164 188 0
171 194 0
171 194 0
172 195 0
171 195 0
169 193 0
167 190 0
175 197 0
167 190 0
168 191 0
171 194 0
168 192 0
166 189 0
171 195 0
169 192 0
170 193 0
167 190 0
167 191 0
166 189 0
167 190 0
169 194 0
169 192 0
168 191 0
170 193 0
169 192 0
168 191 0
169 192 0
170 193 0
167 191 0
172 195 0
168 191 0
168 191 0
166 189 0
169 192 0
169 192 0
169 191 0
169 192 0
171 193 0
164 187 0
166 190 0
165 189 0
166 189 0
170 193 0
168 191 0
165 188 0
165 188 0
168 192 0
166 190 0
105 132 124
60 95 144
61 97 151
61 97 149
61 97 149
61 96 152
62 97 157
61 97 150
62 98 159
60 96 149
62 98 160
62 98 161
61 97 160
61 96 155
62 98 164
62 98 167
61 98 162
62 99 169
61 97 157
61 97 159
62 98 163
61 96 158
62 98 166
61 97 164
62 98 165
62 98 159
62 98 167
60 96 160
62 98 167
62 98 163
62 98 164
61 98 163
61 97 157
61 97 161
62 98 166
61 97 163
61 98 168
62 99 168
62 99 172
62 98 167
62 98 166
61 98 165
62 99 170
62 98 168
62 98 159
62 99 172
62 98 166
62 99 174
62 98 168
61 98 167
62 99 176
61 98 169
62 99 172
61 98 173
61 98 168
62 98 166
61 98 167
62 98 167
61 98 165
62 99 171
62 98 168
62 99 170
62 98 169
62 98 169
61 98 167
62 99 169
62 99 173
62 98 169
62 99 171
61 97 164
62 98 168
62 98 166
62 99 173
62 98 166
61 98 168
62 98 163
62 98 171
62 99 166
62 98 164
62 98 166
62 98 166
63 100 173
61 98 166
62 99 170
62 99 172
61 98 166
62 98 166
63 99 170
61 98 164
63 99 167
64 100 172
63 99 172
62 99 168
62 99 174
62 99 167
62 98 165
61 98 167
62 98 169
62 98 163
62 98 166
62 99 171
61 97 163
63 99 168
62 99 171
62 98 169
62 98 167
61 98 167
62 98 165
62 98 167
62 99 168
62 98 163
62 98 166
61 97 159
62 99 170
62 98 164
62 98 165
61 98 163
62 98 166
63 99 168
62 98 164
61 98 164
62 98 164
62 99 167
61 98 164
62 98 164
62 99 169
61 98 161
62 98 163
62 98 164
62 98 167
63 99 167
62 99 165
62 98 161
62 99 171
63 99 167
62 98 162
62 98 155
62 98 161
61 97 162
63 99 168
62 98 165
62 98 162
62 98 165
63 99 163
63 99 166
62 98 162
63 99 168
62 98 162
62 98 158
62 98 162
62 99 164
63 99 166
61 97 154
62 98 164
63 99 165
62 98 162
62 97 159
61 97 156
61 97 154
62 98 164
61 97 156
62 97 154
61 96 156
60 95 148
61 97 155
61 96 151
62 98 156
62 97 156
62 98 161
62 97 156
61 96 154
61 95 151
62 97 155
61 96 142
60 95 149
60 94 148
59 93 141
61 95 147
60 93 140
58 92 141
74 82 76
80 78 17
64 67 12
71 72 12
83 82 22
77 79 30
83 85 20
81 83 17
83 85 27
82 82 23
81 82 25
90 90 31
95 95 30
100 98 27
97 96 29
103 103 33
110 109 41
98 98 35
95 96 37
91 92 40
105 104 41
114 113 44
108 107 43
106 105 38
116 114 44
110 109 42
118 115 33
116 115 38
123 120 46
99 99 48
121 117 45
122 118 47
120 116 40
128 124 47
126 123 53
126 124 47
131 127 49
127 123 46
134 129 55
128 125 50
136 132 49
138 134 59
133 129 45
137 132 56
145 141 58
136 133 51
135 131 45
149 143 56
135 132 53
146 142 53
152 147 61
143 139 52
154 147 66
140 136 46
147 142 56
146 141 48
154 148 62
147 142 53
152 148 54
143 137 60
149 144 58
151 146 60
153 148 62
150 144 56
148 144 56
148 142 60
150 145 62
149 143 59
150 144 55
155 149 61
151 146 59
147 141 56
157 151 61
152 146 61
150 145 54
146 140 56
145 139 51
146 141 52
141 135 56
149 144 57
142 137 48
142 136 52
150 145 53
147 142 44
147 142 53
145 141 49
147 141 57
147 141 56
148 143 53
143 137 53
143 138 53
140 135 52
144 138 51
147 141 53
149 143 54
139 134 48
148 141 56
142 137 48
135 131 41
134 129 42
140 134 51
132 127 34
139 134 45
138 133 47
132 127 47
120 117 34
127 122 44
132 125 42
114 109 34
128 122 37
117 113 48
123 118 41
119 114 41
115 110 41
152 163 16
166 185 0
167 185 0
166 185 0
168 186 0
166 184 0
168 186 0
166 186 0
170 188 0
165 184 0
169 189 0
166 185 0
168 188 0
166 184 0
167 186 0
168 188 0
168 187 0
170 191 0
167 185 0
168 186 0
169 191 0
167 185 0
170 192 0
171 195 0
174 197 0
171 193 0
170 193 0
171 195 0
173 196 0
171 194 0
169 193 0
172 196 0
171 195 0
169 193 0
171 194 0
171 193 0
171 195 0
170 194 0
172 196 0
169 192 0
171 194 0
170 192 0
169 192 0
169 192 0
168 191 0
171 195 0
168 192 0
167 191 0
169 192 0
168 191 0
170 193 0
173 197 0
170 194 0
173 197 0
171 195 0
168 191 0
166 189 0
168 192 0
169 193 0
171 194 25
174 196 62
172 194 62
180 202 84
171 194 57
172 194 57
171 194 51
170 193 44
168 192 36
168 191 25
170 193 36
170 194 0
166 189 0
170 194 0
170 194 0
169 192 0
171 194 0
165 190 0
169 192 0
165 189 0
167 190 0
167 190 0
167 190 0
164 187 0
169 192 0
170 194 0
169 193 0
167 192 0
171 195 0
169 192 0
165 188 0
172 195 0
167 190 0
166 190 0
166 189 0
168 192 0
170 193 0
167 189 0
170 193 0
165 188 0
167 190 0
168 191 0
163 186 0
171 194 0
165 189 0
168 190 0
168 190 0
110 137 118
61 96 148
62 97 150
61 97 151
61 97 153
62 98 154
60 95 152
61 97 155
60 96 157
63 99 166
61 97 157
62 98 161
62 98 165
61 97 157
61 97 158
61 97 155
61 96 158
62 98 163
62 98 157
61 97 162
62 98 165
61 98 166
61 97 163
62 98 168
62 99 164
63 99 168
62 98 165
61 98 163
62 99 171
61 98 162
62 98 162
62 99 172
62 98 165
62 98 168
61 98 167
62 98 169
62 99 172
61 98 164
62 98 163
62 99 171
62 98 166
61 97 168
62 98 167
61 97 163
61 97 162
62 98 168
62 98 168
62 98 168
62 98 164
62 98 165
62 99 169
63 99 172
62 98 168
62 98 167
61 97 162
62 98 167
62 98 171
62 99 175
62 98 164
63 100 173
62 98 169
61 97 166
62 98 166
62 98 164
62 98 172
62 98 166
62 98 161
62 98 170
62 98 171
62 99 175
63 99 170
62 99 168
62 99 168
62 98 170
62 99 173
62 99 173
61 97 164
62 98 163
62 99 167
62 98 168
62 98 170
62 98 172
62 98 168
61 98 169
62 98 164
63 99 171
62 98 167
61 98 169
61 97 162
62 98 165
63 99 172
61 98 165
61 97 165
62 98 167
62 98 163
62 99 168
62 98 168
61 98 166
62 98 165
62 98 168
63 99 170
62 98 167
62 98 162
62 98 169
63 99 170
63 99 171
62 99 169
61 97 163
61 98 166
63 99 172
62 98 168
62 98 169
62 98 164
63 99 169
62 98 164
62 99 168
62 98 166
62 99 170
63 99 166
62 99 168
61 97 159
63 99 168
63 99 169
62 98 168
61 98 164
62 99 169
62 98 167
62 99 165
62 98 162
63 99 162
62 98 162
62 98 169
62 98 163
62 98 162
63 99 166
62 98 165
61 97 158
62 98 168
62 98 161
62 98 165
62 97 160
61 97 162
62 97 155
62 98 159
63 99 165
61 97 159
63 99 168
62 99 165
63 99 165
61 97 159
62 98 159
63 99 168
63 99 166
63 98 161
61 97 151
61 97 154
61 97 158
61 97 154
62 97 159
61 97 151
62 98 159
62 98 159
62 98 161
61 97 157
62 98 162
62 98 155
61 96 149
61 96 152
62 98 159
61 96 153
61 96 155
60 94 141
61 96 159
60 95 150
61 96 153
61 95 156
60 95 155
60 95 147
58 92 147
58 92 134
72 82 71
77 77 22
84 84 15
80 81 19
67 69 16
76 77 24
79 79 19
69 71 23
83 85 18
97 98 23
84 86 27
92 92 27
97 96 31
91 92 32
91 91 22
87 89 16
97 96 33
94 95 35
114 111 38
99 99 30
100 101 30
110 107 39
112 111 42
100 99 38
120 118 46
113 112 29
108 106 39
118 116 44
115 114 35
115 113 41
116 114 42
122 119 45
128 125 45
133 129 52
121 119 37
124 122 40
127 124 41
133 130 56
128 126 42
131 127 47
139 136 51
144 140 54
141 136 53
137 132 56
135 131 53
145 139 58
141 137 52
135 131 47
145 140 54
136 131 53
141 137 55
142 138 56
141 137 45
141 137 52
139 135 47
148 142 51
142 137 54
138 134 53
145 140 47
151 146 61
145 141 47
152 145 61
151 145 63
146 140 53
147 142 56
150 146 56
151 146 53
158 153 59
141 136 49
153 146 64
150 144 57
148 142 58
151 145 58
145 140 54
152 146 51
153 147 58
147 142 49
143 138 59
145 139 54
149 143 51
148 143 54
152 146 59
148 143 52
146 140 53
153 147 52
147 141 49
145 138 49
142 136 42
141 137 51
139 134 48
143 137 56
154 148 57
144 138 54
143 138 45
144 139 45
139 133 47
138 133 42
136 131 41
134 129 36
141 135 45
130 125 41
133 129 39
138 131 39
135 129 45
142 136 41
131 125 37
142 136 51
122 119 37
125 120 39
128 122 41
124 118 34
123 118 39
120 115 36
144 154 28
166 182 0
170 187 0
167 184 0
171 190 0
164 180 0
171 190 0
168 186 0
170 187 0
166 184 0
166 182 0
167 187 0
162 182 0
165 184 0
167 184 0
167 187 0
168 189 0
164 182 0
170 189 0
171 189 0
166 186 0
168 188 0
170 191 0
170 195 0
171 195 0
169 193 0
173 196 0
171 195 0
168 191 0
171 194 0
173 196 0
168 192 0
169 193 0
172 195 0
172 195 0
168 191 0
171 196 0
168 191 0
170 194 0
171 195 0
169 192 0
164 188 0
171 194 0
172 195 0
168 192 0
167 190 0
170 194 0
169 192 0
168 191 0
174 197 44
171 194 67
180 201 105
179 200 84
183 203 128
181 201 108
179 200 99
181 201 120
190 209 144
185 204 130
187 207 133
186 205 135
190 210 144
190 209 149
188 208 147
190 210 142
182 203 108
191 211 153
187 207 130
190 210 142
188 208 144
190 209 137
186 207 133
184 205 125
184 204 133
187 206 137
182 203 108
177 199 95
181 202 111
178 200 84
174 196 57
170 193 25
172 195 0
165 188 0
172 195 0
169 192 0
168 192 0
173 196 0
166 190 0
168 191 0
168 191 0
167 190 0
168 191 0
170 193 0
166 190 0
162 185 0
166 189 0
164 187 0
167 190 0
164 188 0
164 186 0
165 189 0
166 189 0
166 190 0
170 193 0
168 192 0
164 186 0
164 187 0
103 131 120
61 96 155
62 98 160
61 96 153
62 98 159
60 96 151
61 96 151
61 97 155
60 96 154
62 98 164
61 97 157
61 97 153
61 97 154
62 98 162
62 98 162
61 97 163
62 97 156
61 97 157
60 96 150
62 98 161
62 98 161
61 97 161
61 97 164
61 97 158
61 97 165
62 98 166
62 98 166
60 96 164
61 97 165
62 98 166
62 98 164
62 98 168
61 97 161
62 99 171
62 99 172
61 97 168
61 97 162
61 98 168
61 97 159
62 98 165
62 98 168
62 99 172
61 98 168
62 98 165
62 98 167
62 98 170
62 98 169
62 99 170
61 97 161
61 98 168
61 98 166
62 98 171
61 97 160
62 99 169
62 98 167
61 98 165
62 98 167
61 97 163
61 98 168
62 99 170
62 99 176
62 98 167
63 99 170
62 99 171
62 98 171
62 98 171
62 99 172
62 99 167
62 99 172
62 98 169
61 98 166
62 99 172
61 97 162
62 99 169
62 98 166
63 99 175
62 98 171
62 99 171
62 98 165
62 98 167
62 98 169
62 98 168
62 98 163
63 100 172
62 99 166
62 98 168
62 98 166
63 99 172
62 99 170
62 98 165
61 98 166
62 98 162
62 98 165
62 99 171
61 97 161
63 99 170
62 98 165
62 99 166
63 99 164
63 99 170
62 99 167
63 99 169
62 98 162
61 97 162
62 98 161
63 99 168
62 98 170
62 98 162
61 98 161
62 98 166
62 99 168
62 98 168
62 99 166
62 98 166
62 98 165
62 98 167
62 99 171
63 99 170
62 98 159
62 98 158
62 98 167
62 98 164
62 98 166
62 99 165
62 98 167
61 97 161
62 98 165
62 98 157
62 98 163
62 99 166
62 98 166
62 98 160
62 98 166
61 98 165
64 100 167
63 99 166
63 99 169
61 97 158
62 98 163
62 98 160
62 98 162
62 98 161
61 97 160
61 97 159
63 99 164
61 97 157
61 98 160
62 98 155
61 97 155
61 97 159
61 97 154
62 97 154
61 97 154
62 98 163
62 98 162
62 98 161
62 98 158
62 97 156
62 98 165
61 97 158
62 98 163
61 97 159
61 97 154
61 97 156
62 98 158
61 97 159
62 98 158
62 97 154
62 97 154
61 97 154
61 95 146
61 96 144
61 97 157
61 96 147
60 95 147
59 92 129
61 96 153
60 94 147
59 93 142
60 93 131
64 75 63
79 79 24
64 66 10
79 80 15
89 89 20
76 77 16
78 80 16
74 78 26
84 85 23
84 84 19
87 89 28
91 91 32
88 88 31
101 100 27
84 85 29
90 91 22
86 87 25
94 94 29
108 106 32
105 102 38
108 107 25
115 113 35
103 102 29
111 111 38
107 107 44
118 115 43
107 106 36
116 114 36
127 124 42
114 113 43
124 122 42
113 111 43
120 118 47
128 126 48
134 131 49
123 120 40
117 115 41
130 126 50
133 130 44
131 128 50
139 134 52
130 127 45
137 133 41
127 125 41
136 132 54
136 133 46
145 141 54
145 140 56
138 134 47
134 131 39
146 140 56
147 143 56
149 143 56
148 142 56
155 149 65
142 138 52
146 140 54
149 142 62
151 145 58
138 133 54
155 148 61
153 148 60
144 139 49
143 137 49
146 141 53
153 145 63
136 132 52
156 150 63
147 142 54
152 146 61
147 142 53
155 148 56
154 146 63
150 144 56
147 142 44
144 139 56
144 139 56
143 138 45
142 136 54
141 136 44
153 147 64
153 147 61
138 133 49
141 136 45
153 148 57
141 136 44
143 138 49
145 139 59
137 131 49
143 138 54
147 142 49
141 136 37
141 135 45
141 135 47
137 133 45
141 136 49
137 131 48
133 128 44
144 138 36
135 129 45
137 132 47
130 124 42
129 125 39
137 132 47
134 129 42
129 124 36
132 127 36
140 135 45
124 119 41
129 122 41
117 113 22
122 117 30
130 132 30
166 182 0
169 187 0
168 187 0
163 179 0
163 181 0
168 185 0
168 187 0
167 186 0
163 180 0
167 185 0
169 187 0
166 185 0
167 183 0
165 182 0
169 188 0
162 182 0
170 189 0
167 186 0
169 186 0
168 187 0
166 184 0
170 190 0
168 189 0
172 196 0
171 194 0
170 193 0
170 194 0
174 197 0
172 196 0
168 193 0
173 196 0
172 195 0
170 195 0
171 194 0
172 195 0
170 193 0
166 190 0
171 194 0
170 193 0
170 193 0
167 192 0
170 193 0
170 193 0
172 194 44
174 196 72
183 203 114
175 197 88
184 203 125
191 210 149
185 205 122
186 205 142
188 207 142
181 202 105
184 204 133
184 204 125
182 203 120
185 205 122
179 199 108
177 199 105
184 204 135
185 205 137
184 204 128
183 204 117
184 205 117
183 205 122
183 204 122
184 205 125
184 205 114
186 207 125
178 200 105
185 205 117
188 209 147
184 203 133
184 204 114
181 202 122
181 203 117
184 204 125
178 199 128
187 208 133
188 208 142
186 206 125
178 199 111
184 204 122
182 203 114
174 195 80
169 192 57
163 187 0
168 192 0
170 193 0
168 192 0
167 189 0
164 188 0
167 189 0
164 188 0
167 190 0
168 191 0
166 190 0
168 192 0
163 187 0
168 190 0
166 190 0
167 190 0
167 190 0
164 187 0
162 185 0
167 190 0
162 185 0
102 130 124
62 97 154
61 96 150
62 98 155
61 97 151
62 97 155
61 96 140
61 97 153
62 98 158
61 97 149
62 98 156
61 96 148
61 96 157
62 98 158
61 97 157
61 97 160
61 97 158
61 97 157
61 98 164
62 98 168
62 98 165
61 98 166
61 97 162
60 96 160
61 96 165
61 97 164
61 97 162
61 97 159
61 97 166
62 98 166
62 98 166
62 98 169
62 99 167
62 99 173
61 97 161
63 99 169
62 99 171
62 98 163
61 98 167
62 99 170
61 98 164
61 97 163
62 98 169
62 98 163
62 99 168
62 98 169
62 99 173
63 99 170
63 99 176
61 98 168
63 99 171
62 98 170
61 97 164
62 98 165
62 99 169
62 98 168
62 98 171
63 99 170
62 98 167
61 98 167
61 98 166
62 99 170
61 98 164
61 97 167
61 97 160
62 98 168
62 99 171
62 98 168
63 99 171
62 98 159
62 98 165
62 99 169
63 100 173
62 99 172
62 99 166
62 99 172
62 99 175
63 99 172
62 98 168
62 98 162
62 98 164
61 98 165
62 98 168
61 98 166
62 99 170
62 98 165
62 98 164
63 99 170
62 99 167
62 98 164
62 98 166
63 100 175
62 98 164
62 99 167
62 99 173
63 99 172
63 99 165
62 99 169
62 99 166
63 100 172
62 98 165
62 98 165
62 98 166
62 99 169
62 98 167
62 98 166
62 98 161
61 98 167
62 98 168
62 98 168
62 98 165
63 99 164
62 98 162
62 98 165
62 99 170
61 98 162
62 99 168
62 98 165
61 98 162
62 98 165
63 99 168
62 98 163
62 98 165
62 99 167
62 98 165
62 98 161
62 98 164
61 97 161
63 99 171
62 98 162
62 98 162
62 98 163
62 98 163
62 98 164
62 98 165
62 99 170
63 99 165
62 98 167
62 98 167
61 98 160
63 99 162
63 99 168
62 98 160
62 98 161
63 99 168
62 98 163
62 98 161
62 98 155
63 99 168
63 99 168
63 99 164
62 98 160
62 98 158
63 99 166
62 98 161
62 98 160
62 98 156
62 97 157
61 97 160
62 98 163
62 97 156
62 99 169
61 97 155
61 97 160
61 96 151
62 97 153
61 96 152
61 96 153
60 94 147
62 98 156
60 95 150
61 96 151
59 94 148
61 96 148
60 94 142
61 96 147
60 94 150
60 93 141
58 91 140
56 86 124
75 86 77
68 69 8
74 74 20
66 68 14
77 77 19
71 73 17
85 86 15
79 80 16
90 88 20
83 82 26
88 89 24
96 94 25
79 81 22
85 86 24
98 98 26
92 92 23
97 96 23
104 102 19
101 100 33
95 94 31
110 108 38
101 100 31
104 103 34
111 111 43
103 102 28
121 118 42
121 117 42
116 113 39
122 119 37
107 105 33
117 115 37
114 113 39
135 131 47
128 126 49
127 124 51
128 125 39
121 119 42
124 121 39
123 119 43
127 124 49
130 127 50
139 134 50
140 134 48
130 126 50
136 131 48
140 135 60
143 139 47
142 137 49
143 139 54
135 131 52
147 141 53
141 136 57
136 130 50
155 149 69
142 137 53
142 139 47
146 141 49
138 133 49
145 140 48
147 141 55
140 135 40
156 150 57
147 143 51
151 146 55
142 137 47
143 138 56
146 141 47
145 139 52
151 145 56
147 141 56
145 139 57
149 143 54
146 141 57
151 146 58
146 141 54
150 146 45
150 145 53
149 144 52
150 144 48
142 136 51
144 139 52
138 133 51
142 136 42
146 141 49
139 132 52
147 141 56
143 137 54
140 135 53
139 133 49
145 139 48
135 130 49
149 143 52
142 136 47
140 134 45
140 136 45
140 135 42
144 138 52
138 132 54
146 139 49
125 121 41
142 136 57
124 120 34
129 123 41
138 133 42
138 132 48
124 119 39
137 131 48
121 117 32
126 120 44
114 110 32
112 106 25
118 117 28
161 177 0
164 181 0
163 182 0
160 178 0
165 183 0
168 186 0
167 184 0
166 184 0
169 188 0
164 181 0
167 185 0
165 185 0
166 186 0
164 183 0
167 184 0
169 186 0
166 185 0
168 188 0
164 185 0
170 190 0
168 188 0
165 183 0
166 184 0
170 189 0
170 193 0
170 194 0
168 192 0
172 195 0
169 192 0
171 194 0
172 195 0
173 197 0
169 194 0
168 191 0
172 195 0
169 193 0
174 197 0
167 191 0
172 195 0
170 193 0
175 197 62
178 199 84
186 206 122
184 205 117
187 207 128
188 207 135
182 203 125
182 202 117
187 207 142
184 205 125
183 204 108
184 204 114
185 206 128
186 206 130
188 209 140
185 206 120
182 203 111
186 206 133
181 203 102
179 201 102
188 208 133
180 201 99
184 205 117
182 204 120
182 204 120
184 205 114
181 203 102
182 204 105
183 204 120
184 205 120
180 202 102
177 199 99
181 203 111
175 197 67
185 205 128
182 203 102
182 204 120
182 203 120
183 204 120
183 204 125
181 202 117
181 203 108
182 202 117
184 204 122
182 202 133
184 204 133
189 208 149
181 202 111
181 201 125
179 200 88
172 195 76
171 194 25
171 194 0
167 191 0
170 193 0
166 188 0
159 183 0
169 192 0
169 192 0
167 191 0
165 189 0
168 191 0
166 189 0
168 192 0
163 186 0
167 190 0
166 189 0
168 191 0
104 131 133
61 96 149
60 95 141
62 98 159
61 97 150
60 96 145
61 97 154
61 97 157
60 95 144
60 96 147
61 97 159
61 97 153
61 97 158
61 98 159
61 98 162
61 97 156
62 98 163
61 97 159
62 98 161
61 97 159
61 97 160
62 98 168
62 98 164
61 97 163
61 97 161
61 97 166
61 97 163
62 98 164
62 98 169
60 96 161
62 99 168
62 98 162
61 97 163
62 98 162
61 97 163
61 97 162
61 98 166
62 98 165
62 98 164
62 99 170
61 98 166
62 99 173
62 98 170
62 98 165
62 98 166
62 98 166
61 97 163
61 97 165
62 98 168
61 97 159
61 98 166
62 98 167
61 97 165
62 98 167
61 97 166
61 98 165
62 99 172
62 98 163
61 98 168
61 98 164
61 97 157
62 99 168
61 97 163
62 98 169
62 99 171
62 99 168
63 99 168
62 98 165
61 97 160
61 97 161
63 99 168
60 97 159
62 98 168
62 99 170
62 99 167
63 99 172
62 98 160
62 98 166
62 99 166
62 98 170
63 99 168
62 98 165
62 98 169
62 99 170
62 99 170
62 99 168
62 98 165
62 98 165
62 98 167
62 98 168
62 98 163
62 99 168
62 98 161
61 98 163
61 98 163
62 99 168
62 99 166
62 99 171
62 98 163
61 97 159
63 99 169
62 99 167
61 97 158
61 98 164
62 99 167
62 98 164
61 97 165
61 98 166
61 97 160
63 99 170
62 99 169
61 98 160
62 99 170
63 99 169
62 98 163
62 98 165
61 97 162
63 99 169
62 98 163
61 97 162
62 98 166
63 99 162
62 98 163
61 98 158
61 98 166
61 97 158
62 98 162
62 98 165
61 97 159
62 98 159
62 98 162
62 98 170
62 98 158
61 97 159
62 98 155
62 99 166
63 98 158
62 99 167
61 98 163
61 97 159
63 99 165
62 98 167
62 98 162
62 98 161
62 98 160
61 97 160
63 99 163
62 98 162
61 97 157
61 97 156
61 97 158
61 97 158
61 97 156
62 98 166
61 98 159
62 98 157
62 98 163
61 97 160
62 97 161
62 97 156
62 98 158
61 97 156
61 96 151
61 96 155
62 97 152
60 95 150
62 97 152
62 97 159
60 94 139
60 95 142
60 94 146
62 98 161
61 96 151
62 97 152
61 96 148
61 96 154
61 95 141
56 89 119
59 92 133
58 91 137
78 87 76
74 74 11
73 72 10
71 72 12
83 83 14
91 90 19
85 84 20
91 90 20
73 75 13
89 88 28
89 87 21
86 86 28
90 89 27
95 94 25
93 90 21
94 94 28
96 96 30
101 101 29
92 93 25
109 107 40
102 100 30
102 100 32
107 105 36
104 102 28
104 103 34
122 119 46
113 113 41
113 113 41
113 112 40
128 124 48
127 124 33
119 117 42
126 122 51
125 121 42
129 126 50
130 125 49
138 134 48
125 123 42
138 133 49
128 124 42
125 123 46
127 124 42
133 130 44
135 131 51
142 138 42
133 131 39
137 132 45
147 141 52
140 136 52
136 132 46
143 137 54
141 137 44
144 140 53
138 133 47
150 145 55
145 140 54
143 138 53
145 140 55
149 142 57
153 146 57
145 140 51
146 141 55
146 140 52
143 139 46
150 144 57
149 143 53
144 140 44
147 140 53
143 137 49
141 135 52
144 138 54
150 145 56
146 140 57
143 137 56
143 138 51
146 139 58
152 145 56
153 147 61
141 137 45
139 134 52
143 137 48
149 144 52
141 135 47
146 141 51
135 130 48
140 135 47
136 131 49
139 133 47
142 136 42
143 137 48
137 130 49
143 137 56
141 136 44
135 129 45
138 132 48
137 133 42
140 134 44
144 138 45
131 125 44
142 137 39
125 120 25
132 127 42
137 133 45
135 129 44
137 131 52
131 125 37
126 121 37
122 118 39
122 117 30
128 122 39
104 102 25
161 175 22
165 179 0
166 183 0
166 182 0
166 184 0
164 182 0
166 183 0
170 188 0
166 184 0
169 187 0
163 181 0
166 182 0
169 188 0
167 186 0
163 181 0
169 187 0
168 187 0
168 187 0
166 184 0
163 181 0
166 186 0
165 182 0
166 186 0
170 191 0
169 189 0
171 194 0
171 194 0
169 192 0
172 195 0
172 196 0
170 194 0
173 196 0
168 192 0
168 192 0
171 194 0
173 195 0
171 194 0
177 199 72
180 201 95
184 204 117
185 205 122
186 206 128
185 205 133
188 208 137
183 204 117
181 202 102
184 205 122
182 203 120
184 205 122
183 205 117
183 204 111
185 206 140
183 205 111
178 201 105
182 204 120
177 200 95
178 200 80
182 204 108
179 201 92
183 204 111
177 200 88
179 201 88
180 202 99
183 204 105
179 201 95
184 206 122
178 200 88
182 204 102
183 205 111
179 202 92
181 203 108
183 204 105
180 202 95
187 207 130
184 205 125
178 201 108
182 204 105
181 203 99
180 202 95
184 205 130
178 200 95
179 201 111
184 205 114
185 205 130
188 207 130
182 203 108
190 210 144
177 199 92
187 208 133
182 204 111
185 206 133
186 205 144
178 199 111
183 203 130
181 202 111
171 193 80
171 194 44
167 190 0
167 191 0
164 188 0
166 190 0
168 190 0
168 192 0
163 187 40
136 162 95
145 168 74
163 186 31
167 191 0
164 187 0
87 117 147
60 95 140
60 95 140
60 96 145
60 95 145
60 95 150
62 97 148
61 96 158
62 98 157
61 97 151
62 98 162
61 97 160
61 97 155
62 98 164
61 97 160
61 97 157
61 97 160
62 98 166
61 97 162
62 98 159
61 97 158
61 97 158
61 97 159
61 97 159
61 98 161
62 98 163
61 97 161
61 97 160
61 97 160
61 97 161
61 97 160
61 96 157
62 98 165
61 98 162
62 98 164
61 97 162
60 97 166
61 97 163
61 97 160
61 98 168
62 98 165
61 98 168
62 98 167
61 98 163
62 98 169
61 97 162
61 97 161
62 98 168
63 99 166
62 99 167
61 98 169
61 98 164
61 97 168
63 99 168
62 98 166
62 98 164
63 99 174
61 97 162
62 98 170
62 98 171
61 97 159
61 98 166
62 98 162
62 99 169
61 98 167
62 99 172
62 98 166
62 98 168
61 98 162
62 99 170
62 98 170
62 98 168
61 97 164
62 99 168
63 99 172
62 99 168
62 98 168
63 99 172
62 99 169
62 99 171
61 98 160
62 98 162
63 99 173
62 98 162
61 97 160
61 97 163
62 99 165
62 98 169
62 98 166
62 98 167
61 97 161
63 99 173
63 100 172
62 98 161
62 98 163
62 98 164
62 98 166
62 99 165
62 99 167
62 98 165
62 98 165
63 99 165
62 98 165
61 98 166
62 99 170
62 98 166
62 99 172
62 99 168
62 98 162
62 98 164
62 99 166
61 97 157
62 98 169
62 99 170
62 99 166
62 98 160
62 98 165
62 98 162
62 99 166
62 99 167
62 98 163
62 99 164
63 99 171
62 98 167
62 98 166
62 98 161
62 99 167
62 99 165
62 98 161
62 98 164
62 98 167
61 97 157
62 98 162
63 99 162
62 98 164
63 99 171
62 98 162
62 98 163
63 99 167
62 98 161
62 98 165
63 99 163
61 98 163
62 98 165
63 99 166
62 98 160
60 96 148
62 98 162
62 98 160
62 97 162
62 98 161
63 99 165
62 97 152
61 96 158
62 98 159
63 99 164
61 96 150
62 97 159
62 97 153
62 98 160
61 97 158
62 97 162
61 96 152
61 96 152
61 97 156
61 97 152
62 97 158
60 95 144
60 95 148
62 97 155
61 96 152
61 97 153
61 95 143
60 95 144
60 95 146
60 94 139
60 94 146
60 94 137
60 94 143
57 90 125
72 84 83
69 70 3
88 87 15
88 87 14
83 82 11
81 82 8
101 100 14
89 88 17
85 85 23
86 86 15
88 87 23
73 77 24
91 91 23
95 94 17
91 90 19
93 93 29
89 89 20
106 106 29
107 107 32
107 107 37
104 103 33
111 107 22
96 96 29
97 98 34
101 99 33
119 117 37
115 112 38
119 115 40
112 111 38
112 111 34
131 127 47
120 118 44
114 112 41
128 125 40
128 125 39
126 123 43
129 126 46
119 117 38
129 125 31
130 125 47
134 130 55
130 126 42
133 128 47
136 131 50
137 132 56
128 125 38
132 127 45
134 130 51
138 134 47
135 130 49
135 131 47
138 133 51
136 131 42
145 141 47
144 138 50
142 136 53
139 134 53
143 137 48
141 136 37
148 142 60
138 134 38
144 139 48
143 137 54
146 141 56
153 147 55
144 138 48
148 143 51
151 146 51
148 143 49
143 138 49
142 138 39
142 137 47
143 137 56
146 141 53
146 140 54
142 137 42
146 140 62
140 136 51
143 138 42
143 137 47
143 137 41
145 139 49
129 125 41
142 137 39
141 136 45
134 130 36
145 139 48
139 134 48
136 131 48
136 132 37
137 131 39
130 126 36
143 138 39
142 137 52
136 131 42
138 133 44
141 136 44
132 126 39
138 132 39
136 132 34
130 125 41
135 128 34
132 126 48
127 122 37
124 119 45
131 126 32
122 115 34
120 115 37
118 114 30
109 105 25
156 168 25
166 182 0
165 181 0
165 184 0
162 180 0
162 179 0
168 185 0
170 186 0
168 185 0
165 183 0
167 185 0
169 186 0
170 190 0
166 185 0
164 179 0
168 189 0
168 186 0
169 189 0
164 183 0
171 190 0
168 186 0
161 177 0
166 186 0
173 192 0
169 189 0
165 184 0
173 196 0
172 195 0
172 196 0
172 195 0
168 192 0
168 191 0
172 195 0
171 193 0
172 195 0
176 198 76
180 201 105
190 209 140
187 207 130
192 211 147
183 205 105
185 206 135
183 204 108
183 204 102
178 200 95
184 205 114
181 202 111
182 203 108
180 202 102
181 202 111
184 205 117
178 201 92
180 202 84
181 203 95
183 204 120
181 203 105
179 200 102
180 202 108
182 204 102
181 203 99
184 205 111
183 204 111
181 203 88
182 204 108
181 203 95
178 201 84
180 202 92
180 202 95
179 202 95
180 202 99
176 199 67
181 203 95
181 202 111
180 202 84
181 203 95
181 202 108
181 203 102
177 199 76
186 207 125
178 199 92
179 201 105
177 199 102
178 200 99
182 203 108
181 202 105
183 204 111
181 202 111
176 199 80
178 199 92
179 200 111
180 201 102
182 202 128
185 205 120
180 201 111
186 205 133
183 204 135
186 207 135
180 200 117
178 198 120
178 199 80
170 193 57
167 191 0
162 185 0
165 188 0
163 187 25
127 153 113
127 152 105
115 140 117
115 140 104
139 164 82
80 111 142
62 97 154
59 95 139
61 97 154
61 97 152
62 97 160
61 96 149
61 97 156
60 96 151
61 96 148
60 95 145
61 97 150
61 97 151
61 97 161
60 96 149
61 97 156
62 98 158
61 97 158
62 98 163
61 97 159
61 97 161
62 98 163
60 96 158
61 98 164
61 97 165
61 97 157
61 97 163
60 96 161
62 98 165
62 98 164
61 97 158
61 97 166
61 97 159
61 97 167
62 98 162
62 98 166
62 98 164
62 98 166
61 97 163
61 98 167
61 98 167
61 97 159
62 98 164
61 98 170
61 98 171
61 97 161
62 98 168
61 98 164
62 98 166
60 96 163
62 98 163
61 98 164
61 98 167
61 97 165
62 99 173
62 98 163
61 98 165
61 97 164
62 98 169
61 97 167
61 98 164
62 99 173
62 98 169
63 99 172
62 98 172
62 98 165
62 98 166
63 99 169
62 98 162
61 97 162
61 98 165
62 98 165
63 99 172
62 99 172
61 97 162
61 98 166
62 99 170
61 98 162
61 98 164
61 98 165
62 98 166
62 98 168
61 98 171
62 98 163
62 98 168
62 98 164
62 99 172
62 99 167
61 98 165
62 98 167
63 99 167
62 98 164
62 99 172
62 98 164
62 98 166
62 99 165
61 97 158
62 99 167
62 98 165
62 97 155
62 98 165
62 98 164
62 99 168
62 98 162
61 98 165
62 99 168
62 98 158
62 98 168
61 98 162
62 98 167
63 99 166
61 97 157
62 98 162
61 98 161
62 99 166
62 98 165
62 98 165
62 98 162
62 98 163
62 98 165
62 98 160
62 98 162
62 98 167
62 98 164
61 97 157
62 98 162
62 98 162
61 97 159
62 99 167
62 98 165
62 98 165
61 97 155
62 98 163
62 98 159
62 98 164
62 98 161
62 99 167
63 99 164
62 98 164
62 98 166
61 96 156
62 97 156
63 99 164
62 98 161
61 97 156
63 99 166
62 98 163
62 98 163
62 98 164
63 99 163
62 97 156
62 97 156
62 98 159
61 97 160
62 98 166
63 98 161
62 98 163
61 97 157
62 97 151
59 94 142
62 98 166
62 97 153
62 97 156
60 95 145
59 94 152
62 98 155
62 98 156
60 96 151
61 95 144
61 97 154
62 97 148
61 96 147
61 95 146
60 94 140
61 95 143
60 95 145
59 93 137
59 93 138
59 92 145
58 91 127
76 85 79
78 75 9
84 82 9
70 72 17
78 78 16
94 93 18
89 87 20
85 84 18
81 81 14
72 74 17
87 87 16
83 83 28
96 96 29
84 84 25
94 92 22
92 90 24
78 78 20
98 98 29
101 100 32
112 109 36
95 95 21
110 108 27
103 101 19
107 105 35
109 106 28
119 116 32
108 107 37
120 117 46
118 116 37
111 109 35
122 121 29
124 121 33
120 116 45
125 121 47
118 117 42
129 124 41
122 119 35
131 128 47
129 124 45
132 129 48
136 133 49
124 121 40
136 132 47
136 132 43
130 126 35
124 121 42
131 127 50
135 131 41
133 130 51
142 136 53
141 136 54
149 142 55
145 141 57
140 135 49
137 134 40
141 136 36
145 139 52
140 136 43
139 134 47
140 135 47
151 145 51
137 132 42
144 140 48
149 143 54
149 144 54
141 135 47
147 142 51
144 137 45
142 137 53
145 139 48
144 139 47
141 135 48
143 137 45
140 135 47
142 137 47
144 138 52
148 142 47
146 141 44
147 140 53
146 141 48
149 143 57
147 142 44
138 133 39
142 137 41
142 136 45
128 123 42
142 135 49
127 123 34
142 135 49
135 130 44
144 138 47
131 126 37
146 140 54
135 130 34
135 131 32
133 129 36
136 130 51
132 127 48
138 132 47
135 128 44
135 130 41
129 123 36
131 125 32
130 123 41
129 122 42
123 119 32
119 114 32
128 123 34
115 110 32
148 159 25
163 181 0
161 177 0
162 179 0
163 180 0
166 184 0
162 178 0
159 174 0
166 185 0
166 185 0
167 186 0
165 184 0
165 183 0
167 189 0
166 184 0
168 188 0
167 186 0
165 185 0
165 184 0
168 188 0
167 186 0
167 187 0
166 184 0
165 185 0
168 185 0
168 187 0
171 190 0
171 195 0
169 192 0
168 192 0
171 195 0
169 192 0
170 193 25
182 202 88
184 204 122
185 204 130
187 208 133
188 208 133
181 203 108
185 206 130
185 205 125
181 202 120
183 204 111
182 204 105
184 205 117
182 203 120
178 200 95
185 206 120
178 200 102
185 206 120
180 202 105
181 204 105
178 200 76
181 203 102
179 201 80
181 204 102
180 202 99
180 202 84
181 203 105
178 201 80
177 200 80
178 201 76
175 199 92
182 204 108
181 203 102
185 206 125
181 203 105
177 200 76
178 201 80
183 205 105
181 203 99
180 203 88
182 203 88
180 202 88
182 204 99
177 200 84
183 204 108
180 203 99
182 204 128
178 201 88
179 202 99
178 201 84
175 199 72
180 203 92
184 205 111
180 202 92
182 204 108
181 203 95
179 201 88
178 200 95
179 201 95
181 202 105
183 204 111
185 205 122
181 202 105
182 204 114
187 207 137
180 201 99
181 202 120
187 208 125
183 204 117
190 208 144
175 195 111
173 193 95
169 193 0
171 194 0
163 187 44
139 163 95
134 159 108
131 155 100
132 158 111
108 134 122
101 129 136
74 107 150
60 95 151
61 96 150
62 97 153
61 97 152
61 96 153
61 96 156
60 96 147
61 97 158
62 98 162
60 96 150
61 96 155
61 97 155
61 97 156
61 97 156
62 98 159
61 98 161
62 98 159
60 96 149
63 99 162
61 97 169
61 96 159
61 96 167
62 98 164
61 96 159
61 97 154
62 98 159
61 97 156
62 98 165
63 99 168
61 98 164
60 95 152
61 97 165
61 97 160
61 97 165
61 97 159
61 98 159
61 97 160
61 97 162
61 97 162
61 97 165
61 97 165
61 97 162
62 98 170
62 98 167
62 98 163
61 97 166
62 98 169
61 98 163
62 98 166
62 98 165
62 98 163
61 97 163
62 98 167
62 98 165
62 98 172
62 98 164
61 98 166
62 98 166
62 98 165
62 98 165
61 98 163
62 98 169
61 97 162
62 98 164
62 98 166
62 98 165
62 98 164
61 97 165
62 98 164
61 98 162
62 98 170
61 98 168
62 99 171
62 98 168
63 99 170
61 98 165
62 98 171
62 98 173
62 99 169
62 98 172
60 96 155
62 98 162
62 98 166
60 97 159
63 99 168
62 98 161
62 98 162
62 98 168
61 97 154
61 97 163
62 99 165
62 99 171
62 98 165
62 99 164
62 98 163
61 97 159
61 97 165
63 99 166
62 98 169
62 98 165
63 99 167
62 98 168
62 98 164
62 98 169
62 98 165
61 97 157
62 98 159
61 98 167
62 98 162
61 96 158
63 99 165
62 98 168
62 98 164
62 98 161
61 97 155
62 98 164
61 97 162
63 99 167
63 99 161
62 98 162
62 98 157
62 98 162
62 98 162
62 98 154
62 98 162
62 99 170
62 98 159
62 98 155
61 97 154
62 98 164
61 97 157
62 98 166
62 99 167
62 98 156
61 97 158
61 97 156
62 98 161
62 98 163
62 98 161
63 99 167
61 97 158
61 97 155
63 98 159
62 98 157
61 97 154
63 98 161
61 97 154
62 98 157
61 96 150
62 98 163
63 99 164
62 98 160
62 98 162
62 97 158
62 98 158
62 98 161
61 96 155
61 97 153
61 96 149
60 96 154
60 95 147
61 97 154
62 97 152
60 95 140
61 97 154
61 97 152
61 96 149
62 97 159
61 95 147
60 95 142
60 95 146
61 96 149
60 94 145
61 95 147
59 92 145
59 93 138
57 90 128
75 85 79
76 77 9
88 87 13
78 77 13
85 83 5
85 83 17
87 86 18
88 87 10
87 86 19
90 90 21
92 90 24
80 80 22
83 82 20
78 79 21
106 106 27
86 85 9
93 93 21
96 96 20
102 99 21
100 100 17
103 101 29
111 110 22
92 92 26
106 105 29
111 108 29
110 107 33
105 104 36
116 113 37
117 115 37
123 120 39
119 116 35
119 115 44
108 108 31
116 114 36
121 119 39
113 112 37
123 120 42
122 119 33
127 124 37
126 123 45
122 118 38
127 121 45
136 132 50
135 132 39
128 125 36
144 139 56
135 131 39
141 136 46
135 129 47
137 132 49
137 132 48
139 134 43
135 132 43
133 131 39
141 137 51
141 137 48
137 133 45
141 137 42
143 139 51
140 134 44
146 141 50
138 135 45
136 131 39
145 139 47
149 143 41
142 137 44
144 139 54
144 138 52
144 138 49
151 145 49
140 135 52
133 130 36
146 140 56
133 128 45
145 139 47
143 137 48
143 137 49
146 141 52
142 137 48
142 135 49
130 126 41
140 136 36
137 132 41
138 132 42
140 135 49
136 130 39
141 135 53
141 135 49
141 135 52
139 134 44
145 139 37
143 137 45
134 129 41
130 126 37
125 120 39
137 132 45
124 120 34
131 127 30
129 123 36
126 121 37
124 120 39
129 125 30
134 127 47
117 112 37
116 113 25
119 113 34
125 120 37
123 116 30
131 138 25
163 179 0
168 184 0
165 181 0
163 178 0
165 182 0
162 178 0
165 182 0
166 183 0
164 178 0
168 185 0
165 183 0
169 188 0
166 184 0
160 177 0
164 181 0
163 182 0
162 181 0
166 184 0
167 187 0
165 185 0
166 185 0
169 189 0
165 185 0
167 186 0
163 182 0
167 187 0
167 185 0
172 195 0
173 197 0
168 192 0
177 200 88
185 206 111
191 210 147
184 205 117
186 206 133
186 206 130
182 204 114
189 209 140
182 203 117
186 205 135
182 204 111
181 203 117
183 204 105
181 203 108
178 200 92
184 205 120
181 203 102
180 202 92
182 204 105
180 202 99
180 203 95
180 202 92
183 205 111
181 203 95
176 200 72
181 204 102
177 200 72
180 202 99
179 202 88
180 202 84
180 202 88
181 203 99
179 202 80
179 202 92
180 202 76
181 203 99
179 201 76
179 201 80
179 202 84
181 203 102
179 202 92
180 202 88
180 202 84
180 202 95
179 201 80
179 201 80
182 204 111
180 202 95
180 202 99
182 204 108
178 200 80
181 203 92
180 203 92
179 201 88
179 201 92
180 203 105
177 200 72
179 201 88
182 204 102
179 201 102
181 203 95
182 203 105
178 200 80
183 204 99
179 200 80
181 203 108
181 203 102
178 199 105
180 201 120
179 200 92
177 199 92
178 200 99
181 202 108
184 204 130
185 205 137
181 201 102
171 192 84
155 178 65
139 164 97
142 167 94
134 158 95
128 153 107
135 160 103
101 128 133
101 129 145
77 108 147
63 97 143
61 97 149
61 96 151
59 94 142
60 95 141
60 96 152
60 96 155
62 98 162
61 97 156
62 98 161
60 95 155
62 98 164
61 97 158
61 97 161
62 98 158
61 97 165
61 97 154
61 96 155
62 98 164
61 96 156
61 97 162
61 98 163
61 97 166
62 98 165
61 97 162
62 98 163
61 97 159
62 98 162
61 97 163
61 97 159
62 98 163
61 97 165
62 98 165
61 97 166
62 98 160
61 97 162
61 97 157
61 97 161
61 98 164
61 98 166
61 98 165
61 97 165
61 97 162
62 98 165
62 98 167
62 98 167
61 97 166
62 98 166
62 98 170
62 99 170
62 98 162
62 98 166
62 98 165
62 98 165
61 97 163
63 99 173
61 98 165
62 98 168
62 99 170
62 98 169
62 98 168
61 98 165
61 97 163
62 98 172
61 97 160
61 97 163
60 96 161
63 99 169
61 98 160
62 98 165
62 98 168
62 98 170
61 97 164
62 98 166
62 98 169
62 98 166
61 97 166
62 99 169
63 99 166
62 98 161
62 99 171
62 98 167
62 98 164
62 98 169
63 99 167
62 98 166
63 99 166
62 98 165
62 98 164
61 97 158
61 97 159
62 98 162
62 98 160
63 99 161
62 98 163
62 98 165
62 98 165
63 99 167
62 98 166
62 98 164
62 98 162
62 99 169
62 98 163
63 99 165
62 98 165
61 98 160
62 98 167
62 98 158
62 98 168
62 98 161
62 99 167
62 98 165
62 99 167
63 99 165
62 98 165
62 98 164
61 97 161
62 98 162
63 99 164
61 98 163
62 98 164
62 98 165
61 97 157
61 97 152
62 97 159
61 97 163
62 98 161
61 97 156
61 97 163
61 97 161
62 98 158
62 98 159
62 98 158
61 97 164
61 97 156
62 98 162
62 98 159
63 99 165
62 98 160
62 99 163
62 97 154
62 98 159
62 98 160
62 98 160
61 97 151
61 97 154
62 98 156
61 97 158
62 97 155
62 98 160
62 98 156
62 98 159
61 97 155
62 97 157
61 97 159
62 97 159
62 98 157
61 96 153
61 97 153
62 97 157
62 97 154
61 96 151
62 97 158
62 98 163
60 95 146
61 96 152
61 95 146
61 95 149
59 94 149
59 93 135
59 93 146
60 94 150
59 92 146
60 94 145
59 93 135
66 76 75
73 71 8
83 81 14
76 76 8
94 93 14
74 73 10
94 93 15
76 74 16
89 86 8
83 82 16
89 88 12
94 92 14
82 81 22
91 90 26
87 86 17
112 108 28
97 96 22
90 89 21
103 100 23
95 94 8
100 99 27
104 102 24
107 105 30
97 96 24
106 105 32
104 102 30
98 98 23
102 101 22
122 119 31
115 112 31
113 112 34
124 121 39
132 128 46
103 101 24
121 118 39
121 117 41
117 115 33
133 130 41
128 124 42
125 122 37
134 130 47
120 117 42
126 124 33
133 129 44
128 124 37
132 128 40
122 118 37
133 129 43
126 122 42
127 124 31
147 142 45
135 131 42
143 138 42
141 135 48
139 134 44
137 133 47
134 130 39
144 138 49
149 142 53
143 138 51
139 136 42
129 126 41
145 140 42
143 137 56
140 136 39
144 138 51
134 129 34
146 140 49
146 140 52
143 138 47
146 140 48
138 133 44
145 141 49
139 134 42
145 139 49
141 135 45
141 136 48
133 126 39
133 128 39
140 134 48
135 130 39
136 131 32
138 131 47
139 134 44
136 131 44
131 127 37
131 125 36
131 128 37
140 134 47
134 129 42
136 131 41
128 122 37
136 132 41
131 126 45
126 120 42
126 121 34
128 123 37
125 120 39
129 123 37
137 132 41
130 124 39
126 118 41
120 116 34
121 117 32
120 113 37
123 118 36
121 116 30
141 146 28
163 178 0
168 186 0
158 172 0
164 179 0
161 174 0
161 177 0
163 178 0
169 187 0
166 183 0
165 181 0
164 182 0
164 181 0
161 176 0
166 183 0
164 180 0
167 185 0
167 186 0
166 183 0
163 181 0
164 182 0
163 182 0
163 182 0
165 184 0
164 182 0
169 189 0
164 183 0
167 187 0
167 187 0
171 194 51
181 202 99
188 208 142
191 210 140
190 210 142
187 208 128
182 202 108
187 208 125
180 201 111
185 206 120
182 203 114
180 202 95
178 201 76
182 204 102
182 204 105
181 203 99
181 203 102
180 202 95
181 203 99
183 205 111
178 201 88
180 202 92
179 202 84
178 201 84
177 200 67
178 201 62
179 201 84
179 202 80
177 200 76
178 201 72
178 201 76
180 202 88
184 205 111
184 205 117
192 212 151
195 214 165
196 215 165
200 218 179
204 222 198
209 225 211
208 224 204
203 221 194
204 221 198
206 223 203
198 216 167
204 221 198
203 220 188
197 216 169
194 213 157
189 209 137
185 207 125
177 200 95
180 203 99
181 203 99
179 202 99
179 202 92
178 201 76
182 204 102
180 203 92
175 199 62
177 200 92
179 202 80
179 201 102
182 204 108
180 201 99
178 200 72
179 201 76
176 199 72
181 202 105
182 204 108
176 198 88
181 202 117
179 202 108
177 199 99
183 204 120
182 203 120
183 204 120
182 202 122
180 201 117
186 207 135
190 210 140
173 194 122
150 174 82
140 165 100
148 171 90
124 150 113
126 151 114
125 150 115
117 141 115
100 127 130
85 114 141
64 98 141
61 96 152
60 96 153
61 97 159
61 97 152
60 96 147
60 96 151
62 98 156
61 98 159
61 97 160
60 96 160
61 96 157
62 98 164
62 98 160
60 96 156
62 98 162
62 98 158
61 97 163
61 96 157
60 96 152
60 96 160
61 97 163
61 97 162
61 97 162
61 97 164
61 97 160
61 97 159
61 97 157
61 97 164
62 98 162
61 97 161
60 96 160
61 97 154
61 97 161
61 97 161
61 97 160
61 97 161
62 98 168
61 98 165
62 98 169
62 98 167
61 97 162
61 97 159
62 98 166
62 98 170
61 98 165
62 98 169
62 98 160
62 98 164
61 97 160
62 98 172
61 97 163
63 100 175
62 98 169
63 99 172
62 98 164
62 98 166
61 98 164
62 99 174
62 99 173
63 99 169
62 98 163
61 98 163
63 99 170
62 98 165
62 98 171
62 98 165
62 98 169
62 98 166
61 97 163
63 99 168
63 99 163
62 98 161
63 99 167
62 98 164
63 99 169
61 97 159
61 98 168
62 98 168
61 97 157
61 97 158
63 99 172
62 99 168
61 97 163
61 97 158
62 98 167
62 98 160
62 98 165
62 98 163
63 99 164
63 99 173
62 99 168
62 98 164
62 98 164
62 98 166
62 98 161
62 98 164
62 98 166
63 99 171
62 98 162
62 99 165
63 99 165
62 97 163
62 98 159
63 99 168
64 100 172
62 98 164
62 98 161
62 98 162
62 98 165
62 98 164
62 99 166
62 98 161
62 97 163
62 98 162
61 98 166
63 99 166
62 99 168
62 98 164
62 98 168
62 98 158
62 98 159
62 98 160
62 98 162
62 98 158
61 97 156
62 98 158
61 97 162
62 98 162
62 98 163
62 97 158
62 98 164
62 98 154
62 98 158
61 97 150
62 97 159
62 98 161
63 98 158
62 97 156
62 97 155
60 96 147
62 98 161
63 98 163
62 98 163
62 97 155
62 98 165
62 98 161
62 98 160
62 98 160
63 99 166
63 98 156
62 98 156
62 98 160
61 96 157
62 98 158
62 97 152
61 97 156
60 95 143
62 98 158
61 96 153
62 98 161
61 96 146
61 96 152
61 97 154
61 95 149
60 93 136
61 95 152
60 95 146
59 93 139
60 94 142
59 93 136
60 93 140
57 89 126
82 87 75
73 70 21
77 77 8
81 79 12
85 81 14
87 86 14
90 86 16
74 73 18
88 86 12
92 90 14
78 78 8
84 81 14
86 85 20
84 84 18
87 86 21
93 93 18
98 96 11
88 89 17
103 100 25
85 87 20
109 109 24
101 100 25
97 95 29
115 111 28
104 101 34
110 109 22
110 108 28
115 112 29
118 114 35
110 108 35
122 119 39
115 111 32
111 109 32
108 107 35
120 117 31
112 110 36
118 115 43
119 116 35
129 125 48
138 133 49
133 129 50
125 121 36
124 122 25
137 133 47
133 129 38
132 130 39
123 120 38
144 139 51
135 131 35
132 127 42
134 130 33
139 134 48
133 129 41
149 143 48
136 131 46
142 137 44
137 132 42
146 141 51
138 133 44
136 132 37
141 136 45
141 135 44
142 137 44
145 139 48
140 135 37
136 132 34
126 122 42
136 131 39
141 137 36
146 139 47
146 141 48
139 135 42
141 135 48
143 137 44
143 138 49
136 131 48
144 138 45
142 136 44
134 129 37
143 138 47
136 131 48
130 125 36
143 138 47
133 129 39
141 136 47
138 133 36
133 127 41
138 132 39
132 127 45
131 127 32
131 125 34
133 127 41
128 124 25
126 122 39
133 128 34
133 127 42
128 120 42
134 128 45
126 120 44
127 120 37
129 123 44
125 119 37
120 116 30
120 114 36
112 106 30
114 108 32
150 158 30
164 178 0
167 185 0
165 182 0
164 179 0
164 180 0
161 177 0
165 184 0
163 181 0
159 175 0
165 183 0
165 182 0
165 183 0
162 179 0
165 182 0
161 176 0
164 183 0
168 184 0
168 186 0
162 179 0
164 182 0
168 188 0
169 187 0
166 185 0
168 187 0
169 187 0
168 188 0
166 187 0
167 187 0
168 185 0
187 207 130
186 206 130
188 208 133
184 204 114
187 208 133
180 202 95
181 203 105
180 202 88
181 203 111
184 205 117
184 204 125
178 201 88
181 203 102
181 203 99
182 204 105
183 205 117
180 203 102
177 200 76
180 202 88
178 201 92
178 200 76
177 200 62
178 201 80
179 201 72
181 204 102
188 209 135
194 213 157
203 220 191
211 227 217
215 230 228
217 232 238
221 235 253
222 235 252
222 236 252
221 235 250
220 234 252
223 237 254
220 234 250
219 233 248
222 236 253
220 235 249
221 234 250
223 236 255
220 234 248
223 236 254
221 235 250
223 236 254
221 235 253
219 234 245
221 234 249
222 236 253
222 236 249
221 235 248
216 231 231
213 228 226
203 220 191
199 217 173
186 207 120
184 205 114
180 202 88
176 200 67
178 201 76
177 200 92
182 205 111
179 201 80
180 203 102
178 201 88
177 200 62
180 203 99
184 205 108
179 202 95
180 202 102
181 203 102
178 200 84
182 204 111
182 204 102
181 202 114
170 191 121
152 173 143
134 155 161
117 139 178
122 144 181
113 136 162
74 106 143
88 118 139
101 129 124
108 135 128
125 149 100
129 154 100
127 152 110
107 133 125
117 144 117
78 110 141
60 95 144
60 96 154
61 96 153
61 97 156
60 96 149
60 96 154
61 96 152
61 97 160
62 98 165
61 97 157
60 96 153
61 96 157
60 96 156
60 95 150
62 98 163
61 97 166
62 98 164
62 98 160
61 97 164
61 97 156
62 98 168
61 98 164
62 98 161
61 97 162
61 97 161
62 98 166
62 98 166
62 98 161
62 99 169
61 98 166
61 97 158
61 97 162
62 98 166
60 97 165
60 97 160
61 98 164
61 97 158
61 97 163
62 99 167
62 98 164
61 98 161
63 99 170
61 98 162
62 98 167
60 97 158
61 97 160
61 98 166
62 98 167
62 98 168
62 98 166
62 98 165
62 98 169
61 97 163
62 98 169
62 99 170
62 98 166
62 98 164
62 98 162
63 99 172
62 98 160
62 98 166
62 98 169
61 97 160
61 97 160
62 98 167
61 98 162
62 98 166
62 98 162
62 98 160
61 98 167
62 98 168
63 99 168
61 98 166
63 99 172
62 98 166
62 99 169
61 98 162
61 97 162
61 97 162
62 98 167
63 100 175
62 98 164
63 99 168
61 98 164
61 97 154
62 98 166
61 97 161
61 98 160
63 99 164
62 98 163
62 98 161
62 98 160
62 99 168
62 99 171
62 98 167
61 98 160
63 99 170
61 97 154
62 99 168
62 99 165
61 97 160
62 98 166
62 98 164
62 98 163
63 99 167
62 98 168
62 99 166
63 99 163
62 98 161
62 98 162
62 98 160
62 98 164
63 99 168
61 98 162
62 99 168
63 100 169
62 98 163
62 98 161
62 98 161
62 99 166
61 97 155
62 98 161
61 97 157
62 99 166
61 97 154
61 97 152
62 97 159
62 97 153
62 97 151
61 97 158
63 99 170
62 98 159
61 97 157
61 97 156
62 98 160
61 97 154
62 97 155
62 98 159
61 98 160
62 98 159
62 98 161
62 98 153
61 97 160
61 97 150
61 96 153
62 98 159
60 95 147
62 98 159
62 98 160
61 97 154
61 96 157
63 99 161
62 97 162
61 97 152
61 97 159
61 97 150
62 97 152
61 96 145
61 96 153
60 95 142
61 96 147
61 96 148
61 95 153
60 94 141
58 92 131
61 96 149
60 95 143
59 92 128
61 95 143
58 91 128
56 88 124
87 91 57
75 74 9
85 84 8
87 87 20
83 82 8
88 87 10
83 82 8
80 79 19
86 83 8
72 73 6
88 86 16
87 85 12
95 94 6
79 79 16
97 94 16
95 93 23
100 99 23
88 89 8
96 94 14
100 98 30
94 93 11
96 95 16
102 100 29
95 94 12
109 107 25
108 106 18
122 118 37
109 108 25
115 112 32
106 105 28
114 111 32
113 111 30
114 112 26
121 119 24
120 118 35
114 110 40
122 118 33
120 117 29
120 117 32
129 125 41
116 114 22
117 116 28
129 126 38
134 129 35
127 124 33
128 125 37
138 133 46
137 133 43
139 135 45
132 128 37
137 132 42
138 135 43
127 123 42
138 133 45
132 128 41
137 132 34
134 130 32
142 139 42
140 135 44
132 128 47
134 128 39
136 132 41
138 134 40
137 132 37
134 130 30
136 132 39
136 131 37
134 129 40
135 131 37
145 140 41
141 136 45
138 133 42
137 132 39
139 134 39
138 133 30
135 131 34
136 130 44
137 132 47
132 128 32
136 132 37
135 131 37
128 123 36
133 128 34
136 130 45
137 131 41
140 133 48
129 126 32
126 121 34
128 123 37
136 130 41
122 118 30
122 117 34
127 123 25
132 127 36
132 128 34
131 125 39
128 122 30
123 118 25
113 109 32
128 123 25
125 118 34
123 118 30
121 115 32
120 116 32
117 113 30
129 134 19
165 181 0
166 181 0
163 179 0
161 174 0
157 170 0
161 177 0
161 179 0
162 178 0
163 178 0
161 179 0
164 182 0
162 177 0
162 177 0
166 184 0
165 180 0
165 181 0
165 182 0
167 184 0
166 183 0
164 181 0
167 185 0
169 188 0
166 183 0
168 186 0
167 186 0
165 183 0
167 185 0
169 189 0
168 186 0
171 191 0
184 205 117
184 205 108
181 203 111
182 204 111
180 202 92
177 200 95
180 202 95
177 200 84
181 203 102
179 202 92
181 203 95
177 200 80
179 201 88
177 200 72
180 202 88
177 200 72
179 202 92
182 204 105
176 199 72
183 204 105
189 209 137
203 220 189
209 225 212
215 230 230
222 235 252
222 236 253
221 235 252
220 234 246
222 235 252
221 235 250
221 235 252
220 234 249
218 233 246
220 234 250
221 235 252
220 234 252
220 235 253
220 235 252
220 234 252
218 232 246
221 235 252
219 234 249
218 233 248
222 236 255
221 235 253
218 233 248
220 234 249
220 234 252
219 233 246
220 235 253
221 235 250
220 235 250
221 235 252
220 234 249
221 235 250
222 236 254
221 235 250
222 236 250
222 236 252
215 230 231
204 221 191
200 218 179
195 214 163
184 205 114
177 201 80
177 200 84
179 202 99
180 203 95
183 204 108
177 199 92
177 200 92
180 202 102
179 201 92
176 199 88
177 200 92
182 204 99
173 195 117
125 149 162
110 134 173
105 130 173
113 137 184
115 138 171
119 141 177
110 134 173
63 98 155
71 104 161
66 100 152
64 99 161
78 109 153
87 117 144
121 146 117
122 149 120
111 137 114
116 141 112
92 121 139
65 99 159
61 96 149
61 97 160
60 95 155
60 96 151
60 96 159
60 95 151
61 97 159
61 97 157
60 95 148
60 96 153
60 95 155
61 96 154
61 96 160
62 98 164
61 97 166
62 98 161
60 96 158
60 96 158
61 97 162
61 97 159
61 97 160
60 96 161
61 97 160
61 98 160
62 98 165
62 98 170
61 98 160
61 98 160
62 98 171
61 97 168
62 98 170
61 97 164
62 99 170
61 98 165
62 98 164
61 97 167
60 96 154
62 98 169
61 97 156
60 96 159
61 98 168
62 98 168
61 97 162
61 98 169
61 97 166
62 98 163
61 98 162
62 98 164
61 97 164
62 98 163
62 98 166
61 97 167
62 98 167
62 99 166
62 98 161
62 99 167
62 98 162
61 97 161
62 98 166
61 98 165
62 98 168
61 98 168
62 98 168
61 97 157
62 98 168
61 97 163
62 98 168
61 97 159
61 97 157
62 98 169
61 98 168
61 97 159
61 97 166
61 98 163
62 98 163
61 97 164
61 97 162
61 97 160
61 97 158
62 98 157
62 98 163
63 99 162
62 99 167
62 98 163
62 98 167
62 98 161
62 98 162
61 97 157
62 98 160
61 97 156
62 98 156
62 98 160
63 99 172
63 99 168
62 98 165
61 97 158
61 97 160
61 97 159
62 98 161
62 98 165
62 98 163
61 97 161
61 97 154
62 98 166
62 97 156
62 98 162
62 98 165
62 98 165
62 98 159
62 98 161
62 98 162
62 98 161
63 99 168
62 98 159
62 99 163
62 97 158
62 98 159
61 97 151
62 98 164
62 98 163
62 98 165
62 98 159
61 98 163
61 98 162
62 98 161
61 97 158
62 98 159
62 97 154
62 98 162
61 97 155
62 98 156
61 98 161
62 98 158
61 97 156
61 97 151
62 98 157
62 98 157
61 97 158
62 98 156
62 98 156
61 96 153
62 98 159
61 96 154
63 98 160
62 98 163
62 97 157
62 98 159
61 97 156
61 96 154
60 95 147
62 97 147
61 97 151
62 97 154
61 96 152
61 97 156
60 94 145
61 97 151
62 97 148
61 96 152
61 96 147
60 94 139
60 94 146
59 93 140
60 93 136
59 94 142
59 93 139
59 92 137
59 93 139
81 81 47
96 92 16
87 85 8
82 81 8
84 81 0
94 91 3
88 87 14
82 81 0
85 84 3
87 87 14
86 84 14
87 85 9
95 92 8
96 94 19
88 87 16
99 97 22
97 96 8
98 96 19
102 98 19
91 89 14
101 99 30
91 91 24
117 115 22
101 100 16
111 108 31
112 110 33
108 105 25
108 106 27
109 107 25
114 113 38
121 118 19
114 112 30
122 118 36
118 114 38
118 115 28
119 117 28
121 117 34
114 112 22
119 116 34
132 129 30
123 119 37
137 133 37
131 127 37
129 124 25
122 119 34
126 122 38
121 118 38
130 127 25
129 126 29
134 130 49
137 132 36
138 133 42
134 130 42
136 132 36
139 134 41
137 133 41
128 124 30
132 128 45
135 131 47
135 129 36
138 133 36
141 134 44
132 128 28
140 136 36
142 135 53
142 137 34
137 134 41
136 131 37
140 135 30
138 134 39
139 133 45
134 128 34
129 123 34
135 130 36
132 128 34
140 134 47
135 131 42
134 129 39
141 136 45
126 122 25
139 133 42
127 121 28
135 130 39
133 129 32
134 129 41
134 129 41
127 123 32
138 131 44
135 128 41
128 123 22
134 128 36
129 127 30
135 130 37
123 118 28
138 131 45
123 119 36
128 123 41
123 119 30
125 119 30
118 111 34
116 110 25
111 107 22
113 107 36
118 112 36
131 137 16
160 173 0
157 170 0
162 175 0
163 180 0
160 174 0
166 181 0
164 178 0
163 181 0
161 177 0
161 177 0
162 177 0
167 184 0
165 177 0
161 176 0
164 180 0
163 179 0
167 185 0
165 183 0
163 181 0
165 182 0
168 188 0
166 185 0
167 187 0
164 182 0
168 187 0
160 176 0
162 180 0
167 186 0
165 183 0
170 189 0
167 186 0
189 209 147
184 206 117
184 205 99
182 203 111
183 204 117
179 201 88
178 200 84
182 204 102
178 201 84
179 201 88
178 201 80
178 200 102
178 201 92
180 202 95
179 201 76
179 201 92
194 213 155
207 224 207
212 227 223
220 234 248
221 235 252
221 235 252
220 234 248
220 234 250
220 235 250
220 234 250
220 235 250
221 235 253
219 234 249
219 234 249
217 232 246
220 235 254
220 234 252
219 234 249
219 234 252
218 233 249
219 234 253
220 234 253
219 234 253
220 235 255
219 234 253
218 234 253
217 232 246
219 234 253
218 234 250
219 234 252
219 234 253
219 234 250
219 234 253
217 233 249
219 234 253
219 234 252
219 234 249
218 233 248
221 235 253
219 233 252
220 234 249
220 234 252
220 234 250
221 235 252
222 236 255
222 236 253
222 235 252
221 235 246
216 230 230
202 219 188
188 209 144
181 204 105
177 200 76
178 201 84
178 201 84
181 203 88
180 202 95
181 202 80
181 203 105
179 201 84
152 175 128
118 142 179
93 120 166
119 142 182
109 134 175
105 130 177
97 124 166
116 139 176
97 124 167
76 108 154
63 99 160
63 98 158
69 102 148
63 98 153
67 100 151
62 96 145
83 114 145
112 138 117
115 141 134
115 141 124
89 118 142
65 98 147
60 96 154
60 96 159
60 96 150
62 97 155
60 96 156
62 98 161
61 96 155
61 97 159
60 96 153
61 97 156
61 96 157
60 95 151
61 97 156
61 97 156
61 97 166
61 97 160
60 96 158
61 96 161
62 98 164
62 98 164
61 97 161
61 97 158
61 97 161
61 97 170
61 97 167
62 98 163
60 96 158
62 98 168
63 99 167
62 98 170
62 98 169
61 98 164
61 97 163
62 98 160
62 98 162
60 96 160
61 98 167
62 99 169
61 97 160
61 97 162
61 97 161
62 98 173
61 98 162
60 97 162
62 98 162
62 98 168
61 98 167
62 98 159
62 99 168
62 98 162
62 98 168
61 97 164
61 98 165
62 99 173
62 98 161
61 97 161
62 99 167
61 97 159
61 98 162
62 98 163
62 99 169
62 98 162
61 97 163
61 97 158
62 98 165
62 98 164
62 98 164
62 98 170
62 98 166
62 98 165
62 98 163
62 98 161
62 98 163
62 99 164
62 99 167
61 98 162
61 97 160
62 99 172
61 97 161
61 97 160
61 97 159
62 98 161
62 98 167
62 98 166
61 97 156
61 97 158
62 98 161
61 97 161
62 98 161
61 97 158
62 98 165
62 98 156
61 97 162
63 99 168
62 98 158
62 99 167
62 98 167
62 98 164
61 97 158
62 98 162
62 98 160
61 97 161
61 97 158
61 98 165
63 99 167
61 97 158
62 98 162
62 98 163
62 98 158
61 98 166
62 98 163
63 99 162
61 97 153
62 98 163
62 98 163
63 99 166
62 98 156
62 99 165
62 98 159
63 99 165
60 96 153
62 98 160
61 97 155
63 99 163
63 99 162
61 97 156
62 98 162
61 96 149
61 97 162
61 96 152
62 98 162
62 98 154
62 98 161
61 97 157
62 97 159
62 97 151
61 96 152
62 97 153
61 97 152
62 97 152
61 96 153
62 97 160
62 97 152
61 97 151
62 98 156
62 97 156
61 96 149
61 96 149
61 97 155
61 96 156
61 97 155
62 98 155
61 95 148
59 94 142
60 94 142
60 95 153
61 96 150
61 95 147
62 97 151
59 93 137
61 95 145
61 95 147
58 92 130
59 93 141
58 91 134
60 91 133
76 76 24
91 88 11
84 80 0
81 78 0
87 85 8
90 88 8
89 87 14
83 83 16
86 85 0
80 77 12
85 82 14
82 81 16
97 96 8
84 83 18
86 85 16
98 97 8
100 98 16
89 87 11
96 96 16
81 79 11
109 106 11
97 94 16
103 100 16
96 93 22
105 102 19
105 104 18
111 109 25
103 101 28
99 97 26
103 100 28
107 105 29
115 112 26
112 111 24
104 102 21
121 118 37
123 120 31
118 114 30
123 119 30
121 118 37
123 120 35
125 121 32
126 124 30
123 119 34
115 113 30
126 122 33
120 117 34
130 127 30
130 126 30
132 126 35
137 133 37
138 133 37
133 129 41
126 122 35
137 131 43
135 130 35
133 127 37
134 130 39
130 125 38
132 127 37
134 130 34
133 129 39
132 128 30
133 128 37
133 128 28
132 127 41
139 133 42
135 131 34
135 130 36
137 133 36
134 129 41
144 137 45
132 127 25
135 131 30
133 130 30
129 124 30
133 127 44
129 122 37
142 136 32
137 132 39
136 131 34
141 136 41
129 123 37
122 118 32
137 133 30
128 123 30
127 122 41
128 122 25
137 132 28
135 129 45
129 125 34
128 122 32
125 118 36
127 123 28
129 124 32
132 126 32
116 111 25
127 124 30
123 117 36
117 111 28
120 116 28
116 112 34
123 117 32
107 101 22
142 151 22
160 173 0
166 180 0
159 174 0
162 177 0
159 174 0
159 173 0
163 181 0
160 175 0
161 178 0
166 182 0
161 174 0
167 182 0
158 173 0
162 180 0
164 180 0
168 184 0
160 177 0
166 181 0
162 181 0
165 181 0
166 184 0
160 176 0
166 183 0
167 184 0
164 183 0
168 184 0
162 181 0
169 189 0
164 182 0
165 182 0
169 189 0
166 185 0
181 203 108
183 204 92
181 203 114
180 202 88
177 200 76
181 203 95
178 201 95
181 204 105
177 200 67
178 201 99
180 203 92
180 202 105
190 210 147
205 222 198
211 226 217
222 236 252
222 236 253
222 236 253
219 234 246
220 234 250
220 234 250
220 234 250
218 233 249
218 233 248
219 234 252
220 234 253
219 234 253
219 234 254
218 234 252
219 234 252
218 233 252
217 233 249
218 233 252
218 233 252
217 233 253
217 233 252
218 233 253
216 232 249
217 233 252
216 232 248
217 233 250
216 232 246
217 233 253
215 231 244
216 232 250
218 234 254
217 233 252
218 233 253
218 233 252
218 233 250
218 233 250
217 232 250
217 232 248
218 234 253
217 233 250
217 233 249
219 234 250
219 234 252
219 234 249
218 233 249
222 236 255
220 234 250
221 235 252
221 235 253
220 234 246
222 236 252
222 236 252
221 235 249
209 225 209
196 214 163
181 203 95
179 201 76
176 199 72
178 200 76
174 198 57
180 202 88
153 177 134
90 118 172
105 130 175
99 125 168
106 131 174
108 133 168
93 120 174
112 136 181
108 133 172
102 127 173
82 112 159
68 102 153
67 102 157
67 102 156
63 98 160
68 101 149
68 102 154
63 98 160
81 112 145
97 125 137
114 141 121
101 129 134
79 110 140
60 96 145
62 98 159
61 97 165
61 97 162
61 97 166
61 98 160
60 96 153
60 96 156
61 97 156
62 98 163
61 97 160
60 96 157
61 97 158
61 97 163
61 97 163
61 97 160
61 98 164
62 99 167
60 97 164
61 96 156
60 96 156
62 98 162
61 97 161
61 97 164
62 98 167
61 97 160
61 97 164
61 98 165
61 97 159
61 98 170
61 98 164
61 97 163
61 98 166
61 97 162
61 97 161
61 97 162
61 97 156
62 97 162
62 98 162
61 97 160
62 98 163
62 98 165
62 98 164
61 97 161
62 98 167
62 98 162
62 98 168
61 98 163
61 98 162
62 98 166
63 98 161
62 98 165
62 98 164
61 97 164
62 98 165
62 98 164
61 97 159
61 97 163
61 97 159
61 98 166
61 97 162
60 97 155
63 99 167
62 98 164
62 98 167
62 98 164
61 97 164
62 99 169
62 98 162
62 98 167
61 98 166
62 98 163
62 98 169
62 98 163
61 98 162
62 98 158
62 98 162
61 98 162
63 99 168
62 99 169
62 99 167
62 98 161
62 98 161
62 98 165
62 97 155
62 98 163
61 97 159
62 99 168
61 97 157
62 99 164
63 99 166
62 98 160
61 98 161
62 98 163
61 97 158
62 98 165
61 97 160
61 97 157
62 98 163
62 98 161
61 97 158
62 98 159
61 97 157
61 97 153
62 98 164
61 97 156
62 98 170
62 98 166
62 98 163
61 97 157
62 98 167
61 97 163
62 98 165
61 97 153
61 97 159
62 98 161
61 97 157
62 98 158
62 98 164
62 97 156
63 99 168
62 98 156
62 97 150
61 97 157
61 97 156
63 99 164
62 98 157
62 97 149
61 97 154
62 98 168
61 97 152
63 99 160
63 99 164
61 97 155
62 98 161
62 98 159
62 98 162
61 96 150
61 97 149
62 98 160
61 97 153
62 97 152
61 97 155
61 96 156
62 98 158
62 98 155
62 97 159
62 97 155
60 95 144
61 96 147
61 97 152
61 96 150
62 97 156
61 96 146
61 96 147
59 93 137
60 94 139
60 95 142
61 96 154
60 94 138
59 93 148
59 93 139
60 94 141
59 92 131
59 91 133
93 89 8
90 88 16
84 79 14
84 81 8
92 89 11
81 79 14
97 95 8
75 74 5
93 91 8
85 83 9
85 84 8
89 87 3
92 90 8
94 93 14
89 89 12
97 95 18
87 86 12
98 95 12
96 95 16
94 92 14
101 100 8
105 102 19
105 102 22
106 105 18
98 95 23
96 94 22
105 101 18
110 107 29
119 116 29
107 106 28
110 106 23
117 113 28
105 101 16
113 111 20
122 120 28
114 111 35
111 110 29
135 130 33
116 112 32
116 113 26
126 122 33
121 117 33
119 117 26
126 123 31
133 128 28
120 116 30
129 125 38
133 128 31
117 113 29
124 120 32
146 140 48
123 118 37
126 124 33
122 118 30
131 127 37
132 128 37
134 130 40
141 134 37
137 132 46
135 129 34
133 129 40
131 126 36
130 126 36
143 139 36
135 130 39
134 130 37
132 126 39
138 133 45
134 129 22
131 126 37
135 130 45
139 135 28
139 134 41
141 135 48
133 129 32
140 135 34
132 126 32
141 137 36
130 125 32
137 132 36
133 126 36
131 126 19
135 129 25
131 125 32
130 126 28
126 121 34
129 125 36
137 131 42
130 125 32
128 123 34
127 123 32
128 123 25
119 113 30
134 129 32
133 125 34
123 118 34
118 113 30
124 119 25
126 121 36
114 108 25
107 102 22
113 110 28
142 152 11
161 175 0
157 169 0
166 181 0
157 171 0
160 174 0
158 173 0
159 173 0
164 179 0
161 177 0
165 181 0
160 173 0
160 175 0
160 177 0
162 177 0
164 182 0
161 177 0
161 178 0
169 188 0
161 179 0
166 185 0
163 179 0
166 183 0
165 184 0
167 185 0
166 182 0
167 184 0
166 185 0
166 185 0
166 185 0
167 185 0
170 192 0
169 187 0
167 185 0
180 203 108
180 202 102
176 199 67
178 201 84
179 202 88
181 203 95
178 201 84
176 199 57
180 203 92
192 211 147
206 223 201
216 231 236
222 235 250
220 234 248
220 234 252
221 235 252
219 234 248
220 235 252
219 234 249
220 234 253
218 233 250
220 235 253
218 233 249
219 234 252
217 233 249
218 233 252
217 233 252
217 233 253
217 233 250
217 233 254
215 231 250
216 232 250
215 232 249
215 232 250
216 233 253
217 233 254
213 230 245
214 231 248
216 232 253
216 232 253
216 232 252
214 231 248
213 230 244
216 232 253
216 232 253
214 230 245
215 232 252
216 232 253
215 232 250
216 232 250
217 233 252
216 232 249
217 233 252
216 232 250
219 234 255
218 233 253
216 232 245
216 232 246
218 233 250
218 233 250
218 233 249
217 231 248
219 234 250
219 234 250
219 233 248
221 235 253
220 234 252
220 234 249
222 236 254
219 234 246
221 235 248
212 228 223
202 219 184
179 202 84
177 200 62
175 199 72
157 181 94
86 115 163
115 139 175
93 121 174
87 116 178
104 130 174
106 131 174
97 124 168
94 122 173
99 125 164
101 127 179
74 106 158
60 96 156
63 98 157
63 98 154
60 96 158
66 100 155
65 99 157
65 100 156
68 102 155
66 100 154
87 116 143
106 133 130
93 122 139
86 116 151
61 96 151
60 95 154
60 96 147
61 97 155
61 96 157
62 98 158
61 97 161
61 97 164
60 95 151
61 97 155
61 97 165
59 95 159
61 98 165
61 97 160
61 97 161
61 97 165
62 98 163
61 97 158
60 96 161
61 97 159
60 96 151
61 97 163
62 99 169
61 97 163
61 97 159
61 97 159
61 98 167
61 97 166
62 97 161
62 98 166
62 98 163
61 97 160
62 98 164
62 99 170
62 98 162
60 96 160
62 99 166
61 98 163
61 97 161
62 99 170
62 98 163
62 98 163
61 97 166
61 97 159
61 98 164
62 99 170
62 98 166
62 98 159
61 97 167
62 99 169
61 98 166
62 98 164
63 99 169
62 98 165
61 97 158
61 97 162
61 97 158
62 99 167
61 97 157
62 98 161
62 98 167
61 96 156
62 98 163
61 97 160
61 97 157
62 98 164
61 97 161
61 97 160
62 98 161
62 98 160
61 97 162
63 99 164
61 97 162
62 98 164
62 98 162
62 98 159
62 98 167
63 99 166
62 98 161
63 99 165
62 98 163
62 98 160
61 98 162
61 97 161
63 100 172
61 97 155
62 98 160
62 98 164
62 98 162
61 97 156
62 98 164
61 97 162
62 98 161
62 98 160
63 99 166
62 99 166
61 97 160
62 99 163
62 98 163
62 98 161
62 98 156
62 99 164
63 99 163
61 97 160
62 98 161
62 98 166
62 98 159
62 98 164
63 99 167
62 98 165
62 98 163
61 97 158
61 97 164
62 98 164
62 98 161
62 98 158
61 97 156
62 98 164
61 97 150
63 99 163
61 97 156
61 97 157
62 98 159
62 98 158
62 98 156
62 98 158
62 98 159
61 97 150
61 96 154
62 97 156
61 97 154
61 97 155
62 98 159
62 97 153
62 97 154
62 97 157
61 96 142
62 97 157
61 97 153
63 99 161
62 98 155
62 97 154
61 97 150
61 97 154
61 97 152
62 97 153
61 97 149
62 97 154
61 96 151
61 96 149
61 96 149
61 96 152
59 94 136
61 95 146
59 94 139
61 95 143
60 94 142
59 92 139
61 96 148
60 93 139
60 93 139
59 91 127
63 89 114
84 80 18
80 77 16
95 89 14
84 80 0
81 76 12
84 81 18
83 79 14
97 91 14
98 96 8
89 87 8
81 79 8
80 77 12
95 93 8
85 86 14
87 86 8
86 85 8
87 84 0
92 91 11
91 89 16
94 92 8
103 98 23
93 91 12
100 97 21
101 99 24
100 98 18
109 107 14
102 99 26
112 110 18
114 111 14
100 99 9
118 115 20
107 105 18
107 105 21
126 123 21
117 113 16
128 124 31
115 111 31
119 116 29
117 112 29
129 126 28
116 113 21
116 113 18
118 114 19
134 128 37
125 121 29
137 132 41
128 123 35
120 117 31
127 122 34
120 118 22
117 113 32
133 129 38
121 117 25
129 125 22
133 130 32
130 126 36
133 128 37
128 124 34
138 132 45
137 132 33
124 120 36
131 127 36
134 130 36
133 128 42
134 129 25
121 116 30
130 125 22
135 130 19
134 129 30
128 124 32
136 130 34
131 127 32
138 132 30
133 129 34
133 127 30
139 134 36
131 127 30
132 127 25
128 122 37
138 133 42
126 122 25
131 126 37
141 135 39
135 130 34
126 121 32
131 126 32
130 125 30
134 127 36
129 123 42
127 122 22
129 123 32
135 129 34
119 113 28
125 120 25
125 119 34
125 120 32
122 116 28
114 110 19
122 117 22
118 112 19
113 111 25
143 152 11
162 172 0
162 176 0
161 175 0
161 175 0
161 178 0
163 178 0
158 174 0
163 179 0
165 178 0
166 180 0
162 177 0
162 177 0
161 178 0
159 176 0
164 179 0
169 186 0
164 182 0
164 182 0
167 185 0
162 177 0
168 187 0
164 180 0
170 188 0
166 185 0
165 182 0
168 186 0
165 183 0
166 184 0
168 187 0
161 180 0
167 183 0
166 185 0
163 181 0
166 183 0
178 200 76
180 202 92
181 203 102
180 202 84
178 202 92
182 204 108
184 206 120
200 218 179
213 228 226
222 235 250
220 234 248
220 235 249
219 233 246
221 235 252
220 235 254
221 235 253
219 234 252
218 233 252
218 233 250
218 233 250
216 232 246
218 233 254
216 232 252
217 233 250
215 231 246
215 232 249
217 233 254
215 231 248
216 232 253
214 231 248
216 232 253
215 232 253
215 232 253
214 231 252
214 231 250
213 230 246
213 231 250
213 230 250
214 231 250
214 231 250
213 230 245
216 232 254
214 231 250
213 230 248
215 232 253
214 231 248
214 231 252
214 231 249
215 232 252
215 232 254
216 232 254
214 230 248
215 232 253
217 233 253
215 231 249
215 232 250
217 233 253
217 233 252
215 232 248
217 233 252
217 233 250
217 233 249
218 233 252
217 233 249
219 234 252
220 235 253
220 235 253
220 235 253
221 236 255
219 234 250
221 235 249
223 236 254
221 235 249
222 235 248
213 228 221
196 214 167
179 202 92
119 144 162
102 129 182
95 123 177
100 128 175
98 125 175
97 124 177
88 117 171
114 138 187
104 129 175
109 134 178
108 133 182
78 109 165
71 104 151
73 106 164
70 104 156
67 101 160
74 106 145
69 103 153
76 109 151
65 100 159
63 97 152
70 103 156
75 106 136
99 128 139
89 119 142
68 102 148
61 97 157
60 95 145
61 97 159
61 97 159
61 97 164
61 97 163
61 97 157
61 97 163
61 97 158
60 96 157
60 97 160
60 96 155
60 96 159
61 97 158
62 98 164
61 97 163
61 98 162
61 97 159
60 96 156
61 96 151
61 97 164
61 98 166
62 99 164
62 98 162
61 97 160
61 97 160
62 98 165
61 98 165
62 98 162
62 99 168
61 97 162
61 98 166
62 98 165
61 97 158
61 98 166
62 98 165
62 98 163
61 97 154
63 99 171
61 98 165
62 98 165
61 97 167
62 98 164
62 98 163
62 98 166
62 98 165
62 98 165
62 98 165
62 98 165
62 98 166
61 97 161
61 97 158
61 97 162
60 97 158
61 97 160
60 97 157
61 97 157
61 97 154
61 98 158
61 97 164
62 98 162
62 98 157
61 97 163
62 98 162
62 98 162
62 98 159
62 99 163
62 98 167
61 97 161
62 98 165
62 99 166
61 98 164
61 98 165
61 97 163
62 98 163
61 97 158
62 99 165
62 98 166
62 98 165
62 98 165
62 98 164
62 98 163
62 99 168
62 99 166
62 98 162
63 99 165
62 97 161
61 98 161
61 98 161
62 98 161
63 99 166
61 96 148
62 98 162
62 98 160
62 98 162
62 98 161
62 97 158
61 97 162
62 98 159
62 98 162
62 98 159
61 97 154
62 99 166
61 97 155
62 98 160
62 97 155
62 98 157
62 98 160
62 98 161
61 97 154
62 98 162
61 97 164
62 98 157
62 98 159
62 99 165
62 97 156
61 97 154
61 97 156
62 98 158
63 99 161
62 98 160
60 96 147
62 98 161
61 97 155
62 98 163
62 98 161
61 96 151
62 98 158
62 98 150
62 97 154
61 97 150
60 95 148
61 97 149
62 97 153
61 96 150
62 97 155
62 97 158
60 95 147
61 97 158
62 97 151
61 97 154
63 99 164
61 96 146
61 96 152
60 95 146
61 96 147
60 96 154
61 97 152
61 96 149
61 95 147
60 95 141
60 95 146
61 96 148
59 93 143
61 96 148
59 93 141
59 93 137
59 93 132
59 92 136
58 91 137
75 94 103
87 82 0
76 72 0
91 88 18
85 82 0
88 85 14
85 81 3
88 85 16
90 87 8
86 84 18
93 91 0
92 90 8
88 86 0
89 89 14
96 94 11
101 100 3
88 86 8
88 87 8
111 106 16
85 83 8
95 93 11
98 95 3
95 94 11
104 102 18
98 97 11
94 92 18
109 107 12
113 110 24
97 95 19
102 99 20
101 97 21
111 108 18
101 99 11
113 112 24
115 111 21
115 113 22
118 115 26
113 110 23
119 116 22
125 121 30
123 119 25
119 115 11
108 104 19
114 111 16
128 125 20
114 110 25
120 117 30
115 112 26
134 130 28
123 120 25
126 123 26
128 123 28
124 123 31
136 131 35
135 131 30
126 123 28
135 131 37
132 128 34
125 121 28
127 122 34
131 125 34
138 132 32
124 119 26
123 119 28
141 135 44
127 122 30
134 130 30
127 122 34
139 133 37
133 127 34
130 127 34
129 124 30
127 124 28
124 119 32
135 130 36
124 120 32
131 126 34
128 123 37
123 118 32
122 118 22
126 120 36
127 122 22
117 113 22
125 120 34
128 122 25
129 122 32
127 122 36
129 122 42
123 119 25
122 119 30
132 126 42
128 124 30
117 113 34
118 113 22
119 115 28
118 113 28
110 106 25
111 105 30
108 104 19
121 115 30
128 126 25
151 161 11
159 170 0
167 184 0
164 178 0
157 168 0
157 167 0
158 172 0
160 174 0
162 177 0
158 174 0
167 185 0
164 179 0
162 177 0
160 175 0
159 174 0
164 181 0
163 179 0
163 179 0
161 176 0
162 176 0
164 180 0
160 175 0
162 178 0
168 185 0
165 183 0
166 184 0
165 183 0
168 186 0
165 184 0
168 186 0
168 186 0
164 182 0
169 189 0
160 175 0
170 188 0
166 184 0
180 203 95
181 203 95
179 201 80
180 203 99
192 212 153
211 227 217
221 234 246
223 236 253
221 235 250
220 235 250
220 235 252
220 234 249
218 233 249
220 234 252
219 234 252
218 233 252
215 231 248
216 232 249
216 232 248
215 232 250
217 233 254
216 232 253
215 231 252
215 231 249
215 232 253
215 231 252
214 231 249
214 231 253
214 231 252
215 232 253
214 231 252
213 231 250
214 231 250
213 230 250
213 230 249
212 230 252
213 231 252
213 230 252
214 231 253
213 231 252
211 229 244
211 229 248
213 231 253
211 229 249
213 230 248
212 230 249
213 230 250
212 229 246
214 232 254
213 231 250
213 231 250
214 231 249
212 229 244
214 231 252
214 231 250
213 230 246
215 232 254
214 231 246
216 232 254
215 232 250
215 231 248
216 232 252
216 232 249
218 233 254
217 232 249
218 233 250
217 233 248
219 234 253
218 233 250
218 233 249
220 235 254
218 233 250
220 235 252
220 234 246
221 235 250
220 234 248
217 231 238
174 192 206
98 126 179
92 120 176
90 120 174
88 118 179
116 140 179
112 137 186
98 125 169
94 122 169
108 133 180
111 135 177
99 126 176
83 113 160
62 98 164
66 101 164
68 101 154
70 104 162
65 100 157
69 103 152
64 99 155
63 98 161
66 100 156
62 98 158
66 100 157
78 109 142
104 131 130
84 114 143
63 98 157
60 96 157
60 96 147
60 96 156
60 96 158
61 97 161
61 97 155
60 96 153
61 97 159
61 97 168
61 98 163
61 98 162
62 98 170
60 96 157
61 97 153
61 97 163
60 97 163
61 97 159
61 98 171
61 97 161
62 98 165
61 98 164
61 97 161
61 97 164
60 96 156
61 97 161
60 96 155
62 98 168
61 98 170
61 97 164
61 97 155
62 98 161
61 97 163
61 97 155
61 97 159
61 98 164
62 98 162
60 96 154
62 98 163
62 98 166
62 98 166
62 98 158
62 98 164
61 97 164
61 97 157
62 98 165
62 99 167
62 98 164
61 97 165
62 98 166
61 97 161
62 98 165
61 97 162
61 97 161
61 98 160
62 98 161
61 97 162
62 98 163
62 98 161
62 98 162
62 98 159
61 98 162
61 97 164
61 97 160
62 98 161
62 98 166
61 97 156
63 99 168
62 98 164
63 99 164
61 97 160
62 98 160
60 96 158
62 99 170
61 97 155
62 98 164
62 97 159
62 98 160
61 98 167
63 99 164
62 98 161
62 98 160
62 98 163
62 98 162
61 97 156
61 97 158
61 97 155
63 99 166
61 97 161
61 97 162
62 98 163
61 97 161
62 98 166
61 97 154
62 98 164
62 98 157
62 98 165
62 98 165
63 99 164
62 98 156
60 97 157
62 98 163
62 97 155
61 96 145
62 97 155
62 98 161
61 97 155
62 98 160
61 97 156
62 98 161
62 98 161
61 97 155
62 97 152
62 98 159
62 99 165
62 98 161
62 99 169
61 97 154
61 98 159
62 98 155
62 98 155
61 97 155
62 98 160
62 98 155
62 98 156
61 97 153
61 97 155
61 97 152
62 98 159
62 97 155
62 98 160
62 98 158
62 97 154
62 97 156
62 98 158
62 97 154
61 97 153
60 95 143
61 96 149
61 97 154
60 96 148
61 97 155
62 97 152
61 95 140
61 97 148
61 96 147
61 95 148
61 96 148
61 96 143
62 97 159
59 93 134
61 96 154
61 96 153
60 95 139
60 94 141
59 93 132
60 94 140
59 93 132
59 92 134
67 79 80
95 89 19
83 78 0
88 84 16
81 78 11
79 74 11
95 91 0
100 97 11
83 80 11
86 83 0
79 75 11
87 84 14
75 75 8
96 94 0
86 84 12
84 80 12
100 96 8
84 81 14
91 88 11
96 93 11
93 92 8
92 89 9
103 100 12
104 103 18
98 95 19
104 102 18
103 101 16
99 98 16
96 93 11
113 110 22
111 107 18
111 107 16
117 113 19
114 110 26
103 103 14
116 113 19
109 105 21
113 110 26
119 116 30
117 113 26
116 113 19
119 116 18
123 121 26
129 123 37
117 113 19
122 119 35
120 117 28
118 114 19
124 120 33
123 120 22
119 116 33
122 118 28
120 117 28
126 121 28
130 126 16
118 116 21
127 122 28
122 120 25
130 126 28
134 130 36
134 130 25
135 132 34
134 129 32
133 129 32
134 129 36
135 131 37
121 119 25
123 119 22
134 130 32
131 127 22
126 121 32
133 127 28
124 121 28
128 124 34
125 119 34
135 129 37
123 119 19
127 123 32
126 121 34
134 128 28
135 129 36
130 125 30
133 127 32
125 120 30
131 126 34
125 119 30
122 117 28
125 120 34
132 127 32
123 119 11
124 119 19
134 129 25
115 110 19
122 117 22
118 113 19
120 115 25
116 110 22
120 114 28
109 102 30
130 131 19
153 164 0
158 169 0
159 172 0
157 170 0
159 174 0
160 176 0
161 173 0
162 176 0
159 174 0
164 178 0
159 174 0
162 177 0
161 177 0
167 181 0
158 171 0
162 178 0
167 185 0
163 179 0
165 182 0
159 173 0
158 173 0
156 170 0
168 185 0
164 180 0
161 177 0
165 185 0
164 181 0
166 184 0
166 186 0
167 185 0
168 186 0
165 183 0
162 179 0
166 184 0
165 184 0
164 184 0
167 186 0
179 202 92
185 206 114
202 219 186
222 236 252
221 235 252
221 235 252
221 235 253
221 235 250
218 233 249
218 233 246
217 232 248
219 234 254
216 232 250
217 233 250
217 233 250
216 232 248
215 232 250
216 232 250
213 230 245
215 232 252
213 229 245
214 231 250
213 230 246
214 231 254
213 230 249
214 232 254
212 229 246
213 231 253
212 230 250
212 230 248
212 230 250
212 230 252
211 229 248
211 229 248
212 230 249
213 231 254
212 230 252
212 230 252
211 230 250
211 229 250
213 231 254
212 230 253
212 230 252
211 229 249
211 229 249
212 230 249
211 230 252
212 230 252
212 230 250
211 229 248
213 231 254
213 231 253
213 230 249
211 229 246
214 231 253
213 230 252
213 230 250
214 231 250
214 231 252
215 231 252
215 232 252
214 231 250
214 231 248
213 230 248
216 232 252
216 232 250
216 232 249
217 233 252
217 233 252
217 233 249
217 232 249
218 233 250
219 234 249
220 234 250
219 233 248
221 235 249
222 236 253
216 231 244
130 152 195
82 113 177
91 121 180
99 126 181
84 114 175
87 116 174
96 123 178
93 121 176
89 118 174
113 138 182
92 121 172
85 115 171
75 107 165
72 105 154
70 104 163
66 101 162
70 104 162
71 105 156
68 103 163
67 101 151
69 103 151
67 100 147
67 101 156
68 101 149
69 102 147
81 111 145
91 120 141
66 100 149
61 97 159
60 96 157
61 96 156
60 96 156
61 97 166
62 98 168
60 96 157
61 97 157
61 96 163
58 94 154
61 97 156
61 97 162
61 97 165
61 97 157
61 97 161
61 97 165
61 97 159
61 96 156
61 98 163
61 97 157
60 96 149
61 97 161
61 97 160
62 98 162
61 97 153
62 97 157
62 98 166
61 97 154
61 97 161
61 97 164
61 97 158
61 97 162
61 98 162
61 97 165
61 97 155
61 97 161
61 97 160
61 98 169
61 98 162
61 97 161
62 98 163
62 98 160
62 98 169
62 98 163
62 98 160
61 98 162
61 97 162
62 98 165
62 98 164
62 98 161
62 98 158
61 97 155
62 98 161
63 99 169
62 99 167
62 98 163
62 98 165
62 98 165
62 98 167
61 97 155
61 98 163
61 97 163
62 99 167
63 99 165
61 98 163
62 98 165
62 98 163
62 98 162
62 99 170
61 97 163
61 97 164
62 98 161
62 98 160
61 97 164
62 98 164
61 97 160
62 98 162
61 97 152
62 98 162
63 100 169
62 98 159
61 97 154
61 98 159
62 99 165
62 98 163
60 96 158
63 99 164
61 97 160
63 99 167
62 98 160
62 98 160
61 97 158
62 98 163
61 97 158
62 98 159
62 98 162
63 99 164
62 98 161
62 98 159
61 97 156
62 98 161
61 97 160
62 98 163
62 98 161
62 97 155
62 98 163
61 97 154
63 98 158
62 98 162
62 98 160
62 98 159
61 97 159
62 98 159
61 97 152
62 98 156
62 98 151
62 97 155
62 98 157
61 97 155
61 97 156
62 97 155
62 97 154
62 98 159
61 97 150
62 98 162
61 97 158
61 97 152
60 96 148
61 97 152
62 97 158
61 96 150
60 96 147
61 96 145
62 97 154
61 97 154
61 97 149
62 97 150
62 98 162
60 96 149
61 97 154
62 97 155
62 97 149
61 96 149
61 97 152
61 96 141
61 97 154
61 97 151
61 96 150
60 95 140
61 96 147
60 94 137
60 94 135
60 95 139
61 95 140
59 91 125
60 94 137
60 93 135
72 86 94
90 84 25
86 83 16
82 78 18
85 81 14
75 73 0
79 77 11
88 85 16
87 84 0
85 83 0
94 91 0
91 87 0
85 85 11
90 86 8
91 87 0
89 86 0
104 99 11
95 92 0
93 91 3
100 97 0
96 94 1
91 88 0
106 102 16
95 93 3
102 99 8
97 95 16
106 103 18
109 106 8
100 97 16
107 104 26
99 97 20
115 112 16
107 103 22
110 106 24
118 115 21
117 113 16
108 107 18
107 105 21
114 110 24
120 115 21
122 117 25
112 109 19
117 114 24
121 118 28
120 116 26
121 119 11
123 119 22
117 114 18
118 115 19
116 113 25
127 124 19
122 119 24
121 118 29
125 121 19
131 126 22
126 122 11
132 128 25
120 115 28
124 120 28
118 114 22
135 130 37
129 125 30
125 120 25
130 126 28
132 128 28
118 114 31
130 125 32
130 126 32
122 115 22
138 131 36
126 122 16
128 123 22
133 128 19
125 120 28
131 126 32
126 120 30
138 134 39
128 122 25
132 128 28
133 128 34
126 121 19
133 127 34
121 116 25
118 113 19
128 122 34
122 117 25
124 120 19
129 123 30
122 118 25
113 109 25
118 114 28
115 111 28
118 113 25
109 104 22
121 116 30
121 115 34
111 105 19
113 109 22
143 148 16
159 170 0
151 161 0
150 164 0
154 165 0
163 177 0
162 174 0
164 180 0
159 173 0
160 174 0
158 169 0
157 170 0
160 172 0
164 178 0
160 174 0
158 173 0
160 176 0
166 184 0
159 173 0
162 179 0
162 177 0
166 181 0
169 185 0
168 183 0
165 183 0
164 181 0
164 181 0
160 174 0
165 183 0
160 175 0
168 187 0
168 186 0
167 187 0
165 181 0
165 182 0
168 185 0
163 182 0
164 181 0
163 181 0
204 220 194
221 235 249
221 235 250
219 234 249
221 235 250
220 234 252
220 235 253
219 234 250
218 233 250
217 233 252
217 232 249
216 232 249
217 233 254
216 232 250
216 232 250
214 231 248
214 231 250
214 231 248
214 231 249
214 231 253
214 232 254
213 231 250
213 231 250
214 231 254
212 230 252
212 230 250
212 230 253
211 229 249
212 230 254
211 229 249
212 230 255
212 230 254
212 230 254
213 231 255
212 230 254
212 230 255
211 230 253
212 230 255
212 230 255
211 230 253
212 230 255
212 230 255
211 230 255
212 230 255
212 230 254
213 231 255
212 230 255
212 230 255
212 230 255
213 231 255
212 230 253
212 230 253
211 230 252
213 231 254
213 231 253
212 230 252
211 230 249
212 230 249
213 231 252
214 232 255
213 231 249
214 232 253
214 232 254
214 231 249
214 231 250
215 232 253
214 231 248
216 232 252
215 231 248
216 232 248
217 232 249
217 233 250
216 232 246
218 233 250
218 233 249
219 233 254
220 234 253
215 230 251
195 211 237
102 129 186
79 110 173
87 117 181
86 116 180
93 122 182
99 126 178
97 124 182
90 119 181
88 116 170
87 117 178
98 125 180
88 117 174
80 111 175
66 101 163
73 106 159
70 104 163
67 101 162
63 99 162
65 100 156
70 104 148
63 99 159
63 98 146
62 97 149
67 101 155
67 101 152
68 102 151
82 113 144
82 113 145
62 97 159
61 97 162
61 96 159
60 95 155
61 97 162
61 97 154
60 96 157
61 96 154
61 97 162
62 98 166
61 98 167
60 96 155
60 95 154
59 95 156
60 96 157
60 96 154
62 98 163
61 97 159
62 98 163
60 96 156
60 96 157
61 97 160
61 97 159
62 98 163
61 97 161
60 97 165
60 96 158
62 98 165
61 97 160
61 97 159
61 97 158
61 97 159
61 97 162
61 97 160
61 97 164
61 97 159
61 97 160
61 96 159
62 98 161
62 98 168
61 97 160
62 98 164
62 99 166
60 96 153
60 96 157
61 97 159
63 98 167
63 99 169
61 97 161
61 98 167
62 98 164
62 99 168
62 98 164
61 97 161
62 99 165
62 98 167
61 97 156
62 98 163
61 97 163
62 98 162
61 97 163
62 98 158
62 98 164
62 98 167
62 98 162
61 97 161
62 98 159
61 97 153
62 98 165
62 98 156
61 97 158
62 98 165
62 97 159
61 97 158
62 98 162
62 98 161
61 97 154
61 97 159
62 97 158
62 98 162
62 98 160
62 98 159
62 98 162
61 97 156
63 99 165
62 98 164
62 97 155
61 98 164
62 97 156
61 97 158
62 98 164
61 96 151
61 97 156
62 98 160
62 97 156
62 98 158
62 98 158
62 98 160
61 97 157
62 98 157
61 97 161
62 98 157
61 97 150
63 99 164
61 97 156
63 99 165
62 98 163
62 98 160
60 96 152
62 99 164
61 96 148
62 98 160
61 97 154
61 97 157
62 98 157
61 97 154
61 97 155
62 98 157
62 97 152
61 97 147
62 98 157
62 98 158
61 97 154
62 98 159
62 98 162
62 98 162
62 97 151
62 97 155
61 97 156
61 96 151
61 97 148
61 96 145
62 98 158
62 97 151
61 96 141
60 96 143
61 96 151
60 96 143
62 97 147
61 96 144
61 97 151
61 96 146
60 95 145
60 96 142
62 98 155
60 94 140
60 95 144
60 95 143
59 93 132
60 94 139
59 93 139
59 93 134
58 92 127
59 93 137
58 91 126
58 91 129
99 108 71
104 103 16
82 79 11
92 87 19
95 88 19
83 76 8
99 95 0
94 90 11
85 83 11
97 91 0
84 80 3
79 76 8
74 73 0
93 89 0
89 87 8
93 88 14
90 87 3
98 95 10
86 83 0
96 95 11
92 88 8
96 93 3
100 97 11
95 92 8
95 94 8
95 93 11
96 95 8
99 95 19
102 100 0
106 103 16
105 103 0
115 112 0
111 107 14
104 102 12
108 105 14
108 105 21
111 109 18
120 117 14
116 113 16
111 108 21
108 104 23
117 113 19
123 120 24
116 113 22
120 116 19
119 115 22
117 114 18
115 110 19
126 122 30
114 111 19
118 114 22
125 119 34
119 114 25
126 122 21
125 122 22
114 111 28
123 119 19
124 119 28
137 131 30
127 123 29
123 119 22
124 121 33
128 124 28
116 111 28
125 119 25
120 117 19
122 118 25
122 118 25
128 124 22
125 120 28
122 119 22
131 127 34
124 118 28
131 126 25
130 126 32
123 118 28
130 125 34
126 119 37
137 132 25
127 120 32
131 125 34
128 122 37
123 117 28
128 123 30
123 119 28
117 114 0
115 111 16
122 117 25
115 111 16
113 108 19
116 111 22
115 110 28
115 109 22
112 107 25
118 112 30
112 106 22
126 125 30
147 157 0
155 169 0
156 168 0
155 165 0
154 166 0
160 174 0
154 166 0
156 167 0
161 176 0
162 174 0
159 175 0
164 179 0
156 169 0
157 171 0
161 176 0
163 175 0
158 173 0
163 178 0
163 177 0
160 177 0
163 178 0
159 174 0
159 176 0
159 173 0
164 180 0
165 182 0
163 176 0
162 178 0
165 181 0
166 183 0
158 173 0
169 188 0
166 184 0
172 192 0
169 187 0
167 186 0
165 180 0
171 190 0
167 184 0
164 181 0
222 236 253
221 235 250
220 235 252
218 233 246
218 233 249
219 234 250
218 233 250
216 232 248
215 232 246
218 233 253
216 232 252
216 233 254
216 232 255
216 232 254
215 232 253
213 230 248
213 231 250
214 231 254
213 231 252
213 231 254
211 229 248
211 229 246
212 230 254
211 230 250
212 230 254
211 230 253
212 230 255
212 230 254
211 230 254
212 231 255
211 230 255
211 230 255
211 230 255
211 230 255
211 230 255
211 230 255
211 230 255
211 230 255
211 230 254
210 229 255
211 230 255
210 229 255
210 229 255
211 230 255
210 229 255
211 230 255
210 229 255
211 230 254
211 230 255
211 230 254
211 230 255
211 230 255
211 230 254
212 230 255
211 230 255
212 230 255
212 230 253
212 230 254
213 231 255
212 230 254
212 230 250
213 231 253
213 231 252
213 231 252
213 231 252
213 231 250
214 231 249
215 232 252
216 232 254
215 232 250
215 231 250
217 233 252
215 231 246
217 233 253
215 230 250
213 228 250
215 231 252
218 232 254
214 229 250
159 178 215
88 118 180
87 117 181
84 114 184
82 113 177
89 118 176
77 109 176
85 115 177
101 128 189
96 124 180
85 115 176
90 118 174
91 119 178
87 116 172
63 99 166
62 98 167
67 101 161
66 100 155
63 99 162
67 101 159
71 104 158
65 100 157
63 99 159
65 100 158
63 99 161
63 99 159
66 100 159
73 106 151
87 116 135
73 104 143
59 94 155
61 97 162
60 95 152
60 96 162
60 95 150
60 96 164
61 97 158
61 97 159
60 96 158
61 97 160
59 94 154
61 97 155
61 97 159
61 98 164
60 97 158
61 96 157
61 97 161
61 96 157
61 96 161
62 98 159
61 97 161
62 98 164
61 97 159
61 97 159
62 99 169
60 96 152
61 97 159
62 98 166
62 99 166
62 98 162
61 98 161
61 97 157
61 98 164
62 98 161
61 96 154
61 96 158
62 98 161
61 97 157
61 97 162
61 96 156
61 96 158
62 98 161
61 96 163
61 97 159
62 98 163
62 98 159
62 98 165
61 97 163
60 96 153
61 97 157
62 99 164
61 98 167
62 97 157
62 98 163
62 98 167
62 98 165
62 98 166
61 97 152
63 99 173
62 98 161
61 97 162
61 96 148
62 98 159
62 99 165
61 97 159
63 98 160
62 98 164
61 97 163
61 96 157
61 97 162
62 98 165
62 98 161
63 99 168
63 99 168
61 96 154
62 98 161
61 97 151
62 98 165
61 97 159
62 98 165
62 97 157
61 96 149
61 97 162
61 97 155
62 98 163
62 97 155
62 98 157
62 98 161
62 97 160
63 99 162
62 98 159
62 98 158
61 97 153
62 99 165
63 99 164
61 98 163
62 97 159
62 98 158
62 98 159
63 99 166
62 98 157
62 97 157
63 99 165
62 98 160
61 97 154
62 98 155
62 98 161
61 97 151
63 98 159
62 98 160
62 98 162
62 98 160
61 97 154
62 98 161
62 98 155
61 97 158
60 96 148
62 98 154
63 98 159
62 98 152
62 98 160
61 96 143
60 96 149
62 98 161
62 97 156
62 97 157
62 98 162
62 98 155
62 98 157
62 98 158
61 96 148
62 97 152
62 97 156
62 97 152
61 97 154
61 97 155
61 97 152
61 96 153
61 96 152
61 97 145
61 95 139
60 95 144
61 96 149
60 95 144
61 95 140
60 95 145
60 94 142
60 95 142
59 94 140
60 94 133
59 93 138
60 94 145
59 94 136
58 91 134
108 112 44
113 116 0
104 104 0
89 86 0
77 73 0
78 75 22
97 92 11
81 77 11
85 81 12
79 76 8
94 90 0
90 86 12
93 90 16
97 93 11
85 85 8
81 78 0
87 83 0
98 94 8
97 96 8
100 98 0
92 90 21
93 93 0
95 92 0
101 96 0
93 92 8
101 98 8
100 96 8
107 104 3
101 97 0
100 97 8
111 106 16
107 104 18
106 102 19
109 106 14
98 95 14
110 106 12
110 106 11
114 110 12
117 115 21
116 113 14
111 107 0
115 111 18
113 110 19
117 115 18
114 110 11
124 120 16
117 113 11
126 122 24
123 119 25
122 117 19
117 113 19
117 114 11
121 115 19
121 116 11
121 115 32
115 114 0
131 128 28
135 130 22
125 121 22
124 120 16
128 122 22
131 126 25
122 119 16
130 126 28
123 119 19
124 118 28
125 119 28
127 122 16
119 114 19
131 125 32
114 109 25
123 119 28
124 118 25
130 125 25
125 121 22
126 122 28
125 120 22
116 111 28
128 123 25
128 123 28
123 117 25
120 115 30
126 120 30
125 118 32
119 115 16
115 110 28
128 123 16
129 122 30
112 107 16
120 113 30
112 108 22
125 120 28
110 105 22
114 108 19
113 109 22
133 137 22
155 162 0
150 159 0
161 173 0
159 171 0
163 176 0
159 173 0
155 165 0
155 166 0
156 166 0
161 173 0
160 173 0
160 174 0
158 171 0
157 171 0
154 166 0
161 175 0
163 180 0
162 175 0
159 170 0
161 177 0
158 173 0
156 173 0
158 172 0
161 175 0
168 185 0
166 182 0
162 179 0
161 176 0
163 180 0
165 181 0
163 181 0
169 187 0
166 186 0
165 183 0
169 187 0
166 184 0
166 184 0
164 180 0
165 183 0
165 183 0
169 187 0
222 236 254
219 233 249
219 234 253
219 234 253
218 233 250
216 232 246
217 233 252
216 232 252
215 231 249
212 229 244
216 232 252
214 231 249
212 230 248
213 231 252
212 230 246
212 230 249
213 231 255
212 230 253
211 230 250
212 230 253
212 230 253
212 230 254
212 230 255
212 230 255
211 230 255
212 230 255
211 230 255
210 229 254
210 229 255
210 229 255
210 229 255
210 229 255
210 229 255
210 229 255
210 229 255
209 229 255
209 229 255
210 229 255
210 229 255
209 229 255
209 229 255
209 229 255
209 229 255
208 228 254
209 229 255
210 229 255
209 229 255
209 229 255
210 229 255
210 229 255
209 229 254
210 229 255
210 229 255
210 229 253
211 230 255
212 230 255
211 230 255
212 230 255
212 230 255
211 230 253
212 231 255
213 231 255
212 230 254
213 231 254
213 230 253
213 231 254
213 231 252
213 231 252
215 232 254
215 232 254
214 231 252
216 233 254
215 232 249
214 231 251
213 229 252
211 226 249
214 229 251
212 228 250
220 235 255
215 229 250
136 158 205
81 113 180
93 122 181
87 117 185
79 111 174
92 120 181
94 122 182
89 118 181
91 119 174
90 119 176
88 117 180
94 122 180
95 122 173
74 106 165
61 97 164
63 99 160
66 101 160
64 99 160
65 100 157
68 103 161
69 103 159
66 101 162
65 99 159
67 100 156
62 97 149
65 100 161
64 98 145
69 103 154
74 106 151
80 111 138
61 97 159
61 96 163
61 97 158
60 95 150
61 96 159
62 98 162
61 97 162
61 97 164
60 96 158
61 97 157
60 96 156
61 97 157
60 96 151
61 97 163
60 96 156
61 96 162
59 94 152
61 97 159
61 97 158
61 97 159
61 97 163
62 98 165
61 98 166
61 97 162
61 98 168
61 97 162
60 97 160
62 98 166
61 98 167
61 97 156
61 97 158
59 95 152
61 97 161
62 98 163
61 97 162
61 97 153
61 97 155
61 98 161
61 97 162
61 97 159
62 98 164
62 98 161
62 98 162
62 98 159
62 98 164
62 98 165
62 98 160
61 97 157
61 97 165
61 98 163
62 98 165
61 97 152
61 96 154
61 98 158
62 97 157
61 97 156
62 99 170
62 98 163
61 97 156
61 97 156
62 98 159
61 97 160
61 97 161
61 97 160
62 98 160
62 98 158
62 98 157
60 96 149
62 99 166
62 98 161
62 98 160
62 98 161
60 97 157
63 99 165
62 98 160
62 98 163
61 97 156
61 97 156
62 98 157
61 97 162
61 97 154
62 98 156
61 97 154
62 98 161
62 98 155
63 99 158
62 98 157
62 97 155
61 97 161
62 98 160
62 98 161
62 98 160
61 97 156
62 98 162
63 99 163
62 98 161
62 97 158
62 98 161
62 98 162
63 99 163
63 99 171
62 97 155
62 97 152
63 99 163
62 98 158
62 98 156
60 95 145
61 96 150
61 97 155
61 97 153
62 97 155
61 97 154
61 96 151
62 98 158
63 98 160
61 97 155
61 97 154
61 97 157
60 96 154
61 97 153
62 98 160
62 98 158
61 96 152
62 98 159
61 96 143
62 98 152
62 98 158
61 97 148
61 97 155
61 97 153
61 97 153
61 96 147
62 97 152
60 95 144
61 96 141
62 98 157
62 97 148
61 97 152
61 95 145
60 95 139
61 97 143
60 95 144
61 95 143
60 95 140
59 93 142
60 94 138
60 94 138
60 93 142
59 94 138
59 93 140
59 92 131
60 94 138
58 89 122
119 123 0
129 134 0
111 114 0
117 120 0
103 101 11
81 75 22
81 78 11
88 84 11
87 83 11
89 84 0
96 90 16
85 79 11
91 86 11
107 101 8
87 83 0
77 75 0
89 86 0
95 91 11
91 87 0
87 83 0
97 91 0
100 96 0
106 102 8
92 89 14
100 97 11
93 91 16
109 105 11
101 98 18
102 98 11
95 90 0
99 95 11
108 104 11
106 101 21
108 105 14
112 109 11
105 101 8
115 111 14
116 111 2
115 111 11
107 104 11
107 104 18
107 102 25
113 110 8
115 112 19
117 114 16
109 106 12
116 112 16
117 113 19
117 113 22
118 115 16
124 120 11
134 129 26
118 113 16
124 119 22
126 121 28
118 114 16
129 124 19
115 112 11
123 118 19
120 114 22
130 125 22
127 122 30
128 124 19
126 121 22
122 118 16
120 114 16
124 119 28
120 116 25
123 117 11
133 127 22
121 116 25
123 118 28
127 122 19
125 118 34
118 113 25
122 117 19
126 122 25
128 122 16
122 115 25
121 117 16
120 114 25
121 117 25
107 103 16
131 125 30
116 111 25
122 116 28
119 114 11
123 117 30
112 106 22
116 110 22
122 116 25
120 113 22
115 110 22
110 107 0
147 153 16
160 169 0
155 164 0
157 169 0
157 167 0
158 173 0
154 165 0
159 172 0
152 163 0
155 167 0
153 164 0
160 173 0
158 170 0
156 171 0
158 170 0
159 170 0
155 168 0
158 170 0
156 169 0
159 173 0
157 173 0
162 178 0
161 175 0
170 186 0
159 174 0
162 177 0
165 183 0
165 182 0
167 184 0
166 183 0
167 184 0
170 188 0
167 185 0
162 181 0
167 183 0
165 184 0
161 179 0
163 179 0
167 182 0
169 188 0
168 186 0
162 180 0
169 189 0
219 234 250
219 234 253
217 233 249
215 231 245
217 233 252
216 233 252
216 233 254
215 232 253
215 232 253
214 232 253
214 231 253
213 231 252
214 231 253
212 230 250
212 230 252
212 230 252
212 230 254
212 230 254
212 230 254
211 229 253
211 230 255
211 230 255
211 230 255
210 229 255
210 229 255
210 229 255
210 229 255
209 229 255
209 229 255
209 229 255
209 229 255
208 228 255
208 228 255
205 225 248
205 225 241
207 227 244
206 226 241
205 225 237
205 224 238
205 225 238
205 224 230
206 225 228
209 226 237
201 221 221
203 222 224
205 223 226
199 219 214
200 219 218
207 226 234
203 223 231
208 227 244
206 225 236
208 227 245
208 227 249
207 226 250
209 229 255
210 229 255
210 230 255
211 230 255
211 230 254
211 230 255
212 230 255
212 230 255
211 230 255
213 231 255
212 230 253
213 231 254
212 230 249
211 229 248
212 230 250
214 231 253
214 231 252
215 232 253
214 231 251
213 230 253
215 231 253
215 231 253
215 231 254
216 232 253
214 229 252
213 228 251
104 131 188
82 113 181
76 109 174
82 113 181
87 117 184
74 107 176
94 123 184
71 105 169
83 114 179
71 104 170
85 115 176
91 119 171
95 122 175
95 122 179
62 98 164
63 99 170
60 97 159
63 98 157
67 102 159
67 101 156
63 99 159
61 97 162
66 101 164
74 107 152
64 98 158
60 96 157
62 97 156
67 101 153
65 99 148
82 112 148
64 98 156
59 95 148
60 96 154
60 96 158
61 96 155
61 97 160
61 97 161
60 96 151
60 96 154
61 96 158
61 97 156
61 97 159
60 96 164
62 98 161
60 95 159
61 97 155
61 97 155
60 96 155
61 97 158
62 98 161
59 95 156
60 96 158
61 97 160
61 98 163
62 98 164
62 98 166
61 97 159
61 98 159
60 96 153
61 97 158
61 97 157
61 97 161
61 97 158
61 97 157
61 97 155
61 97 159
61 97 162
61 97 156
61 97 158
62 97 157
61 97 162
61 97 159
61 97 156
61 97 160
61 97 161
61 98 164
62 98 163
62 98 164
61 98 162
61 97 160
61 97 162
61 97 164
61 97 157
62 99 168
62 98 161
62 98 158
61 97 161
62 98 165
62 98 163
62 98 161
61 98 165
62 98 165
61 97 162
62 98 162
62 98 163
62 98 163
62 98 167
62 98 165
62 98 161
62 98 158
61 98 161
62 97 154
61 97 162
61 97 158
62 98 161
62 98 163
62 98 162
61 97 160
61 97 156
62 98 162
63 99 164
62 98 161
62 98 156
61 97 151
62 97 156
62 98 163
61 97 156
60 96 149
61 98 162
61 97 161
62 98 158
62 97 154
61 97 154
62 98 159
62 98 158
61 97 157
62 97 155
62 98 158
63 99 163
62 98 161
62 98 157
63 99 160
61 97 157
63 98 157
62 98 159
61 96 141
61 97 154
62 98 159
60 96 150
61 97 153
62 98 159
62 98 155
62 97 156
61 97 154
61 97 147
62 98 158
61 97 148
62 98 156
62 97 151
62 98 160
62 98 156
62 98 156
62 97 154
62 98 154
61 97 150
60 95 144
61 96 147
62 98 161
62 98 154
61 97 147
61 97 154
62 98 159
61 97 152
62 97 151
62 98 154
61 96 146
61 96 144
61 96 146
61 97 150
60 95 139
60 95 141
59 93 134
61 96 148
60 94 144
60 95 138
61 96 143
59 92 133
60 93 136
60 93 128
60 94 139
57 90 114
63 90 95
116 121 0
121 126 0
117 121 0
112 113 0
106 107 0
107 110 11
75 72 11
85 81 0
79 77 11
77 72 14
78 74 0
94 90 2
94 89 0
83 80 3
91 87 8
92 89 0
93 89 11
98 94 0
95 91 3
97 93 0
89 87 0
98 94 8
96 94 0
89 86 8
100 97 0
99 97 8
96 92 8
96 93 11
96 91 0
109 106 11
97 92 0
111 107 21
105 101 0
100 97 11
100 95 8
105 102 0
108 104 0
104 100 22
106 101 0
104 103 14
116 114 11
110 106 19
113 108 0
113 111 11
122 119 0
118 114 14
114 109 19
113 110 0
117 113 16
117 112 25
116 112 11
127 122 16
122 117 19
114 111 19
134 130 22
120 114 26
117 113 16
135 130 19
120 116 19
121 117 0
110 106 19
117 114 16
122 117 19
126 121 22
124 120 25
115 112 19
120 115 19
124 119 28
129 124 32
116 111 22
114 108 19
128 122 22
110 105 22
124 120 28
134 129 22
114 109 19
119 114 19
111 105 11
111 107 25
120 116 22
117 111 11
130 125 25
123 116 22
117 111 22
123 118 19
115 110 30
121 115 22
104 100 11
118 112 16
115 111 19
104 97 19
110 105 25
137 138 19
153 164 11
152 161 0
157 167 0
160 173 0
151 161 0
149 159 0
155 166 0
160 171 0
161 172 0
161 172 0
158 174 0
155 166 0
159 173 0
153 165 0
159 172 0
167 181 0
158 170 0
157 169 0
161 175 0
161 176 0
160 175 0
165 180 0
158 175 0
160 176 0
161 177 0
163 178 0
163 175 0
160 177 0
160 176 0
162 179 0
163 180 0
161 178 0
164 180 0
166 185 0
161 176 0
167 185 0
164 181 0
170 189 0
169 185 0
166 182 0
164 183 0
165 184 0
168 186 0
167 186 0
218 233 252
217 233 252
217 233 254
217 233 254
215 231 248
215 232 250
215 232 254
214 231 249
214 231 252
213 231 250
213 231 252
211 229 248
209 228 244
212 230 253
212 231 255
211 230 255
211 230 255
211 230 255
211 230 255
211 230 255
210 229 254
209 229 253
209 229 255
209 229 255
209 229 255
209 229 255
208 228 252
205 225 240
206 225 237
204 223 224
200 220 218
201 221 212
203 221 215
197 216 193
200 219 203
203 221 209
196 216 191
197 216 191
199 218 201
202 220 204
195 215 182
201 219 199
194 213 186
196 216 184
203 221 203
206 223 211
199 218 199
195 214 179
195 214 182
194 214 186
196 216 188
195 215 188
200 218 207
201 219 203
197 216 193
199 218 211
203 221 215
204 223 234
201 220 226
207 226 238
208 227 245
209 229 254
211 230 255
210 229 255
211 230 255
212 231 255
212 231 255
213 231 255
212 231 254
214 231 255
212 230 248
213 231 252
212 230 248
212 230 250
210 227 251
212 229 252
213 229 253
215 231 254
211 227 250
215 231 254
219 234 255
188 205 236
82 113 182
76 109 181
81 113 182
91 120 180
79 111 177
98 126 186
90 119 179
87 117 180
96 124 181
107 132 183
87 116 175
95 123 181
85 114 169
87 116 176
64 99 163
61 97 161
61 97 156
61 98 164
61 97 159
69 103 159
69 104 161
63 98 157
66 100 153
67 101 159
62 98 159
70 103 155
63 99 160
60 96 156
62 97 153
69 102 153
67 101 157
60 95 145
59 93 144
60 96 153
59 95 149
61 97 156
59 94 154
59 94 151
61 97 156
61 97 158
61 97 159
60 95 158
60 96 158
61 97 161
61 97 161
60 96 153
60 96 151
61 97 160
61 96 157
60 96 156
61 97 163
62 97 162
61 96 156
61 97 163
61 97 158
62 98 160
61 97 159
62 98 166
60 96 159
61 97 150
60 96 154
61 97 158
61 97 161
61 97 160
62 98 159
61 97 162
61 97 154
62 98 166
60 96 154
61 98 163
61 97 161
61 97 157
62 99 169
62 98 159
61 97 156
62 98 161
62 98 157
62 98 165
62 98 161
62 98 163
61 97 161
61 97 159
62 98 162
62 98 164
61 97 158
62 98 161
61 97 155
62 98 159
61 97 155
61 97 157
61 97 160
62 98 156
62 98 165
61 97 160
62 98 165
61 97 152
62 98 159
62 98 165
61 97 152
61 97 163
62 98 157
61 97 159
61 97 157
61 97 157
62 97 156
61 97 157
61 97 160
62 98 160
62 98 156
62 98 158
62 98 159
61 96 150
62 98 160
62 98 160
61 98 160
61 97 157
62 97 147
61 96 158
61 97 158
62 98 162
62 97 156
61 97 155
62 98 155
62 98 161
61 97 147
62 98 156
62 98 157
62 98 159
61 97 151
62 98 159
62 98 158
62 98 156
62 98 160
61 97 155
61 97 152
62 97 149
62 98 159
62 97 153
60 95 148
62 97 153
62 98 152
62 98 159
62 98 163
62 98 165
62 98 154
61 96 148
61 96 148
63 98 157
61 96 149
61 97 151
62 97 151
61 97 152
62 97 151
61 96 148
61 96 143
62 97 154
62 98 159
61 95 145
63 98 160
62 97 149
62 97 151
61 97 150
61 96 151
61 96 143
62 97 147
61 97 149
61 96 148
63 98 161
60 95 146
61 96 153
59 94 138
60 95 144
60 95 147
58 92 125
59 93 132
59 92 132
60 94 133
59 92 137
61 95 143
58 91 120
92 108 95
112 116 0
111 110 0
118 126 0
113 114 0
104 105 0
111 112 0
113 116 0
94 91 0
69 64 11
90 85 0
91 87 16
90 85 16
79 77 0
71 70 0
89 84 16
92 86 2
81 78 8
92 87 0
87 83 0
92 89 0
85 81 0
93 88 0
90 87 0
102 99 0
103 99 3
101 94 8
101 96 8
89 86 8
103 101 11
102 100 3
98 95 0
91 88 0
109 105 16
98 96 0
99 96 8
102 98 0
108 104 11
108 105 14
107 102 16
107 103 0
108 104 8
119 115 0
104 102 11
101 97 0
116 112 11
113 109 14
108 105 0
103 101 14
121 118 11
118 115 0
121 116 22
120 115 16
111 107 19
121 116 16
120 115 28
122 116 16
121 117 11
124 119 16
122 118 25
121 116 22
124 120 25
122 117 16
123 118 25
117 113 16
122 117 16
118 114 16
116 112 19
121 116 19
128 123 22
116 112 11
127 122 22
127 120 25
122 117 22
125 119 30
119 114 19
108 103 11
120 116 16
115 110 11
120 115 19
124 119 25
115 110 0
117 110 19
113 109 19
114 109 19
106 101 25
112 107 22
107 103 11
114 108 28
105 98 19
106 100 25
123 124 16
144 152 0
160 169 0
148 156 0
154 163 0
157 164 0
154 163 0
158 169 0
158 168 0
155 167 0
158 165 0
157 167 0
154 164 0
159 173 0
153 167 0
154 165 0
158 171 0
162 176 0
161 173 0
159 172 0
161 174 0
159 173 0
163 177 0
161 176 0
165 179 0
160 173 0
165 182 0
165 181 0
160 174 0
160 173 0
164 180 0
165 182 0
164 180 0
164 181 0
162 178 0
163 182 0
166 183 0
165 182 0
166 183 0
161 178 0
167 184 0
166 184 0
167 185 0
165 180 0
168 186 0
168 187 0
161 176 0
216 232 250
215 231 249
215 231 249
215 231 250
214 231 248
213 230 248
214 232 254
213 231 252
212 230 252
210 229 246
213 231 254
213 231 255
211 230 255
211 230 255
210 229 254
211 230 255
210 229 255
210 229 255
209 229 255
209 229 255
209 229 255
208 228 252
206 226 246
206 225 241
206 225 233
200 219 214
199 218 194
201 220 206
195 214 188
198 217 194
195 214 194
198 217 196
195 214 173
201 219 198
202 220 204
205 222 207
203 221 206
204 222 207
203 221 204
205 222 215
202 220 206
202 219 206
206 223 214
200 218 196
207 224 215
202 220 196
205 222 212
200 218 201
203 220 206
205 222 221
203 221 206
201 219 204
200 218 199
206 223 221
203 221 211
200 219 198
200 218 201
200 218 203
199 218 201
200 218 201
198 217 201
198 217 201
202 221 211
203 223 227
210 229 249
211 230 254
211 230 255
212 230 255
211 230 255
213 231 255
212 230 255
214 231 255
212 230 253
211 229 252
204 222 249
213 230 254
211 228 252
213 230 253
210 226 251
212 228 251
218 234 255
216 232 254
172 190 227
81 112 182
86 117 185
83 114 183
80 111 179
82 113 180
82 113 181
91 119 176
79 111 176
84 115 178
85 115 179
78 110 179
85 114 178
78 110 178
82 113 178
62 98 168
64 99 164
62 98 171
61 98 167
61 96 156
60 96 154
66 100 158
65 100 162
66 101 159
60 96 160
71 104 153
63 99 159
67 101 142
61 96 153
62 97 150
71 104 158
69 101 145
61 97 156
61 96 149
61 97 157
62 97 159
61 97 158
61 96 158
60 96 157
61 97 162
60 96 155
60 96 159
61 97 162
60 96 153
62 98 159
60 95 149
61 97 160
60 97 162
61 97 157
60 96 163
61 97 161
62 99 165
61 98 164
62 97 156
60 96 159
61 97 164
61 97 161
61 97 159
61 96 158
61 97 157
61 97 163
62 98 163
61 98 160
61 97 163
62 97 157
61 97 155
62 97 156
61 97 162
60 96 155
62 99 169
61 96 158
61 96 156
62 98 160
61 97 156
62 98 163
60 96 154
62 97 154
62 97 153
62 98 165
61 97 156
61 97 161
62 98 160
61 96 152
62 98 165
62 98 158
60 96 155
62 98 165
62 98 164
63 99 161
61 97 160
62 98 158
60 96 154
62 98 163
62 99 166
61 98 162
62 98 161
61 96 151
61 97 156
62 98 167
60 96 148
62 98 165
62 98 158
62 98 162
62 97 153
61 97 158
61 97 148
62 98 163
62 98 163
62 97 153
61 97 154
61 97 154
61 96 152
62 98 164
62 97 157
61 97 152
62 98 163
61 96 148
62 98 163
62 98 159
62 98 155
62 98 159
62 97 153
60 95 136
61 97 161
62 97 158
61 96 141
61 97 149
63 98 162
61 97 154
62 98 156
61 96 149
62 98 156
62 97 155
62 97 156
61 97 155
61 97 154
62 97 154
61 97 153
60 96 149
61 97 154
62 98 155
62 97 157
61 97 159
62 98 154
62 98 159
61 97 150
62 97 157
62 97 152
62 97 151
61 97 152
62 98 153
62 97 153
62 97 152
62 98 156
60 95 142
60 95 142
63 98 152
62 98 157
61 96 144
61 96 143
60 95 142
61 97 147
61 97 153
62 97 149
62 97 154
62 97 155
61 96 143
61 96 147
61 96 146
59 93 130
61 96 148
61 96 145
60 95 141
59 94 139
60 94 141
61 95 142
60 95 138
58 92 130
60 93 130
58 91 128
90 101 65
113 117 0
119 124 0
115 119 0
121 128 0
110 114 0
108 111 0
100 101 0
115 117 0
104 107 0
94 89 11
94 87 16
81 75 0
80 76 0
91 86 0
92 85 11
95 86 11
78 75 8
82 79 0
91 87 8
96 90 0
93 89 11
98 93 0
88 84 2
90 86 0
94 92 0
99 95 0
94 90 0
89 87 0
108 103 0
94 88 0
99 97 11
112 107 0
114 108 0
108 103 0
105 100 11
98 95 8
107 104 0
105 101 0
104 100 14
101 98 0
107 102 16
109 103 0
112 110 0
117 115 0
113 111 0
118 113 19
109 105 19
112 109 11
115 110 11
127 122 0
115 111 11
122 118 0
117 112 11
130 125 16
122 117 22
122 119 16
120 115 16
121 114 0
113 108 19
112 108 16
117 111 0
127 121 11
118 114 16
121 118 0
108 105 16
124 119 19
117 114 11
120 117 22
121 116 16
120 116 11
117 113 22
124 119 11
124 120 22
121 115 19
110 105 16
123 117 16
112 105 11
119 114 22
119 112 16
117 114 19
119 114 11
116 111 19
114 107 19
108 100 11
115 110 16
110 103 19
112 106 16
115 108 25
116 116 11
142 146 16
150 157 0
153 161 0
148 158 0
150 159 0
150 159 0
156 162 0
145 154 0
153 162 0
156 167 0
159 170 0
156 166 0
157 170 0
157 168 0
155 168 0
158 171 0
155 168 0
158 169 0
157 169 0
162 174 0
162 175 0
164 179 0
160 177 0
161 176 0
158 173 0
165 180 0
164 180 0
165 180 0
162 175 0
163 180 0
167 185 0
165 183 0
163 177 0
163 179 0
158 176 0
162 180 0
163 181 0
165 183 0
164 180 0
168 187 0
166 185 0
165 183 0
165 181 0
166 183 0
166 185 0
162 178 0
168 188 0
165 183 0
214 231 248
215 232 253
214 231 253
214 231 253
212 230 246
213 231 252
212 230 252
212 230 253
212 230 253
211 230 254
211 230 255
211 230 255
210 229 254
210 229 255
210 229 255
209 229 255
209 229 255
209 228 255
207 227 248
206 225 236
202 221 221
199 218 201
197 215 186
193 213 186
200 219 196
197 216 188
197 216 194
208 225 217
201 219 207
205 222 218
202 219 206
208 224 218
202 219 211
203 220 214
209 226 223
205 222 206
204 220 212
208 224 217
207 222 218
208 224 221
212 228 234
207 223 214
206 222 215
213 228 231
208 224 227
210 226 224
208 224 223
206 222 215
208 225 217
200 217 201
213 228 230
208 224 217
210 226 223
209 225 220
205 222 214
199 216 203
208 224 221
208 225 220
205 222 211
206 222 215
197 216 194
202 220 211
200 218 198
198 217 186
199 217 196
197 216 191
199 218 203
206 224 228
207 225 236
212 230 255
211 230 255
213 231 255
213 231 255
213 231 254
205 224 250
204 222 248
210 228 253
211 228 251
213 230 253
214 231 254
214 231 254
211 227 252
215 231 253
154 174 217
81 112 185
81 113 185
71 105 178
74 107 180
86 116 180
84 114 180
89 118 181
91 120 183
94 122 181
68 102 170
92 120 178
80 112 173
92 120 176
77 109 172
65 100 169
61 97 160
61 97 159
61 97 165
61 97 159
62 98 165
63 99 162
61 97 160
71 103 155
63 98 159
64 99 163
60 96 150
66 99 156
67 101 156
62 97 149
66 99 154
69 102 152
60 96 164
60 95 157
62 98 163
61 97 158
60 95 149
60 96 154
60 95 153
61 97 166
61 97 159
61 97 159
60 95 155
62 97 161
61 97 158
60 95 157
60 96 162
61 97 160
60 96 151
60 96 150
62 98 163
60 96 153
60 96 161
62 97 158
60 96 151
61 97 161
60 96 157
61 97 155
61 97 162
61 96 158
62 98 161
60 96 152
61 97 155
60 96 149
60 96 159
60 96 158
62 98 161
60 96 155
61 97 155
61 97 158
60 96 160
61 97 158
61 97 161
60 96 157
61 97 152
61 97 158
61 97 154
60 96 151
61 97 156
62 98 166
61 96 160
62 98 157
61 97 160
60 95 147
62 98 154
63 100 172
62 98 158
62 98 162
61 97 150
62 98 160
61 98 159
61 97 155
61 97 155
60 96 159
61 97 159
63 99 166
61 97 154
61 97 157
62 98 162
62 98 158
62 98 159
62 98 158
62 98 161
62 98 159
62 98 162
61 97 155
62 98 164
62 98 163
62 97 155
62 98 161
62 98 160
61 97 157
61 97 157
61 96 149
62 98 160
61 97 159
61 97 158
61 97 154
59 95 145
61 96 149
61 97 161
61 97 150
60 96 143
62 97 158
61 97 159
62 98 161
61 97 157
61 96 147
63 98 160
62 98 157
62 98 159
61 97 150
62 97 153
60 96 150
61 97 160
62 97 148
62 97 157
62 98 157
63 98 158
62 98 153
61 96 148
61 97 152
62 97 154
61 97 150
62 98 160
60 96 149
62 97 152
61 97 152
61 97 151
62 98 154
61 96 150
62 97 155
62 97 151
61 97 155
62 98 152
61 96 147
61 96 148
62 97 155
60 96 148
62 97 151
61 97 152
61 96 148
61 96 147
60 95 141
61 96 147
61 96 145
61 96 145
60 95 135
60 95 140
60 94 139
60 94 134
59 94 136
60 95 141
61 96 146
59 93 137
59 93 132
58 90 126
59 92 125
59 91 126
110 114 36
121 127 0
114 116 0
103 105 0
108 111 0
99 103 0
117 118 0
117 119 0
97 98 0
103 104 0
95 97 0
96 94 0
89 82 16
86 80 11
78 73 0
85 79 0
77 71 0
81 77 0
93 86 3
85 81 0
85 82 0
82 79 0
92 89 0
95 91 0
91 88 0
88 84 0
93 89 0
93 88 3
93 89 8
98 92 0
104 101 0
95 91 0
97 93 0
101 97 8
98 94 0
106 102 0
95 93 0
109 105 0
106 102 0
106 100 0
107 103 0
111 106 0
118 115 11
113 110 0
101 97 8
115 108 11
114 109 11
107 104 0
107 104 0
115 110 16
122 117 16
121 114 11
113 109 11
112 107 16
113 109 0
121 117 0
117 114 11
119 115 16
119 114 0
123 116 30
123 119 22
120 117 11
118 113 16
116 112 19
124 118 16
130 125 19
123 117 19
120 116 16
118 114 16
118 113 0
123 117 19
118 113 11
117 112 22
106 102 16
114 110 19
124 119 11
120 115 19
117 112 11
116 111 22
117 112 25
108 101 19
113 105 25
112 106 16
106 101 19
113 106 16
117 111 28
107 101 0
117 111 28
130 135 11
145 150 0
153 162 0
146 151 0
150 159 0
137 141 0
151 160 0
151 160 0
159 170 0
145 154 0
148 158 0
156 166 0
157 168 0
156 168 0
157 167 0
153 164 0
156 169 0
153 163 0
157 172 0
158 169 0
162 175 0
159 174 0
156 167 0
159 172 0
159 172 0
159 173 0
163 177 0
156 170 0
163 175 0
155 169 0
162 178 0
162 174 0
165 180 0
158 174 0
161 178 0
163 180 0
162 178 0
158 175 0
166 184 0
163 180 0
160 176 0
167 184 0
167 183 0
164 177 0
161 177 0
165 180 0
163 180 0
167 183 0
161 179 0
171 190 0
215 232 252
213 231 250
212 230 250
212 229 248
212 230 250
212 230 253
212 231 255
212 231 255
212 230 255
212 230 255
210 230 255
210 229 255
210 229 255
209 229 255
209 229 255
203 223 238
203 223 226
202 221 211
199 217 198
198 217 191
199 218 203
201 219 203
204 221 211
205 223 214
207 224 215
210 227 230
205 222 215
205 222 212
207 223 217
211 226 227
207 223 220
206 223 215
210 226 220
207 223 223
211 227 226
211 226 227
208 224 217
200 218 199
200 217 196
196 215 182
194 213 171
196 215 179
189 209 159
189 209 161
186 207 142
189 208 161
192 211 149
191 211 151
193 212 169
193 212 159
193 211 165
195 214 171
194 213 167
197 216 182
205 222 204
205 221 212
207 223 220
207 223 217
210 226 227
207 223 212
206 222 212
212 227 224
203 220 207
204 220 211
195 213 189
197 216 188
202 220 198
196 214 193
196 215 189
193 213 182
204 222 224
210 228 242
212 230 254
212 231 255
212 230 255
213 231 255
210 228 254
210 227 251
212 229 254
213 230 254
214 231 254
208 225 249
212 228 252
211 228 251
126 149 202
78 111 181
86 117 186
77 110 182
78 110 180
89 119 185
79 111 178
84 114 176
82 113 177
89 117 175
85 116 183
85 115 178
80 111 174
85 115 176
74 106 169
62 98 169
62 99 170
64 100 163
61 97 163
61 98 160
61 97 160
60 96 157
61 97 159
68 102 164
65 100 155
71 105 157
67 100 153
65 100 158
65 100 158
65 99 154
66 100 157
78 108 140
63 97 149
61 97 163
60 96 160
60 96 151
58 94 153
61 97 166
61 96 154
61 96 156
60 96 155
61 97 162
61 96 156
60 95 155
61 96 157
61 97 157
61 97 159
61 97 161
61 97 158
60 96 154
61 97 156
60 96 156
61 97 160
58 94 151
62 97 157
61 97 163
61 97 158
61 97 157
62 97 162
61 96 161
61 97 162
61 96 150
60 96 156
61 97 160
61 97 152
62 98 160
61 97 165
62 98 162
61 97 160
62 98 165
60 96 154
62 97 158
61 97 159
62 98 158
61 97 159
61 97 158
61 97 161
61 96 155
62 98 162
62 98 163
62 98 159
62 98 159
61 97 157
62 98 166
62 98 161
61 97 163
62 97 155
61 97 156
62 98 157
61 96 148
62 97 158
62 98 163
62 98 157
62 98 161
61 97 155
61 97 157
60 96 156
61 97 163
61 97 155
61 97 155
61 97 155
61 97 152
62 98 160
62 97 156
62 97 156
61 96 153
62 98 160
62 98 162
63 99 166
62 98 164
62 98 160
62 98 160
62 97 153
61 97 153
63 98 159
61 97 156
62 98 160
62 98 159
61 96 153
62 98 162
62 98 165
61 97 155
62 97 157
61 96 153
60 96 147
62 98 166
62 98 153
61 97 152
61 97 155
62 98 156
61 97 154
63 99 161
61 97 150
61 96 151
61 96 148
62 97 155
63 99 166
62 97 151
61 96 144
61 96 151
61 97 151
60 96 145
61 97 152
62 97 148
62 97 153
61 97 151
60 96 151
61 96 147
60 96 145
62 97 149
62 98 164
62 97 154
61 97 153
60 95 139
61 96 150
61 97 153
60 95 145
60 95 143
61 96 145
61 97 148
61 96 145
60 95 143
62 97 154
62 98 148
61 96 143
61 95 148
61 96 148
60 95 139
60 93 136
61 96 145
60 95 136
60 94 140
59 93 128
59 92 125
59 92 128
57 90 131
57 90 131
61 89 113
112 117 18
111 115 0
99 104 0
117 123 0
111 115 0
104 109 0
111 112 0
105 106 0
111 110 0
100 101 0
120 121 0
114 118 0
119 123 0
108 107 0
80 72 0
66 60 0
84 79 11
79 74 11
94 89 11
87 82 11
94 88 0
80 75 0
98 93 11
85 80 0
100 96 0
98 92 0
88 83 0
99 92 0
97 91 0
98 92 0
95 91 11
100 93 8
108 101 0
113 108 0
101 98 3
99 95 8
104 99 0
105 102 0
104 99 0
107 101 0
107 104 0
101 96 0
104 98 0
107 103 0
106 101 0
110 106 0
99 95 0
109 107 11
100 97 0
116 111 0
106 103 0
109 103 0
108 104 0
106 100 11
111 106 0
113 108 0
117 111 22
102 98 0
110 105 0
115 110 16
112 108 0
117 113 11
106 102 11
111 107 0
120 116 11
114 110 16
118 113 11
119 114 0
114 111 16
114 109 16
111 107 16
112 106 11
116 112 11
130 124 32
110 104 22
114 108 25
115 109 19
111 106 11
105 99 16
115 110 11
111 106 19
111 105 22
106 99 11
113 107 19
105 98 19
108 104 11
131 133 16
147 156 0
151 159 0
149 158 0
146 152 0
149 156 0
153 159 0
148 152 0
150 159 0
145 152 0
150 158 0
152 161 0
153 163 0
148 157 0
159 169 0
154 165 0
163 176 0
153 164 0
157 169 0
166 180 0
156 168 0
156 170 0
157 169 0
161 173 0
161 175 0
164 177 0
155 169 0
161 176 0
165 180 0
159 174 0
154 168 0
163 179 0
164 179 0
166 181 0
163 179 0
163 179 0
156 173 0
166 182 0
160 179 0
166 183 0
166 183 0
163 182 0
162 178 0
158 176 0
164 181 0
164 181 0
167 183 0
165 184 0
168 186 0
161 177 0
161 177 0
163 181 0
213 231 253
212 230 253
211 229 245
212 230 252
212 231 255
212 230 255
211 230 255
211 230 255
210 229 254
209 229 255
210 229 255
208 228 253
205 225 238
201 221 217
203 222 212
199 218 201
201 219 198
197 215 196
198 217 199
203 221 206
209 225 224
201 219 204
206 222 217
205 221 214
209 225 230
215 230 228
211 227 233
211 227 224
210 225 230
203 220 198
202 219 191
195 213 163
183 205 128
187 208 130
179 202 114
175 199 67
174 197 72
175 198 62
176 199 72
174 198 84
176 199 80
171 195 44
175 199 88
175 198 80
174 197 25
177 200 67
175 198 72
170 193 25
176 200 80
175 198 72
172 196 62
174 197 62
174 198 80
176 200 67
173 197 72
176 200 92
177 199 51
173 197 51
184 206 125
187 207 128
184 205 137
199 216 186
198 216 182
209 225 221
207 223 212
208 224 221
204 220 204
206 223 214
203 220 211
201 218 206
199 218 196
197 216 191
187 206 195
180 199 208
193 211 230
206 225 250
209 228 254
205 223 249
209 227 252
209 227 252
209 227 250
211 228 252
211 228 252
213 230 253
197 214 242
103 130 194
81 113 182
81 113 183
79 111 181
79 111 179
82 113 178
82 113 182
83 114 182
89 118 185
87 116 180
87 117 182
86 116 173
87 116 178
79 110 166
88 117 180
63 99 163
61 98 166
62 99 166
62 99 171
61 97 163
61 97 165
61 97 156
69 103 158
62 97 158
75 106 147
75 107 152
62 98 164
64 99 153
65 99 152
60 96 148
72 104 150
67 100 150
62 97 147
59 94 145
59 95 153
60 96 151
61 97 159
60 96 154
61 97 162
60 95 156
61 96 156
61 98 166
61 96 158
60 96 157
60 96 154
60 96 151
59 94 145
61 97 152
60 96 156
59 95 152
61 97 161
61 98 160
61 96 158
61 97 155
61 98 161
61 97 157
61 96 159
61 97 159
60 95 152
62 98 161
61 96 154
61 98 159
62 98 154
61 97 151
61 96 156
60 96 155
60 96 155
61 96 156
61 97 155
61 97 153
60 96 152
60 96 156
61 97 155
62 98 160
61 97 159
61 97 161
62 98 162
60 96 158
61 97 161
61 96 150
61 97 155
61 97 158
62 98 163
60 96 152
63 99 170
62 98 161
63 99 167
62 98 158
62 97 157
62 97 159
61 97 158
61 97 161
61 97 158
62 98 164
62 98 158
61 97 158
61 97 163
61 97 158
61 97 157
61 97 158
61 97 158
61 97 154
61 97 155
61 97 154
62 98 159
61 97 149
62 97 153
62 98 160
61 97 153
62 98 155
62 98 158
62 98 160
62 98 157
62 98 162
62 98 159
63 99 165
64 100 168
62 98 160
62 98 159
61 96 149
62 98 155
61 97 154
62 97 149
62 97 153
61 96 147
61 97 157
62 98 156
62 98 156
61 97 159
61 96 151
62 97 157
61 96 148
63 98 157
62 98 155
61 97 147
62 97 153
61 96 149
61 97 147
62 98 153
61 97 153
61 96 152
61 97 155
61 97 156
61 96 149
61 97 156
61 97 153
61 97 147
60 95 142
61 97 155
61 97 151
61 97 147
62 98 155
62 97 151
62 97 148
61 97 151
63 98 155
63 99 162
62 97 148
61 96 142
62 97 154
60 96 144
61 96 149
61 95 143
60 95 146
59 94 129
60 95 137
61 96 147
61 96 154
59 93 132
60 95 141
59 93 136
59 93 135
59 92 129
60 94 140
61 95 147
58 90 124
74 99 117
109 115 0
113 119 0
109 113 0
121 125 0
106 109 0
104 105 0
105 107 0
104 106 0
104 106 0
108 111 0
109 113 0
100 101 0
102 103 0
94 95 0
102 105 0
89 89 0
93 90 0
70 65 0
79 72 0
80 76 0
86 83 11
87 81 0
78 75 0
82 77 0
92 88 0
102 96 0
90 86 0
90 84 0
98 94 0
101 96 0
109 104 0
104 99 0
102 96 0
96 92 0
98 94 0
80 77 0
101 96 0
99 94 0
101 97 0
111 105 0
103 99 0
103 99 0
92 87 8
104 100 0
111 107 0
104 100 0
113 107 0
107 102 0
106 102 0
103 98 0
112 106 0
112 106 0
100 95 0
120 113 0
113 107 11
112 108 11
114 110 11
105 99 19
111 106 0
121 115 0
118 112 16
115 109 16
116 110 0
112 107 16
116 111 16
109 104 11
103 99 0
114 107 0
108 103 19
103 97 11
107 101 11
115 109 11
112 105 16
104 98 11
109 102 0
115 109 25
108 102 11
106 99 19
120 113 19
103 96 16
98 91 11
111 104 0
98 93 16
113 114 11
130 133 0
150 156 11
151 157 0
149 154 0
150 160 0
150 156 0
150 160 0
144 150 0
146 151 0
151 157 0
149 157 0
152 160 0
153 163 0
151 160 0
154 166 0
148 157 0
161 172 0
158 167 0
153 162 0
156 168 0
156 172 0
160 173 0
155 166 0
154 165 0
159 172 0
162 174 0
157 172 0
160 171 0
164 179 0
161 176 0
163 178 0
164 178 0
160 173 0
161 177 0
158 175 0
161 178 0
160 176 0
160 173 0
166 183 0
167 183 0
162 179 0
164 180 0
163 178 0
164 181 0
167 185 0
165 181 0
164 179 0
161 177 0
166 185 0
166 182 0
170 190 0
168 186 0
166 183 0
168 187 0
212 230 252
212 230 254
212 230 254
211 230 255
211 230 255
211 230 255
210 229 255
209 229 255
209 229 255
207 227 246
202 221 220
205 224 217
200 219 206
198 217 201
200 219 201
206 223 224
208 225 217
206 223 224
204 221 211
210 227 224
205 222 214
209 226 223
207 223 218
211 226 226
203 221 211
198 217 182
187 207 149
181 203 108
176 200 62
173 198 80
173 197 88
177 200 95
173 197 57
175 198 62
174 198 76
175 198 72
175 199 76
172 196 62
173 197 57
174 198 92
174 197 67
175 198 67
175 198 76
173 196 76
175 198 67
175 198 72
171 194 84
173 196 57
174 198 51
173 197 72
174 198 80
175 199 76
172 195 76
176 199 72
175 198 88
174 198 62
175 198 72
174 197 95
174 198 67
174 197 72
172 195 51
176 199 72
174 198 72
174 198 72
181 202 108
188 208 149
195 214 171
198 215 181
204 220 211
210 226 221
210 226 221
204 221 211
196 214 199
196 213 217
189 207 203
175 194 201
181 200 214
196 215 240
207 226 252
213 231 255
214 231 255
212 230 254
213 230 254
209 226 251
215 232 255
194 212 241
95 124 191
90 120 188
79 111 186
84 115 184
86 117 186
89 119 186
81 113 182
79 111 178
79 111 179
96 124 185
79 110 177
92 120 183
86 116 178
99 125 180
71 104 169
64 99 161
61 97 163
61 97 165
62 98 165
61 98 165
62 98 164
60 96 156
61 97 162
64 100 163
70 103 157
70 103 156
65 100 156
65 100 159
64 98 148
60 95 148
59 95 156
69 101 145
72 105 157
60 96 158
59 95 148
59 95 156
61 97 161
61 97 155
60 96 151
61 97 165
61 97 153
60 96 162
60 96 159
60 95 154
61 97 159
61 96 155
60 95 146
61 97 163
61 97 155
61 97 159
61 97 163
60 95 157
60 96 155
62 98 161
60 95 149
61 97 157
61 97 158
61 97 159
61 97 159
61 97 160
60 96 158
62 97 156
61 97 154
61 97 162
61 97 158
62 98 161
62 98 158
60 95 159
61 96 149
62 99 170
62 98 159
61 97 158
62 98 160
61 97 160
61 97 158
62 97 154
61 97 154
61 96 150
61 98 163
62 98 165
61 97 155
61 97 152
61 97 155
62 98 158
60 96 157
61 97 157
61 97 151
61 97 155
61 97 159
62 98 163
60 96 157
61 97 152
61 97 151
61 96 149
62 98 158
61 97 154
62 98 164
61 97 157
61 97 163
62 98 158
62 98 167
62 97 157
62 98 159
61 97 151
62 98 162
61 97 158
62 98 161
62 97 156
62 97 154
62 98 159
61 97 152
62 98 158
61 96 143
62 98 160
61 97 153
62 98 157
61 96 147
61 97 161
61 97 150
62 98 161
62 97 157
60 96 151
62 98 157
61 97 155
62 98 163
62 97 157
62 98 158
62 98 159
62 97 152
62 97 154
62 98 152
61 97 152
61 97 153
61 97 144
62 98 155
62 98 157
61 97 154
61 97 152
61 97 151
61 97 149
61 96 149
61 97 152
62 97 148
62 98 161
61 97 149
62 97 153
62 97 152
62 97 148
62 97 153
61 96 147
61 96 144
61 97 149
62 97 150
62 97 154
61 97 153
61 96 148
60 96 145
62 98 155
62 97 149
60 95 145
60 94 125
59 94 136
60 95 145
60 94 141
59 94 143
60 95 140
59 93 130
59 93 131
60 95 142
60 95 134
62 96 146
60 94 134
59 93 127
58 91 125
56 88 118
111 126 81
120 124 0
115 120 0
112 118 0
105 109 0
116 120 0
110 115 0
110 112 0
117 122 0
107 111 0
104 105 0
103 105 0
95 92 0
102 103 0
112 112 0
103 104 0
111 114 0
105 104 0
101 99 0
88 83 11
83 75 0
78 75 0
90 82 0
90 84 0
93 86 0
94 88 0
84 79 0
85 83 0
92 88 0
97 91 0
105 99 0
90 84 0
98 93 0
92 89 1
96 90 0
92 86 0
115 108 0
103 97 0
107 100 0
90 87 0
95 91 0
101 98 0
99 95 0
107 102 0
105 101 0
116 111 0
102 96 0
89 86 0
112 107 0
109 104 0
105 98 0
113 108 0
109 103 0
111 106 11
111 106 11
115 109 11
111 105 0
108 102 11
104 101 0
112 107 11
104 98 0
116 111 11
111 104 19
116 110 11
112 106 16
110 105 11
107 102 11
110 104 16
110 104 11
109 103 11
111 106 16
113 107 16
111 104 0
113 106 0
108 103 16
108 101 16
113 105 22
94 87 11
121 114 11
105 99 0
96 91 0
105 98 0
115 111 16
133 134 11
140 144 0
147 153 0
148 154 0
153 159 0
146 153 0
143 147 0
154 161 0
148 154 0
148 157 0
147 155 0
151 161 0
152 160 0
154 164 0
143 153 0
153 164 0
155 165 0
154 163 0
152 164 0
153 165 0
155 166 0
158 169 0
152 165 0
156 168 0
158 169 0
159 173 0
157 170 0
158 172 0
165 179 0
161 175 0
164 178 0
160 173 0
164 180 0
163 178 0
162 177 0
160 174 0
155 170 0
164 178 0
163 178 0
159 175 0
164 179 0
158 173 0
163 179 0
156 170 0
162 178 0
163 180 0
166 183 0
162 180 0
163 180 0
165 183 0
167 185 0
164 183 0
160 177 0
166 183 0
168 186 0
163 179 0
212 230 254
211 230 255
212 230 255
210 229 254
210 229 254
210 229 254
209 228 253
205 225 234
202 220 215
198 217 194
199 218 193
203 222 211
203 221 207
198 216 191
203 220 212
205 221 209
211 227 230
208 223 214
213 228 233
210 225 220
202 219 193
196 215 171
183 205 125
175 199 88
172 195 51
172 197 76
173 197 51
173 196 84
176 199 80
177 200 92
173 196 72
174 198 62
173 197 95
176 200 84
175 199 76
175 199 51
174 198 72
174 198 80
173 197 76
175 199 92
174 197 67
175 198 67
174 198 88
174 197 62
176 199 84
175 198 62
173 196 62
175 198 67
173 196 57
171 196 51
173 197 84
176 199 62
176 200 76
170 193 51
172 196 72
171 196 72
172 196 62
174 198 72
175 198 72
175 198 80
175 198 80
175 199 72
175 199 72
173 196 51
177 199 88
175 199 72
174 198 80
171 194 76
173 197 57
179 200 108
193 212 161
190 208 188
150 171 188
136 159 168
135 158 147
124 148 161
132 155 179
140 163 171
154 176 201
183 203 228
209 227 251
210 228 254
212 229 254
208 226 252
212 229 253
215 232 255
182 200 234
91 120 188
81 113 184
76 109 181
79 111 179
77 109 182
82 113 184
74 107 180
80 111 178
76 109 176
71 105 176
89 118 179
87 116 176
79 110 171
87 117 177
82 112 178
66 101 167
61 97 165
62 98 163
62 98 167
61 97 161
61 97 164
62 99 172
62 99 167
61 97 156
65 99 157
71 105 157
68 102 161
60 95 151
67 101 157
63 97 150
66 101 157
62 97 152
61 96 147
60 95 148
60 96 155
61 96 152
60 95 154
60 95 149
60 95 152
61 97 160
59 94 144
63 99 164
60 95 155
60 96 155
61 96 154
61 97 158
61 96 156
61 96 158
61 96 150
61 97 160
60 96 149
62 97 160
60 96 160
60 96 158
60 95 151
60 96 154
61 97 163
62 98 157
59 95 143
62 98 159
61 96 152
61 96 149
61 96 155
61 97 162
61 96 150
62 98 160
61 97 158
60 96 151
62 98 160
61 97 161
61 97 160
60 96 150
60 96 157
62 97 156
62 97 155
61 97 152
62 98 164
61 96 154
62 98 159
63 99 166
61 96 153
61 97 156
61 96 150
61 98 159
61 97 161
62 97 162
61 96 147
60 96 151
62 98 157
61 97 152
61 96 149
61 97 155
60 96 148
61 97 153
62 98 155
63 99 160
62 97 158
61 97 159
61 97 152
62 98 161
61 97 154
61 96 150
61 96 142
60 96 147
62 98 157
61 96 152
61 97 158
62 98 158
61 96 149
62 98 158
61 97 150
61 96 153
61 97 151
62 98 155
62 97 152
62 98 153
61 96 154
62 98 159
61 97 151
61 97 151
62 97 156
62 97 158
61 97 155
62 98 153
62 97 152
62 98 155
62 98 157
63 99 163
61 96 149
62 97 155
62 98 153
61 96 147
61 97 148
60 96 153
61 97 149
61 97 148
61 97 156
62 97 151
60 95 148
63 98 154
63 99 158
61 96 148
60 95 144
62 97 152
61 96 147
61 96 142
61 97 149
60 95 150
61 96 147
61 97 153
60 96 141
62 97 152
61 96 143
62 97 152
60 95 141
61 96 143
61 96 145
61 96 146
60 94 143
60 94 136
60 95 139
61 95 140
59 94 137
60 95 142
61 96 149
62 96 150
59 93 137
60 94 143
60 94 128
59 93 131
60 94 135
57 90 118
60 93 134
60 94 129
108 116 44
112 121 0
115 122 0
117 123 0
112 114 0
111 116 0
119 127 0
104 109 0
108 110 0
110 111 0
95 96 0
96 99 0
113 116 0
111 113 0
103 104 0
106 109 0
102 102 0
99 99 0
94 91 0
104 103 0
86 83 0
78 73 0
86 82 0
89 82 0
91 86 11
97 91 0
100 95 0
93 87 11
95 89 0
96 89 0
85 80 0
91 84 0
101 97 0
96 90 0
95 89 0
100 96 0
98 95 0
90 85 0
96 91 0
102 98 0
97 93 0
104 97 0
108 103 8
104 98 0
110 106 11
108 100 0
101 94 0
99 91 0
103 99 0
111 105 0
108 103 0
107 102 11
121 115 16
113 109 0
108 104 0
94 90 0
120 114 11
110 105 11
106 102 0
102 97 0
110 105 0
111 104 11
104 98 0
110 105 0
99 93 11
106 101 11
103 98 11
101 97 16
121 115 0
110 103 11
109 103 16
113 108 11
113 108 16
118 110 11
114 108 11
114 107 11
105 98 0
100 92 11
98 91 11
108 102 19
116 113 0
144 148 11
149 151 0
145 149 0
141 146 0
142 145 0
145 151 0
137 141 0
149 154 0
142 147 0
143 150 0
148 157 0
148 156 0
151 161 0
149 160 0
149 157 0
149 159 0
151 161 0
155 164 0
152 162 0
150 161 0
151 161 0
153 164 0
152 163 0
157 167 0
157 170 0
163 177 0
158 171 0
158 172 0
158 170 0
155 167 0
160 177 0
158 171 0
156 169 0
162 176 0
164 179 0
164 179 0
163 178 0
164 179 0
161 176 0
162 177 0
165 182 0
157 172 0
162 175 0
162 179 0
165 181 0
162 179 0
161 178 0
162 176 0
164 181 0
161 178 0
165 181 0
162 179 0
159 176 0
164 180 0
163 180 0
169 184 0
167 186 0
168 187 0
211 230 254
211 230 255
210 230 255
209 229 255
209 228 253
205 223 227
197 216 194
198 217 193
200 219 201
201 219 198
200 217 204
211 228 227
211 226 228
210 225 220
210 226 224
214 229 233
205 222 211
201 218 193
188 208 144
176 199 76
174 197 67
174 197 72
174 198 67
176 199 80
177 200 84
176 200 72
174 198 72
175 199 76
174 198 95
173 196 62
174 197 62
175 199 95
174 198 57
175 198 57
175 198 62
173 197 72
177 199 67
176 199 67
175 199 72
173 197 62
174 198 67
176 200 76
171 194 62
176 199 84
175 198 72
175 199 57
174 197 67
175 198 84
175 198 72
177 200 84
175 199 51
174 197 80
172 196 80
173 196 88
174 198 84
171 195 62
174 198 72
172 196 76
174 198 72
177 200 84
174 198 80
175 198 62
174 198 57
176 198 80
172 196 44
174 198 84
176 199 80
173 196 51
173 197 88
177 199 72
168 191 78
116 142 145
117 143 155
110 136 150
111 138 157
117 143 145
121 147 145
102 130 157
109 135 163
111 137 164
131 153 189
161 182 208
196 215 242
210 228 253
214 232 255
212 229 254
210 227 252
184 203 236
83 114 185
74 107 181
76 109 180
76 109 178
75 108 182
77 110 181
82 113 178
71 105 175
79 111 178
85 115 177
71 105 175
87 117 181
90 119 180
90 119 183
81 112 171
61 97 168
62 98 167
61 98 163
61 98 162
61 98 162
61 97 160
63 98 164
59 95 157
64 100 164
62 98 167
67 100 148
65 99 150
70 102 151
62 97 154
69 102 159
63 98 160
64 98 151
66 100 151
61 96 154
58 93 142
58 93 144
61 97 159
61 97 154
61 96 158
60 96 155
60 96 159
60 96 154
60 95 152
62 97 158
60 96 153
60 95 156
61 97 151
60 96 154
60 96 152
60 95 151
60 95 153
60 96 145
61 96 154
61 96 160
60 96 158
60 97 157
62 97 157
61 97 159
61 98 158
61 98 164
61 96 159
61 97 154
62 98 160
61 97 159
60 96 153
60 95 153
61 97 157
62 98 166
61 97 159
62 98 160
60 96 156
61 97 163
62 98 158
62 97 155
61 97 160
62 98 157
62 98 165
61 97 154
61 97 161
61 97 153
61 97 160
61 97 155
62 98 158
61 97 160
60 96 153
61 96 152
62 98 155
62 97 159
61 97 149
61 96 153
61 97 156
62 98 162
62 98 162
60 96 150
60 96 150
61 97 152
61 97 159
61 97 154
61 97 156
62 97 151
62 98 161
61 97 154
62 98 158
61 96 141
62 97 149
61 97 157
62 97 155
61 97 152
62 97 154
62 98 162
62 97 157
61 97 153
61 97 155
60 96 154
62 98 153
61 96 158
61 96 149
61 97 155
62 98 160
61 97 153
62 98 158
61 97 155
63 98 157
61 97 154
62 98 154
61 96 152
61 96 148
61 97 153
63 98 155
62 97 155
62 98 157
61 97 152
61 96 149
61 96 147
61 96 145
62 97 152
62 98 158
62 97 154
61 97 156
61 96 147
61 96 140
61 96 149
62 97 150
61 96 155
61 96 147
61 96 145
61 97 155
62 97 147
61 97 144
60 96 145
60 95 147
61 96 140
62 98 151
60 95 143
61 97 150
61 96 140
61 96 147
61 95 142
61 96 145
60 94 135
60 95 143
61 96 142
62 96 150
60 94 138
58 92 131
58 92 130
57 91 130
60 93 136
59 92 125
60 93 130
58 92 128
59 92 127
70 94 104
117 123 0
109 114 0
114 122 0
114 117 0
108 114 0
115 119 0
131 135 0
107 111 0
113 118 0
120 124 0
111 114 0
103 106 0
107 110 0
105 108 0
105 106 0
114 114 0
105 106 0
109 109 0
107 106 0
109 109 0
106 107 0
94 93 0
109 105 0
83 80 0
95 90 0
96 88 11
78 73 0
81 76 11
72 67 0
85 78 0
89 82 0
82 75 0
91 88 0
96 89 0
102 94 0
94 87 0
91 86 0
99 95 0
97 90 0
107 101 0
97 92 0
93 88 0
98 93 0
100 92 0
89 83 0
104 99 0
107 101 0
88 82 0
102 95 0
108 102 0
107 102 0
102 97 0
102 97 0
101 96 0
106 99 0
101 96 16
107 102 0
107 101 0
99 94 0
103 95 11
112 106 0
110 104 11
104 98 0
107 102 0
106 100 0
103 97 0
107 101 11
115 109 19
98 93 0
104 99 11
106 102 16
104 97 16
108 100 11
109 101 0
109 105 19
99 92 16
108 103 16
113 110 0
131 132 0
137 139 0
146 150 0
138 142 0
141 146 0
142 144 0
150 154 0
135 140 0
143 150 0
143 149 0
149 153 0
144 153 0
147 153 0
151 159 0
146 152 0
155 162 0
155 161 0
151 158 0
155 167 0
151 162 0
155 164 0
153 164 0
161 173 0
150 160 0
152 162 0
152 161 0
157 168 0
158 168 0
157 166 0
156 167 0
159 172 0
161 173 0
157 170 0
153 167 0
160 173 0
159 170 0
163 177 0
162 177 0
163 177 0
164 180 0
163 177 0
163 179 0
159 174 0
155 169 0
162 178 0
164 182 0
167 184 0
164 180 0
168 184 0
163 179 0
166 184 0
162 179 0
167 184 0
161 178 0
169 189 0
167 185 0
167 185 0
166 184 0
162 180 0
168 186 0
163 180 0
211 230 255
210 229 255
207 226 246
200 219 212
196 215 191
200 218 201
201 219 209
204 222 206
201 219 206
204 222 211
209 224 217
211 227 226
205 221 212
203 220 199
187 207 151
181 202 111
173 197 62
176 200 62
174 198 76
176 200 67
173 197 67
175 199 62
173 197 76
171 195 67
174 198 57
174 198 76
174 198 57
177 200 76
177 201 102
174 197 57
175 198 57
171 195 51
174 198 88
173 196 72
175 198 84
175 199 72
176 199 67
175 199 92
175 198 99
171 194 67
175 199 76
177 200 92
175 199 72
174 197 51
171 194 57
175 199 76
176 200 92
174 197 67
174 197 72
173 197 51
173 196 67
172 196 57
174 198 80
174 198 72
170 194 51
174 197 80
172 195 57
174 198 80
173 197 92
172 195 72
175 198 72
174 197 72
172 196 67
175 198 67
172 195 62
174 197 88
173 196 88
175 199 72
173 197 76
180 202 88
141 165 124
99 127 156
111 138 149
109 136 148
116 142 162
125 150 140
110 137 153
115 140 153
112 138 152
109 136 175
125 150 161
110 137 170
110 137 173
142 164 199
196 214 244
212 230 254
210 227 252
214 230 254
159 179 222
76 109 185
70 105 180
76 109 181
69 104 181
73 107 177
79 111 184
82 113 181
71 105 179
90 119 183
102 129 188
82 113 178
74 107 176
80 111 174
72 105 177
79 110 171
61 98 170
61 98 164
62 99 174
62 98 169
59 95 152
62 98 169
61 98 166
61 97 160
61 98 160
64 99 159
71 102 152
61 97 165
62 97 151
67 100 150
64 98 148
63 97 151
64 98 154
64 98 146
60 96 154
59 94 139
59 94 149
60 96 153
60 96 154
59 95 153
60 96 157
61 97 162
60 95 155
61 97 159
62 98 161
61 96 154
60 96 158
62 98 162
61 97 159
61 96 156
60 96 157
61 96 156
60 96 154
61 96 156
61 96 157
61 97 155
61 96 159
61 97 158
61 97 157
61 97 158
61 96 155
61 97 156
61 97 151
60 96 154
61 97 154
61 97 163
61 97 151
62 97 155
61 97 157
62 98 164
60 96 151
62 98 161
62 98 155
62 98 159
61 97 158
61 97 158
61 97 156
61 96 155
61 97 151
62 98 161
61 97 154
60 96 153
61 97 157
60 96 153
60 96 148
61 97 154
61 97 154
61 97 150
62 98 156
62 97 156
62 97 154
62 98 160
61 97 152
62 98 160
62 98 152
61 97 158
62 98 158
60 96 144
61 97 150
62 98 157
62 97 154
61 96 155
60 96 144
61 97 149
61 96 159
63 98 160
61 97 154
61 97 148
60 96 151
61 97 157
61 97 158
60 96 147
61 97 152
62 98 161
61 97 151
61 97 153
61 96 149
62 98 162
61 97 153
62 97 155
63 98 157
62 97 152
62 98 159
61 97 150
61 97 154
62 97 156
62 97 155
60 95 140
60 95 145
61 96 145
62 97 145
62 98 156
61 97 158
62 97 148
62 97 145
62 98 157
61 97 149
61 97 152
61 96 147
61 97 151
61 96 145
61 96 148
61 96 148
61 96 150
61 97 148
61 96 152
61 96 144
61 96 147
60 95 137
61 96 147
61 95 144
60 95 144
61 96 148
61 97 154
61 96 142
62 97 149
60 95 136
61 96 145
61 96 143
60 94 136
60 94 137
62 97 149
61 95 135
59 94 132
60 95 142
59 93 129
60 94 131
59 93 129
58 92 126
58 91 118
59 92 127
59 93 128
90 107 101
111 117 0
105 113 0
106 113 0
125 129 0
121 126 0
102 108 0
114 118 0
112 117 0
113 116 0
108 108 0
112 114 0
104 105 0
112 116 0
112 111 0
118 118 0
109 109 0
100 103 0
109 110 0
99 98 0
105 108 0
97 96 0
108 106 0
100 101 0
107 110 0
93 91 0
102 100 0
97 95 0
97 92 11
79 75 0
86 79 0
72 66 0
73 65 0
95 88 0
92 85 0
97 90 0
77 70 0
82 76 0
88 83 0
93 85 0
99 92 0
102 94 0
98 91 0
89 83 0
96 93 0
106 99 0
87 80 0
96 89 0
103 99 0
93 89 0
108 101 11
96 93 16
109 104 0
98 93 0
102 96 0
101 95 0
100 95 0
102 97 11
105 96 11
96 90 0
103 98 0
105 100 0
103 99 0
107 102 11
90 84 16
102 97 16
97 91 11
106 100 0
101 96 0
99 92 0
102 95 16
96 89 11
96 89 16
86 80 0
123 117 19
122 119 16
136 135 0
134 135 0
134 138 0
125 125 0
144 145 0
144 149 0
136 139 0
146 151 0
147 154 0
150 155 0
137 143 0
137 144 0
142 149 0
142 147 0
146 150 0
142 147 0
150 159 0
149 158 0
150 158 0
155 163 0
151 161 0
155 164 0
153 164 0
152 162 0
150 161 0
156 166 0
157 169 0
155 164 0
149 159 0
156 170 0
150 160 0
155 168 0
162 175 0
160 173 0
158 172 0
156 169 0
157 172 0
161 174 0
160 176 0
164 179 0
159 172 0
153 164 0
152 164 0
159 174 0
167 183 0
163 178 0
165 180 0
162 176 0
164 178 0
160 176 0
170 187 0
163 180 0
161 177 0
162 179 0
161 178 0
160 177 0
164 181 0
167 185 0
162 178 0
161 178 0
165 181 0
163 180 0
166 185 0
165 183 0
206 225 244
201 220 215
195 214 186
196 215 188
201 219 198
206 224 217
206 223 217
207 224 218
207 223 212
212 228 226
208 225 217
191 209 161
180 202 95
175 198 67
177 200 92
173 197 57
172 195 84
173 197 76
175 199 76
174 197 57
172 195 62
172 195 76
175 199 57
173 197 72
172 196 72
172 196 51
174 198 67
172 196 76
170 194 84
173 196 62
174 197 80
175 199 72
174 198 84
173 196 88
175 198 80
175 199 72
176 200 95
176 200 76
175 199 80
175 199 92
172 196 62
173 197 57
175 199 76
176 200 88
175 198 67
174 197 62
174 198 72
175 198 67
173 197 84
173 197 84
171 195 51
174 197 51
174 197 62
173 196 67
175 198 62
175 199 84
174 198 80
171 194 67
174 198 92
169 193 57
176 199 72
171 195 80
174 197 72
174 197 72
173 197 80
175 199 80
174 198 62
173 197 72
174 197 72
175 199 84
129 154 131
93 122 154
95 124 151
98 126 163
116 142 152
115 142 161
98 126 152
112 138 156
104 132 148
113 140 147
107 134 164
106 133 169
106 133 171
111 138 159
115 141 167
164 184 209
199 218 242
212 230 254
210 227 252
152 173 218
73 107 180
77 110 181
84 115 186
79 111 181
91 120 187
71 105 176
83 114 176
74 107 184
84 115 180
77 109 176
79 111 177
74 107 169
80 111 174
82 112 172
77 109 175
61 98 167
64 99 165
64 99 163
62 99 172
60 96 159
61 97 159
61 98 163
64 100 159
61 97 157
63 98 157
65 99 157
69 102 149
63 98 159
64 99 156
67 101 154
60 96 150
63 97 152
67 101 149
60 96 160
59 94 147
60 95 156
60 96 155
60 96 155
60 95 153
60 95 152
60 96 158
60 96 147
61 97 159
62 98 161
61 96 148
60 95 150
61 97 164
61 97 155
61 97 160
60 96 147
61 96 155
58 93 144
60 96 148
61 97 159
61 96 149
61 97 153
61 97 159
60 96 159
60 95 151
62 98 160
61 96 151
62 97 154
60 96 152
61 97 156
60 96 158
62 98 162
60 96 147
61 97 152
60 96 150
60 95 142
60 96 153
61 96 155
62 97 161
61 97 154
61 97 159
61 96 148
61 97 155
60 95 150
60 96 145
61 96 153
61 97 159
61 98 159
60 96 157
62 98 160
62 98 159
63 99 161
62 98 164
61 97 151
62 98 157
61 96 150
62 98 156
62 98 156
62 97 153
61 97 159
61 96 152
61 97 154
62 97 158
60 96 147
61 96 150
62 97 156
60 96 143
63 99 160
60 95 148
63 99 164
61 97 158
60 96 145
61 97 156
61 97 157
61 97 153
61 96 145
62 97 150
61 97 153
61 96 145
60 95 147
61 96 147
61 96 148
61 97 147
61 96 145
62 98 161
61 97 153
63 99 161
62 98 158
61 96 145
63 98 158
61 96 149
61 96 150
62 98 157
61 97 149
62 97 150
62 98 156
60 95 142
61 97 149
62 97 149
61 95 145
61 96 147
61 97 150
61 97 145
60 95 140
61 96 153
62 97 153
60 95 140
61 96 149
62 98 153
61 96 149
61 96 148
61 96 144
60 95 136
61 96 147
60 95 150
61 96 147
60 95 142
59 94 135
62 98 150
60 95 138
61 96 143
60 94 138
60 95 135
60 95 141
62 97 147
59 93 131
59 94 126
61 96 144
59 93 122
59 93 133
61 95 146
60 94 134
58 92 127
57 91 125
58 91 120
57 90 118
109 121 44
120 127 0
122 127 0
118 124 0
107 112 0
125 133 0
119 122 0
107 114 0
115 120 0
110 112 0
113 117 0
109 112 0
106 111 0
102 103 0
103 105 0
108 109 0
108 107 0
110 115 0
105 106 0
107 109 0
96 96 0
113 117 0
104 106 0
95 97 0
104 102 0
104 104 0
95 97 0
92 92 0
87 84 0
80 75 0
91 88 0
82 78 0
93 88 0
91 82 0
78 72 0
93 86 0
82 74 0
85 80 0
83 74 0
84 78 0
84 80 0
102 94 0
98 89 0
93 87 0
93 86 0
81 73 0
85 77 0
84 78 0
85 80 0
102 95 0
101 96 0
103 96 0
89 83 0
99 92 0
103 97 0
110 103 0
100 95 0
89 80 0
103 95 0
96 90 0
107 97 16
97 90 16
101 94 11
102 95 11
107 100 16
96 90 0
100 94 16
102 93 11
100 94 0
105 97 0
112 105 22
108 103 11
111 112 11
131 133 0
132 135 0
138 142 0
145 147 0
135 132 0
131 132 0
141 147 0
143 149 0
146 150 0
142 145 0
138 142 0
137 141 0
140 143 0
152 158 0
146 151 0
147 155 0
141 147 0
151 157 0
151 159 0
148 157 0
154 163 0
146 152 0
156 164 0
158 169 0
158 170 0
153 163 0
155 167 0
152 161 0
155 165 0
160 172 0
157 170 0
153 166 0
156 166 0
157 168 0
159 172 0
155 164 0
157 171 0
159 170 0
152 166 0
157 169 0
160 175 0
158 170 0
157 170 0
159 172 0
163 177 0
161 177 0
160 174 0
164 180 0
160 173 0
164 176 0
168 184 0
165 180 0
163 178 0
168 183 0
165 183 0
159 176 0
161 176 0
162 178 0
160 177 0
168 186 0
172 190 0
168 184 0
158 175 0
165 182 0
167 186 0
168 187 0
164 181 0
196 216 186
200 219 201
202 220 203
198 216 199
207 223 221
212 228 227
211 227 223
206 223 220
203 220 196
187 208 144
175 199 84
175 199 76
175 198 36
177 201 92
173 196 67
172 194 92
174 198 67
175 198 62
175 199 76
176 200 76
173 196 57
174 198 80
175 198 72
174 197 51
174 198 72
173 197 88
175 199 76
175 199 84
174 198 76
171 196 72
172 196 51
174 198 92
174 197 51
173 198 62
170 195 80
173 197 72
172 195 67
175 199 84
175 198 67
176 199 57
173 197 67
172 196 57
169 192 51
174 197 57
172 195 67
175 199 72
174 198 67
171 194 51
170 194 76
173 197 95
173 197 67
175 199 80
174 197 72
173 197 57
174 198 88
174 196 84
175 198 76
172 195 80
168 192 62
173 197 72
177 200 95
171 195 51
173 196 44
172 195 62
173 196 80
173 197 80
169 192 72
175 199 76
173 196 51
178 200 76
119 145 143
105 132 153
92 122 150
97 126 149
101 129 151
93 122 140
101 129 151
91 120 157
101 128 149
108 135 153
109 136 150
108 135 150
96 124 150
100 128 150
109 137 158
101 129 167
95 123 168
152 173 202
206 224 250
210 227 252
133 156 207
90 120 190
80 112 182
73 107 181
71 105 178
74 107 178
81 112 176
79 111 179
94 122 181
84 115 183
93 122 184
75 108 176
74 107 170
77 109 174
80 111 173
68 103 169
61 98 167
61 97 168
61 97 159
63 98 159
61 98 168
61 97 162
61 97 160
61 97 160
60 96 154
60 95 155
66 101 160
68 102 158
64 99 154
68 100 143
63 98 142
61 96 151
63 97 145
63 98 145
59 95 149
57 92 149
60 96 151
62 98 160
59 95 150
60 95 146
61 97 159
60 96 151
59 94 142
61 97 158
60 96 157
59 95 151
61 97 158
61 97 153
60 96 156
61 96 157
61 97 159
60 95 152
61 96 161
60 96 151
61 96 153
60 95 145
61 96 151
60 96 152
61 96 163
61 97 157
62 98 161
60 96 150
62 97 157
62 97 153
61 97 160
61 97 156
62 97 156
62 97 156
61 96 155
61 97 158
61 97 157
61 97 159
62 98 160
60 95 145
61 96 150
61 97 157
61 96 152
60 95 141
61 96 151
61 97 157
61 97 156
61 96 152
61 96 154
62 98 158
62 98 160
61 97 154
61 97 156
62 97 150
61 97 148
61 97 151
62 98 158
61 96 151
62 98 159
62 98 159
62 97 152
62 98 156
60 96 144
62 97 156
61 97 151
62 97 155
61 96 151
62 97 155
61 97 153
62 98 154
62 97 157
62 98 155
59 95 148
60 96 151
62 97 150
62 97 154
61 96 150
60 96 144
62 97 151
61 97 156
61 97 155
60 96 148
61 96 150
62 97 154
62 98 150
63 98 154
61 97 151
61 97 149
61 97 151
60 95 144
61 97 144
60 96 149
61 96 150
62 97 153
60 96 139
62 98 155
60 95 137
62 97 152
61 96 150
61 95 143
60 95 147
61 97 155
62 97 149
60 94 137
61 97 152
62 97 148
61 96 150
61 97 155
60 96 141
61 96 143
60 96 145
60 96 147
61 96 144
62 97 149
60 95 144
59 94 135
60 95 140
61 96 140
61 96 143
60 95 136
62 96 152
61 96 152
60 94 137
60 95 137
61 96 141
60 95 141
60 94 135
61 95 142
61 95 138
59 93 130
59 92 123
59 93 130
58 91 119
58 90 124
56 89 111
62 93 121
123 131 31
115 120 0
118 126 0
110 116 0
117 122 0
127 134 0
112 116 0
104 106 0
110 116 0
114 119 0
109 115 0
105 110 0
104 106 0
119 125 0
99 102 0
119 122 0
108 111 0
107 109 0
111 115 0
102 102 0
95 96 0
96 98 0
110 110 0
116 117 0
99 100 0
99 98 0
104 104 0
86 82 0
92 92 0
94 93 0
104 103 0
101 101 0
104 100 0
92 90 0
90 88 0
86 82 0
101 96 0
85 79 0
98 89 0
83 78 0
82 77 0
99 91 0
78 71 0
91 84 0
94 86 0
86 77 0
104 96 0
92 86 0
98 92 0
106 97 0
109 101 0
103 94 0
89 82 0
99 91 0
93 86 0
99 90 0
89 84 0
95 88 0
97 89 0
94 86 0
97 92 0
93 85 11
96 89 0
92 85 11
92 84 0
102 97 0
100 96 0
106 102 11
103 100 0
128 126 0
125 125 0
121 119 0
125 123 0
136 138 0
143 146 0
134 134 0
136 138 0
137 142 0
139 142 0
143 146 0
144 149 0
141 147 0
141 145 0
140 141 0
145 150 0
149 155 0
150 154 0
141 146 0
143 150 0
151 157 0
145 151 0
156 163 0
151 159 0
149 157 0
151 159 0
154 163 0
149 157 0
141 147 0
149 158 0
155 165 0
154 164 0
144 152 0
151 160 0
160 171 0
164 177 0
153 164 0
159 173 0
160 172 0
161 176 0
160 174 0
160 172 0
158 169 0
158 172 0
154 167 0
161 178 0
161 175 0
162 178 0
158 172 0
161 176 0
160 175 0
165 182 0
167 182 0
160 175 0
162 177 0
160 176 0
160 178 0
164 181 0
158 176 0
168 185 0
163 179 0
162 180 0
164 179 0
165 183 0
168 185 0
166 183 0
168 185 0
165 181 0
170 189 0
157 175 0
162 179 0
204 222 209
203 220 206
203 220 211
205 221 207
211 226 227
204 221 198
194 213 165
178 201 99
176 199 80
175 198 88
171 195 72
171 194 36
174 198 51
176 199 67
173 197 62
175 198 57
174 198 72
172 196 88
172 196 76
173 196 80
172 195 76
174 198 76
174 197 44
171 195 62
175 198 76
176 200 80
172 196 67
174 198 62
172 196 57
175 199 76
173 197 67
176 200 105
172 195 57
175 198 67
171 194 67
174 198 62
173 197 84
171 195 76
173 198 76
172 196 76
177 201 95
175 198 67
172 196 76
174 198 88
171 195 62
172 196 80
175 198 51
173 198 88
172 195 76
171 195 76
174 197 44
173 198 80
173 197 95
171 195 67
171 195 84
175 198 72
175 198 67
171 194 76
170 194 67
174 197 95
173 196 80
171 195 36
171 194 67
174 198 80
173 196 76
174 198 44
172 195 76
172 194 51
179 201 92
174 198 72
127 153 131
87 117 156
105 132 152
100 127 166
106 133 163
106 132 155
101 128 148
108 135 152
115 142 156
104 131 153
102 130 156
107 134 141
109 136 157
102 130 158
108 135 165
100 129 166
100 128 160
97 126 167
103 130 172
164 185 211
206 224 250
112 138 198
71 106 182
79 111 184
81 113 186
83 114 184
74 107 178
79 111 181
71 105 174
77 109 179
84 115 181
79 111 174
84 115 177
79 111 174
68 102 167
94 122 182
74 106 164
62 99 171
61 97 162
61 97 165
61 98 166
61 97 160
62 98 161
62 98 163
61 96 161
61 98 162
61 97 157
70 104 161
68 102 160
67 101 154
62 97 154
65 99 141
65 99 156
62 96 148
64 98 149
59 94 142
61 96 153
60 95 149
61 96 154
60 95 154
61 97 152
60 96 153
60 96 156
59 94 154
60 96 150
60 95 148
61 97 158
60 96 155
60 96 153
61 97 153
60 95 151
60 95 150
61 96 154
62 97 155
62 98 161
61 96 160
61 97 155
61 96 150
61 97 155
61 97 158
61 97 156
61 97 155
61 97 152
61 97 155
59 95 144
61 97 152
61 97 155
60 96 154
61 96 152
61 96 152
62 98 156
61 96 150
61 97 156
60 96 151
62 98 158
62 98 161
61 97 152
61 97 161
60 96 148
61 97 151
61 97 156
62 98 156
61 97 157
60 96 157
60 95 145
60 96 145
60 96 152
62 98 159
61 97 152
61 97 156
63 98 156
61 97 152
61 96 151
62 97 153
61 97 154
61 97 153
63 98 159
61 97 153
61 97 156
60 95 143
61 97 153
61 96 144
62 98 155
60 95 144
61 96 144
61 97 151
61 96 143
61 96 150
61 97 150
61 96 142
61 97 147
61 97 155
59 95 139
60 96 150
61 96 152
60 96 151
61 97 155
61 96 153
62 97 152
60 96 144
62 97 152
61 97 156
62 97 154
61 95 145
62 97 152
62 97 154
61 96 149
61 97 154
61 96 143
61 96 148
62 98 157
62 97 149
62 97 149
61 96 151
61 97 154
61 96 144
61 96 143
61 96 150
62 97 152
61 96 137
62 98 155
60 96 142
61 96 139
61 96 137
62 98 157
60 96 145
60 95 138
60 95 148
60 96 145
61 96 144
59 94 129
61 96 141
61 96 147
61 95 141
59 93 131
61 96 139
60 94 131
61 96 145
61 95 143
60 94 135
60 94 135
60 95 137
59 93 132
59 93 131
59 93 130
59 92 128
59 94 131
59 94 139
59 92 127
78 96 88
113 122 0
116 126 0
115 119 0
113 122 0
110 115 0
112 118 0
112 119 0
116 123 0
117 122 0
113 120 0
105 109 0
111 118 0
113 116 0
115 117 0
108 113 0
103 108 0
98 98 0
104 106 0
102 107 0
103 106 0
111 114 0
105 109 0
91 91 0
102 105 0
105 101 0
114 114 0
112 113 0
118 115 0
89 87 0
97 95 0
98 95 0
102 101 0
102 99 0
106 106 0
91 88 0
95 95 0
88 84 0
92 92 0
101 99 0
101 97 0
116 114 0
84 79 0
93 87 0
88 82 0
108 106 0
95 88 0
94 86 0
91 84 0
85 80 0
85 79 0
86 79 0
85 78 0
94 85 0
83 76 0
97 88 0
89 79 0
87 81 0
96 90 0
91 85 0
97 95 0
93 88 0
109 106 0
110 108 0
121 118 0
128 128 0
123 121 0
121 120 0
128 127 0
125 122 0
129 131 0
134 137 0
138 142 0
135 136 0
130 131 0
136 140 0
130 132 0
136 139 0
142 146 0
137 140 0
132 133 0
140 142 0
150 152 0
141 145 0
138 141 0
139 143 0
147 153 0
145 149 0
144 150 0
148 153 0
143 151 0
144 151 0
149 157 0
155 163 0
151 160 0
153 162 0
154 164 0
157 166 0
149 158 0
154 163 0
150 159 0
152 165 0
155 168 0
150 160 0
153 166 0
153 162 0
151 162 0
153 164 0
156 168 0
163 178 0
157 167 0
157 170 0
158 170 0
158 173 0
158 172 0
156 169 0
161 177 0
158 172 0
162 177 0
161 174 0
160 177 0
161 176 0
164 180 0
165 179 0
163 177 0
158 172 0
164 180 0
165 181 0
161 178 0
164 180 0
164 181 0
163 180 0
166 182 0
167 183 0
162 179 0
159 173 0
166 185 0
165 182 0
166 184 0
166 185 0
163 179 0
206 222 214
211 227 227
211 226 226
205 222 196
187 208 135
179 202 105
174 197 99
177 200 76
173 198 57
172 196 67
175 200 88
174 198 80
174 199 72
172 195 76
172 196 57
175 199 84
175 198 67
173 197 67
175 198 57
176 199 57
174 197 72
171 195 67
176 199 88
176 200 80
176 199 76
173 196 72
171 195 67
174 198 62
175 198 72
175 198 62
177 199 67
172 196 67
174 197 44
171 194 62
176 199 76
175 198 62
171 195 88
172 196 76
173 197 76
176 200 88
172 196 51
173 197 57
172 194 51
173 197 51
169 193 80
170 194 67
173 198 80
171 195 76
175 199 92
174 198 95
175 199 67
168 191 62
172 196 72
173 196 72
173 197 67
175 199 80
174 198 80
174 198 62
170 193 44
175 198 57
173 197 67
174 198 84
171 194 76
171 196 57
175 198 67
173 197 67
171 195 67
172 195 72
173 196 67
175 198 80
146 170 110
96 125 154
101 129 151
92 121 162
102 129 156
98 125 151
99 126 150
98 126 150
97 126 158
114 140 152
107 133 162
110 137 143
100 127 166
123 148 150
107 134 158
113 138 166
89 119 164
102 130 168
109 135 167
102 129 171
119 144 178
174 193 215
93 122 191
71 105 181
76 109 183
83 115 181
70 105 181
71 105 177
78 110 178
75 108 178
82 113 176
71 105 175
76 109 175
71 104 172
74 107 178
81 111 167
95 123 186
74 106 173
62 98 166
60 97 164
61 97 155
62 98 167
60 97 160
61 97 154
60 96 155
61 97 158
61 97 156
62 98 162
60 95 144
68 102 151
63 97 149
62 96 153
62 97 145
65 100 152
70 103 148
70 103 152
61 97 158
60 95 151
60 95 155
60 95 150
60 95 143
60 96 151
62 98 158
60 95 150
59 95 149
60 95 155
59 94 143
61 96 145
60 95 148
61 97 161
60 96 155
60 96 153
60 95 152
60 96 151
61 97 158
61 97 152
59 95 147
60 96 149
60 95 153
62 98 158
61 96 153
61 96 150
62 98 156
61 97 153
61 96 153
61 97 154
61 97 157
61 97 155
62 97 157
61 97 153
61 96 151
61 96 148
62 98 154
61 97 160
61 96 152
62 98 154
61 97 154
61 97 150
61 97 151
62 97 156
60 96 150
61 97 158
62 98 158
61 97 158
61 96 151
61 97 152
60 96 151
61 97 151
61 97 155
61 97 152
61 96 148
62 98 158
62 97 154
61 97 156
61 97 152
61 97 156
61 97 149
62 97 149
60 95 151
60 95 150
62 98 149
61 96 152
62 98 158
62 98 157
60 95 145
62 97 155
62 97 152
62 98 156
61 96 149
61 96 142
61 97 153
61 96 140
62 97 158
62 97 154
61 97 152
61 97 156
60 96 148
62 98 159
61 96 150
61 96 139
61 96 150
62 98 157
61 96 142
60 96 144
61 97 151
62 97 153
61 96 147
61 96 144
61 97 149
61 96 142
60 95 137
61 96 150
62 98 156
60 95 149
61 96 143
60 95 145
61 96 149
62 97 148
59 94 134
62 97 150
60 95 143
60 95 144
60 95 142
60 95 143
61 97 152
61 96 148
61 95 139
61 96 152
62 96 148
61 96 143
60 95 139
60 95 139
60 95 139
60 94 139
60 95 141
61 96 145
60 95 140
62 97 150
61 95 136
60 94 140
58 92 126
60 94 134
59 93 130
59 93 135
59 92 133
58 91 123
59 93 133
56 89 117
57 89 120
98 110 65
109 114 0
120 127 0
115 122 0
116 122 0
128 136 0
116 121 0
124 129 0
103 107 0
115 118 0
113 119 0
113 120 0
109 115 0
113 116 0
119 123 0
114 116 0
113 115 0
101 103 0
97 99 0
119 124 0
105 104 0
109 110 0
110 110 0
103 103 0
98 99 0
100 102 0
105 106 0
102 102 0
106 108 0
97 97 0
120 119 0
99 97 0
94 93 0
115 116 0
109 109 0
96 92 0
106 108 0
102 101 0
97 95 0
106 108 0
99 99 0
121 118 0
105 105 0
106 103 0
99 93 0
109 107 0
97 93 0
92 88 0
102 97 0
112 113 0
103 100 0
105 101 0
115 117 0
101 99 0
111 107 0
107 105 0
120 117 0
109 107 0
113 110 0
115 114 0
115 112 0
133 133 0
118 118 0
120 120 0
128 126 0
117 113 0
138 136 0
125 125 0
131 131 0
120 116 0
134 139 0
137 136 0
131 132 0
141 142 0
131 134 0
136 139 0
140 141 0
137 139 0
138 137 0
124 126 0
138 143 0
137 141 0
147 154 0
137 140 0
146 150 0
149 155 0
134 139 0
147 155 0
147 155 0
149 156 0
144 151 0
150 156 0
148 154 0
151 161 0
152 160 0
155 164 0
150 158 0
142 151 0
157 166 0
151 161 0
155 164 0
152 163 0
155 166 0
151 161 0
160 171 0
153 162 0
152 163 0
155 169 0
158 170 0
153 165 0
155 171 0
157 171 0
160 175 0
159 174 0
161 176 0
158 171 0
166 182 0
155 168 0
161 175 0
161 175 0
163 178 0
162 176 0
161 178 0
162 176 0
167 184 0
156 172 0
163 180 0
163 179 0
157 170 0
165 181 0
170 185 0
164 181 0
164 180 0
162 179 0
165 183 0
162 177 0
166 184 0
164 181 0
167 185 0
167 184 0
167 185 0
208 224 214
200 218 188
182 204 111
172 196 44
174 197 72
177 200 92
170 195 62
172 196 76
173 197 80
174 198 72
176 199 84
172 196 67
173 197 84
174 198 92
170 193 72
174 198 72
175 198 76
172 196 67
174 197 67
172 197 62
171 195 76
171 195 88
174 198 84
172 195 72
176 200 76
174 198 84
175 199 95
172 196 76
173 197 72
174 197 72
175 198 80
174 198 51
170 194 84
175 199 117
173 197 80
174 198 67
171 195 62
171 194 62
172 196 80
175 199 99
172 195 51
173 196 72
175 199 80
173 196 62
171 195 84
170 194 51
172 196 62
173 197 80
172 196 92
172 196 72
171 194 51
175 198 80
174 198 72
174 198 62
173 197 88
177 201 105
176 200 88
172 196 62
172 196 51
175 199 99
175 199 84
172 195 88
176 200 95
172 195 51
173 196 62
170 194 76
170 194 88
173 197 72
175 197 76
172 195 62
157 182 74
87 116 149
89 118 149
101 129 151
96 124 145
104 132 155
89 119 154
110 136 158
105 132 152
99 126 144
98 127 161
100 128 160
103 130 156
109 136 158
105 132 157
112 138 163
114 139 160
97 125 155
106 133 163
101 128 167
96 125 163
93 122 177
113 139 181
75 108 183
83 114 185
65 101 181
79 111 185
73 107 179
93 122 185
82 113 182
84 115 181
74 107 174
85 115 181
74 107 172
74 107 175
77 109 173
77 109 169
80 111 173
71 104 169
61 98 165
62 99 172
61 98 164
61 98 162
61 97 166
61 96 158
61 97 161
63 99 155
61 97 167
61 96 153
61 97 161
65 100 154
64 99 158
66 101 152
60 95 143
63 97 155
65 99 160
59 95 153
61 96 156
59 94 140
60 96 154
59 94 147
57 92 139
61 97 158
60 95 145
61 97 152
60 95 148
62 98 161
59 94 153
60 96 152
60 96 154
60 96 148
60 95 143
61 96 152
60 95 149
60 95 141
61 96 148
61 97 156
61 97 160
60 95 147
61 96 161
61 96 151
60 96 157
59 95 147
61 97 156
60 95 150
61 96 154
62 97 154
61 96 151
61 96 156
62 98 158
60 95 153
62 97 152
60 96 148
60 95 147
61 97 150
62 97 151
61 96 153
61 97 152
61 97 151
62 97 151
60 95 143
60 95 147
61 96 153
61 96 151
60 96 149
61 97 150
61 97 151
61 96 148
61 97 153
60 96 145
61 97 155
61 96 150
61 96 150
61 97 152
61 97 157
61 96 154
61 97 148
62 98 156
62 98 156
61 97 148
61 96 151
61 97 149
62 98 157
61 96 150
60 96 143
61 96 152
61 97 152
61 97 153
62 97 153
61 96 145
61 96 154
62 97 152
61 97 152
60 96 147
60 95 145
62 97 150
61 96 144
60 96 145
62 97 150
61 97 155
59 94 139
61 96 145
60 96 149
61 96 154
61 97 148
62 98 154
61 97 154
63 98 148
61 96 145
60 95 150
61 96 145
60 95 143
61 96 143
61 96 147
62 98 153
62 97 154
61 97 149
61 97 149
61 96 145
62 97 149
62 97 148
61 96 144
60 95 141
59 94 136
61 96 148
60 96 139
62 97 151
61 96 147
61 96 145
60 95 145
60 95 143
61 95 136
59 94 143
61 96 148
59 93 129
62 97 152
60 94 130
59 94 137
59 93 125
61 95 135
59 93 133
59 93 131
59 93 128
59 93 130
59 93 135
57 90 119
59 92 126
57 91 116
60 89 109
111 120 25
115 122 0
105 111 0
121 129 0
116 124 0
117 125 0
109 113 0
111 118 0
117 121 0
99 103 0
111 117 0
115 120 0
119 125 0
109 115 0
104 108 0
108 111 0
103 104 0
110 115 0
106 109 0
113 114 0
114 118 0
111 114 0
107 110 0
110 113 0
106 106 0
99 99 0
101 103 0
108 110 0
105 105 0
105 106 0
101 101 0
96 93 0
103 99 0
111 113 0
119 120 0
94 93 0
106 102 0
110 112 0
100 98 0
92 88 0
107 105 0
112 109 0
99 99 0
104 105 0
120 125 0
107 108 0
107 105 0
107 104 0
102 98 0
101 97 0
108 106 0
117 115 0
113 110 0
106 103 0
115 114 0
113 112 0
102 99 0
104 100 0
120 116 0
116 112 0
110 107 0
133 134 0
127 126 0
122 123 0
131 132 0
119 119 0
129 131 0
119 120 0
135 135 0
125 124 0
132 132 0
136 140 0
136 138 0
141 143 0
144 146 0
139 142 0
138 144 0
139 144 0
135 138 0
131 133 0
137 143 0
152 158 0
141 145 0
154 161 0
152 158 0
143 149 0
148 155 0
151 156 0
152 161 0
148 152 0
152 159 0
149 154 0
150 160 0
144 151 0
155 163 0
145 155 0
150 162 0
147 157 0
154 162 0
152 161 0
153 165 0
156 168 0
155 166 0
152 164 0
157 171 0
160 172 0
151 164 0
154 165 0
156 169 0
161 173 0
162 176 0
162 175 0
157 169 0
158 172 0
163 175 0
159 173 0
150 163 0
162 178 0
163 179 0
165 181 0
166 181 0
159 174 0
165 179 0
157 173 0
157 175 0
159 173 0
166 185 0
164 179 0
162 177 0
167 185 0
165 183 0
162 176 0
166 185 0
170 187 0
164 181 0
163 180 0
161 180 0
169 188 0
168 184 0
163 178 0
166 183 0
180 201 111
174 198 84
173 197 62
174 197 72
175 198 72
176 200 105
177 200 95
176 200 88
177 200 84
174 198 88
172 195 62
174 197 80
175 198 99
172 196 25
173 197 72
173 197 92
172 195 72
173 197 76
175 199 84
176 199 88
174 198 80
174 198 92
173 197 62
173 197 51
174 198 72
173 197 57
172 196 76
172 196 57
174 197 67
172 196 80
175 199 80
172 196 67
173 197 67
173 197 67
172 196 72
171 195 57
173 197 92
173 196 62
173 197 76
174 197 72
173 196 67
172 196 84
170 194 62
169 194 80
172 197 72
174 197 92
172 195 62
173 197 72
172 196 44
174 197 80
169 193 84
172 195 67
173 196 72
170 194 51
170 194 80
174 197 84
171 195 67
173 197 76
173 197 57
173 196 105
171 194 51
171 194 57
170 193 76
175 199 80
173 196 67
175 198 80
176 199 76
174 197 72
173 196 72
174 197 76
173 196 44
108 134 147
85 115 137
102 129 144
84 114 156
96 124 151
97 126 158
100 127 153
110 136 158
105 133 153
98 127 159
102 129 147
98 127 151
95 124 155
106 133 160
102 129 156
101 128 147
119 144 148
104 131 165
98 125 160
90 119 160
114 140 161
98 125 156
91 120 168
83 114 178
78 111 185
78 111 183
71 105 179
79 111 184
82 113 181
69 103 173
84 115 182
74 107 175
80 112 179
89 119 181
87 117 183
80 111 178
82 113 173
102 128 184
62 99 173
62 98 163
61 97 160
60 95 156
61 97 159
61 97 157
62 98 162
62 98 159
61 97 163
61 97 154
61 97 162
61 97 152
67 100 151
65 98 146
64 99 160
68 101 148
67 100 144
59 95 147
62 96 148
61 97 154
60 95 145
60 95 151
60 95 155
60 95 150
59 95 154
61 97 161
60 95 150
58 94 144
60 96 154
60 96 155
62 97 152
61 97 160
60 95 153
61 96 156
61 97 151
61 97 159
60 96 154
60 96 149
61 97 161
60 96 155
61 96 154
61 97 156
61 97 159
59 94 134
61 97 151
61 96 151
60 95 147
62 97 158
61 97 149
60 96 149
60 96 148
60 95 152
59 95 143
61 97 148
61 97 154
61 97 150
61 96 154
61 97 151
61 97 158
62 98 158
61 96 147
61 97 157
60 96 149
61 97 159
61 97 155
59 94 144
60 95 144
61 96 151
61 97 148
62 97 149
60 95 147
63 98 160
62 98 158
61 96 151
61 97 149
61 97 150
61 96 145
61 97 145
62 98 159
61 97 149
61 97 150
61 96 151
61 96 144
62 98 160
62 97 151
62 98 159
61 96 152
61 96 147
61 96 148
62 97 151
60 95 149
60 95 137
61 96 145
62 98 158
61 97 149
61 96 151
61 96 154
61 96 142
60 95 145
60 95 143
60 95 137
60 95 145
59 95 144
60 95 148
62 98 157
61 97 147
60 95 145
61 97 152
61 97 154
59 94 133
61 96 147
61 96 148
61 96 144
61 96 144
62 97 150
60 96 149
61 96 144
61 96 147
61 96 147
60 95 144
61 96 151
60 95 144
62 97 153
60 95 135
61 97 152
60 95 143
61 95 143
61 95 141
61 95 143
60 95 136
61 96 142
59 93 130
61 96 147
60 95 134
60 95 135
59 94 129
60 95 139
60 95 134
61 95 139
60 94 129
61 96 139
60 95 138
60 93 129
60 94 139
58 93 129
59 92 124
59 93 129
58 90 121
58 92 118
95 113 97
113 123 0
125 132 0
121 131 0
111 118 0
108 114 0
106 114 0
116 127 0
111 117 0
109 115 0
111 117 0
118 124 0
118 125 0
116 123 0
122 128 0
108 115 0
104 105 0
113 120 0
114 119 0
107 110 0
108 111 0
111 114 0
109 114 0
113 117 0
117 122 0
102 104 0
110 110 0
114 115 0
108 110 0
110 111 0
106 106 0
105 105 0
105 107 0
99 99 0
109 109 0
109 111 0
112 115 0
108 108 0
108 110 0
99 99 0
107 104 0
120 122 0
117 117 0
110 110 0
117 118 0
102 98 0
114 111 0
120 122 0
114 110 0
107 106 0
107 106 0
115 115 0
118 118 0
104 104 0
120 116 0
119 120 0
119 118 0
126 128 0
129 131 0
118 117 0
131 132 0
120 119 0
132 133 0
136 138 0
131 130 0
119 120 0
138 139 0
130 129 0
140 142 0
133 137 0
134 136 0
138 140 0
139 142 0
131 134 0
144 148 0
139 140 0
132 135 0
132 137 0
132 136 0
131 134 0
137 142 0
134 136 0
141 148 0
144 149 0
146 154 0
143 148 0
143 148 0
147 156 0
139 145 0
143 149 0
139 145 0
155 163 0
142 148 0
152 160 0
154 165 0
144 151 0
152 161 0
156 166 0
151 158 0
152 162 0
149 159 0
154 164 0
147 156 0
146 156 0
149 158 0
158 168 0
157 172 0
159 169 0
151 164 0
153 166 0
158 174 0
161 174 0
155 170 0
160 172 0
160 173 0
156 169 0
160 174 0
162 179 0
163 178 0
160 173 0
159 173 0
161 175 0
161 177 0
158 173 0
161 176 0
160 177 0
159 175 0
160 177 0
161 176 0
160 175 0
166 183 0
155 170 0
164 179 0
169 185 0
160 176 0
166 182 0
159 175 0
165 182 0
163 179 0
165 183 0
167 184 0
161 175 0
173 196 62
175 198 62
175 198 57
172 196 80
171 194 51
171 195 72
172 195 57
170 193 51
176 199 76
173 197 76
170 193 62
176 200 76
174 199 76
174 197 76
174 198 44
176 199 72
173 197 80
174 198 76
174 198 44
174 198 44
173 197 67
173 197 72
173 197 88
172 196 51
177 199 72
173 197 76
172 195 67
173 196 57
172 196 67
173 196 72
172 197 84
173 197 80
176 199 80
175 199 62
175 198 72
172 195 62
171 194 25
172 197 84
175 199 76
172 196 72
173 197 88
175 199 105
175 199 92
172 195 36
174 197 80
174 198 62
171 194 51
171 194 57
171 196 84
170 194 76
173 196 84
172 196 62
172 196 67
172 196 67
172 196 88
166 190 84
173 197 57
175 199 88
173 197 67
174 198 84
173 196 67
172 196 62
172 196 72
172 195 76
173 196 72
173 197 72
169 192 84
172 196 88
173 197 62
173 197 88
174 198 76
129 154 118
96 124 143
83 113 151
97 126 154
98 126 153
89 118 153
92 122 154
95 125 160
105 131 156
92 121 154
107 133 154
102 130 147
104 131 161
87 117 166
95 124 150
101 129 157
91 120 153
103 131 137
108 134 144
91 119 160
102 129 161
97 126 160
101 129 166
90 119 164
69 104 173
73 107 181
81 112 185
65 101 180
76 109 183
74 107 177
79 111 181
79 111 180
87 117 181
82 113 178
72 105 172
80 111 175
87 116 171
88 117 178
77 108 171
71 105 171
62 98 169
62 98 164
61 97 160
60 96 161
62 98 164
60 96 158
62 97 162
61 97 165
58 94 149
60 96 157
61 97 151
62 96 148
65 99 153
62 96 147
68 101 144
58 93 143
61 95 145
61 96 145
60 96 153
61 96 145
61 97 156
60 96 153
60 95 147
61 96 149
61 96 154
60 95 153
61 97 152
60 96 151
59 95 150
60 96 151
60 96 151
60 96 158
60 95 146
59 94 145
60 96 144
61 96 154
60 96 150
61 96 157
61 97 152
61 97 156
60 95 154
61 97 156
60 95 149
61 97 154
61 97 156
61 96 149
61 97 152
60 96 150
62 97 153
62 98 157
61 97 152
61 96 151
61 96 151
60 95 150
61 97 157
61 97 148
61 96 148
62 98 160
62 97 151
61 96 143
61 97 153
61 97 156
61 97 151
61 97 152
61 97 154
61 97 150
62 98 162
62 97 153
62 97 155
61 97 154
60 95 148
61 96 152
62 97 154
61 97 149
62 98 153
60 96 145
62 98 152
60 95 145
62 98 161
61 97 154
62 98 160
61 96 148
61 97 149
61 97 151
60 95 143
62 97 155
61 96 147
61 96 147
61 97 149
61 96 145
61 97 150
62 98 157
61 96 144
60 95 142
60 96 145
61 96 140
61 97 152
62 97 145
62 97 154
61 96 145
61 97 149
61 96 145
62 97 153
62 97 153
61 96 144
60 96 145
60 95 140
60 96 144
61 96 147
60 95 135
62 97 151
62 98 155
61 97 151
60 95 147
61 97 153
61 96 147
60 95 140
62 97 150
60 95 139
60 95 139
61 97 147
61 96 145
60 95 135
61 96 145
61 96 143
61 96 147
61 96 143
61 96 143
60 95 143
61 95 140
59 93 133
59 94 140
59 94 134
59 94 124
61 95 140
60 94 139
61 95 140
60 95 131
59 93 133
61 96 141
58 92 120
61 95 144
59 93 125
58 91 125
58 92 130
57 90 110
57 90 117
109 119 32
112 119 0
122 131 0
122 130 0
121 131 0
112 119 0
117 124 0
114 123 0
116 125 0
126 135 0
120 127 0
123 131 0
119 126 0
115 119 0
112 119 0
113 120 0
112 117 0
111 115 0
108 112 0
113 117 0
96 100 0
102 107 0
114 119 0
113 119 0
113 119 0
112 114 0
121 125 0
113 117 0
118 120 0
107 109 0
106 107 0
112 112 0
110 114 0
102 104 0
113 115 0
108 109 0
98 99 0
113 116 0
103 104 0
115 114 0
104 102 0
110 111 0
113 112 0
117 117 0
107 111 0
111 112 0
120 122 0
118 117 0
113 114 0
118 116 0
115 115 0
125 124 0
110 111 0
118 121 0
126 126 0
116 112 0
126 129 0
116 114 0
120 115 0
126 128 0
120 121 0
116 113 0
117 118 0
121 120 0
124 123 0
124 125 0
129 130 0
123 123 0
134 134 0
127 129 0
136 139 0
132 135 0
137 143 0
136 139 0
126 127 0
138 141 0
137 139 0
135 138 0
126 126 0
144 150 0
140 146 0
140 142 0
144 150 0
148 153 0
147 152 0
145 151 0
144 151 0
146 152 0
144 150 0
148 155 0
148 155 0
143 150 0
143 151 0
155 167 0
147 158 0
146 156 0
152 161 0
148 157 0
157 168 0
148 161 0
154 164 0
150 161 0
154 165 0
150 163 0
149 158 0
158 170 0
154 168 0
155 167 0
160 171 0
161 175 0
158 170 0
159 172 0
159 174 0
157 170 0
161 176 0
160 174 0
161 177 0
163 175 0
160 174 0
159 174 0
154 168 0
154 168 0
164 181 0
162 179 0
164 181 0
165 181 0
159 175 0
163 178 0
160 178 0
164 182 0
166 183 0
161 175 0
162 179 0
163 179 0
166 184 0
166 183 0
156 174 0
164 178 0
161 176 0
164 181 0
166 183 0
169 188 0
176 200 99
174 198 84
176 199 76
174 198 76
175 199 67
176 199 92
173 196 51
175 198 80
177 199 62
175 199 80
174 197 84
176 199 80
176 200 84
176 199 72
172 196 67
173 197 62
174 197 67
174 198 57
174 198 84
175 198 67
174 198 80
177 200 76
172 195 80
173 197 62
172 196 57
172 195 44
174 198 88
174 198 80
172 196 67
175 199 84
173 197 62
174 198 72
173 196 67
168 192 51
172 196 80
177 200 88
173 195 62
177 200 80
174 198 80
173 196 80
174 198 84
173 197 80
174 198 76
169 192 72
174 197 92
171 195 62
173 196 51
173 197 67
174 198 76
172 196 80
171 195 72
170 194 76
170 194 67
170 192 62
173 195 72
174 198 95
173 197 72
172 196 84
170 193 51
172 194 67
172 196 51
170 194 62
172 196 72
169 192 67
169 192 51
168 191 72
174 197 102
170 193 44
170 194 80
172 196 67
175 197 72
150 173 108
101 129 153
99 127 148
94 123 155
96 124 146
92 121 152
97 124 152
91 120 156
95 123 158
96 125 144
89 118 148
103 130 156
103 131 154
99 127 141
92 121 162
111 137 164
103 129 153
116 141 158
113 139 150
112 138 156
99 127 156
89 118 157
107 134 160
96 124 150
98 126 170
87 117 164
77 110 179
79 111 185
79 111 182
74 107 181
79 111 180
71 105 179
71 105 177
74 107 176
68 103 175
87 117 184
94 123 184
83 113 176
97 124 185
77 109 175
61 98 161
61 97 160
61 97 156
61 98 166
60 95 155
62 98 163
61 98 167
61 97 156
63 98 153
60 96 156
60 96 149
59 94 143
64 99 144
62 97 151
70 102 143
65 98 141
62 95 134
66 100 150
60 95 151
59 94 144
59 94 146
60 96 155
61 96 149
60 95 154
59 95 148
61 96 151
59 94 146
60 95 153
60 96 154
61 97 150
61 96 147
60 95 147
60 96 152
60 96 148
61 96 149
61 97 147
60 96 148
61 96 151
61 97 149
60 95 140
61 97 161
60 95 149
61 97 152
60 95 148
61 97 155
61 96 150
61 97 157
62 97 157
61 98 158
61 97 157
60 96 148
60 95 145
62 97 162
62 98 155
61 96 151
61 97 147
61 97 152
61 97 155
61 97 148
61 97 157
62 98 159
62 98 159
62 97 152
61 96 149
61 97 150
61 96 148
62 97 161
61 96 150
60 96 153
63 98 159
61 97 149
61 96 151
62 98 155
61 97 156
61 96 151
62 98 154
61 97 152
61 96 147
62 98 155
59 94 135
60 95 144
60 95 139
62 97 152
60 96 151
61 97 145
61 96 148
61 97 156
62 98 157
62 97 156
61 96 143
61 96 153
62 97 153
61 96 144
61 96 143
61 96 147
60 96 149
62 97 150
61 97 151
61 96 145
61 97 144
61 96 145
61 96 145
61 96 144
61 97 147
61 96 147
60 96 145
60 95 141
60 95 141
61 97 150
61 97 151
60 95 137
62 98 153
61 96 143
60 94 136
60 95 133
62 97 149
62 97 143
61 96 141
61 96 148
61 96 148
61 97 145
60 95 135
61 96 144
60 95 148
60 95 134
60 95 140
60 95 131
59 93 135
60 95 137
61 95 141
60 94 136
61 96 139
59 93 129
60 95 139
59 93 128
62 96 144
60 94 132
59 93 132
60 94 135
58 92 129
59 92 120
59 92 118
59 92 120
60 93 125
59 92 131
59 92 124
66 91 87
115 124 0
125 133 0
113 123 0
112 121 0
113 118 0
123 131 0
119 130 0
122 129 0
104 109 0
128 139 0
118 126 0
115 122 0
117 124 0
117 126 0
116 126 0
111 117 0
112 118 0
111 117 0
107 112 0
105 110 0
110 116 0
106 110 0
112 115 0
117 120 0
116 118 0
110 114 0
105 110 0
116 120 0
107 112 0
121 125 0
93 95 0
111 113 0
125 128 0
109 111 0
118 121 0
117 119 0
115 116 0
105 105 0
108 110 0
107 108 0
119 120 0
120 121 0
121 123 0
106 102 0
118 122 0
127 130 0
113 108 0
116 118 0
99 99 0
111 110 0
113 113 0
115 115 0
117 119 0
123 127 0
123 124 0
129 132 0
118 115 0
124 123 0
122 119 0
116 116 0
130 130 0
119 117 0
132 136 0
132 135 0
124 127 0
127 128 0
127 130 0
123 126 0
124 126 0
127 133 0
126 129 0
136 140 0
136 139 0
132 132 0
126 128 0
139 143 0
144 150 0
134 136 0
139 141 0
144 149 0
143 147 0
137 142 0
143 149 0
152 160 0
139 145 0
135 141 0
139 143 0
148 152 0
148 152 0
156 167 0
152 160 0
158 169 0
152 159 0
145 152 0
145 152 0
151 160 0
157 165 0
147 157 0
150 155 0
156 167 0
150 161 0
152 163 0
163 176 0
150 162 0
152 164 0
154 166 0
152 164 0
160 172 0
160 171 0
154 166 0
160 173 0
158 170 0
156 171 0
159 173 0
167 181 0
160 175 0
158 172 0
161 177 0
163 179 0
156 169 0
157 169 0
158 169 0
162 176 0
164 180 0
165 183 0
161 179 0
162 176 0
167 183 0
161 177 0
158 174 0
161 177 0
162 178 0
170 187 0
166 184 0
164 181 0
162 180 0
166 182 0
165 182 0
164 184 0
163 179 0
161 177 0
166 184 0
176 199 84
175 198 67
174 197 72
176 199 76
170 193 51
175 199 62
174 198 84
174 198 80
171 195 67
172 196 57
175 198 76
169 193 44
174 197 57
175 199 80
173 197 80
174 197 57
174 198 80
172 196 72
176 199 72
173 197 67
175 198 67
173 197 62
172 196 72
172 196 76
173 197 80
172 197 67
173 197 80
173 196 72
177 200 99
172 196 57
174 198 67
174 196 76
172 196 57
171 195 80
173 197 62
174 198 57
173 197 67
173 197 80
171 195 80
171 195 62
168 193 72
172 196 84
171 195 72
172 197 76
172 195 51
167 191 76
174 197 62
174 197 84
172 195 62
169 192 76
172 195 62
171 196 67
172 196 88
170 194 76
170 194 84
172 195 62
171 195 76
173 197 84
172 197 67
175 198 105
172 195 88
173 196 62
170 193 76
169 193 44
171 194 80
173 197 76
170 193 67
172 196 76
169 193 80
175 198 57
169 191 72
169 192 67
99 127 122
99 127 144
88 118 143
99 127 152
90 118 129
94 123 159
99 127 166
103 130 155
86 116 152
92 121 157
102 130 154
101 129 159
98 126 151
82 113 155
99 127 148
102 129 153
96 125 152
88 118 150
110 137 157
102 129 154
105 132 155
98 125 155
96 124 162
107 133 158
103 130 169
92 121 161
72 106 171
74 107 181
70 105 178
76 109 181
77 110 181
76 109 176
77 109 178
75 108 179
79 110 173
84 114 171
82 112 169
74 107 170
71 104 165
71 104 167
62 98 164
61 97 164
62 98 166
60 96 156
62 98 163
61 98 165
61 97 158
61 97 158
61 96 157
62 98 158
62 98 153
63 98 155
62 97 155
63 98 154
66 100 139
66 100 142
66 99 144
63 98 150
59 95 150
60 95 149
60 95 144
59 94 143
60 95 148
59 94 142
59 95 151
60 96 147
59 95 147
60 95 150
59 94 143
61 96 154
59 94 140
60 96 155
61 96 149
58 93 145
61 96 149
61 97 155
60 95 150
59 95 144
61 97 162
62 97 149
60 96 154
60 95 140
61 97 154
61 96 143
61 96 156
59 95 145
62 98 160
59 94 145
61 97 153
60 96 145
62 97 152
61 97 160
60 95 147
60 95 136
61 96 147
60 96 151
61 96 152
61 97 157
61 96 148
61 96 144
61 97 162
61 97 155
61 97 153
60 95 145
60 96 151
61 97 152
61 96 148
61 97 154
60 95 145
62 97 155
62 98 158
61 97 156
62 98 159
61 96 153
61 96 148
61 96 144
61 96 149
62 98 158
61 96 143
60 96 148
60 95 141
61 97 149
61 96 142
61 97 148
62 98 166
62 98 160
62 97 149
60 95 143
61 97 150
60 96 145
61 96 148
61 96 151
61 97 148
62 97 152
61 96 143
62 98 155
61 96 144
61 97 145
61 97 154
60 96 147
61 96 153
62 98 159
60 95 143
61 97 142
61 97 151
60 95 140
60 96 142
60 96 143
61 96 144
60 96 147
60 95 143
62 97 149
61 96 148
61 96 144
61 96 139
61 96 148
62 97 151
59 94 134
61 97 149
63 99 160
61 96 143
61 96 143
61 96 142
60 95 137
60 96 144
61 96 143
61 97 151
59 94 135
59 93 131
61 96 148
60 95 134
60 95 139
61 95 141
61 96 143
58 92 126
59 93 136
58 92 135
58 91 129
61 96 145
59 93 129
58 93 122
59 92 135
58 91 119
59 93 129
58 91 114
86 101 79
106 114 0
111 119 0
115 127 0
118 128 0
113 121 0
119 128 0
109 118 0
118 124 0
119 125 0
114 122 0
114 121 0
104 113 0
115 123 0
121 127 0
120 127 0
106 110 0
113 121 0
108 114 0
99 104 0
111 119 0
103 109 0
110 115 0
108 112 0
110 114 0
107 113 0
118 125 0
117 121 0
113 115 0
108 110 0
115 119 0
109 114 0
110 111 0
108 113 0
118 123 0
117 121 0
109 110 0
120 122 0
113 117 0
121 125 0
118 119 0
107 110 0
119 123 0
115 119 0
119 121 0
118 120 0
118 120 0
109 111 0
116 116 0
120 120 0
114 115 0
121 123 0
122 125 0
114 113 0
120 122 0
116 116 0
114 115 0
118 121 0
111 110 0
124 129 0
128 130 0
125 127 0
130 131 0
121 123 0
127 129 0
126 128 0
133 138 0
135 141 0
144 150 0
127 130 0
130 131 0
140 144 0
127 130 0
136 139 0
138 144 0
135 137 0
138 142 0
120 121 0
142 149 0
137 144 0
148 157 0
150 155 0
147 153 0
145 153 0
148 155 0
144 153 0
143 148 0
145 153 0
148 152 0
150 160 0
151 161 0
150 159 0
153 162 0
149 158 0
146 153 0
151 162 0
150 159 0
155 164 0
152 163 0
146 155 0
155 169 0
158 169 0
162 175 0
159 171 0
161 174 0
161 174 0
153 165 0
152 162 0
160 174 0
159 170 0
159 170 0
157 172 0
153 164 0
163 178 0
161 178 0
150 161 0
158 174 0
159 173 0
161 177 0
155 169 0
161 177 0
155 168 0
160 176 0
164 181 0
158 175 0
165 182 0
164 179 0
164 180 0
162 176 0
159 171 0
164 181 0
164 182 0
156 173 0
164 182 0
166 183 0
164 183 0
166 185 0
161 178 0
166 185 0
165 183 0
166 184 0
165 183 0
168 187 0
170 194 62
172 197 51
175 198 76
174 197 51
174 198 67
174 196 72
172 196 72
175 198 80
175 198 72
176 199 67
176 201 95
174 198 76
173 197 67
171 195 80
171 194 62
175 199 95
172 196 67
173 197 72
174 197 92
174 197 72
172 197 80
172 196 76
174 198 92
174 197 80
173 197 67
170 195 76
173 197 76
172 196 80
172 195 44
173 197 95
171 195 62
172 195 62
172 196 76
174 197 72
174 198 80
171 195 62
173 197 62
174 196 80
174 197 67
171 195 76
170 193 72
171 196 62
173 197 84
175 199 99
175 198 84
170 193 72
172 195 62
173 196 84
170 194 80
170 193 72
172 195 44
173 196 67
173 197 80
172 196 95
173 197 95
169 193 67
171 194 80
168 192 62
171 194 67
174 197 76
172 196 95
165 188 76
172 196 67
171 196 80
171 194 57
169 193 76
174 197 57
172 196 76
172 196 80
169 192 57
174 198 72
169 193 44
132 157 118
91 119 145
101 129 165
87 117 142
91 119 142
94 123 157
91 120 158
78 109 143
90 120 161
101 129 150
94 122 156
107 134 158
92 120 151
107 133 153
104 132 169
107 133 160
102 130 160
96 125 154
107 133 145
97 124 156
105 132 151
92 120 144
91 120 162
100 127 157
106 133 162
95 124 161
95 123 163
70 104 171
74 107 182
79 111 181
86 117 183
72 106 174
82 113 184
74 107 175
92 120 181
79 111 173
82 113 172
89 118 177
74 107 170
88 117 178
71 104 165
62 98 163
62 98 161
60 96 158
61 98 163
61 97 160
61 97 157
60 96 155
60 96 154
60 95 154
61 97 160
60 96 151
61 97 153
64 99 152
63 97 147
62 96 144
65 98 143
62 97 150
59 92 133
58 93 139
59 93 140
60 95 148
59 94 148
60 95 152
60 96 149
60 95 144
59 94 142
61 97 162
59 94 147
61 97 155
60 95 148
59 93 140
58 93 136
59 94 141
60 96 150
60 96 150
60 95 150
60 96 153
60 96 149
61 97 151
60 96 148
60 95 147
59 95 139
61 97 151
59 94 144
60 95 147
60 95 141
61 97 152
60 96 149
60 96 148
60 96 147
61 95 143
61 96 153
62 97 149
61 97 156
61 96 153
59 94 144
61 95 144
61 97 152
62 97 150
60 95 142
61 97 153
61 97 154
61 96 148
61 97 152
61 96 150
61 96 143
62 98 151
61 96 155
61 96 148
61 96 147
61 96 148
61 96 148
61 96 144
60 95 143
62 98 158
59 95 137
61 96 149
62 98 156
62 98 156
62 98 158
61 97 153
60 96 145
60 95 141
62 98 157
60 95 143
60 96 147
61 96 154
61 97 154
62 98 157
62 97 152
60 95 134
61 96 149
61 96 142
61 96 145
62 97 148
61 96 148
62 98 156
61 97 148
62 97 155
61 96 148
60 95 147
61 96 147
60 95 143
60 96 142
61 96 143
61 97 148
61 95 141
59 94 134
60 96 144
60 96 145
60 95 141
60 95 137
61 97 145
60 95 141
60 95 140
61 96 140
60 95 139
62 97 143
60 94 136
59 93 134
60 95 137
61 96 141
60 95 142
61 96 148
61 96 149
60 94 131
61 95 140
60 95 139
58 93 129
61 96 143
61 96 148
61 95 136
59 94 136
60 95 137
61 95 140
59 93 126
60 94 126
59 93 126
58 92 124
57 90 122
59 94 134
59 93 129
55 86 116
67 95 116
117 124 18
122 132 0
110 118 0
110 120 0
115 124 0
110 118 0
122 132 0
123 133 0
121 128 0
108 115 0
99 103 0
110 116 0
115 123 0
121 129 0
119 127 0
107 115 0
118 125 0
118 127 0
103 110 0
115 121 0
105 108 0
113 121 0
120 126 0
107 111 0
117 121 0
110 114 0
110 114 0
116 121 0
114 119 0
114 122 0
111 115 0
116 121 0
115 116 0
111 114 0
117 119 0
107 111 0
113 116 0
109 109 0
110 111 0
111 110 0
121 122 0
109 112 0
115 117 0
123 125 0
104 103 0
125 126 0
116 117 0
119 121 0
122 123 0
111 113 0
118 117 0
115 114 0
116 116 0
119 119 0
115 116 0
127 128 0
127 126 0
127 128 0
133 137 0
130 130 0
134 136 0
124 128 0
128 131 0
135 140 0
130 134 0
127 129 0
126 127 0
133 134 0
134 138 0
134 135 0
128 130 0
137 140 0
128 131 0
136 138 0
128 128 0
133 135 0
141 146 0
146 150 0
143 149 0
141 145 0
139 145 0
138 144 0
144 151 0
136 143 0
144 153 0
145 151 0
150 157 0
145 156 0
146 156 0
150 160 0
143 151 0
140 144 0
149 154 0
146 151 0
148 158 0
143 151 0
152 160 0
151 160 0
154 164 0
147 159 0
148 158 0
146 155 0
152 164 0
160 174 0
157 170 0
154 161 0
155 167 0
163 178 0
156 170 0
158 170 0
155 169 0
161 175 0
158 171 0
161 174 0
165 182 0
160 172 0
159 174 0
163 175 0
162 179 0
164 179 0
160 175 0
164 178 0
161 178 0
158 172 0
159 175 0
158 172 0
163 178 0
162 178 0
159 172 0
164 181 0
161 178 0
164 181 0
161 178 0
166 180 0
168 186 0
165 183 0
167 184 0
165 184 0
164 180 0
164 180 0
161 178 0
163 179 0
167 185 0
175 199 57
175 198 67
170 194 62
176 200 72
173 196 57
174 198 76
174 198 88
174 197 84
173 197 76
173 197 92
176 199 67
172 196 84
174 197 62
173 197 76
173 197 84
173 198 92
173 197 80
173 197 51
176 199 80
173 197 72
172 196 76
173 197 67
172 195 62
172 196 72
175 199 88
171 195 57
171 195 62
170 194 84
172 195 80
171 195 84
173 196 72
167 191 57
172 196 92
169 192 51
173 197 88
172 197 95
172 196 72
173 196 72
168 192 62
169 192 67
167 192 76
173 197 57
172 196 92
172 195 57
170 193 80
173 197 57
170 194 57
177 199 76
169 193 57
172 196 80
170 193 72
173 197 88
170 194 51
169 192 72
173 197 80
171 194 72
169 192 72
171 194 62
169 192 72
175 198 76
170 193 84
172 196 92
169 193 72
174 197 80
174 197 84
170 193 62
172 196 67
169 193 76
174 197 72
171 195 62
172 195 80
172 195 88
169 191 94
88 118 148
86 115 140
89 118 143
100 128 150
89 119 149
89 118 151
96 124 155
93 122 151
102 128 160
96 124 149
103 131 159
105 132 155
100 127 151
91 119 155
104 131 146
90 120 145
94 123 154
97 125 157
100 127 154
111 137 153
105 132 145
114 140 148
109 136 148
99 127 164
109 135 163
103 131 168
83 113 156
79 111 171
72 106 178
69 104 181
81 113 182
68 103 176
79 111 178
86 116 177
75 108 177
79 110 172
68 102 165
62 98 169
85 114 175
71 104 166
77 109 171
61 98 165
60 96 153
61 97 155
61 97 160
60 96 159
62 97 151
61 97 156
62 98 162
60 96 155
61 96 158
60 96 153
59 94 145
65 99 149
64 97 136
62 97 154
68 101 151
60 95 155
66 99 141
59 94 136
59 95 148
59 95 155
60 95 154
60 95 150
60 95 149
60 95 143
60 95 151
60 95 148
60 95 153
60 94 143
60 95 150
60 95 141
61 96 150
60 94 140
60 95 140
60 95 143
59 95 147
60 96 151
59 94 138
60 96 149
59 94 140
59 93 140
61 96 155
60 95 149
61 96 144
60 95 145
62 97 160
61 96 148
61 97 150
60 95 149
59 94 139
61 97 151
62 98 154
61 96 153
62 98 156
61 96 145
60 96 148
60 96 148
61 97 150
61 97 151
60 95 139
61 96 144
61 97 153
60 95 153
60 95 139
62 98 155
61 97 149
60 95 145
62 98 161
61 97 154
61 96 144
61 97 144
61 97 148
61 97 147
60 95 148
62 98 157
60 95 141
61 97 157
61 96 148
62 97 154
60 94 136
61 96 149
61 97 143
61 96 144
61 97 148
62 97 154
60 95 139
61 96 140
61 96 145
61 96 144
61 97 150
60 95 141
61 96 145
61 97 148
61 96 147
60 95 143
61 97 148
60 96 147
61 97 143
62 98 155
61 96 140
61 96 144
61 96 147
61 97 153
62 97 151
60 96 139
62 97 152
60 96 142
60 94 134
60 95 144
62 97 151
62 97 151
60 95 133
61 96 140
60 95 140
60 95 142
61 96 144
62 97 148
61 96 150
60 95 141
60 94 137
61 96 141
60 94 134
60 95 141
60 95 140
61 96 140
60 95 141
60 94 135
60 95 137
60 95 137
60 94 129
61 95 135
60 95 133
59 94 130
60 94 138
60 94 133
60 93 130
60 94 140
58 91 121
59 92 119
57 90 122
57 90 119
57 90 125
90 106 84
116 126 0
119 128 0
120 129 0
107 116 0
115 125 0
120 130 0
105 113 0
122 130 0
121 128 0
110 119 0
123 129 0
109 116 0
117 124 0
110 119 0
119 123 0
118 125 0
118 124 0
126 136 0
116 123 0
122 129 0
116 123 0
119 124 0
129 134 0
112 118 0
111 115 0
125 131 0
105 108 0
120 127 0
115 121 0
110 114 0
120 124 0
111 117 0
110 119 0
117 121 0
118 121 0
115 117 0
110 114 0
117 119 0
109 112 0
105 107 0
115 120 0
110 113 0
120 124 0
112 114 0
116 119 0
129 130 0
125 127 0
116 118 0
118 117 0
117 116 0
130 132 0
114 119 0
132 137 0
124 127 0
128 132 0
130 133 0
125 126 0
129 130 0
122 125 0
126 130 0
132 137 0
128 131 0
125 129 0
129 131 0
132 134 0
124 128 0
144 150 0
142 147 0
132 137 0
124 130 0
142 147 0
132 136 0
130 133 0
134 141 0
145 149 0
141 148 0
142 150 0
138 144 0
140 144 0
138 145 0
144 149 0
136 145 0
143 148 0
145 152 0
138 144 0
151 157 0
155 165 0
150 156 0
147 157 0
149 159 0
145 154 0
143 152 0
153 162 0
151 161 0
149 159 0
153 161 0
155 166 0
146 155 0
154 165 0
154 166 0
151 161 0
156 166 0
150 162 0
160 173 0
151 164 0
156 167 0
155 168 0
151 161 0
152 164 0
162 174 0
159 171 0
152 167 0
159 172 0
156 170 0
157 171 0
163 178 0
162 176 0
159 172 0
160 174 0
156 170 0
162 177 0
156 168 0
160 175 0
161 177 0
165 181 0
162 179 0
162 176 0
163 180 0
165 181 0
165 180 0
163 181 0
162 176 0
161 180 0
159 176 0
165 181 0
163 181 0
167 185 0
169 184 0
163 181 0
164 183 0
168 189 0
163 182 0
162 179 0
173 197 80
173 197 76
172 195 62
174 197 62
173 197 67
169 192 57
174 198 72
170 195 62
173 197 72
171 195 88
172 197 76
173 198 76
174 198 72
175 198 67
176 200 88
170 194 72
175 199 84
172 197 76
174 198 88
171 196 62
174 199 80
174 197 92
176 198 62
171 196 72
171 196 84
173 197 84
176 200 105
171 196 80
172 196 76
174 197 76
172 195 57
172 196 57
169 193 62
171 194 62
173 198 88
169 192 72
172 197 95
173 197 72
173 197 67
171 196 84
168 192 84
172 195 67
173 196 72
171 194 72
172 195 44
172 195 67
173 196 67
169 192 76
171 195 76
169 192 67
172 195 57
172 196 80
170 194 88
171 194 62
173 197 92
167 191 67
171 196 95
171 194 57
174 197 72
171 195 67
172 196 67
171 194 80
171 194 88
169 192 76
169 193 36
167 190 57
169 192 88
172 195 76
169 193 84
173 196 99
166 189 67
171 194 84
165 188 62
112 137 122
95 123 150
96 124 150
83 113 130
86 116 147
101 127 143
96 124 135
103 130 164
91 119 151
93 121 150
88 117 156
87 117 158
107 134 160
104 131 155
91 120 158
103 129 145
106 132 155
100 127 159
99 127 148
104 130 149
108 134 147
93 120 147
106 133 156
106 133 150
109 135 161
91 120 153
93 121 154
96 124 160
87 116 157
79 111 179
79 111 181
79 111 179
76 109 175
81 112 173
82 113 178
80 111 174
74 107 179
79 111 176
80 111 174
88 117 174
87 116 174
67 101 158
62 98 166
61 98 162
61 97 160
61 96 154
60 96 157
60 96 154
61 96 158
60 95 150
60 95 161
61 96 153
60 95 146
63 98 162
61 97 155
64 98 153
63 97 147
67 100 145
66 100 138
59 94 134
61 96 150
59 93 136
59 94 148
60 95 144
58 94 148
61 96 146
60 96 156
60 95 143
60 95 141
61 96 155
61 96 155
60 96 153
60 95 143
59 94 151
61 96 154
60 95 146
60 95 145
60 96 153
60 96 148
61 96 149
61 96 145
61 96 148
60 95 146
59 95 141
59 95 144
60 95 148
61 96 151
62 97 152
62 97 150
60 96 145
62 97 154
61 96 155
61 97 153
61 96 155
60 96 149
60 95 145
61 96 149
63 98 159
61 97 151
62 98 162
62 97 149
61 97 154
60 95 145
60 96 145
62 97 154
61 97 149
61 97 145
60 96 147
61 96 148
60 96 143
62 98 158
60 96 144
61 97 148
62 97 151
61 97 152
62 98 159
61 95 145
60 95 147
60 95 144
62 97 149
61 96 140
61 96 143
60 95 142
60 95 141
63 99 168
61 97 149
60 95 145
62 97 151
60 96 149
61 95 145
61 96 153
61 96 145
61 97 151
61 96 144
61 96 145
60 95 140
61 97 145
61 96 139
62 97 153
61 96 141
60 95 134
60 94 140
60 96 144
60 95 140
60 95 142
60 95 137
61 96 141
61 96 145
60 95 140
61 97 144
61 96 144
60 95 141
61 96 142
61 96 147
61 96 147
60 94 133
60 96 145
61 96 149
60 95 136
61 96 143
61 96 139
61 96 144
61 96 140
60 94 134
61 95 136
60 95 137
60 95 131
61 96 142
61 96 139
61 95 135
61 96 151
59 93 130
60 95 133
61 96 136
60 95 140
60 94 133
58 92 124
60 94 126
59 93 133
59 93 129
57 89 114
59 93 120
64 94 110
107 119 31
116 125 0
110 119 0
120 131 0
122 131 0
107 113 0
127 138 0
122 130 0
120 126 0
125 135 0
123 130 0
114 124 0
110 117 0
111 114 0
111 117 0
117 125 0
113 121 0
104 111 0
117 123 0
115 122 0
108 113 0
108 115 0
117 124 0
111 117 0
125 134 0
115 123 0
125 132 0
113 115 0
121 128 0
114 121 0
119 126 0
116 119 0
119 126 0
124 132 0
114 117 0
123 125 0
118 123 0
113 118 0
118 124 0
116 119 0
122 127 0
116 122 0
123 127 0
119 124 0
126 128 0
123 127 0
114 121 0
131 132 0
124 122 0
118 123 0
129 132 0
114 116 0
121 127 0
124 125 0
128 133 0
128 134 0
117 118 0
133 136 0
132 133 0
125 128 0
139 143 0
138 140 0
134 138 0
129 135 0
139 141 0
132 137 0
133 135 0
136 139 0
128 132 0
131 137 0
129 133 0
141 146 0
142 148 0
140 144 0
132 136 0
139 142 0
136 142 0
140 146 0
142 148 0
140 145 0
142 150 0
141 148 0
137 143 0
146 154 0
147 153 0
149 158 0
150 157 0
143 152 0
147 156 0
144 152 0
143 150 0
137 145 0
154 165 0
149 156 0
154 161 0
146 155 0
153 162 0
152 163 0
154 164 0
154 164 0
156 169 0
154 168 0
161 172 0
155 166 0
156 168 0
156 166 0
153 164 0
153 163 0
159 173 0
155 167 0
158 173 0
162 174 0
156 167 0
159 175 0
158 172 0
154 169 0
156 170 0
155 170 0
160 178 0
168 182 0
160 176 0
165 180 0
161 175 0
160 175 0
161 177 0
161 176 0
161 177 0
162 179 0
160 175 0
156 173 0
163 178 0
166 184 0
162 181 0
165 181 0
160 177 0
166 184 0
164 183 0
163 177 0
166 184 0
163 180 0
169 188 0
165 183 0
163 180 0
166 185 0
173 196 62
174 197 62
173 197 51
174 198 62
172 196 57
173 198 88
172 196 80
173 197 67
171 195 62
173 196 72
174 198 67
174 197 72
172 196 67
172 196 76
171 195 51
175 198 80
173 197 92
174 197 51
174 198 88
173 197 67
173 196 76
169 192 57
175 198 84
173 197 76
169 193 80
168 192 44
170 193 88
171 195 62
173 196 67
168 191 51
174 197 76
170 194 67
171 195 95
170 194 72
170 195 99
167 192 72
169 193 57
169 193 76
173 196 76
173 197 76
168 192 72
171 195 80
172 196 80
168 192 80
169 194 76
173 196 72
170 193 72
168 191 62
171 195 51
173 197 99
174 196 67
172 196 92
171 194 67
170 195 76
173 197 88
175 197 72
167 192 84
172 195 76
171 195 72
172 195 76
168 191 57
171 193 76
167 190 57
170 193 80
168 192 72
172 194 72
171 195 88
168 192 84
166 190 84
170 194 67
168 192 76
172 195 92
165 189 57
151 174 94
89 117 147
101 129 158
91 119 149
79 109 142
96 124 141
88 117 147
93 121 147
95 123 151
92 120 157
102 129 159
90 119 157
90 120 157
92 121 148
90 119 151
101 129 157
91 120 155
102 129 158
100 127 153
100 127 153
91 119 150
99 126 167
94 122 154
100 127 154
104 131 161
95 123 156
100 127 160
85 115 156
83 114 158
91 120 148
83 113 173
74 108 179
64 100 171
87 117 181
69 103 171
71 105 170
80 111 175
80 111 176
82 112 175
79 110 172
82 113 171
83 113 175
80 110 170
61 97 158
61 97 160
61 97 159
61 97 157
61 97 155
61 97 154
60 96 163
61 96 153
61 97 156
62 97 150
61 96 154
60 95 145
62 96 142
59 94 141
70 103 151
59 93 141
66 99 145
59 95 144
58 92 145
59 94 143
59 94 141
60 95 151
61 96 148
59 94 141
59 93 145
61 96 156
60 95 153
59 94 145
59 93 139
61 96 147
59 94 131
60 96 148
60 96 147
60 96 148
62 97 149
61 96 154
60 95 144
60 96 153
60 95 146
60 96 150
61 96 148
60 95 144
61 96 148
60 96 146
60 96 151
59 95 150
60 96 147
61 96 147
62 98 160
61 96 145
58 93 144
61 97 155
61 96 150
60 95 140
61 96 147
62 98 156
61 96 144
61 97 153
60 95 149
61 95 149
61 97 153
59 94 134
61 97 149
62 97 150
61 96 150
61 97 157
60 95 143
60 95 145
61 96 144
61 96 149
60 96 147
60 96 149
62 97 151
62 98 160
61 97 153
61 96 151
60 95 149
62 97 155
62 97 154
61 96 145
62 97 151
60 96 152
61 97 145
60 95 139
61 96 151
61 96 141
60 96 149
61 96 144
61 96 145
60 95 149
62 97 147
61 97 149
63 98 157
61 97 150
60 96 142
60 96 149
60 95 139
61 96 144
62 97 154
60 95 137
62 98 154
60 96 139
61 96 145
59 94 130
62 98 157
60 95 142
62 98 156
61 96 145
61 96 148
60 95 143
60 95 144
60 95 142
60 95 140
61 96 143
59 94 137
59 94 137
61 96 145
61 96 140
62 97 148
59 94 135
61 97 153
60 94 134
61 95 142
61 96 140
62 97 141
60 94 124
59 93 136
60 95 142
60 94 134
59 92 133
61 96 142
58 93 131
59 93 126
61 96 137
59 93 120
58 92 122
58 92 117
58 91 114
58 91 123
89 109 70
127 138 0
117 128 0
123 134 0
122 135 0
114 123 0
116 126 0
115 124 0
118 126 0
116 127 0
111 119 0
115 124 0
112 122 0
116 123 0
113 121 0
114 124 0
118 125 0
114 123 0
119 126 0
115 121 0
117 121 0
113 118 0
122 130 0
122 131 0
115 124 0
111 118 0
119 126 0
122 126 0
112 117 0
116 121 0
120 122 0
116 120 0
124 129 0
112 114 0
112 116 0
119 126 0
116 124 0
126 131 0
123 128 0
121 127 0
120 124 0
117 123 0
127 133 0
121 125 0
116 120 0
116 119 0
135 141 0
124 127 0
126 135 0
124 125 0
126 129 0
123 125 0
133 135 0
123 126 0
123 127 0
128 131 0
119 120 0
124 126 0
132 136 0
134 138 0
127 130 0
131 134 0
124 127 0
146 151 0
135 141 0
131 137 0
135 140 0
132 136 0
139 144 0
139 144 0
134 138 0
145 153 0
134 140 0
137 146 0
130 134 0
132 136 0
132 139 0
135 138 0
136 142 0
141 148 0
146 153 0
142 151 0
144 154 0
138 145 0
138 144 0
146 155 0
148 154 0
134 140 0
148 155 0
150 159 0
145 155 0
141 147 0
142 151 0
150 161 0
153 164 0
156 166 0
153 162 0
150 160 0
154 166 0
147 158 0
153 166 0
156 165 0
152 164 0
157 171 0
154 167 0
156 167 0
155 166 0
156 168 0
155 167 0
158 171 0
157 169 0
157 168 0
167 180 0
162 175 0
159 172 0
160 172 0
159 173 0
158 172 0
160 174 0
155 167 0
159 171 0
162 177 0
163 180 0
162 179 0
160 173 0
160 175 0
158 174 0
163 180 0
161 177 0
159 174 0
161 178 0
165 182 0
163 182 0
163 180 0
164 182 0
163 179 0
164 182 0
170 189 0
165 181 0
164 180 0
166 183 0
166 183 0
165 183 0
163 180 0
167 186 0
175 198 88
175 198 76
176 200 95
175 198 57
172 197 76
175 200 88
173 197 57
173 195 72
176 199 76
171 195 67
176 198 51
170 194 62
171 195 72
176 199 72
173 197 88
172 195 62
176 199 84
170 194 57
172 195 76
170 193 84
172 195 76
174 198 88
169 192 57
172 196 67
174 198 76
173 198 62
172 196 99
172 195 72
171 195 80
173 197 76
169 193 57
174 198 67
176 199 72
173 196 67
172 196 72
170 194 80
169 193 25
170 194 57
171 195 62
172 196 67
173 197 88
170 193 67
170 194 62
167 191 76
170 194 76
171 194 88
170 194 72
170 194 72
170 193 51
171 195 72
170 192 51
171 196 88
169 193 102
170 194 84
170 193 67
173 196 88
166 190 72
166 189 62
173 196 62
175 198 72
172 195 67
170 193 80
170 193 62
165 189 76
174 197 84
168 191 62
170 193 62
167 189 80
168 192 62
167 190 67
171 194 76
169 193 76
168 191 84
172 196 88
105 131 118
98 126 142
93 122 148
84 114 140
89 117 136
93 122 152
93 121 157
98 125 145
95 124 160
84 115 161
98 126 146
90 119 153
94 122 150
88 117 151
102 128 159
92 120 158
100 127 157
101 128 162
90 119 157
102 129 152
110 136 158
102 129 157
100 127 151
94 122 157
108 134 164
92 120 156
86 116 156
92 120 149
85 114 158
89 119 157
75 108 163
71 105 176
77 109 182
80 112 180
79 111 176
71 104 171
82 113 172
87 116 173
97 124 181
90 118 178
74 107 167
85 114 172
68 101 161
62 98 162
60 96 154
61 97 157
61 97 160
60 95 157
60 96 155
60 95 153
60 95 142
60 95 148
60 95 148
63 99 153
62 97 153
66 99 144
62 96 146
65 100 150
58 93 141
60 95 145
61 96 146
59 94 144
59 94 141
60 96 146
60 95 145
61 97 158
60 95 148
61 97 155
60 95 149
59 94 145
60 95 145
61 97 157
61 96 143
61 96 150
59 94 147
61 96 155
61 97 152
61 96 143
60 96 151
60 94 147
59 94 139
59 93 145
61 97 160
61 96 148
60 95 141
61 97 152
61 96 148
59 94 139
60 95 134
62 97 154
61 97 153
61 97 155
61 97 142
61 95 137
60 95 141
60 96 148
61 96 151
61 97 151
60 95 149
61 96 140
60 95 137
61 96 148
61 97 144
61 96 148
59 95 145
59 94 131
61 96 147
61 96 147
60 96 148
60 95 139
61 96 140
61 97 150
61 96 147
61 97 147
61 96 147
61 96 147
60 96 152
61 97 144
60 96 147
60 95 142
61 97 150
61 97 151
60 95 144
61 96 144
60 95 139
62 97 152
62 98 152
60 96 149
62 97 152
61 96 142
60 95 144
62 97 149
60 95 141
61 96 141
61 96 145
60 95 150
60 95 143
61 96 142
61 97 149
60 95 142
61 96 148
61 96 148
61 96 145
60 95 141
59 95 134
61 96 148
61 96 147
61 96 143
61 96 141
61 96 143
61 97 142
60 95 137
60 94 130
61 96 140
60 95 142
61 95 142
58 93 130
61 96 143
59 94 137
60 95 135
59 93 126
61 96 137
60 95 135
60 94 131
60 94 135
61 95 139
61 95 141
59 93 139
60 94 131
61 96 141
60 95 142
59 93 131
60 94 129
59 93 121
60 94 130
60 94 134
59 93 126
55 87 114
58 91 128
57 90 117
60 91 117
106 119 36
112 121 0
114 125 0
125 137 0
106 116 0
120 130 0
127 139 0
107 117 0
121 130 0
116 124 0
126 137 0
112 122 0
118 126 0
117 127 0
125 136 0
107 112 0
111 119 0
100 106 0
112 120 0
118 124 0
111 117 0
117 126 0
123 132 0
126 133 0
115 120 0
124 133 0
101 104 0
110 113 0
123 130 0
112 119 0
129 134 0
115 120 0
107 111 0
121 127 0
128 137 0
119 124 0
126 133 0
112 117 0
124 130 0
114 117 0
124 130 0
114 121 0
117 122 0
122 129 0
119 121 0
119 123 0
120 123 0
129 134 0
118 120 0
123 126 0
132 136 0
124 129 0
128 130 0
129 134 0
122 127 0
128 135 0
127 134 0
120 124 0
129 132 0
136 141 0
137 142 0
130 136 0
132 138 0
130 133 0
131 137 0
132 136 0
132 136 0
142 150 0
135 141 0
140 147 0
141 148 0
138 146 0
136 143 0
126 130 0
137 142 0
142 150 0
140 144 0
137 143 0
141 147 0
145 149 0
150 160 0
139 143 0
144 148 0
141 146 0
137 145 0
140 148 0
153 162 0
152 164 0
150 161 0
148 158 0
147 155 0
142 150 0
145 154 0
155 163 0
153 163 0
148 159 0
154 164 0
154 163 0
151 161 0
151 161 0
156 168 0
153 163 0
158 173 0
154 166 0
155 167 0
155 170 0
157 168 0
157 168 0
152 165 0
155 168 0
155 165 0
158 172 0
156 169 0
156 170 0
160 175 0
157 171 0
155 168 0
161 176 0
158 173 0
160 175 0
159 173 0
157 171 0
160 174 0
160 176 0
163 178 0
160 176 0
162 177 0
160 176 0
161 176 0
159 174 0
162 180 0
165 181 0
163 179 0
161 177 0
167 185 0
160 179 0
162 180 0
161 176 0
165 182 0
163 178 0
166 184 0
164 181 0
168 189 0
170 187 0
160 178 0
177 200 76
171 194 76
174 197 72
173 197 72
172 196 92
172 196 80
172 196 62
172 196 62
172 196 51
170 194 67
177 201 92
172 196 72
173 197 76
173 197 80
172 195 57
175 200 92
173 197 62
171 194 67
174 199 92
170 194 76
169 193 67
173 197 88
168 191 62
173 197 84
170 194 62
170 193 76
173 196 88
169 194 84
172 195 76
171 195 92
166 189 67
172 195 76
172 196 99
174 198 92
169 193 57
171 194 57
172 196 80
172 196 80
171 195 72
168 191 67
169 192 76
171 194 72
170 193 72
170 195 80
171 195 76
173 197 80
169 193 57
170 193 67
171 194 72
170 194 95
173 197 95
172 197 84
168 193 72
168 193 76
169 193 88
162 184 51
169 192 44
172 195 72
165 189 51
172 195 67
166 190 44
170 194 76
167 190 72
170 193 80
168 192 57
171 195 80
162 185 67
170 193 57
168 192 51
169 192 76
165 189 80
169 192 80
170 194 80
169 192 72
149 172 94
92 121 150
91 120 144
84 114 153
97 124 135
89 118 152
95 123 150
90 118 140
101 128 154
106 133 153
94 122 147
85 114 154
108 134 154
92 121 154
93 121 155
109 136 161
88 117 149
95 122 141
111 137 163
89 118 146
104 131 160
106 132 153
97 125 153
89 118 152
114 139 155
117 142 162
95 123 154
82 112 148
77 108 155
85 115 161
81 112 156
86 116 171
75 108 181
74 107 171
71 105 175
72 105 176
80 112 178
82 113 174
82 112 171
90 119 179
85 115 170
90 119 177
90 118 171
63 99 166
61 97 157
61 97 156
62 97 150
62 99 168
61 98 162
61 97 158
59 94 151
59 94 150
60 96 150
60 95 148
62 97 148
62 96 151
59 94 148
63 96 140
62 96 144
60 94 138
61 95 140
58 93 143
60 95 150
59 93 136
60 95 145
61 96 155
60 95 142
60 94 149
59 94 146
60 94 143
60 95 151
59 94 136
61 96 144
61 97 155
60 96 153
62 97 156
61 96 150
61 97 153
60 95 145
60 96 149
60 95 147
61 96 149
59 94 136
60 95 140
60 94 139
60 96 145
61 96 145
61 97 149
61 97 149
61 96 145
60 95 145
61 96 147
59 94 142
60 96 147
61 97 149
60 96 148
61 96 150
60 95 144
60 96 148
61 96 144
61 97 149
60 95 143
61 97 152
62 98 157
61 96 149
60 95 146
61 97 150
60 95 137
60 96 151
61 97 152
62 98 157
60 96 148
61 96 144
59 93 131
61 97 147
61 97 150
62 97 149
61 97 150
61 96 141
61 97 155
61 96 142
60 95 143
60 95 144
61 97 151
60 96 148
60 95 143
61 96 143
60 95 139
62 98 152
61 96 140
61 96 144
59 94 133
61 96 141
59 93 126
61 96 140
60 95 147
60 95 141
58 93 130
61 96 145
61 97 148
60 95 142
62 97 145
60 96 139
61 97 149
60 95 135
61 97 145
60 95 136
61 95 140
60 95 140
59 93 134
60 94 140
62 97 147
60 95 139
60 94 137
61 96 148
61 96 142
61 95 141
60 95 140
59 94 139
60 95 137
58 92 128
60 95 135
61 96 145
59 93 129
60 95 139
60 95 136
59 94 136
60 95 143
58 92 123
59 94 133
59 93 131
59 93 130
60 94 142
59 93 124
58 91 117
58 92 123
56 89 119
60 93 132
56 88 107
57 90 124
83 103 83
125 136 0
127 139 0
123 133 0
115 127 0
111 119 0
120 131 0
122 132 0
119 128 0
121 132 0
125 134 0
114 124 0
117 127 0
116 124 0
110 118 0
107 114 0
122 132 0
121 130 0
106 116 0
125 133 0
114 122 0
126 137 0
116 125 0
116 125 0
119 124 0
123 131 0
116 126 0
128 138 0
128 134 0
122 129 0
108 114 0
119 127 0
133 137 0
124 132 0
125 130 0
122 129 0
125 131 0
123 129 0
123 129 0
115 121 0
123 130 0
115 119 0
132 138 0
127 133 0
120 124 0
117 121 0
122 126 0
126 134 0
129 134 0
121 129 0
136 143 0
122 129 0
134 139 0
127 134 0
133 138 0
134 138 0
125 128 0
129 135 0
132 139 0
131 137 0
133 138 0
131 135 0
132 136 0
135 139 0
141 150 0
143 150 0
132 137 0
127 133 0
135 141 0
135 140 0
138 145 0
137 139 0
138 145 0
140 146 0
140 148 0
143 152 0
141 145 0
135 142 0
135 139 0
146 153 0
148 154 0
142 151 0
135 140 0
150 157 0
146 155 0
143 150 0
153 161 0
137 145 0
143 148 0
142 151 0
144 153 0
146 155 0
147 155 0
153 162 0
147 157 0
149 158 0
155 164 0
146 154 0
156 168 0
150 164 0
150 159 0
156 167 0
153 168 0
153 166 0
152 165 0
155 167 0
148 160 0
151 164 0
153 165 0
159 170 0
155 168 0
154 166 0
159 173 0
158 172 0
158 172 0
156 170 0
159 172 0
158 171 0
162 177 0
158 173 0
161 175 0
159 175 0
159 173 0
161 176 0
158 172 0
159 174 0
160 175 0
162 175 0
166 181 0
162 178 0
160 175 0
157 172 0
158 175 0
162 179 0
163 179 0
162 177 0
161 175 0
160 178 0
163 181 0
164 183 0
166 184 0
164 182 0
163 180 0
165 183 0
160 178 0
165 182 0
174 197 72
173 196 67
173 198 95
174 198 72
172 195 76
173 197 88
173 198 92
173 197 67
172 196 67
176 200 99
172 195 44
172 196 67
174 197 76
174 197 76
170 193 67
171 195 84
174 199 80
173 197 76
174 197 67
171 194 72
172 196 80
170 194 51
171 195 72
171 195 62
171 195 88
170 194 57
171 195 72
172 196 102
169 193 62
170 194 76
168 192 51
170 194 76
167 191 57
171 195 62
168 191 67
168 193 84
171 195 57
172 196 80
168 191 80
174 199 84
171 195 80
172 195 62
174 197 80
172 196 80
167 192 84
171 194 51
169 193 62
164 188 62
169 190 51
169 191 51
168 192 44
171 195 72
166 190 62
171 195 76
169 193 84
167 191 51
168 191 67
169 193 76
172 196 80
170 193 95
168 192 76
170 193 57
168 192 76
168 192 67
167 190 76
173 197 88
165 190 84
166 190 62
167 191 76
173 196 76
169 193 88
165 188 57
167 191 67
171 194 76
170 193 67
108 134 124
99 127 154
83 113 135
92 120 144
84 113 138
99 127 151
88 117 156
108 134 153
90 119 154
86 115 148
93 122 154
97 124 149
78 107 139
96 123 153
106 132 152
96 125 157
107 133 157
94 122 153
97 125 160
97 125 155
105 132 147
108 134 156
109 134 159
103 129 154
104 131 148
114 138 139
105 132 149
99 127 149
88 117 144
79 109 156
84 114 155
86 116 162
71 105 172
79 111 176
84 114 176
84 115 181
80 112 179
80 111 176
71 104 170
65 100 169
71 104 166
85 115 176
69 102 165
62 99 173
62 98 162
61 97 155
61 97 160
62 97 147
61 96 156
63 99 155
64 98 157
60 95 150
60 95 150
60 95 148
67 101 155
64 98 147
61 96 160
60 95 145
62 95 137
61 95 137
59 93 139
59 94 144
61 97 160
58 92 147
59 94 151
59 94 137
59 93 141
61 96 152
60 95 154
60 95 145
59 94 140
60 95 149
59 94 141
60 94 141
60 95 149
59 94 137
60 96 152
60 95 147
60 96 149
60 95 148
60 94 138
61 96 150
61 96 150
60 95 143
59 95 143
62 98 156
61 96 145
58 93 133
61 97 155
61 96 149
59 95 142
61 96 147
61 97 148
61 97 145
59 94 145
60 95 143
60 96 142
60 95 141
61 96 151
61 96 144
60 94 141
61 96 150
60 96 147
61 97 150
61 96 150
62 97 152
61 96 151
61 97 152
60 96 150
61 96 151
59 94 135
61 97 152
60 95 141
61 97 149
62 97 150
60 96 144
61 95 142
61 97 151
59 95 136
61 96 147
60 95 142
60 95 136
60 96 141
59 94 135
61 97 145
60 95 134
62 97 151
60 95 140
61 96 145
61 96 148
60 95 133
62 97 148
61 96 148
61 97 148
61 96 145
60 95 141
62 98 152
61 96 147
61 96 141
60 95 135
60 96 144
60 94 130
60 95 144
61 96 137
61 96 148
60 96 141
61 96 137
61 96 145
61 96 142
61 95 142
61 96 145
60 95 140
62 97 144
60 94 134
61 96 136
59 94 134
59 94 139
59 94 136
59 93 125
59 93 125
61 96 141
58 91 120
60 94 133
59 94 134
60 95 137
60 95 126
60 94 137
59 93 125
60 94 135
58 92 122
59 93 129
57 90 115
59 93 121
58 92 126
59 93 130
57 90 118
57 90 114
59 93 130
65 96 112
99 111 25
118 128 0
118 128 0
118 129 0
123 134 0
125 137 0
118 130 0
125 131 0
119 129 0
120 130 0
116 127 0
115 123 0
113 124 0
116 124 0
117 127 0
113 125 0
113 125 0
118 124 0
123 131 0
106 115 0
116 127 0
119 128 0
110 118 0
125 134 0
116 122 0
118 125 0
108 113 0
126 134 0
116 122 0
118 127 0
133 142 0
124 130 0
120 125 0
116 123 0
125 134 0
117 126 0
116 123 0
119 124 0
120 126 0
121 128 0
124 131 0
123 127 0
128 130 0
128 133 0
138 146 0
129 136 0
128 134 0
134 139 0
117 123 0
130 137 0
125 130 0
134 140 0
129 134 0
127 134 0
132 140 0
127 133 0
142 148 0
132 136 0
127 131 0
131 138 0
128 134 0
133 138 0
131 137 0
140 148 0
143 149 0
136 142 0
123 124 0
135 138 0
137 142 0
138 144 0
134 137 0
143 149 0
143 151 0
140 147 0
143 149 0
140 147 0
140 148 0
150 158 0
140 147 0
143 149 0
142 148 0
142 147 0
143 151 0
146 157 0
140 148 0
145 156 0
144 154 0
144 151 0
150 160 0
148 158 0
148 158 0
141 150 0
148 157 0
150 159 0
148 157 0
149 157 0
154 166 0
153 163 0
152 160 0
148 158 0
152 165 0
146 154 0
151 162 0
147 160 0
154 169 0
154 166 0
153 165 0
154 166 0
157 173 0
153 166 0
153 167 0
156 169 0
152 161 0
164 180 0
159 174 0
158 172 0
161 177 0
157 169 0
154 167 0
159 173 0
156 170 0
160 175 0
159 173 0
157 175 0
163 180 0
164 181 0
162 179 0
163 178 0
162 178 0
165 183 0
164 182 0
162 179 0
164 181 0
160 174 0
165 183 0
161 177 0
167 186 0
165 181 0
160 177 0
161 176 0
167 186 0
164 182 0
158 174 0
168 188 0
163 181 0
168 187 0
175 199 72
174 198 72
173 197 67
171 194 62
173 197 67
175 198 95
176 200 92
174 198 80
172 196 88
170 193 57
173 197 44
174 197 67
170 194 62
172 196 88
172 196 62
171 194 76
174 198 67
172 196 72
171 196 84
170 194 57
173 197 51
174 198 88
172 195 57
170 194 62
172 196 84
168 192 67
167 191 51
172 195 76
171 194 51
174 198 72
170 194 51
169 192 57
166 190 80
171 194 57
169 195 95
172 196 62
170 193 62
171 195 72
172 196 80
167 191 51
167 191 72
169 192 67
171 194 67
170 194 102
171 195 67
167 191 76
169 193 80
169 193 57
169 194 80
165 189 88
173 196 67
172 195 57
168 193 62
171 195 76
169 191 51
165 189 72
170 194 88
163 187 51
168 192 92
167 190 80
173 197 72
167 192 72
169 192 67
167 190 72
166 190 57
171 196 88
169 193 92
173 196 84
164 187 62
168 193 88
166 190 92
167 190 62
166 190 72
170 193 72
163 186 57
143 167 84
88 116 135
92 121 146
94 122 139
91 120 145
93 122 154
92 120 135
87 115 137
89 118 148
102 130 150
83 112 144
87 116 141
89 117 152
83 112 148
99 126 154
94 122 145
92 121 155
96 125 159
96 123 151
101 129 150
99 126 148
86 116 156
103 129 150
97 124 143
108 134 155
101 128 152
99 126 151
108 134 152
92 121 155
87 117 160
88 118 159
95 123 154
81 111 159
73 106 172
76 109 178
71 104 177
82 113 173
75 107 175
73 106 166
79 110 170
88 117 178
85 115 176
78 108 167
69 100 158
61 98 163
61 97 160
61 97 161
61 97 158
61 96 151
63 98 158
63 98 151
61 97 158
63 98 153
59 95 144
58 94 147
59 95 149
66 100 148
63 97 148
61 96 145
65 98 137
61 95 133
59 93 139
59 93 140
59 94 139
61 96 155
59 93 140
61 96 144
59 94 148
61 96 149
60 95 137
61 96 144
61 96 151
60 95 147
59 94 129
59 94 149
60 96 148
60 95 142
62 97 153
59 95 137
60 95 143
60 95 138
60 96 143
60 95 138
59 94 136
61 96 147
61 97 151
59 94 138
60 95 150
60 96 145
61 96 144
61 96 156
61 96 142
61 96 148
61 97 152
60 95 144
60 96 147
61 97 154
62 97 156
60 95 140
61 96 146
60 96 145
60 95 135
60 95 143
61 96 152
62 97 143
62 97 151
60 95 144
61 96 143
63 98 155
61 96 144
60 95 135
60 95 148
59 94 128
60 95 140
61 96 143
59 94 139
61 97 151
61 97 144
61 97 152
61 96 142
60 95 140
59 94 134
60 95 141
61 97 145
61 96 149
61 96 140
61 96 141
63 98 157
61 95 142
61 97 153
60 95 149
61 96 141
61 96 150
61 96 141
60 96 141
61 96 140
62 98 148
61 96 150
60 95 142
61 96 143
61 96 141
61 97 148
61 96 143
60 96 140
62 97 141
60 95 137
60 94 133
60 96 141
61 96 142
59 93 134
60 95 135
60 95 137
61 96 143
61 96 137
60 94 136
60 94 133
61 95 133
60 94 131
59 93 128
60 94 137
59 93 130
59 93 130
60 95 131
59 93 130
60 94 129
59 93 129
59 92 126
60 94 133
59 92 130
59 93 125
60 94 134
58 92 135
59 93 121
58 91 120
57 90 113
58 91 117
60 94 128
57 90 110
84 106 81
106 118 0
127 141 0
123 134 0
108 119 0
105 117 0
125 134 0
129 139 0
117 127 0
123 132 0
111 121 0
119 133 0
120 129 0
118 124 0
128 139 0
122 130 0
126 134 0
117 127 0
113 124 0
122 133 0
120 128 0
124 135 0
123 133 0
127 138 0
115 123 0
128 138 0
123 132 0
127 134 0
119 125 0
123 130 0
123 131 0
121 129 0
129 136 0
106 114 0
123 132 0
117 124 0
133 141 0
124 127 0
127 134 0
134 143 0
120 125 0
116 122 0
128 136 0
118 124 0
136 144 0
117 121 0
132 139 0
128 130 0
125 131 0
124 131 0
128 137 0
131 139 0
121 126 0
135 145 0
124 127 0
132 138 0
131 138 0
126 132 0
130 135 0
132 138 0
130 139 0
134 140 0
127 132 0
138 145 0
132 139 0
133 138 0
139 146 0
126 134 0
140 148 0
147 155 0
137 143 0
136 142 0
135 144 0
136 142 0
144 151 0
141 146 0
138 146 0
135 142 0
147 152 0
139 146 0
135 143 0
143 150 0
134 143 0
143 153 0
151 161 0
146 157 0
150 157 0
146 155 0
146 157 0
150 159 0
150 160 0
143 153 0
152 161 0
149 158 0
154 165 0
145 154 0
153 163 0
152 163 0
147 157 0
157 170 0
152 165 0
153 164 0
146 157 0
152 164 0
152 165 0
162 174 0
153 163 0
157 167 0
155 166 0
150 163 0
158 171 0
151 164 0
155 170 0
154 167 0
159 174 0
154 170 0
156 171 0
159 174 0
156 168 0
166 182 0
154 169 0
156 172 0
159 176 0
161 179 0
156 170 0
160 175 0
160 176 0
161 178 0
161 178 0
160 177 0
161 179 0
160 176 0
162 180 0
164 181 0
163 181 0
160 178 0
167 183 0
163 181 0
165 183 0
167 184 0
162 179 0
171 189 0
166 182 0
165 185 0
164 182 0
162 180 0
165 181 0
172 195 44
175 198 57
173 197 67
172 196 84
175 199 76
173 197 62
172 195 67
173 197 80
174 197 51
172 196 92
174 198 80
172 195 57
173 198 76
173 197 76
169 193 76
171 196 80
169 192 80
173 198 88
176 198 67
172 196 80
170 194 84
172 196 84
173 197 80
168 192 62
170 195 67
172 196 67
172 197 102
171 194 72
170 194 72
171 195 80
173 197 76
169 193 62
170 193 72
171 195 67
170 193 76
171 195 57
172 196 76
170 193 44
171 194 51
169 194 80
169 192 67
173 197 72
164 189 92
171 195 72
169 193 76
172 195 67
169 193 62
170 194 67
172 196 92
168 192 76
166 191 72
174 198 80
166 189 36
171 194 67
172 196 80
168 192 67
169 192 51
168 191 80
162 185 62
165 188 57
171 195 72
167 190 62
166 189 51
168 192 84
165 188 88
167 190 51
166 189 72
163 186 72
168 192 80
168 192 80
168 191 80
167 191 80
166 189 67
168 191 80
167 190 76
172 194 80
118 143 137
89 117 133
91 119 140
90 119 143
85 115 145
76 107 142
85 113 139
88 117 152
89 118 149
94 121 138
103 129 152
97 125 141
84 113 149
91 120 148
101 127 154
95 123 150
86 115 145
86 114 137
97 124 141
106 132 160
101 127 150
92 120 153
94 123 160
108 134 165
105 130 145
111 136 157
108 134 149
92 120 145
93 122 160
94 123 163
100 127 148
85 114 157
79 111 172
69 103 171
74 107 174
74 106 173
77 109 169
77 109 173
74 107 170
93 121 174
77 109 170
80 111 170
72 102 156
69 101 163
61 97 160
62 98 164
61 97 153
61 97 156
61 97 157
60 95 156
60 95 147
61 96 157
62 98 162
63 98 149
60 95 147
66 99 149
67 101 148
58 93 134
62 96 139
60 95 130
58 92 133
60 96 145
60 95 141
59 94 147
58 93 136
61 96 148
60 95 142
61 96 144
60 95 148
58 93 135
59 94 140
60 96 150
61 96 149
61 96 145
59 94 142
60 95 139
60 96 147
59 94 143
60 95 136
59 95 150
60 95 145
61 96 148
60 96 149
60 95 140
60 94 144
62 97 156
60 96 150
61 97 148
61 96 147
60 95 141
60 95 135
60 95 149
61 96 150
59 94 134
62 98 156
60 95 140
61 96 147
62 97 150
60 95 136
61 97 148
62 97 148
61 96 148
60 95 147
61 96 139
60 95 139
61 96 144
61 97 149
61 96 149
60 95 148
61 96 149
59 94 144
59 94 135
61 96 143
61 96 147
60 95 140
61 96 141
62 97 148
61 96 139
59 94 141
60 95 139
59 94 131
62 97 144
61 96 143
61 97 147
61 96 143
61 97 145
61 96 142
62 98 155
61 96 140
60 95 141
61 96 145
61 97 151
61 97 152
61 97 147
61 96 143
61 96 141
60 95 141
61 96 145
61 96 144
60 95 139
60 94 134
60 95 139
60 95 134
60 94 133
61 97 143
60 96 140
59 94 135
58 93 131
60 95 133
60 94 136
61 96 141
61 95 139
60 95 134
59 94 133
60 95 136
60 94 145
61 95 141
60 94 136
61 95 135
59 93 118
61 96 144
60 95 133
59 94 130
59 94 130
58 92 114
59 92 124
59 93 129
59 94 136
59 93 130
60 95 135
61 95 136
57 90 125
59 93 124
58 90 123
56 89 111
56 88 104
60 90 101
119 132 40
119 130 0
123 137 0
114 125 0
102 111 0
119 132 0
125 138 0
120 130 0
127 138 0
119 129 0
111 120 0
118 130 0
121 132 0
117 128 0
121 132 0
119 131 0
131 143 0
114 123 0
118 126 0
122 132 0
121 131 0
112 122 0
124 132 0
128 136 0
132 141 0
112 120 0
128 137 0
117 125 0
121 130 0
117 124 0
116 122 0
123 133 0
125 130 0
133 140 0
137 148 0
134 143 0
111 116 0
121 132 0
128 137 0
127 134 0
122 129 0
127 135 0
130 137 0
135 143 0
131 138 0
132 137 0
124 130 0
130 135 0
127 132 0
122 131 0
124 132 0
136 140 0
140 150 0
136 143 0
134 141 0
125 128 0
141 147 0
132 138 0
128 133 0
136 141 0
135 143 0
125 133 0
138 146 0
129 136 0
137 144 0
131 136 0
139 146 0
139 146 0
144 152 0
133 142 0
135 140 0
138 146 0
140 147 0
146 154 0
138 144 0
139 146 0
144 150 0
129 138 0
139 144 0
148 157 0
147 154 0
147 156 0
144 153 0
148 156 0
148 157 0
149 158 0
147 157 0
143 153 0
138 147 0
154 163 0
154 165 0
142 152 0
151 165 0
143 153 0
150 160 0
150 161 0
154 166 0
157 167 0
151 161 0
150 163 0
151 163 0
149 163 0
149 162 0
162 176 0
153 162 0
157 174 0
149 160 0
154 169 0
157 169 0
154 167 0
156 171 0
154 167 0
152 164 0
156 169 0
162 176 0
158 174 0
158 172 0
159 175 0
163 180 0
164 179 0
163 180 0
157 173 0
158 172 0
160 176 0
159 173 0
164 179 0
163 178 0
163 179 0
159 172 0
166 184 0
159 176 0
166 181 0
162 180 0
163 181 0
163 180 0
158 174 0
164 181 0
163 182 0
167 184 0
166 183 0
160 179 0
161 178 0
163 184 0
162 182 0
164 181 0
158 174 0
164 183 0
170 194 62
170 193 67
173 196 76
175 198 72
173 196 57
168 192 67
174 198 67
175 198 62
171 195 57
176 200 95
173 198 88
173 197 57
173 197 80
172 196 67
174 198 88
168 192 62
168 192 72
171 195 76
174 197 80
172 197 84
172 196 80
173 196 51
173 197 84
173 197 67
171 195 76
167 190 62
169 192 76
171 194 62
171 196 80
172 196 67
172 195 67
171 195 76
172 194 51
167 191 51
170 194 62
169 193 76
166 190 76
169 193 72
168 191 67
174 198 88
169 193 76
173 195 67
169 193 57
167 191 76
167 191 84
170 194 57
169 193 76
168 193 80
166 189 44
169 193 76
168 193 76
167 192 72
166 190 44
165 189 80
168 193 57
168 191 72
165 188 67
166 191 88
169 192 57
169 192 80
164 188 62
165 188 57
165 189 76
165 189 88
166 189 51
171 194 80
166 189 67
166 190 72
165 189 62
164 187 67
163 185 62
168 191 88
168 191 67
166 190 72
167 191 88
167 192 80
150 173 102
96 123 141
90 118 145
93 121 145
82 112 137
100 127 148
98 125 148
93 122 156
94 121 139
100 127 142
99 126 145
88 117 154
98 126 143
99 127 161
82 112 149
98 124 144
97 124 150
92 120 144
101 127 151
91 119 145
105 130 157
85 114 139
109 135 163
100 127 152
92 121 147
89 117 147
111 137 145
104 131 156
103 129 149
88 116 147
82 112 146
85 114 148
94 122 159
78 108 157
86 116 179
87 117 183
84 114 171
82 112 168
74 107 171
92 120 177
62 98 165
80 110 169
66 100 160
70 101 158
63 98 165
61 97 159
61 98 165
60 96 149
63 98 157
61 97 157
61 97 159
61 97 163
63 99 156
60 96 154
61 96 155
67 100 150
64 98 152
63 97 137
66 99 140
62 96 142
70 102 146
64 98 138
60 95 141
60 95 144
60 96 143
58 93 136
61 96 142
58 93 136
59 93 144
59 94 144
60 95 143
58 94 137
59 94 137
60 95 137
59 94 140
60 96 148
61 96 147
59 94 151
61 97 149
61 96 151
60 95 143
61 97 145
61 96 145
60 95 145
59 94 136
61 96 143
61 96 140
61 96 149
60 95 140
60 95 142
60 95 142
60 95 145
61 96 153
61 96 143
61 95 135
59 94 131
60 95 144
60 95 137
58 93 142
61 96 148
59 94 141
61 96 153
60 95 140
62 98 152
61 96 142
60 95 140
60 94 134
60 95 144
61 96 145
61 96 139
60 96 144
61 97 150
60 95 137
61 96 144
60 95 144
61 96 134
62 97 149
61 97 147
61 96 145
61 96 142
62 97 145
61 97 153
60 95 137
61 96 144
60 95 133
61 96 144
61 96 147
60 94 133
61 96 148
60 95 140
60 96 142
61 96 135
62 97 149
60 95 133
61 97 151
61 96 145
60 95 134
60 95 139
60 94 137
60 95 134
60 94 139
61 96 150
60 96 137
61 96 141
61 96 149
60 95 140
61 95 141
60 95 140
60 95 133
61 95 142
60 94 134
59 94 133
60 95 133
60 95 140
60 94 139
58 93 130
60 95 140
58 92 128
60 95 137
60 94 133
59 94 131
60 94 129
60 94 130
60 94 130
58 92 122
59 93 122
60 95 134
58 92 126
59 93 130
60 94 125
57 91 124
60 94 134
58 91 124
58 92 121
58 90 118
55 87 107
95 110 67
110 120 0
116 127 0
113 125 0
130 142 0
126 138 0
124 136 0
132 144 0
123 135 0
117 126 0
111 122 0
124 137 0
125 135 0
112 123 0
119 130 0
126 138 0
135 146 0
132 143 0
113 124 0
119 129 0
126 138 0
120 131 0
118 128 0
119 129 0
122 130 0
120 127 0
114 122 0
127 135 0
131 139 0
118 125 0
124 134 0
128 136 0
124 134 0
124 131 0
126 135 0
125 133 0
125 135 0
128 135 0
132 140 0
131 140 0
128 137 0
115 122 0
123 131 0
133 139 0
127 135 0
127 135 0
126 135 0
123 130 0
122 126 0
126 130 0
120 124 0
131 138 0
131 136 0
131 138 0
142 150 0
129 136 0
139 148 0
130 136 0
127 134 0
135 144 0
130 136 0
129 134 0
134 142 0
136 142 0
132 135 0
131 140 0
138 145 0
140 147 0
141 150 0
138 146 0
126 133 0
142 150 0
149 159 0
146 155 0
140 146 0
142 150 0
140 152 0
136 144 0
142 149 0
138 146 0
145 153 0
148 158 0
149 160 0
143 153 0
146 153 0
139 147 0
147 158 0
143 155 0
152 163 0
150 160 0
154 167 0
143 154 0
153 162 0
148 157 0
153 167 0
150 161 0
140 148 0
150 157 0
147 158 0
157 169 0
154 167 0
150 162 0
151 164 0
155 167 0
152 163 0
152 165 0
156 168 0
149 161 0
152 166 0
149 161 0
159 176 0
156 170 0
157 171 0
161 176 0
161 176 0
160 175 0
159 173 0
158 173 0
158 172 0
156 170 0
161 177 0
160 174 0
161 176 0
159 175 0
156 170 0
161 176 0
162 177 0
163 177 0
161 178 0
164 180 0
164 182 0
162 178 0
160 179 0
158 174 0
164 181 0
159 175 0
161 174 0
164 181 0
162 178 0
162 180 0
157 175 0
165 183 0
161 179 0
162 181 0
161 179 0
165 185 0
162 180 0
162 180 0
172 196 84
171 194 51
176 200 80
174 197 84
170 194 57
169 193 80
171 196 80
173 197 72
173 197 76
170 195 80
175 198 62
174 198 92
169 192 51
172 195 80
171 195 76
171 194 51
172 197 102
171 194 72
174 198 88
172 197 67
173 197 72
172 196 76
171 194 62
174 197 57
170 195 80
167 190 72
172 196 76
172 196 88
171 196 76
172 196 76
171 195 80
168 193 67
171 195 62
169 193 67
171 194 76
166 191 76
171 193 57
161 185 80
167 190 76
170 194 62
174 197 80
167 191 76
170 194 57
169 194 80
171 195 95
169 192 51
168 192 84
169 193 80
169 194 99
171 194 57
170 195 99
167 191 72
163 186 57
166 188 62
168 191 67
165 189 72
170 194 72
171 194 67
168 191 36
165 189 76
169 193 80
164 187 84
166 189 76
167 191 67
171 194 62
165 188 57
164 187 84
171 196 84
165 188 57
169 192 80
166 189 62
163 187 92
162 186 72
167 191 80
161 184 44
165 188 76
166 189 76
112 138 129
95 122 137
94 122 145
97 125 137
89 117 141
93 120 137
90 119 148
88 117 143
88 117 149
102 129 147
86 114 141
92 120 158
97 124 143
97 124 147
105 131 155
87 115 142
89 118 144
91 120 144
99 127 148
101 128 154
92 121 155
102 129 155
102 129 154
100 127 161
99 126 150
109 134 160
111 137 143
107 133 154
91 119 149
73 105 141
85 115 151
91 120 162
82 113 156
76 109 168
83 114 180
77 109 176
73 106 162
74 106 175
85 114 170
85 115 176
75 107 172
84 113 172
77 104 154
71 101 155
67 100 160
63 98 157
61 96 160
61 97 160
60 96 145
60 96 155
60 96 150
62 98 155
60 96 151
59 94 144
61 96 151
61 95 140
63 96 133
62 96 140
60 94 139
65 98 144
61 94 134
60 95 144
60 96 141
59 94 143
59 94 141
59 94 142
61 96 147
59 94 141
59 94 143
59 94 142
60 95 145
59 93 140
59 94 137
60 95 134
60 95 137
60 95 140
60 95 147
61 96 143
60 95 144
62 97 150
59 95 144
59 94 131
60 95 139
61 96 150
59 94 142
59 94 136
60 95 141
60 95 143
60 95 143
60 95 140
60 95 141
60 95 141
60 94 136
61 95 139
60 95 139
60 95 137
61 96 149
60 95 141
61 96 145
61 96 142
61 97 151
61 96 147
61 96 145
61 96 151
61 96 137
61 97 152
62 97 147
61 97 148
61 96 149
60 95 140
61 96 151
60 95 139
60 95 139
62 97 149
60 95 134
60 96 140
59 94 129
61 97 147
61 96 140
61 96 149
61 96 147
61 97 147
59 94 129
60 95 142
61 96 134
59 94 131
60 95 139
60 95 140
60 95 142
60 95 139
61 96 139
62 97 149
61 96 145
59 93 133
60 94 134
59 94 130
60 96 140
58 93 130
61 96 141
59 93 126
59 94 135
59 94 131
60 94 136
61 96 139
59 93 128
62 97 149
59 93 125
60 95 141
61 96 137
60 95 136
60 95 147
60 95 142
59 94 131
60 95 136
61 96 142
61 96 142
60 94 140
61 97 147
58 92 115
61 95 139
60 95 137
59 92 129
58 92 126
59 92 129
60 94 129
60 94 137
60 94 129
60 94 133
59 92 128
59 93 128
56 89 110
57 89 120
58 91 116
58 91 121
68 95 100
111 124 25
119 131 0
126 137 0
131 141 0
120 132 0
109 120 0
119 130 0
111 121 0
118 130 0
120 134 0
123 134 0
120 130 0
118 129 0
116 130 0
128 140 0
116 127 0
118 130 0
129 139 0
123 133 0
138 151 0
126 137 0
119 131 0
118 129 0
128 136 0
123 135 0
130 140 0
121 129 0
115 123 0
124 137 0
119 126 0
125 134 0
123 131 0
130 140 0
115 123 0
128 139 0
130 138 0
124 135 0
123 131 0
129 138 0
130 140 0
116 125 0
122 128 0
128 135 0
128 136 0
128 137 0
130 140 0
121 128 0
131 141 0
129 138 0
126 135 0
133 138 0
133 141 0
136 146 0
141 152 0
138 149 0
133 138 0
137 146 0
141 150 0
129 138 0
139 147 0
133 141 0
130 139 0
131 137 0
140 149 0
135 139 0
130 138 0
136 147 0
142 151 0
137 143 0
136 146 0
141 151 0
148 158 0
136 147 0
143 151 0
140 149 0
132 139 0
141 148 0
140 149 0
147 156 0
139 147 0
141 148 0
143 148 0
150 161 0
147 156 0
143 154 0
148 158 0
143 151 0
145 154 0
145 154 0
144 156 0
146 155 0
151 162 0
147 156 0
151 163 0
143 154 0
140 150 0
150 161 0
146 157 0
155 167 0
158 168 0
158 172 0
155 169 0
151 162 0
160 174 0
152 164 0
156 167 0
156 170 0
157 171 0
156 169 0
157 172 0
152 165 0
158 171 0
152 165 0
158 173 0
159 173 0
161 174 0
160 176 0
152 167 0
160 174 0
161 176 0
157 171 0
163 179 0
157 171 0
156 175 0
162 175 0
160 177 0
165 181 0
165 180 0
167 184 0
164 181 0
162 180 0
160 175 0
163 180 0
165 183 0
164 180 0
165 179 0
164 180 0
167 187 0
164 180 0
161 178 0
162 178 0
165 182 0
165 183 0
164 181 0
162 181 0
165 184 0
165 183 0
167 188 0
172 196 76
175 198 80
171 195 44
175 197 67
169 192 67
174 198 88
172 196 51
170 194 51
171 193 80
171 195 67
172 196 76
171 195 76
171 194 80
171 195 72
172 196 80
172 195 62
171 194 62
171 196 57
167 192 72
167 191 62
171 195 72
173 196 80
171 195 67
171 195 76
168 193 57
172 196 62
173 198 76
172 197 72
168 192 57
172 196 72
172 196 95
168 192 67
171 194 67
170 194 80
169 193 67
172 196 84
170 194 67
166 190 95
169 192 57
169 193 80
169 191 62
165 189 51
171 195 102
170 194 44
167 191 72
170 194 62
166 189 44
166 189 44
171 193 57
166 189 57
166 189 72
165 188 80
161 184 57
170 194 84
168 190 67
169 192 62
161 185 57
169 192 67
160 183 62
162 186 84
169 193 72
164 186 57
165 189 72
170 193 72
167 191 67
165 188 57
164 188 84
167 190 57
164 188 95
169 192 84
161 185 76
170 193 72
167 191 76
162 185 67
168 191 67
163 186 84
167 190 84
150 174 114
80 110 122
96 125 140
89 116 131
88 117 137
95 121 135
92 120 128
100 128 155
99 125 140
93 120 131
87 115 140
102 128 158
96 123 145
76 106 139
85 114 150
93 120 147
96 123 154
91 119 151
95 123 155
95 123 158
100 126 143
102 129 161
97 125 157
98 125 157
94 120 139
95 123 160
91 119 145
98 125 148
98 125 161
95 122 149
85 113 138
87 115 145
89 118 162
85 114 166
80 112 174
79 110 167
79 111 175
74 107 169
92 120 171
85 114 176
74 107 173
90 119 172
74 105 162
77 104 151
73 104 160
60 96 150
60 96 151
63 98 155
60 96 145
60 94 146
60 95 153
59 94 144
61 97 155
59 94 149
61 96 150
59 94 145
65 99 147
67 99 133
61 96 141
64 97 136
59 94 145
67 98 132
58 93 137
59 93 137
60 95 140
60 95 143
60 95 144
59 93 135
59 94 132
59 94 134
60 95 137
59 94 136
60 95 144
59 94 139
59 94 146
60 95 144
59 94 138
61 96 143
60 95 142
60 95 136
61 96 143
60 95 131
61 96 145
60 95 142
61 97 148
61 97 148
61 97 158
59 94 135
61 96 147
59 94 130
60 96 145
61 96 143
61 97 149
61 96 144
60 95 141
60 95 142
60 96 149
61 97 153
59 94 134
61 97 148
62 97 152
61 96 144
61 96 145
59 94 133
61 96 147
60 95 136
60 95 137
61 96 139
61 96 139
60 95 141
60 96 137
62 98 152
61 96 137
61 96 141
61 96 137
59 94 143
61 96 137
60 95 145
60 95 136
60 95 140
61 96 149
60 95 144
61 96 143
60 96 141
63 98 156
59 94 139
62 97 149
61 96 140
61 96 147
61 97 143
60 95 139
60 95 143
60 95 141
61 96 143
61 96 139
59 94 135
60 95 137
59 94 141
61 96 140
61 96 147
60 95 140
61 96 147
61 96 144
60 94 134
59 94 134
59 94 130
60 95 136
60 95 137
61 96 137
60 94 133
61 95 130
61 95 136
59 94 130
60 94 133
59 94 128
60 95 133
60 94 135
60 95 136
59 93 125
60 94 135
60 94 131
60 95 131
60 94 128
58 92 129
60 94 130
61 95 133
59 94 122
59 93 135
58 92 118
59 92 132
58 91 129
56 88 107
57 90 113
56 89 99
93 108 63
112 123 0
108 118 0
114 126 0
124 137 0
129 142 0
124 136 0
122 134 0
111 122 0
125 137 0
126 139 0
118 130 0
124 135 0
121 133 0
123 134 0
119 130 0
132 143 0
127 137 0
122 136 0
119 131 0
130 143 0
131 142 0
124 134 0
117 125 0
123 134 0
125 136 0
118 130 0
125 134 0
120 129 0
122 129 0
115 124 0
118 127 0
126 136 0
120 128 0
114 124 0
128 140 0
121 129 0
131 142 0
121 128 0
128 138 0
135 145 0
126 135 0
126 133 0
127 137 0
128 136 0
129 135 0
134 145 0
134 144 0
125 135 0
141 150 0
127 135 0
132 139 0
138 148 0
138 146 0
140 148 0
140 149 0
134 141 0
134 143 0
134 141 0
123 126 0
134 142 0
133 141 0
138 143 0
133 140 0
148 158 0
141 150 0
134 142 0
143 151 0
142 151 0
134 141 0
140 146 0
137 149 0
137 146 0
137 147 0
145 154 0
142 151 0
143 152 0
152 163 0
146 151 0
145 153 0
147 158 0
151 162 0
144 154 0
147 158 0
142 153 0
144 155 0
142 153 0
150 161 0
148 160 0
148 157 0
144 155 0
148 160 0
149 160 0
150 159 0
151 163 0
152 166 0
155 167 0
153 165 0
150 161 0
146 156 0
153 163 0
154 166 0
157 170 0
158 173 0
153 164 0
153 167 0
154 168 0
145 155 0
160 174 0
159 171 0
158 172 0
158 173 0
155 170 0
159 173 0
158 169 0
153 168 0
150 163 0
158 173 0
162 178 0
160 175 0
156 172 0
161 177 0
152 167 0
162 177 0
161 177 0
159 174 0
164 181 0
157 172 0
159 173 0
159 177 0
162 177 0
162 179 0
162 179 0
164 182 0
162 178 0
166 183 0
162 180 0
162 180 0
160 179 0
162 180 0
161 177 0
167 187 0
167 188 0
160 176 0
165 183 0
169 187 0
164 183 0
166 186 0
166 183 0
171 194 76
169 193 62
170 194 92
173 197 44
171 195 62
169 192 76
174 198 76
170 194 72
170 193 72
170 193 76
169 192 67
175 199 84
171 195 51
169 193 62
171 196 84
169 193 80
167 192 57
170 195 80
173 197 57
171 195 95
169 193 72
172 197 88
168 192 62
168 192 80
169 195 80
169 193 72
165 190 72
167 191 57
170 193 80
173 196 80
165 190 76
165 188 57
168 193 76
167 191 67
168 192 57
165 190 80
171 194 62
163 187 72
162 185 67
165 188 62
167 192 84
170 194 92
171 194 44
166 189 67
171 195 72
169 193 72
168 192 80
164 188 76
168 192 67
167 191 67
167 190 51
170 194 80
168 194 88
168 191 72
169 193 76
165 188 62
163 187 72
168 192 84
164 189 76
165 188 76
165 190 80
163 185 51
166 189 76
172 195 80
171 194 62
168 192 76
165 188 67
166 189 72
168 191 72
161 185 72
159 180 44
168 192 76
165 188 51
167 190 76
163 187 95
165 188 51
169 192 76
163 187 72
130 155 102
99 126 133
89 118 129
95 122 141
91 120 142
88 116 140
89 117 147
99 126 140
92 120 142
85 114 137
93 120 136
94 122 147
80 110 140
84 114 148
96 124 150
104 130 152
100 127 151
94 122 146
106 132 163
94 122 159
91 118 126
89 117 136
93 121 144
106 132 149
97 124 148
107 132 149
93 122 143
94 121 150
110 134 154
94 122 159
85 114 151
75 106 153
92 120 151
93 121 160
76 108 164
71 105 169
79 110 171
71 104 161
76 108 166
77 109 168
90 118 168
85 114 165
71 102 159
75 104 156
75 104 159
62 98 162
62 97 158
61 96 155
61 97 154
60 95 147
61 96 151
64 99 148
60 95 151
60 96 150
59 94 140
60 96 151
66 98 136
67 100 145
60 94 145
66 98 139
62 96 142
61 95 139
60 94 136
59 94 140
60 96 147
59 94 143
61 96 140
60 95 144
58 93 131
60 95 140
60 95 137
61 97 151
58 92 131
60 95 148
60 95 137
58 93 134
60 96 139
60 94 135
60 96 148
59 94 138
60 95 146
60 95 138
59 94 138
61 96 143
59 93 136
60 95 141
60 95 140
61 96 144
60 95 144
59 94 137
61 96 148
59 94 129
60 94 144
61 97 151
61 96 144
61 96 143
60 94 130
60 95 133
60 95 145
60 95 137
60 95 139
62 97 157
59 94 137
61 96 141
60 95 144
59 94 140
61 96 152
61 97 145
60 95 140
62 97 150
60 95 142
59 94 141
61 96 154
61 96 154
62 97 149
61 96 147
60 94 136
61 96 140
60 95 130
61 96 137
59 94 129
60 95 145
61 96 145
60 95 128
62 97 152
59 93 128
59 94 135
61 96 144
60 95 140
61 96 142
60 95 136
58 92 130
61 96 144
60 95 137
60 95 142
60 95 140
61 95 142
58 93 124
61 95 139
61 96 141
60 95 142
61 96 131
59 94 126
61 95 137
60 95 131
61 96 149
61 96 140
59 93 126
60 94 130
60 94 130
61 96 141
60 95 141
60 94 135
60 95 135
60 95 140
59 94 128
60 95 143
60 95 136
59 93 134
60 94 135
58 92 120
60 94 121
59 93 124
59 93 126
57 90 121
59 93 126
59 93 120
59 92 133
57 90 121
58 90 128
58 91 121
57 90 116
84 104 79
118 130 0
108 120 0
102 113 0
120 131 0
128 142 0
121 134 0
116 129 0
113 124 0
126 139 0
129 140 0
120 133 0
123 135 0
123 136 0
121 132 0
112 122 0
130 142 0
120 132 0
116 126 0
125 133 0
121 132 0
120 129 0
124 136 0
122 134 0
123 135 0
127 138 0
113 125 0
122 130 0
115 125 0
115 124 0
132 141 0
125 134 0
122 132 0
125 133 0
128 138 0
123 133 0
125 135 0
126 136 0
126 135 0
127 139 0
130 139 0
133 145 0
123 132 0
124 132 0
126 135 0
133 143 0
134 142 0
128 137 0
136 146 0
130 135 0
129 137 0
136 143 0
136 145 0
130 137 0
133 143 0
141 150 0
134 144 0
126 133 0
146 158 0
143 153 0
138 147 0
142 152 0
142 154 0
135 142 0
136 141 0
140 147 0
137 147 0
138 148 0
133 143 0
142 151 0
143 151 0
146 157 0
141 149 0
142 152 0
138 147 0
137 144 0
138 149 0
140 146 0
140 145 0
149 159 0
146 157 0
142 151 0
148 159 0
144 156 0
145 153 0
145 153 0
153 165 0
152 164 0
147 157 0
149 159 0
145 155 0
151 160 0
153 164 0
148 159 0
146 160 0
146 159 0
146 160 0
153 166 0
147 159 0
150 161 0
152 163 0
156 169 0
152 165 0
155 165 0
151 162 0
156 168 0
158 171 0
156 170 0
153 165 0
156 171 0
158 174 0
155 169 0
159 173 0
156 170 0
157 170 0
159 172 0
157 172 0
158 172 0
159 175 0
159 174 0
159 173 0
159 173 0
159 175 0
150 162 0
156 170 0
162 177 0
164 182 0
160 176 0
158 175 0
159 174 0
161 175 0
159 176 0
161 177 0
163 179 0
164 183 0
165 182 0
158 175 0
158 177 0
164 181 0
164 180 0
159 176 0
166 185 0
163 178 0
168 186 0
165 183 0
162 177 0
165 182 0
163 181 0
164 181 0
168 189 0
174 198 76
168 192 62
171 195 72
172 195 51
174 197 51
173 197 51
173 197 51
170 194 72
172 196 80
172 196 80
172 195 57
171 196 102
168 192 51
173 197 62
170 194 67
174 199 84
171 195 76
174 198 80
173 197 84
171 195 84
172 195 72
171 195 80
168 192 72
167 190 57
172 195 51
172 197 80
169 193 72
169 193 76
169 192 67
169 193 76
168 192 67
172 196 72
168 192 72
169 193 67
167 191 84
172 195 67
172 196 80
170 193 76
172 196 84
169 192 80
165 190 80
168 192 76
169 193 80
166 190 88
170 194 76
163 187 76
168 193 62
168 193 76
171 194 51
170 195 95
164 188 72
166 189 51
167 191 57
167 191 84
167 190 76
168 192 84
162 185 88
170 194 80
165 188 51
170 194 92
163 187 62
164 187 72
168 191 72
167 190 76
171 195 88
169 193 72
161 184 67
162 185 51
160 183 80
163 186 72
166 188 67
164 188 72
158 181 57
161 184 80
159 183 62
164 187 62
165 188 76
169 193 76
164 187 80
94 121 131
96 124 147
94 122 144
89 118 135
89 117 136
97 125 140
92 120 140
94 121 136
93 121 148
100 125 131
102 128 157
87 115 139
83 112 142
92 120 155
96 122 147
86 115 159
95 122 151
90 118 145
85 114 145
83 114 139
87 114 143
93 121 154
91 119 148
91 119 155
110 135 148
101 127 148
96 124 150
105 131 156
103 129 149
88 116 148
78 109 153
94 121 151
94 122 155
82 112 158
74 106 168
82 113 176
71 104 165
77 109 167
79 110 168
71 104 166
83 113 172
68 100 162
71 100 151
74 104 156
63 98 156
60 96 153
61 96 147
61 97 158
61 97 158
63 97 151
61 96 150
62 98 157
60 95 141
59 95 150
60 95 142
60 93 144
64 98 147
65 99 148
62 95 136
60 94 128
66 98 131
58 93 131
59 94 144
60 95 143
58 92 143
59 93 134
61 96 143
60 95 141
60 96 142
59 93 139
60 95 143
59 93 131
60 95 142
60 95 140
60 95 140
59 95 149
59 94 137
60 95 144
60 94 147
60 96 141
59 94 140
60 95 143
61 96 143
60 95 139
60 95 139
59 94 135
60 95 141
62 97 148
60 95 136
60 95 140
61 97 147
60 95 140
61 96 142
59 93 129
61 97 147
60 94 139
59 94 136
59 94 134
60 96 144
60 96 145
60 95 140
61 96 143
60 95 140
60 95 142
60 95 139
60 95 136
60 95 134
61 96 140
61 95 134
60 95 134
61 96 142
59 93 135
60 95 139
60 94 141
60 95 141
60 95 141
60 95 142
61 96 139
61 96 144
60 95 143
61 95 135
61 96 145
59 94 139
60 95 145
60 95 141
60 95 139
60 95 134
59 94 128
60 95 134
60 95 140
60 95 136
59 94 133
59 94 136
60 95 140
61 96 143
59 94 131
59 93 129
60 96 136
58 93 126
60 94 134
59 93 133
60 94 133
60 94 134
60 95 136
59 93 121
60 94 131
60 95 135
59 93 131
59 94 131
61 96 136
58 92 125
59 93 121
60 95 141
59 94 136
60 94 140
59 94 131
60 94 128
60 94 121
59 93 121
60 94 128
60 94 129
59 93 126
59 94 129
57 90 120
57 91 125
58 91 118
58 92 117
59 92 131
55 87 107
57 88 113
59 90 114
115 126 0
120 133 0
126 140 0
117 128 0
120 133 0
123 136 0
119 133 0
117 129 0
119 134 0
116 127 0
119 131 0
130 143 0
128 141 0
126 139 0
127 140 0
120 133 0
121 133 0
122 132 0
127 138 0
127 140 0
127 137 0
116 126 0
134 145 0
122 132 0
127 140 0
125 136 0
112 120 0
128 140 0
120 130 0
129 139 0
132 143 0
132 142 0
135 146 0
119 131 0
129 137 0
135 144 0
129 138 0
121 131 0
127 137 0
121 131 0
129 138 0
134 144 0
121 130 0
130 141 0
134 144 0
127 136 0
132 140 0
133 141 0
127 135 0
138 149 0
135 146 0
132 140 0
135 143 0
128 138 0
132 140 0
127 137 0
134 144 0
138 148 0
138 146 0
129 139 0
141 150 0
140 149 0
141 150 0
142 152 0
136 144 0
142 149 0
137 143 0
139 147 0
138 148 0
135 145 0
134 144 0
143 155 0
142 154 0
140 149 0
151 163 0
139 147 0
151 162 0
143 151 0
140 153 0
147 154 0
148 159 0
140 150 0
153 162 0
143 153 0
146 157 0
147 159 0
154 167 0
153 165 0
152 165 0
155 168 0
145 157 0
147 159 0
153 165 0
148 161 0
152 165 0
150 162 0
151 162 0
149 162 0
153 168 0
155 168 0
157 173 0
155 168 0
153 166 0
152 164 0
158 173 0
155 169 0
150 163 0
158 173 0
154 166 0
155 170 0
160 174 0
161 177 0
157 171 0
156 170 0
161 176 0
153 167 0
163 178 0
159 172 0
160 176 0
156 172 0
161 177 0
154 170 0
153 166 0
160 174 0
162 177 0
157 174 0
157 173 0
163 178 0
163 180 0
165 183 0
160 176 0
162 179 0
160 177 0
161 177 0
164 182 0
166 182 0
164 180 0
165 183 0
165 184 0
160 178 0
163 181 0
164 183 0
157 174 0
163 180 0
166 184 0
166 185 0
167 184 0
166 185 0
171 191 0
163 182 0
173 197 72
171 195 67
168 192 72
174 197 72
174 198 80
173 197 67
173 197 76
172 197 76
173 196 72
172 196 76
171 194 67
172 197 80
171 195 67
169 194 62
168 192 76
175 199 76
171 196 84
170 193 57
171 194 67
170 194 72
172 196 67
169 193 67
173 198 76
171 195 72
169 193 80
174 198 84
169 193 67
174 197 92
169 193 80
169 193 57
170 194 72
163 187 76
167 191 62
171 195 76
169 193 80
167 191 67
169 193 76
169 194 80
172 195 57
169 194 92
171 195 92
169 193 76
169 193 84
168 193 99
166 190 62
168 192 80
166 189 72
165 187 72
173 197 62
168 191 57
164 187 67
168 193 80
164 187 62
167 190 76
165 188 67
165 188 62
167 191 72
171 194 76
166 190 44
166 190 67
167 191 62
162 186 67
168 191 51
158 181 44
162 186 62
165 189 76
165 188 95
164 187 84
164 187 72
161 185 57
164 187 88
167 190 62
161 184 62
160 183 84
159 182 62
161 184 44
168 191 88
168 191 99
165 189 76
128 151 94
88 117 131
94 122 130
84 113 135
83 112 139
91 120 140
92 120 148
87 115 134
90 119 147
98 125 148
98 124 147
102 129 157
100 126 147
94 121 146
91 119 150
101 129 158
104 131 161
94 121 143
85 113 144
96 123 156
86 115 159
82 112 143
94 122 151
89 117 149
98 124 153
96 123 151
95 122 144
91 118 155
98 125 153
102 128 143
86 114 153
96 123 148
93 120 145
87 115 147
88 117 147
80 111 165
72 105 172
80 111 177
72 105 174
85 114 168
72 105 165
75 107 170
68 99 154
79 106 152
70 100 148
65 98 146
61 97 154
60 95 150
61 97 157
60 95 151
61 97 152
60 96 154
60 95 138
60 95 149
60 95 149
63 97 137
62 96 139
65 98 137
68 100 140
62 96 137
61 95 141
62 96 132
59 93 137
58 92 127
59 93 139
58 92 136
59 94 141
60 94 140
61 96 144
57 92 131
60 95 140
61 96 151
59 94 132
62 97 151
59 94 136
60 95 140
58 92 128
59 94 136
60 94 135
60 96 143
60 95 141
59 94 133
60 96 143
60 95 141
62 98 155
61 96 140
60 95 140
60 95 136
60 96 144
59 94 135
60 95 148
60 95 140
61 96 150
60 95 136
59 94 134
60 95 141
61 96 142
60 95 141
61 96 147
62 97 149
61 96 149
58 92 131
61 96 145
60 94 133
58 93 129
61 96 137
61 96 142
59 94 134
62 97 147
61 97 145
59 94 140
60 95 136
59 95 134
61 96 140
61 96 141
59 94 136
60 94 141
59 94 134
60 95 137
61 96 147
60 95 137
59 94 134
60 94 139
60 94 134
60 95 135
61 97 144
60 95 135
60 95 137
59 94 136
60 94 134
59 94 129
58 92 136
60 95 133
59 94 126
59 94 134
60 94 137
60 94 124
61 96 141
60 95 140
61 96 150
60 94 129
60 94 126
60 95 141
61 96 144
59 94 120
60 95 140
59 94 124
59 93 136
60 94 125
60 94 131
60 94 131
60 95 131
61 96 137
61 95 140
59 94 137
58 92 125
59 93 125
58 92 129
59 93 130
58 91 124
58 92 125
58 91 118
59 93 130
59 93 128
60 94 130
56 89 111
59 92 117
58 91 123
58 91 116
55 86 108
92 111 65
113 127 0
122 137 0
126 139 0
111 123 0
116 129 0
125 136 0
123 136 0
116 128 0
130 143 0
116 127 0
131 144 0
122 134 0
111 124 0
116 127 0
126 139 0
132 144 0
120 133 0
121 133 0
123 135 0
129 142 0
120 131 0
124 137 0
131 143 0
134 147 0
127 140 0
130 139 0
112 125 0
129 140 0
126 138 0
127 138 0
128 138 0
133 146 0
115 125 0
126 139 0
135 144 0
127 138 0
128 138 0
137 149 0
136 146 0
127 139 0
128 137 0
124 132 0
124 134 0
127 137 0
135 145 0
139 149 0
125 136 0
131 144 0
122 131 0
134 145 0
142 153 0
139 151 0
140 152 0
137 147 0
130 139 0
138 146 0
142 154 0
128 137 0
124 133 0
143 156 0
136 144 0
142 151 0
139 147 0
145 155 0
141 151 0
144 155 0
147 160 0
139 147 0
143 155 0
146 159 0
142 153 0
130 137 0
144 150 0
142 153 0
147 159 0
144 155 0
146 155 0
143 153 0
148 160 0
140 150 0
144 155 0
149 159 0
144 153 0
151 162 0
155 168 0
147 159 0
152 163 0
152 163 0
155 167 0
148 159 0
150 161 0
153 167 0
145 154 0
149 160 0
151 159 0
154 167 0
148 161 0
152 165 0
155 168 0
148 161 0
158 172 0
151 166 0
150 163 0
144 155 0
148 160 0
161 176 0
156 169 0
154 166 0
150 164 0
156 169 0
158 172 0
162 178 0
156 170 0
154 169 0
155 167 0
156 171 0
159 176 0
158 172 0
158 171 0
161 176 0
158 172 0
156 172 0
160 176 0
162 178 0
157 174 0
161 176 0
157 174 0
157 171 0
160 178 0
158 175 0
157 173 0
162 177 0
161 179 0
159 175 0
157 175 0
158 173 0
160 177 0
162 181 0
165 183 0
165 181 0
164 181 0
164 183 0
166 183 0
162 179 0
163 180 0
165 180 0
162 183 0
162 181 0
165 183 0
161 179 0
173 197 80
174 197 62
173 198 99
173 197 84
174 199 95
174 197 67
173 198 102
173 196 57
170 194 76
169 192 76
173 197 67
172 196 67
171 196 72
169 194 51
170 194 80
172 196 67
173 197 102
173 196 76
169 194 72
172 196 88
169 194 99
170 193 51
172 195 84
171 196 88
173 197 76
169 193 76
171 196 88
167 192 72
170 195 80
170 194 67
166 191 76
168 192 84
165 188 44
171 194 57
169 194 76
169 193 51
167 191 76
172 196 84
170 193 62
168 193 95
170 195 80
170 194 62
169 192 57
163 187 76
166 190 72
169 193 57
169 192 72
169 192 84
162 186 67
167 191 84
170 194 84
167 191 76
168 192 80
165 189 80
167 190 72
164 188 76
165 188 72
162 187 84
161 185 72
161 185 51
170 195 72
168 192 67
162 185 67
165 189 62
166 190 88
160 182 67
167 191 84
166 190 67
163 187 72
163 187 84
168 191 88
167 191 84
153 175 44
162 185 57
162 186 62
164 188 76
164 187 76
156 179 76
160 184 51
167 190 105
106 131 107
92 120 129
94 122 155
94 123 149
79 108 129
102 129 149
101 128 137
91 118 141
87 115 135
86 114 142
96 124 150
94 121 144
89 117 133
92 119 139
87 116 151
89 117 142
92 120 144
79 109 149
97 125 151
95 123 156
93 121 160
92 120 144
94 122 141
90 117 141
95 123 152
98 126 140
105 131 156
96 124 144
98 125 140
98 124 142
80 110 141
91 119 151
77 108 147
87 116 156
78 110 155
68 102 166
71 105 166
69 103 173
68 102 159
69 103 169
82 112 166
79 108 162
65 98 153
73 102 156
79 106 148
67 100 150
61 97 159
63 98 153
61 97 155
60 95 148
60 96 147
60 95 141
61 97 154
60 95 137
60 95 140
61 94 136
62 96 136
66 99 141
59 93 138
66 99 137
60 94 129
58 93 133
60 95 145
59 93 134
60 96 149
59 94 135
60 95 141
61 96 147
59 94 136
59 94 135
59 94 134
59 94 135
59 93 129
60 95 144
61 96 151
61 96 145
59 93 133
60 95 134
60 95 137
59 94 139
59 93 133
60 94 134
61 96 152
61 95 145
59 94 130
60 95 131
58 93 137
60 95 139
61 97 150
60 95 137
59 94 137
61 95 142
61 96 142
61 96 143
59 94 138
60 95 141
60 96 140
60 96 140
60 95 133
59 94 139
61 96 139
60 95 137
60 95 142
59 93 131
60 95 135
60 95 142
61 95 134
61 96 149
61 96 141
60 95 134
59 93 131
60 95 140
60 94 137
60 94 141
61 96 140
60 95 135
60 95 134
59 94 126
61 96 139
61 96 141
59 94 131
60 95 136
60 95 134
60 95 139
61 96 143
60 95 136
60 95 137
61 96 143
60 95 133
62 97 144
60 94 130
60 95 133
60 95 137
60 95 143
61 96 134
60 95 139
61 95 135
60 95 139
59 93 125
61 96 145
60 94 129
59 94 140
61 96 144
59 93 130
60 95 139
59 93 131
58 91 115
59 94 133
59 93 128
59 94 131
60 95 137
59 94 129
60 94 129
60 94 136
60 94 130
58 92 117
59 93 122
58 91 117
59 93 122
59 93 124
59 93 125
57 90 120
58 92 117
56 89 105
57 89 113
58 90 110
59 92 120
59 92 120
84 104 81
112 124 0
115 126 0
114 127 0
121 135 0
117 130 0
122 134 0
122 135 0
116 130 0
122 134 0
113 125 0
121 135 0
116 129 0
119 134 0
131 142 0
125 138 0
121 133 0
119 130 0
122 134 0
123 136 0
121 134 0
123 136 0
126 140 0
113 124 0
133 145 0
131 143 0
143 158 0
121 131 0
132 143 0
123 135 0
135 145 0
130 142 0
129 139 0
122 132 0
130 144 0
134 143 0
131 141 0
124 135 0
129 140 0
132 146 0
130 144 0
135 146 0
138 152 0
128 137 0
125 138 0
132 145 0
139 150 0
132 145 0
133 145 0
131 141 0
129 136 0
135 147 0
129 139 0
138 150 0
131 141 0
133 142 0
134 143 0
139 147 0
141 153 0
140 151 0
136 145 0
130 138 0
142 155 0
142 151 0
139 149 0
134 145 0
139 149 0
136 147 0
138 148 0
141 151 0
138 147 0
136 148 0
141 152 0
139 148 0
141 152 0
146 158 0
147 158 0
143 154 0
143 151 0
138 149 0
142 152 0
139 147 0
144 154 0
141 151 0
146 158 0
145 157 0
151 164 0
147 160 0
152 163 0
151 161 0
151 162 0
143 152 0
146 158 0
148 163 0
151 165 0
155 169 0
150 163 0
147 162 0
155 168 0
151 163 0
150 162 0
153 168 0
147 159 0
156 169 0
147 161 0
156 170 0
154 167 0
158 171 0
151 163 0
155 170 0
156 170 0
148 163 0
153 167 0
158 176 0
158 173 0
160 174 0
158 171 0
155 170 0
154 166 0
154 166 0
160 176 0
157 172 0
159 176 0
160 175 0
164 179 0
159 177 0
152 167 0
160 175 0
161 177 0
165 180 0
160 178 0
163 180 0
161 178 0
163 180 0
159 176 0
164 182 0
159 176 0
162 181 0
159 176 0
166 185 0
160 179 0
167 186 0
164 183 0
160 176 0
168 187 0
165 183 0
166 184 0
166 182 0
167 184 0
166 185 0
164 182 0
164 183 0
175 199 88
175 199 92
172 196 88
173 196 80
171 196 80
170 193 72
171 194 51
171 195 76
171 194 72
172 196 44
175 198 84
173 197 84
168 193 76
172 197 88
169 194 84
171 195 72
174 198 88
172 196 84
172 196 62
171 194 57
169 194 67
167 192 57
170 195 95
171 195 62
172 197 99
171 195 51
170 194 88
173 197 67
165 189 62
170 194 72
169 193 51
172 195 62
172 197 88
166 190 80
167 190 67
165 189 57
169 193 62
162 186 80
167 191 62
169 193 67
168 192 72
168 193 84
163 186 36
169 192 0
167 191 84
166 190 76
171 196 80
165 189 84
168 191 51
165 189 67
167 191 67
164 189 84
165 189 76
164 188 62
169 194 72
167 190 62
168 192 92
170 195 76
163 186 84
165 188 84
168 191 80
164 187 62
171 195 62
164 186 44
166 189 84
164 188 102
167 192 84
166 190 92
165 189 80
160 184 67
162 188 92
164 187 67
165 188 62
165 188 92
166 190 84
166 188 80
160 182 62
162 185 80
162 185 80
162 186 62
139 163 97
84 113 129
94 121 135
80 109 124
90 116 124
89 117 136
89 117 134
87 115 136
93 121 147
98 125 154
95 121 137
86 115 137
93 119 137
98 125 144
100 128 153
98 124 141
102 128 159
94 121 145
104 131 168
77 107 135
97 124 140
98 125 149
98 125 141
93 120 148
103 129 135
107 133 143
107 132 144
104 130 150
115 139 151
99 126 150
93 119 138
83 113 150
87 115 147
80 110 150
88 118 156
80 110 163
74 106 166
79 110 165
78 109 173
77 109 170
81 111 173
79 109 169
73 102 149
81 106 149
73 103 152
76 104 152
61 97 153
60 95 150
64 98 147
61 96 152
61 96 140
60 95 140
60 95 141
58 93 141
59 94 146
60 93 136
65 98 146
65 99 134
59 93 135
65 98 129
58 93 139
64 96 128
59 93 136
60 96 145
59 94 136
58 92 126
59 94 140
58 93 136
59 94 133
59 93 131
58 93 131
58 93 133
59 94 140
59 94 138
59 94 145
60 95 140
60 95 134
58 92 129
58 92 132
61 96 141
59 94 140
59 94 137
60 95 136
58 92 134
59 94 135
59 93 130
60 95 136
60 94 137
61 96 140
62 97 147
60 95 141
60 95 137
61 96 143
60 95 137
62 97 150
61 96 138
60 95 140
60 95 135
60 96 148
60 95 144
61 96 139
61 96 149
60 95 140
60 95 137
60 94 135
59 93 129
59 93 131
60 95 145
61 95 141
59 94 133
61 96 143
61 96 141
61 96 133
60 96 147
61 96 148
59 94 134
59 94 137
59 94 131
61 96 147
61 96 135
60 94 129
61 96 133
61 96 145
60 95 140
61 96 144
60 95 125
60 95 128
60 95 135
59 93 120
61 97 143
60 95 131
58 92 122
60 95 130
59 93 131
60 95 135
59 93 130
61 96 135
60 95 140
58 92 122
59 94 129
60 94 130
60 94 130
59 94 124
59 93 129
61 96 139
59 93 122
59 93 129
60 95 136
59 93 128
60 94 135
59 93 124
60 94 130
60 94 134
59 93 131
59 93 133
58 92 121
59 93 129
57 90 117
61 95 141
58 91 125
59 93 122
59 92 124
59 93 125
58 91 117
59 92 125
57 89 111
56 89 111
64 93 96
117 130 40
112 124 0
113 126 0
123 135 0
119 133 0
120 134 0
120 133 0
133 147 0
127 139 0
115 129 0
130 145 0
128 140 0
107 118 0
122 136 0
129 142 0
126 139 0
110 123 0
134 147 0
135 148 0
121 134 0
126 141 0
119 129 0
129 142 0
120 132 0
131 143 0
134 145 0
122 136 0
130 142 0
127 139 0
113 124 0
130 140 0
123 136 0
131 143 0
133 145 0
127 137 0
118 128 0
122 133 0
122 131 0
134 146 0
135 147 0
128 139 0
116 126 0
130 139 0
126 138 0
136 148 0
130 142 0
140 150 0
132 142 0
138 150 0
128 139 0
131 141 0
127 137 0
135 144 0
142 151 0
135 144 0
136 146 0
130 141 0
139 150 0
136 146 0
138 148 0
123 132 0
135 146 0
133 143 0
138 148 0
142 153 0
139 150 0
134 146 0
140 150 0
142 152 0
132 139 0
143 154 0
145 160 0
146 158 0
142 154 0
147 158 0
139 146 0
145 157 0
132 140 0
140 151 0
143 151 0
143 154 0
141 152 0
144 155 0
156 169 0
150 162 0
151 162 0
153 166 0
151 163 0
157 170 0
147 160 0
143 155 0
150 162 0
150 164 0
153 166 0
150 164 0
152 162 0
149 164 0
150 165 0
155 166 0
152 164 0
154 166 0
151 165 0
148 161 0
154 168 0
151 164 0
157 169 0
154 169 0
155 167 0
157 172 0
154 170 0
155 169 0
160 177 0
151 166 0
159 175 0
160 175 0
154 168 0
159 174 0
153 169 0
155 169 0
161 175 0
159 174 0
153 168 0
148 162 0
158 173 0
161 176 0
163 180 0
157 173 0
154 170 0
156 172 0
163 181 0
158 177 0
162 177 0
159 176 0
160 177 0
162 177 0
163 181 0
162 181 0
158 174 0
164 182 0
160 178 0
165 184 0
155 172 0
159 176 0
165 184 0
161 180 0
164 181 0
157 174 0
162 180 0
165 185 0
160 177 0
161 181 0
163 183 0
173 197 88
171 195 67
173 197 95
171 195 62
169 193 57
174 198 92
172 195 67
171 195 80
170 194 57
172 196 84
176 200 84
173 196 72
169 194 84
172 195 76
170 194 80
172 196 76
170 195 80
172 196 80
168 192 51
170 194 67
170 193 62
173 197 76
172 195 57
169 193 80
172 195 62
171 196 88
172 196 92
166 190 62
167 190 57
169 193 80
168 192 80
170 194 72
166 190 92
168 192 72
167 190 67
172 195 72
165 189 84
164 187 44
164 189 67
171 195 57
166 190 80
163 188 62
169 194 92
164 188 67
167 191 51
168 192 76
166 190 62
166 190 88
170 194 67
166 190 62
161 185 62
166 191 84
162 185 51
163 186 67
167 191 72
165 189 76
162 186 57
166 191 62
166 189 62
164 189 92
164 188 76
161 185 80
164 187 80
165 189 67
163 187 62
162 185 57
161 184 57
164 188 76
164 187 88
155 178 44
162 185 72
161 184 95
157 180 67
158 181 67
166 189 57
161 184 44
160 183 57
165 187 62
159 182 67
157 181 62
160 184 62
121 145 115
84 113 130
85 114 128
105 132 147
84 112 131
76 106 126
94 122 145
88 116 130
92 120 134
92 120 142
88 117 147
93 120 133
93 121 149
98 124 140
103 128 140
108 133 140
90 118 151
102 129 149
110 134 155
91 119 148
98 125 153
98 123 137
95 122 150
100 127 143
93 121 144
106 131 147
107 133 143
99 126 153
106 131 142
99 125 128
97 123 150
79 109 143
97 125 142
85 113 135
84 114 160
68 102 170
87 117 176
68 103 166
80 111 166
77 109 170
74 106 162
75 107 165
66 100 159
75 104 153
76 104 150
60 96 151
61 97 155
61 96 150
61 97 147
61 97 149
60 95 145
59 94 143
59 95 144
59 94 137
60 95 148
63 97 145
65 98 140
63 97 131
62 96 140
61 94 128
66 98 135
59 94 140
60 95 145
59 93 137
60 96 144
59 94 141
60 95 145
59 93 144
59 93 134
59 94 131
59 93 134
59 94 135
57 91 133
60 95 137
59 94 137
58 93 125
60 95 147
60 95 144
59 93 139
60 95 141
59 94 144
60 94 140
61 95 136
60 95 142
59 94 135
60 94 139
59 94 132
60 94 135
59 94 134
60 95 144
61 96 145
61 96 141
60 95 135
61 96 143
59 94 133
60 95 137
60 95 139
59 94 139
59 94 128
60 95 141
60 94 140
61 96 142
61 96 137
60 95 137
59 94 140
60 95 140
60 94 141
59 94 137
62 97 149
61 95 139
61 96 137
61 96 144
61 96 142
61 95 136
60 95 135
60 94 133
60 95 136
60 94 134
60 95 130
59 94 139
61 96 142
60 94 132
59 93 126
58 92 124
61 96 139
60 95 136
60 94 140
61 95 133
60 95 136
60 95 139
60 95 140
59 94 133
60 94 136
60 95 134
60 94 135
59 94 129
60 94 126
60 95 129
59 93 128
60 95 137
60 94 133
60 94 129
60 94 131
59 93 135
58 93 120
59 93 125
58 92 121
59 94 128
58 92 113
60 94 134
60 94 133
59 93 118
61 96 136
59 93 130
57 90 120
57 90 111
58 92 114
59 93 126
58 92 124
58 91 118
58 91 126
59 93 124
59 92 118
57 90 120
55 87 108
56 88 108
105 121 47
110 124 0
119 133 0
122 137 0
117 129 0
128 142 0
123 136 0
129 141 0
118 131 0
115 128 0
111 124 0
115 129 0
122 137 0
118 131 0
121 134 0
124 139 0
125 139 0
112 124 0
124 137 0
127 140 0
127 141 0
132 143 0
124 138 0
124 138 0
123 134 0
142 152 0
132 147 0
127 139 0
130 145 0
127 141 0
119 133 0
131 144 0
130 143 0
124 137 0
135 148 0
127 139 0
132 144 0
133 142 0
121 132 0
146 160 0
128 140 0
125 137 0
139 152 0
131 143 0
132 144 0
132 145 0
134 145 0
135 149 0
133 143 0
128 140 0
133 145 0
138 148 0
131 140 0
127 137 0
131 143 0
139 149 0
131 143 0
138 149 0
149 159 0
121 130 0
133 143 0
130 139 0
136 147 0
135 149 0
146 158 0
147 160 0
133 139 0
137 148 0
147 158 0
142 152 0
143 156 0
134 142 0
150 164 0
144 154 0
142 153 0
139 148 0
144 156 0
136 147 0
152 165 0
147 159 0
152 165 0
146 160 0
147 159 0
143 157 0
146 159 0
149 161 0
153 166 0
144 157 0
147 158 0
144 153 0
146 158 0
154 168 0
155 165 0
147 160 0
147 162 0
153 164 0
149 160 0
142 155 0
153 165 0
147 159 0
151 163 0
152 166 0
150 166 0
159 171 0
153 167 0
156 171 0
155 170 0
156 171 0
154 169 0
151 165 0
155 169 0
157 171 0
153 168 0
158 173 0
155 171 0
158 171 0
155 171 0
155 170 0
158 173 0
159 173 0
159 173 0
154 171 0
159 174 0
160 177 0
162 179 0
162 178 0
158 174 0
160 178 0
163 180 0
160 177 0
159 175 0
158 175 0
160 175 0
162 179 0
166 183 0
159 175 0
160 176 0
159 176 0
165 181 0
163 181 0
158 175 0
164 183 0
161 177 0
163 182 0
164 182 0
166 184 0
166 184 0
163 180 0
166 184 0
160 178 0
167 187 0
160 177 0
168 188 0
170 194 72
170 194 51
174 198 67
170 193 51
172 196 80
167 192 62
171 195 62
174 198 76
172 196 84
169 194 72
170 195 80
169 194 57
172 196 76
171 195 76
171 195 76
173 199 95
168 192 95
170 193 62
172 197 76
171 195 67
168 192 72
170 194 72
170 195 84
175 198 67
166 190 57
171 194 62
167 190 80
168 193 67
167 192 102
168 191 57
168 193 80
169 193 67
168 192 72
165 190 88
165 189 44
169 193 57
168 193 80
167 192 92
166 191 88
166 190 67
167 191 51
169 193 84
168 191 62
168 192 72
168 193 80
167 192 76
169 193 80
168 192 72
163 188 72
169 193 62
165 189 67
165 189 72
167 192 67
156 181 72
167 191 76
165 188 67
166 189 92
168 191 67
161 183 57
162 185 57
162 186 57
165 189 76
166 190 67
162 186 62
161 185 72
164 187 67
161 184 62
163 187 80
163 186 57
162 186 88
159 182 67
165 188 65
161 185 62
162 185 76
163 186 62
159 183 80
163 188 95
154 177 62
160 183 80
164 187 92
152 175 62
157 180 94
109 134 131
99 126 131
88 117 134
93 121 134
98 124 128
84 113 140
90 119 141
82 112 142
93 121 144
91 119 147
92 119 146
90 119 146
91 118 139
85 113 145
100 126 151
95 122 150
91 118 136
92 119 141
96 123 151
101 127 150
91 118 131
93 120 150
81 110 147
81 110 144
98 124 149
93 121 141
103 128 136
98 124 143
93 120 131
99 125 132
90 117 141
98 125 154
100 126 147
81 111 153
77 108 153
77 109 170
69 103 169
83 113 171
68 102 165
82 112 161
79 109 152
72 102 160
71 102 155
74 103 149
81 107 153
63 98 158
59 94 144
60 96 148
60 95 148
60 95 148
59 94 141
60 95 145
62 97 153
61 96 144
60 94 138
66 100 140
63 97 134
60 95 143
63 96 139
67 99 131
65 98 138
60 95 141
58 92 133
59 93 135
58 92 126
59 93 135
58 92 129
59 93 136
60 95 143
59 94 134
58 92 137
60 95 140
60 95 136
60 94 141
59 94 137
59 93 130
59 94 129
59 94 134
59 94 131
60 94 133
60 94 130
60 95 139
60 94 133
59 94 132
61 96 136
60 95 140
60 94 140
61 95 139
59 94 139
60 95 136
60 95 144
60 95 139
60 95 140
60 95 129
60 94 135
61 96 139
60 94 129
59 94 144
59 93 129
61 96 148
61 96 140
60 94 136
62 97 144
60 94 133
59 94 133
59 93 134
60 95 143
60 95 140
60 95 133
60 95 134
60 95 140
60 95 141
59 93 128
61 96 139
59 94 130
59 93 129
59 93 133
60 95 141
60 94 128
60 96 134
60 95 140
59 93 125
60 94 135
61 95 136
59 94 130
60 95 138
59 94 129
61 95 139
58 92 125
60 95 131
60 95 133
59 94 128
60 95 131
60 94 129
60 95 130
60 95 129
60 95 131
61 96 145
60 95 137
59 93 136
61 95 137
60 94 129
59 94 130
59 93 133
59 93 120
59 94 120
59 93 126
60 94 128
60 95 128
58 92 126
57 91 115
58 92 125
59 93 129
58 91 111
57 91 117
59 93 133
57 90 110
59 93 128
58 92 122
58 91 130
59 93 114
56 89 111
56 89 111
57 89 120
104 125 70
106 121 0
113 127 0
122 136 0
115 128 0
116 130 0
122 136 0
119 134 0
112 126 0
127 140 0
122 133 0
119 130 0
122 134 0
126 139 0
115 126 0
131 145 0
119 131 0
108 121 0
123 135 0
118 131 0
128 136 0
121 135 0
129 139 0
126 139 0
133 147 0
131 144 0
113 125 0
119 131 0
126 139 0
132 144 0
133 143 0
114 123 0
125 138 0
122 134 0
122 135 0
131 145 0
131 146 0
132 147 0
126 135 0
132 143 0
134 147 0
140 153 0
139 153 0
132 144 0
130 142 0
130 143 0
132 142 0
133 145 0
137 152 0
141 154 0
132 142 0
140 150 0
142 154 0
136 148 0
137 146 0
131 143 0
141 152 0
133 146 0
142 154 0
127 139 0
145 157 0
139 149 0
138 147 0
139 149 0
136 149 0
145 157 0
139 150 0
141 155 0
146 160 0
149 162 0
146 157 0
141 152 0
138 149 0
139 152 0
145 155 0
138 150 0
144 157 0
145 156 0
145 156 0
146 158 0
146 160 0
152 166 0
143 151 0
146 159 0
149 161 0
149 162 0
144 155 0
155 169 0
150 165 0
151 164 0
143 154 0
145 159 0
147 159 0
150 163 0
155 169 0
149 162 0
153 168 0
151 165 0
148 161 0
152 166 0
153 168 0
154 166 0
153 166 0
153 166 0
162 179 0
153 167 0
155 169 0
153 169 0
153 166 0
160 175 0
156 170 0
156 171 0
156 170 0
154 169 0
158 172 0
161 178 0
157 172 0
154 169 0
155 171 0
156 171 0
158 174 0
160 175 0
157 174 0
161 176 0
163 180 0
163 180 0
157 173 0
161 178 0
161 177 0
159 178 0
159 176 0
159 176 0
161 178 0
160 178 0
158 174 0
161 179 0
159 176 0
165 182 0
157 171 0
161 177 0
164 183 0
167 189 0
162 179 0
163 180 0
156 175 0
160 177 0
162 180 0
164 182 0
163 182 0
165 182 0
160 179 0
160 179 0
162 179 0
168 185 0
170 194 72
171 195 62
173 197 72
172 195 51
174 197 102
166 190 62
171 195 95
169 193 72
173 197 67
171 194 36
172 196 62
167 192 92
171 194 76
170 194 67
168 192 62
170 195 80
168 192 88
172 196 67
173 196 72
171 194 62
170 194 62
169 194 80
169 193 72
168 193 76
170 194 67
170 194 72
173 196 92
168 191 57
168 191 80
168 191 62
166 191 95
166 190 62
171 195 80
167 191 57
176 200 80
165 190 62
168 192 72
170 194 84
164 188 36
169 193 72
167 192 76
165 189 84
168 193 92
167 192 80
169 194 72
172 196 72
164 189 76
167 191 72
167 190 76
164 188 67
166 190 76
167 191 76
167 191 67
161 186 76
169 194 95
167 191 92
168 191 62
168 191 62
167 190 57
166 190 80
163 186 72
158 181 51
163 188 72
160 184 67
159 182 72
163 187 84
165 188 76
157 180 80
159 183 57
164 188 88
162 185 84
157 179 72
154 177 67
164 187 80
161 184 84
157 181 67
164 187 72
160 184 76
155 178 84
157 180 67
156 180 76
154 177 80
134 157 108
74 104 133
83 112 126
95 122 129
95 123 135
85 113 122
91 118 128
96 123 139
96 123 126
86 114 125
93 120 134
82 110 136
86 114 134
90 118 155
80 110 139
94 122 156
95 123 136
100 127 140
87 115 140
97 124 140
109 134 155
102 128 147
97 123 156
102 128 147
100 127 158
94 120 144
100 126 142
102 128 137
99 125 145
97 124 137
96 122 134
100 125 149
87 115 139
84 114 150
74 105 141
82 112 164
88 117 178
77 109 165
78 109 170
83 113 171
87 115 159
70 102 161
66 99 147
65 98 156
72 102 157
78 105 148
63 97 146
61 96 148
63 98 151
60 96 147
60 95 146
62 96 147
61 96 143
61 95 140
60 95 144
61 95 135
64 98 149
59 93 129
68 101 144
66 98 120
69 102 144
60 94 137
59 93 124
58 92 122
59 93 131
61 96 142
59 94 141
60 94 135
59 93 137
59 94 130
60 95 139
59 94 131
59 94 135
60 95 137
59 94 143
60 95 135
59 94 133
59 94 132
60 95 140
59 94 130
59 93 130
60 94 131
59 93 132
60 95 139
59 93 129
61 95 139
59 93 126
60 95 136
60 94 134
60 96 143
61 96 144
59 93 134
61 96 142
60 95 133
59 93 131
60 94 135
60 94 131
58 93 130
61 96 139
60 95 142
59 93 132
60 95 145
60 95 142
60 95 139
60 94 129
59 94 134
59 93 128
61 95 136
60 95 137
60 95 135
60 95 140
60 95 137
60 94 133
61 96 140
60 95 140
59 94 122
59 93 136
60 95 143
61 96 137
58 92 120
58 92 131
61 96 140
60 94 135
60 94 129
59 94 126
61 96 141
60 95 134
60 94 133
59 94 134
61 96 136
60 94 124
61 96 142
59 94 121
60 95 137
60 94 130
58 92 125
60 95 142
59 93 134
58 92 126
59 93 130
61 95 134
61 96 144
60 94 136
60 94 134
59 93 128
59 94 137
58 92 118
57 91 113
60 94 122
58 91 125
58 92 130
57 91 113
58 92 121
56 89 111
58 91 120
57 91 118
58 92 117
57 90 115
58 92 126
57 89 112
59 92 125
56 89 100
56 89 107
71 95 84
118 131 25
107 120 0
119 130 0
114 128 0
124 137 0
121 133 0
112 124 0
123 138 0
125 136 0
128 141 0
123 138 0
119 133 0
129 142 0
123 136 0
114 128 0
130 142 0
126 138 0
130 142 0
120 133 0
125 137 0
126 139 0
128 143 0
132 145 0
126 141 0
126 138 0
140 155 0
130 142 0
137 152 0
130 143 0
126 137 0
130 143 0
126 139 0
126 140 0
137 150 0
128 139 0
126 140 0
131 143 0
127 140 0
130 143 0
125 137 0
125 137 0
134 147 0
135 149 0
138 149 0
127 136 0
127 139 0
141 153 0
131 145 0
134 145 0
136 151 0
132 141 0
135 146 0
130 141 0
140 151 0
132 144 0
137 149 0
132 145 0
133 144 0
138 148 0
141 153 0
141 154 0
136 146 0
143 154 0
134 146 0
136 146 0
142 154 0
144 155 0
137 150 0
143 156 0
145 160 0
152 166 0
145 157 0
135 145 0
134 146 0
141 154 0
141 152 0
147 160 0
146 157 0
143 158 0
147 158 0
149 161 0
147 161 0
145 156 0
143 157 0
154 165 0
145 156 0
138 151 0
144 158 0
149 160 0
148 159 0
153 168 0
146 159 0
149 162 0
149 161 0
149 161 0
153 166 0
151 166 0
150 161 0
148 164 0
154 167 0
158 174 0
159 174 0
152 166 0
159 175 0
150 164 0
149 160 0
148 161 0
153 167 0
155 169 0
155 169 0
150 164 0
165 181 0
155 170 0
154 168 0
160 174 0
158 174 0
161 177 0
158 175 0
158 174 0
158 174 0
155 170 0
162 178 0
157 172 0
165 180 0
159 175 0
159 176 0
159 178 0
160 178 0
164 181 0
161 179 0
158 173 0
155 172 0
161 177 0
163 179 0
162 180 0
159 175 0
162 178 0
160 178 0
164 182 0
159 178 0
163 179 0
165 184 0
161 180 0
156 175 0
159 177 0
162 179 0
166 185 0
160 177 0
165 183 0
164 182 0
161 179 0
165 185 0
164 183 0
164 183 0
172 196 57
172 196 76
173 197 62
166 190 72
171 196 76
173 198 67
171 196 76
171 195 62
169 194 76
171 195 67
173 196 99
168 193 80
169 194 72
168 191 62
171 195 88
171 195 67
169 193 62
169 193 84
166 191 57
168 193 67
169 194 84
169 194 62
170 193 76
165 189 51
168 192 76
169 194 92
167 191 67
171 194 67
168 192 67
168 193 72
168 193 67
167 190 51
166 190 57
170 194 62
171 194 72
169 193 80
169 194 62
163 187 57
168 192 72
165 189 80
170 194 76
167 192 84
164 189 67
165 189 44
165 189 67
166 191 67
167 191 51
171 196 80
166 190 84
165 189 72
168 192 67
167 191 76
165 190 72
164 188 84
162 186 76
166 189 62
162 186 57
163 187 62
166 190 62
167 191 72
161 185 72
167 191 80
162 186 84
163 187 80
160 185 67
165 188 88
163 186 67
156 180 62
163 187 88
160 183 84
161 185 80
158 181 62
162 186 57
162 184 76
162 186 80
160 182 67
161 184 72
165 188 76
160 183 88
158 181 76
162 185 92
162 185 84
160 183 88
113 138 121
83 112 134
89 117 143
90 117 126
93 120 136
86 114 141
103 129 144
95 121 136
91 119 140
104 131 148
96 123 146
87 116 147
97 123 139
84 112 137
105 130 148
90 118 142
88 115 133
105 130 147
106 131 136
92 119 141
107 133 162
94 121 142
88 116 140
94 122 153
111 136 144
95 122 147
105 130 146
96 122 144
101 127 129
88 116 130
96 121 147
95 122 140
83 113 156
91 119 153
95 122 151
84 114 170
69 102 160
68 102 163
77 108 165
73 105 160
71 104 162
70 101 150
68 99 151
68 99 140
71 102 153
74 105 158
62 97 153
61 97 150
61 97 157
60 96 149
60 95 147
62 96 147
59 94 136
59 94 131
62 96 136
62 97 140
61 94 128
64 97 140
59 92 120
62 97 134
70 102 134
57 91 129
57 92 133
60 95 139
58 92 124
58 91 134
59 94 136
60 94 127
59 93 129
59 93 126
59 93 130
59 93 128
60 95 137
60 95 139
59 93 129
59 93 134
58 93 129
58 93 122
59 94 139
61 96 145
60 95 137
60 95 142
60 95 143
59 93 134
59 93 126
59 93 125
61 95 136
60 94 130
60 95 141
60 95 137
59 93 138
59 93 136
60 94 139
59 94 131
61 96 139
61 96 137
61 96 136
60 95 139
59 94 126
60 95 140
60 94 139
61 95 140
59 93 125
60 95 139
59 93 133
58 93 124
60 95 137
60 95 133
60 94 125
59 94 134
58 93 124
60 94 135
59 93 126
61 96 142
59 93 129
61 95 133
59 93 133
60 95 140
60 95 128
59 93 121
60 94 133
59 94 136
59 94 122
60 95 131
60 94 134
59 93 134
60 94 130
61 96 139
59 93 130
59 93 130
59 94 118
61 96 142
59 93 121
59 93 124
59 94 130
60 94 133
59 93 131
60 94 130
60 94 125
59 93 125
60 94 130
58 92 131
58 92 126
59 93 131
59 93 126
58 93 122
59 92 129
60 94 129
59 93 131
60 94 128
56 89 113
59 93 125
59 93 125
57 90 115
57 91 121
58 91 120
57 90 122
57 91 108
55 87 108
54 86 102
55 88 100
71 99 90
122 136 0
117 130 0
113 126 0
119 134 0
124 138 0
122 135 0
115 128 0
125 139 0
129 143 0
125 139 0
121 135 0
114 129 0
114 128 0
113 128 0
120 134 0
128 142 0
119 132 0
123 138 0
124 136 0
124 136 0
129 140 0
117 130 0
126 141 0
129 144 0
131 147 0
126 139 0
130 146 0
122 134 0
132 147 0
138 151 0
131 145 0
124 135 0
123 135 0
131 145 0
121 131 0
132 148 0
135 148 0
138 152 0
137 148 0
127 142 0
136 149 0
137 150 0
134 148 0
127 142 0
144 158 0
142 155 0
137 150 0
130 142 0
139 151 0
132 144 0
139 152 0
147 161 0
139 151 0
141 155 0
127 140 0
140 155 0
135 148 0
138 152 0
139 151 0
133 143 0
143 156 0
149 164 0
147 158 0
141 153 0
131 145 0
139 153 0
147 159 0
141 152 0
130 141 0
143 156 0
146 160 0
141 155 0
140 153 0
143 156 0
149 163 0
152 163 0
145 157 0
143 158 0
141 154 0
133 146 0
156 168 0
148 162 0
151 165 0
149 159 0
154 169 0
152 166 0
153 167 0
149 163 0
153 167 0
151 162 0
147 157 0
151 165 0
153 168 0
151 165 0
150 164 0
154 169 0
154 169 0
142 154 0
155 168 0
144 158 0
155 170 0
152 165 0
154 170 0
154 170 0
154 169 0
158 173 0
156 171 0
156 171 0
156 171 0
155 168 0
155 168 0
156 172 0
159 172 0
155 170 0
157 173 0
158 174 0
152 168 0
154 169 0
157 173 0
157 172 0
154 168 0
157 172 0
162 178 0
158 175 0
161 177 0
159 175 0
160 176 0
162 178 0
153 169 0
166 183 0
158 176 0
160 177 0
162 178 0
158 175 0
165 180 0
156 172 0
160 179 0
159 177 0
160 177 0
163 180 0
166 186 0
158 175 0
163 182 0
165 183 0
158 176 0
166 184 0
164 183 0
163 183 0
165 186 0
163 183 0
164 183 0
167 187 0
166 187 0
167 185 0
167 186 0
172 195 57
172 196 44
174 198 76
171 195 67
173 197 84
172 196 92
170 194 88
170 193 76
167 191 67
165 189 62
173 196 80
170 194 76
168 193 88
171 195 80
168 193 76
171 195 76
171 194 57
172 197 80
169 193 51
172 196 84
172 196 72
168 193 67
169 193 51
170 195 80
172 196 80
167 191 62
169 192 67
167 192 72
171 194 72
168 192 62
167 191 62
169 193 92
171 194 88
164 189 84
172 196 76
168 192 67
163 187 67
167 191 62
162 187 72
169 193 57
164 188 72
163 187 57
167 192 95
166 191 62
165 189 72
166 190 62
167 192 76
166 190 67
162 185 62
165 189 62
167 192 84
165 188 51
168 193 88
165 188 80
162 186 51
166 189 72
158 180 62
166 189 57
163 186 67
162 186 80
163 187 72
164 188 88
158 183 76
160 184 67
163 187 72
162 186 76
162 185 72
159 183 76
164 187 67
162 186 88
158 181 51
158 181 47
153 176 62
162 184 76
162 186 67
160 183 80
164 188 88
162 185 67
155 178 57
162 185 72
164 185 67
155 178 67
160 183 80
154 175 84
96 122 111
78 107 115
83 112 122
91 119 132
89 117 141
85 113 125
81 111 133
89 116 135
86 114 136
80 109 137
92 119 136
83 111 140
93 120 140
87 114 142
85 112 141
85 114 133
89 116 130
90 117 135
99 124 142
101 126 149
87 115 146
101 126 141
90 118 149
101 127 140
97 124 133
103 129 144
98 124 141
101 127 147
98 124 136
86 115 137
97 123 130
90 117 141
83 112 137
95 121 144
79 109 158
68 102 162
77 109 164
83 113 174
77 108 159
90 118 164
80 110 167
73 102 149
75 103 140
63 97 145
69 100 142
64 97 137
62 97 155
63 97 148
60 95 145
61 97 150
61 97 152
59 93 143
59 94 139
59 93 129
58 92 128
63 97 131
64 97 136
65 98 134
68 101 141
70 100 126
58 92 131
58 93 129
58 92 129
59 93 134
60 94 136
59 94 136
60 95 140
58 92 133
61 96 144
57 92 122
60 95 140
61 95 139
59 93 131
60 94 138
59 94 130
60 95 136
60 95 140
60 94 134
60 94 133
60 95 137
59 93 128
61 96 144
60 94 135
59 94 133
60 96 143
60 95 137
59 94 136
60 95 137
59 94 130
59 94 133
60 95 139
60 94 129
61 96 143
59 94 136
61 95 140
60 95 133
60 95 141
59 93 133
59 93 134
59 94 137
62 96 148
58 92 122
59 94 137
60 95 130
61 96 147
60 95 140
58 93 128
60 95 136
59 94 135
59 94 130
60 95 141
58 92 131
60 94 133
61 97 147
60 95 133
60 95 133
59 94 126
60 94 141
59 93 130
60 94 140
58 92 120
58 93 125
59 94 128
61 96 139
60 94 133
59 94 131
59 93 133
59 94 130
58 92 122
60 94 125
60 94 141
60 94 130
58 91 121
60 94 136
61 96 142
59 93 125
60 94 129
60 94 133
58 91 124
59 93 125
60 95 131
59 93 124
58 92 114
60 95 136
58 92 107
59 93 128
59 94 126
59 93 126
60 94 137
58 92 121
57 90 117
58 92 118
59 92 121
58 92 120
59 92 124
55 88 102
56 88 117
55 88 102
56 89 114
56 88 112
103 120 47
122 137 0
117 130 0
124 136 0
126 140 0
124 138 0
122 136 0
122 135 0
117 132 0
128 141 0
124 138 0
114 125 0
119 133 0
121 136 0
125 139 0
123 136 0
123 138 0
126 141 0
120 134 0
121 134 0
117 127 0
127 143 0
123 138 0
121 134 0
121 136 0
132 146 0
134 148 0
125 141 0
125 137 0
123 138 0
133 146 0
130 147 0
128 141 0
130 143 0
136 149 0
132 144 0
140 153 0
125 137 0
139 154 0
126 138 0
136 146 0
139 153 0
136 152 0
130 144 0
137 151 0
128 139 0
131 143 0
129 139 0
132 146 0
141 155 0
138 150 0
136 152 0
125 135 0
134 146 0
143 159 0
137 149 0
137 149 0
138 152 0
143 160 0
137 149 0
138 149 0
142 155 0
137 149 0
145 159 0
139 153 0
146 158 0
141 153 0
144 159 0
140 153 0
141 154 0
136 149 0
145 158 0
148 162 0
148 164 0
139 153 0
144 154 0
150 162 0
149 162 0
145 159 0
146 160 0
142 155 0
144 157 0
146 158 0
155 168 0
148 161 0
152 165 0
153 168 0
158 172 0
150 163 0
155 170 0
149 161 0
147 160 0
152 166 0
142 156 0
145 157 0
141 155 0
155 168 0
155 169 0
151 166 0
159 174 0
155 169 0
152 166 0
149 164 0
154 169 0
151 166 0
148 162 0
152 168 0
159 173 0
156 169 0
153 168 0
151 167 0
151 166 0
154 170 0
162 179 0
157 173 0
161 178 0
158 173 0
159 174 0
163 180 0
160 177 0
159 176 0
159 175 0
155 170 0
156 171 0
154 168 0
156 173 0
160 179 0
157 176 0
161 178 0
164 182 0
161 177 0
159 176 0
159 175 0
162 180 0
167 184 0
158 175 0
158 178 0
160 178 0
161 179 0
162 179 0
162 180 0
161 180 0
162 180 0
169 189 0
166 185 0
163 181 0
165 184 0
165 182 0
162 182 0
163 180 0
161 180 0
163 182 0
166 185 0
166 187 0
166 185 0
162 182 0
170 195 51
168 192 62
171 195 62
172 196 76
166 190 36
170 193 62
173 197 92
170 193 51
174 197 44
170 194 99
168 192 80
170 195 51
172 196 76
167 192 72
168 192 72
170 195 84
166 191 80
168 193 76
169 193 57
170 194 92
169 192 57
165 189 57
170 194 92
166 190 62
171 195 80
171 195 67
171 196 72
169 193 72
166 190 57
167 191 67
168 193 92
169 194 67
166 190 72
167 190 44
165 189 80
167 191 84
167 193 88
164 187 67
174 198 67
173 197 57
164 188 36
170 194 84
168 191 67
170 195 84
168 192 80
167 192 76
169 194 72
163 188 57
165 189 72
166 191 80
163 186 67
165 189 72
165 189 62
166 190 51
170 194 76
167 191 67
157 181 76
165 190 92
164 188 92
157 181 62
165 189 67
166 189 76
161 184 62
161 183 44
162 186 92
158 181 57
158 181 57
167 191 84
160 182 51
159 181 67
160 183 67
163 186 84
158 181 67
160 184 76
166 189 57
158 181 57
163 185 84
154 176 76
164 187 62
156 179 67
157 179 36
156 179 72
154 178 62
155 178 95
138 162 81
95 122 133
80 110 126
84 112 114
90 118 142
93 120 140
91 118 144
85 112 133
87 115 133
97 124 137
92 119 137
94 121 139
94 121 147
104 130 154
92 119 140
97 124 152
86 114 139
101 126 132
90 117 149
87 116 145
84 112 131
94 121 133
95 121 148
91 118 140
98 125 150
95 121 143
93 121 145
98 125 141
106 131 136
86 114 140
96 121 144
88 115 150
95 123 149
91 119 151
88 117 150
73 106 157
84 114 167
79 110 161
90 118 164
81 111 164
79 109 157
73 103 156
66 98 149
70 100 153
70 99 141
78 104 142
60 96 151
61 97 148
60 96 141
60 95 136
65 99 141
59 94 139
60 95 145
58 93 135
67 100 139
58 93 131
65 97 125
64 98 144
64 97 140
69 100 129
67 99 121
58 93 136
58 92 124
57 92 125
60 94 136
59 94 134
59 93 138
59 94 140
58 92 133
59 94 133
58 92 131
58 93 136
60 95 140
58 92 126
58 93 126
58 92 125
59 94 133
59 94 136
60 95 143
59 93 129
61 95 144
58 93 131
59 93 126
59 94 135
60 95 134
60 95 133
61 96 140
59 94 130
59 94 133
58 92 121
60 95 139
59 94 136
60 95 144
60 95 136
61 97 141
59 93 134
59 94 130
58 92 128
60 95 141
61 95 136
60 95 139
60 95 136
60 95 139
59 94 129
59 94 137
60 94 131
60 94 129
61 96 140
59 93 131
58 92 122
59 93 134
58 92 115
61 95 133
61 96 139
59 94 126
60 95 134
61 96 144
59 93 126
59 94 133
60 95 135
60 95 131
59 93 120
59 93 126
58 91 115
58 92 118
61 95 131
59 94 133
60 94 130
59 93 117
61 95 130
58 92 125
60 94 122
60 94 134
61 95 141
60 95 131
60 94 130
59 93 129
58 92 120
61 96 143
60 95 140
59 93 124
58 91 124
58 91 125
57 90 110
58 91 123
59 93 129
59 94 124
59 94 126
58 92 115
57 90 113
57 91 108
57 90 118
58 91 115
58 91 125
58 91 120
58 92 115
56 89 111
58 90 117
56 89 97
89 106 57
108 120 0
113 127 0
119 135 0
117 132 0
132 145 0
118 134 0
121 135 0
123 137 0
119 133 0
119 133 0
111 125 0
124 139 0
129 145 0
124 138 0
129 144 0
117 130 0
122 134 0
128 142 0
115 127 0
123 138 0
116 129 0
130 145 0
123 137 0
123 135 0
131 143 0
123 139 0
130 143 0
122 134 0
129 144 0
126 139 0
135 149 0
136 152 0
131 146 0
127 140 0
135 149 0
133 145 0
139 154 0
134 149 0
131 144 0
138 151 0
132 145 0
124 137 0
130 144 0
142 157 0
140 154 0
143 158 0
128 141 0
132 145 0
136 149 0
135 149 0
128 141 0
144 157 0
144 158 0
130 141 0
141 154 0
139 151 0
136 149 0
138 150 0
139 152 0
145 160 0
132 147 0
139 151 0
137 151 0
139 151 0
142 153 0
139 151 0
139 154 0
145 160 0
152 168 0
151 165 0
147 157 0
139 152 0
142 153 0
140 152 0
146 158 0
146 158 0
152 166 0
150 164 0
148 161 0
141 151 0
150 166 0
149 163 0
155 167 0
138 152 0
151 165 0
150 164 0
148 160 0
155 171 0
151 164 0
144 156 0
151 164 0
152 166 0
151 166 0
154 167 0
153 166 0
149 163 0
152 167 0
154 170 0
154 167 0
158 171 0
151 167 0
151 165 0
152 166 0
149 163 0
154 169 0
157 172 0
161 177 0
150 165 0
158 174 0
153 167 0
151 164 0
150 164 0
157 173 0
159 177 0
154 168 0
157 173 0
156 172 0
160 177 0
163 179 0
155 171 0
158 173 0
155 171 0
159 178 0
154 169 0
160 175 0
155 173 0
153 170 0
163 180 0
156 172 0
159 175 0
165 182 0
159 175 0
161 178 0
161 176 0
163 180 0
162 180 0
163 181 0
163 182 0
161 178 0
164 182 0
161 179 0
164 182 0
167 186 0
165 183 0
162 179 0
157 174 0
169 187 0
165 184 0
166 184 0
164 180 0
162 182 0
162 181 0
167 186 0
168 187 0
162 180 0
166 185 0
172 196 57
172 195 72
170 194 80
173 197 72
171 195 67
170 193 80
170 193 76
173 197 76
170 194 51
168 192 76
173 196 62
171 195 76
167 192 84
172 196 62
172 196 84
167 191 62
168 193 80
166 190 84
168 192 80
170 195 84
172 197 88
168 193 76
170 194 76
169 193 76
168 192 62
171 196 72
170 193 62
171 195 67
165 190 99
168 192 57
164 189 76
172 197 92
165 190 67
163 187 57
165 189 67
168 192 84
161 185 62
170 193 76
166 189 57
167 191 80
168 192 72
164 187 57
166 190 76
167 191 80
169 193 84
163 187 44
161 185 72
166 191 95
164 187 62
160 184 44
165 189 62
164 189 80
163 187 72
160 184 57
163 187 62
166 190 72
158 181 76
162 186 57
160 184 57
160 184 67
165 189 76
153 176 72
163 187 67
162 185 57
163 187 67
160 185 80
160 184 92
163 186 67
166 189 76
160 184 57
162 186 92
163 186 95
164 188 51
164 187 76
162 185 62
157 180 62
164 187 84
158 181 44
155 179 76
155 177 51
159 183 62
162 184 92
154 176 80
153 176 99
161 183 95
112 136 110
89 116 118
100 126 126
86 113 124
81 109 124
97 123 119
93 120 139
79 108 122
88 115 135
85 113 129
107 132 141
79 107 127
89 117 124
88 116 134
80 108 137
92 118 134
97 122 133
86 114 137
93 120 141
96 122 150
89 116 145
78 107 138
96 122 141
104 129 142
102 129 146
107 132 150
98 124 144
109 133 146
95 122 124
102 127 137
100 125 136
89 116 144
85 114 138
91 118 143
75 105 141
81 111 168
74 106 163
83 112 167
88 116 168
77 108 156
88 116 164
69 100 145
75 103 145
68 99 142
77 104 145
71 101 143
62 97 147
61 96 144
61 96 150
60 95 139
60 95 144
59 94 137
59 94 137
60 95 139
65 99 126
62 97 150
65 97 128
60 93 121
62 95 116
75 105 118
59 93 128
59 94 130
58 92 120
59 93 133
59 93 129
58 92 127
58 92 128
59 94 137
58 93 128
60 95 141
58 93 113
60 95 135
58 93 128
60 94 133
59 92 134
59 94 133
60 94 134
59 93 126
61 96 145
60 94 130
59 94 139
60 94 145
60 96 142
59 94 131
59 93 126
59 94 129
59 94 137
60 94 136
59 93 117
59 93 134
60 94 135
59 94 133
58 92 118
60 95 136
59 93 128
60 95 145
60 94 130
58 93 129
58 93 125
60 94 131
61 95 134
60 94 126
60 94 124
59 94 125
61 96 141
60 94 131
59 94 128
61 95 136
59 94 125
59 94 131
59 93 124
59 93 124
59 94 126
59 93 128
59 94 131
60 95 131
59 94 139
60 94 130
59 93 124
59 93 130
60 94 134
58 92 121
59 93 125
60 95 134
59 93 125
59 93 120
60 94 135
59 93 133
59 93 126
59 94 129
59 93 130
59 93 121
59 93 125
61 95 136
57 91 111
59 94 131
59 93 126
57 90 117
59 94 122
58 92 121
59 94 117
59 94 130
59 94 125
58 92 125
60 95 135
59 93 120
58 91 122
56 89 103
56 89 107
59 93 121
57 91 114
58 91 103
56 89 113
59 92 115
58 91 117
56 88 105
54 86 97
95 114 82
120 133 0
129 144 0
111 126 0
116 131 0
107 121 0
116 131 0
118 129 0
122 136 0
134 150 0
116 130 0
121 135 0
123 137 0
126 139 0
103 115 0
131 147 0
130 144 0
131 146 0
116 130 0
114 127 0
110 123 0
127 143 0
122 136 0
134 149 0
119 133 0
127 140 0
133 147 0
123 137 0
124 137 0
131 143 0
133 148 0
117 130 0
137 151 0
129 142 0
131 148 0
134 149 0
134 148 0
144 159 0
137 153 0
131 147 0
133 147 0
132 145 0
133 147 0
132 146 0
127 141 0
133 146 0
137 148 0
141 155 0
140 155 0
133 147 0
134 148 0
140 150 0
134 148 0
127 138 0
140 151 0
139 154 0
133 148 0
134 148 0
148 162 0
133 144 0
143 157 0
138 153 0
142 156 0
149 165 0
144 157 0
137 150 0
149 163 0
140 155 0
144 157 0
142 155 0
133 146 0
150 166 0
144 157 0
140 153 0
141 153 0
139 154 0
144 156 0
140 150 0
152 166 0
153 167 0
141 153 0
149 161 0
154 170 0
155 167 0
155 168 0
148 160 0
149 161 0
156 170 0
156 172 0
152 167 0
139 151 0
148 161 0
154 168 0
152 167 0
151 167 0
158 173 0
155 172 0
150 163 0
154 169 0
151 164 0
154 169 0
159 173 0
151 165 0
149 163 0
152 166 0
151 165 0
153 167 0
152 167 0
146 160 0
152 168 0
155 169 0
159 175 0
151 167 0
157 171 0
160 176 0
156 172 0
155 173 0
155 169 0
152 168 0
159 175 0
159 178 0
153 167 0
155 169 0
163 181 0
161 178 0
163 181 0
157 174 0
167 184 0
159 177 0
164 179 0
163 179 0
164 179 0
162 179 0
153 170 0
164 181 0
159 176 0
160 177 0
161 177 0
159 177 0
163 182 0
159 175 0
165 183 0
160 178 0
165 184 0
162 177 0
163 181 0
165 183 0
166 188 0
168 188 0
161 177 0
162 182 0
161 178 0
164 182 0
167 187 0
170 191 0
164 182 0
159 175 0
165 184 0
171 195 76
170 194 84
171 195 44
172 196 76
170 193 72
172 197 72
173 196 80
173 197 67
170 195 80
173 196 72
172 196 84
169 193 76
170 194 62
175 199 92
166 191 76
170 193 51
170 193 57
171 194 51
171 195 72
169 193 76
165 189 57
167 190 76
170 194 76
171 194 67
169 194 80
167 192 84
170 194 72
167 192 84
169 194 72
169 192 72
169 194 62
168 192 76
168 193 95
162 187 80
169 194 84
166 191 84
168 192 62
169 193 62
167 190 84
167 190 72
165 190 92
170 195 57
165 189 76
167 192 92
162 186 76
168 193 84
167 191 72
166 190 80
166 191 84
165 188 62
165 188 44
165 189 62
168 192 76
164 187 51
164 189 80
165 189 72
160 184 84
166 190 84
168 191 80
164 188 76
163 186 62
162 185 80
162 186 80
160 183 72
159 181 72
161 184 76
160 184 57
157 181 72
162 185 76
158 181 92
156 179 67
151 174 72
157 180 62
158 182 88
155 178 76
155 178 80
153 176 67
159 181 57
160 183 57
151 173 25
160 184 84
144 167 62
153 175 57
151 173 51
155 177 57
151 174 102
83 111 102
92 119 135
87 115 137
86 114 117
88 116 129
89 117 140
88 117 134
90 117 128
99 125 132
100 126 146
91 119 144
86 113 136
82 110 140
90 117 137
88 114 129
94 119 130
96 122 149
84 111 121
81 109 135
87 114 118
96 122 136
83 110 131
96 122 138
110 135 144
96 123 149
101 126 133
104 129 155
101 127 140
90 114 128
91 117 126
99 125 143
93 119 128
93 121 142
89 116 136
70 103 151
85 115 176
82 112 169
85 113 158
89 117 173
79 109 153
75 105 162
63 97 149
66 98 150
71 101 153
71 100 142
68 99 137
62 97 147
62 97 153
60 95 147
60 95 139
60 95 142
58 92 129
59 94 141
61 96 141
67 99 134
61 95 131
60 94 125
59 94 135
65 96 120
70 102 126
58 92 133
58 92 122
59 93 128
60 95 134
57 91 125
58 92 133
57 92 124
58 93 130
59 94 140
60 94 137
59 94 125
62 97 144
57 91 126
60 95 135
60 94 136
61 96 141
59 93 126
59 94 134
59 93 134
58 92 130
60 95 136
58 92 116
58 92 125
60 94 136
60 95 130
59 93 133
59 93 125
60 94 133
60 95 143
59 94 133
58 92 118
59 94 131
60 95 144
58 92 114
60 95 133
59 93 129
58 92 134
60 94 133
60 95 136
60 95 136
58 92 122
59 93 124
58 93 130
59 93 131
60 95 134
61 95 130
59 94 130
60 95 133
60 94 130
60 94 118
60 95 137
59 94 133
60 94 129
60 95 137
59 94 124
60 94 131
59 93 135
59 93 124
60 94 141
61 96 136
58 93 115
59 94 133
59 93 125
59 93 128
58 92 118
60 94 140
61 95 136
60 94 129
58 92 118
59 93 126
58 92 121
59 93 120
59 93 125
58 92 115
60 94 136
59 93 125
58 92 122
58 92 120
59 93 128
58 92 122
57 91 102
60 94 121
58 91 118
59 93 118
58 92 118
59 93 124
59 92 124
58 91 115
59 93 125
58 91 122
57 91 124
57 90 105
56 89 102
56 88 107
55 87 103
74 100 90
124 139 0
127 142 0
120 135 0
117 132 0
114 129 0
116 128 0
121 136 0
118 133 0
124 139 0
123 137 0
123 137 0
112 127 0
116 131 0
124 136 0
120 134 0
119 137 0
122 137 0
121 138 0
117 129 0
138 152 0
123 137 0
133 145 0
123 135 0
121 132 0
133 147 0
111 123 0
125 139 0
117 133 0
134 148 0
134 150 0
128 143 0
127 144 0
129 146 0
133 146 0
133 147 0
128 140 0
140 153 0
137 150 0
135 150 0
125 141 0
136 149 0
133 147 0
125 140 0
142 156 0
129 144 0
140 156 0
137 151 0
133 147 0
136 149 0
133 147 0
130 142 0
136 152 0
131 144 0
141 157 0
139 153 0
143 157 0
141 157 0
142 157 0
130 140 0
141 154 0
148 161 0
141 155 0
147 161 0
139 155 0
141 155 0
141 155 0
144 157 0
146 161 0
136 150 0
140 154 0
138 150 0
134 148 0
150 166 0
142 157 0
139 151 0
149 164 0
143 153 0
148 163 0
148 163 0
142 155 0
144 157 0
147 161 0
146 160 0
147 161 0
150 165 0
149 163 0
148 163 0
146 160 0
148 160 0
149 163 0
146 158 0
152 167 0
144 154 0
147 161 0
158 173 0
149 162 0
141 153 0
151 164 0
148 161 0
156 172 0
146 160 0
158 175 0
153 170 0
156 170 0
154 172 0
157 173 0
151 165 0
157 173 0
154 170 0
157 171 0
155 171 0
158 174 0
157 173 0
155 171 0
158 174 0
162 177 0
156 172 0
155 169 0
156 171 0
155 170 0
158 174 0
153 169 0
160 176 0
154 168 0
154 172 0
161 178 0
157 174 0
156 172 0
162 179 0
163 180 0
160 178 0
164 181 0
161 178 0
159 177 0
162 181 0
163 181 0
163 179 0
164 183 0
159 178 0
160 177 0
161 181 0
157 174 0
161 180 0
164 181 0
161 179 0
164 182 0
165 183 0
163 179 0
158 177 0
164 183 0
162 182 0
163 182 0
165 184 0
164 182 0
164 184 0
166 186 0
164 182 0
161 179 0
173 197 76
172 195 62
172 196 76
173 197 88
172 196 72
169 193 72
167 191 62
172 196 62
172 195 76
170 195 80
170 195 88
172 196 72
171 195 72
171 194 72
170 194 51
172 196 72
170 195 92
167 191 51
166 191 62
169 193 67
173 197 88
171 195 62
165 188 57
164 189 76
170 194 80
172 196 84
169 193 72
168 193 76
168 192 57
169 193 62
169 193 72
167 192 62
167 191 51
167 191 67
169 192 62
166 190 72
164 189 76
166 191 84
163 188 88
165 190 76
165 189 72
165 190 84
164 188 57
169 194 88
164 188 80
167 192 80
167 190 51
161 186 84
170 194 62
166 190 62
163 186 72
165 189 67
158 183 80
168 191 80
162 186 84
163 187 67
157 181 67
166 190 72
165 189 44
159 183 67
167 191 67
157 180 72
159 183 84
163 186 72
169 194 76
162 186 80
161 186 57
161 184 76
157 181 88
164 187 67
161 185 76
157 179 57
161 185 65
162 186 62
157 179 57
151 173 62
153 176 72
165 189 80
156 179 44
152 174 44
154 177 72
150 173 62
147 169 67
160 183 76
152 175 72
152 174 57
138 161 86
85 113 114
93 121 130
86 114 131
91 118 115
81 108 118
85 113 134
102 129 144
88 114 125
96 123 130
78 108 129
95 121 133
94 120 133
86 115 143
93 119 144
97 122 138
97 124 148
90 117 136
95 121 136
105 130 151
89 115 135
102 125 139
91 118 136
98 125 142
95 122 137
92 118 132
102 127 136
106 131 151
95 121 112
104 129 137
101 125 124
110 135 150
82 111 149
83 112 144
80 110 144
95 121 163
90 118 171
74 106 158
93 120 169
75 107 163
67 101 147
72 102 144
78 105 147
73 102 145
67 99 148
84 108 147
63 96 138
61 96 136
62 98 159
59 94 139
59 95 140
59 94 138
61 95 136
57 91 122
67 99 124
64 97 133
59 92 119
58 93 122
69 99 118
79 108 128
59 93 136
60 94 144
58 92 124
59 93 137
58 91 122
59 93 130
58 92 129
58 92 128
58 92 123
58 92 128
60 94 134
60 95 135
60 95 140
60 94 134
60 95 137
60 95 143
59 94 135
58 93 131
60 94 126
60 94 129
59 94 135
58 93 128
61 95 140
58 92 133
60 95 140
59 94 126
58 92 123
57 91 131
60 95 139
60 95 135
60 95 131
60 94 135
60 94 136
61 96 140
60 94 133
60 95 139
60 95 137
60 95 135
61 96 147
60 95 140
58 92 125
60 95 136
61 95 131
59 94 125
59 93 131
59 94 130
58 92 130
60 95 131
60 95 134
59 93 122
58 92 124
59 93 126
61 96 145
60 94 131
58 93 125
60 95 136
59 93 128
60 94 131
60 94 134
57 91 118
59 94 125
60 95 131
60 95 137
60 94 133
59 94 128
60 94 126
60 94 126
57 91 117
59 94 129
59 93 133
58 93 125
58 92 128
58 91 115
57 91 117
60 94 140
59 92 121
59 94 125
60 95 135
59 93 130
59 93 122
59 94 130
58 91 107
58 91 118
57 90 117
57 90 110
57 91 114
58 91 117
58 91 122
59 93 131
56 89 99
55 88 107
59 92 118
55 87 103
54 86 86
78 101 74
110 125 0
117 130 0
105 120 0
123 138 0
112 126 0
117 129 0
124 139 0
117 132 0
119 134 0
131 147 0
113 127 0
119 134 0
128 144 0
118 132 0
129 144 0
130 145 0
117 133 0
128 142 0
127 141 0
123 137 0
130 145 0
132 146 0
130 146 0
133 150 0
130 144 0
127 142 0
130 143 0
131 145 0
115 129 0
131 145 0
122 137 0
128 142 0
125 140 0
131 147 0
132 146 0
136 152 0
140 155 0
130 144 0
128 143 0
126 140 0
136 147 0
131 146 0
133 150 0
132 145 0
136 150 0
131 146 0
136 151 0
128 139 0
138 153 0
139 155 0
131 144 0
138 154 0
146 162 0
144 158 0
134 151 0
135 148 0
142 153 0
138 152 0
139 152 0
133 150 0
138 150 0
137 152 0
135 148 0
134 147 0
142 158 0
141 157 0
136 149 0
143 159 0
132 144 0
148 161 0
147 161 0
150 165 0
138 151 0
147 162 0
151 165 0
150 164 0
144 158 0
142 156 0
149 163 0
147 161 0
135 150 0
151 166 0
146 160 0
147 161 0
148 162 0
150 165 0
151 167 0
147 162 0
150 163 0
157 173 0
155 168 0
147 163 0
151 165 0
150 164 0
154 170 0
152 167 0
154 171 0
150 166 0
156 171 0
147 160 0
151 168 0
148 163 0
153 168 0
149 164 0
153 169 0
144 158 0
147 162 0
156 170 0
151 169 0
150 165 0
155 171 0
158 176 0
155 169 0
158 175 0
155 170 0
151 167 0
157 172 0
159 175 0
153 168 0
160 178 0
156 173 0
160 175 0
155 172 0
155 171 0
158 175 0
160 179 0
161 179 0
161 175 0
155 170 0
162 179 0
162 180 0
159 177 0
163 182 0
161 181 0
158 173 0
162 181 0
162 179 0
161 180 0
162 181 0
159 177 0
161 182 0
160 177 0
158 176 0
158 175 0
161 181 0
163 182 0
170 189 0
164 183 0
165 184 0
160 180 0
161 180 0
165 186 0
162 181 0
162 181 0
163 183 0
167 186 0
165 184 0
165 185 0
158 176 0
169 193 76
170 194 62
170 194 76
171 195 76
169 193 67
169 194 92
172 196 72
171 194 72
172 195 57
168 192 57
171 194 62
167 192 76
173 197 80
167 191 72
166 191 76
167 191 72
166 191 88
169 193 62
173 197 76
171 196 80
170 195 76
164 188 57
163 186 67
168 192 57
168 192 84
166 190 80
166 191 92
165 190 67
169 192 44
168 192 62
162 186 51
167 192 76
166 190 72
169 193 76
167 191 72
167 192 72
166 189 57
169 193 76
173 196 62
165 189 92
164 188 72
164 189 72
166 190 44
165 189 51
170 195 80
165 189 62
167 191 57
167 192 72
169 193 67
162 187 67
168 193 76
160 183 67
160 184 80
162 184 51
167 191 80
163 187 44
163 187 80
169 193 72
165 188 76
158 180 57
166 189 88
166 189 80
165 189 92
163 187 76
159 183 72
165 187 67
165 190 88
159 182 62
154 177 76
160 183 57
154 177 67
159 182 76
166 190 88
164 187 84
158 181 62
160 183 76
154 177 67
154 176 44
153 176 67
150 173 62
152 175 51
151 174 62
155 179 76
159 181 51
151 173 76
157 180 51
155 177 57
128 150 107
84 112 118
77 104 107
89 116 131
88 115 117
97 122 129
91 118 121
87 114 132
94 120 131
91 118 137
101 126 147
92 119 128
89 117 144
90 117 123
104 129 138
92 118 139
87 114 128
103 129 145
90 117 145
98 124 141
104 129 148
93 120 148
95 120 134
90 116 132
88 115 143
102 128 134
94 122 141
88 116 133
87 114 142
106 130 130
92 118 127
94 120 140
82 111 142
82 111 144
89 117 156
76 107 160
74 106 155
71 104 157
80 110 164
83 112 161
78 108 160
64 96 139
68 98 137
69 98 127
75 103 150
74 102 136
62 96 144
60 95 144
61 96 141
60 95 142
60 95 134
59 94 133
62 96 131
66 100 141
64 97 128
59 94 131
63 95 121
61 94 133
70 101 113
63 96 126
58 93 128
58 92 124
59 93 131
58 92 126
59 93 133
58 92 120
58 93 124
59 93 128
57 91 122
60 94 131
59 94 126
58 92 118
60 95 140
57 91 115
58 93 128
59 93 133
59 93 122
59 93 128
58 92 128
59 94 131
59 94 131
58 92 127
59 93 118
58 92 124
59 93 118
59 93 121
60 95 135
59 93 133
58 93 118
59 94 125
61 95 141
59 94 129
59 93 114
59 94 131
59 94 125
60 94 131
61 95 141
58 91 126
59 93 130
58 92 117
61 96 137
61 95 142
58 93 121
58 92 128
60 95 139
59 93 131
59 93 126
59 93 120
61 95 140
58 93 122
58 92 124
59 93 121
58 92 124
58 93 126
59 93 128
59 93 124
58 92 115
60 94 130
60 95 133
59 93 133
60 95 137
58 92 121
58 92 111
59 93 125
59 93 124
60 94 131
59 93 125
58 92 124
58 92 126
59 93 126
59 93 121
58 92 122
59 93 125
58 92 117
58 92 129
56 89 111
59 93 125
59 93 125
59 92 129
57 90 111
59 93 125
56 89 111
60 94 133
58 91 118
56 89 111
56 89 111
57 90 102
56 89 114
57 90 110
55 88 99
55 88 103
55 88 101
73 99 91
116 131 31
115 132 0
120 136 0
122 136 0
123 137 0
118 132 0
110 125 0
111 126 0
117 129 0
124 140 0
119 134 0
131 149 0
110 124 0
120 134 0
124 139 0
119 135 0
123 140 0
118 134 0
123 138 0
130 143 0
122 137 0
134 151 0
123 136 0
133 148 0
130 145 0
131 146 0
125 140 0
123 137 0
125 137 0
129 145 0
123 136 0
132 149 0
136 152 0
131 146 0
128 143 0
125 139 0
138 153 0
133 148 0
135 149 0
140 154 0
134 151 0
139 153 0
139 154 0
136 148 0
124 139 0
135 152 0
131 146 0
143 158 0
134 149 0
131 147 0
134 150 0
138 150 0
128 141 0
142 158 0
133 149 0
144 160 0
137 151 0
138 154 0
143 160 0
138 152 0
141 156 0
138 153 0
149 163 0
147 164 0
146 161 0
141 154 0
144 159 0
142 156 0
141 154 0
142 156 0
138 151 0
142 160 0
141 157 0
149 166 0
147 162 0
148 162 0
147 160 0
142 155 0
150 164 0
139 151 0
144 158 0
142 157 0
147 163 0
147 163 0
149 166 0
153 169 0
152 169 0
150 167 0
154 170 0
160 176 0
155 170 0
148 161 0
149 165 0
149 166 0
145 161 0
151 165 0
159 174 0
150 163 0
154 170 0
161 178 0
151 167 0
149 164 0
151 167 0
151 166 0
156 171 0
155 173 0
152 167 0
155 169 0
151 164 0
151 166 0
151 169 0
158 174 0
156 172 0
156 171 0
159 176 0
155 173 0
154 170 0
154 170 0
160 177 0
158 175 0
159 175 0
157 173 0
156 171 0
158 174 0
160 179 0
154 170 0
162 180 0
160 177 0
155 171 0
154 171 0
157 174 0
167 185 0
164 182 0
162 180 0
161 178 0
158 177 0
165 182 0
160 178 0
158 176 0
166 184 0
162 180 0
164 182 0
161 180 0
161 179 0
162 181 0
162 179 0
158 177 0
160 178 0
165 184 0
164 182 0
165 183 0
165 181 0
166 186 0
168 188 0
166 184 0
163 184 0
166 184 0
164 183 0
167 187 0
165 184 0
176 199 67
170 194 80
170 194 67
166 191 76
172 195 76
170 194 72
174 199 95
170 193 80
169 193 67
169 194 80
169 192 67
170 194 76
173 197 84
171 195 72
171 195 76
169 193 51
169 193 76
171 196 92
172 196 67
168 192 84
168 192 88
169 193 72
168 192 92
164 188 44
169 193 62
169 193 84
167 191 57
168 192 76
162 186 57
169 192 51
165 190 76
168 192 57
161 185 62
170 194 72
172 195 62
167 191 80
160 184 57
166 190 76
167 192 88
167 192 88
163 188 57
166 190 72
164 189 84
163 187 57
170 194 67
163 187 72
160 184 67
161 186 80
165 189 67
163 187 72
162 186 76
163 187 72
167 192 99
161 184 62
164 188 84
166 189 57
164 189 76
163 187 67
157 181 84
163 186 62
165 189 92
162 186 80
162 185 76
160 184 72
167 191 72
158 181 67
161 186 88
156 180 72
158 181 80
156 179 76
155 179 72
163 186 67
158 181 80
154 177 36
159 182 88
154 176 51
156 178 62
159 183 84
155 178 72
155 178 51
150 173 72
151 174 62
156 179 88
147 169 62
148 171 80
149 172 80
158 181 67
159 183 76
103 128 111
85 112 117
85 112 110
85 113 129
88 116 124
84 112 131
86 114 134
97 123 137
84 111 133
80 109 122
84 112 134
98 125 134
103 127 118
83 111 130
97 123 139
95 123 142
98 123 139
88 115 130
97 123 142
84 112 139
98 124 151
98 123 137
97 123 143
96 122 133
108 133 146
100 124 121
103 128 137
104 128 145
101 125 133
102 128 142
102 126 123
93 119 135
94 121 145
82 110 137
82 111 161
83 113 162
85 114 168
81 111 165
85 114 164
77 107 148
72 103 150
75 103 146
75 103 147
65 97 142
82 106 132
72 100 136
61 96 147
62 97 141
61 96 142
60 95 139
60 95 137
59 94 137
66 98 128
66 97 124
63 95 123
57 91 115
59 94 137
56 89 113
76 105 115
57 90 126
57 90 125
57 91 122
57 91 118
57 91 120
56 89 112
59 93 133
59 93 126
58 93 117
58 92 122
58 92 118
60 94 135
57 91 123
60 94 130
58 92 121
59 93 118
60 94 125
59 93 128
59 93 127
59 93 120
60 94 129
59 94 136
59 93 122
59 93 128
59 93 131
57 91 117
59 94 136
59 93 128
58 91 113
58 93 129
59 93 122
59 94 125
59 93 128
59 93 128
60 94 131
60 95 135
59 93 125
58 92 125
56 90 118
59 94 125
58 93 120
60 94 125
59 92 128
59 93 123
58 92 124
59 93 125
59 94 126
59 93 130
60 95 140
59 93 126
60 94 128
59 93 128
58 91 126
59 93 136
58 92 124
58 92 113
60 94 133
58 92 120
61 95 137
61 95 139
59 93 122
60 94 126
59 93 126
60 94 131
59 93 118
59 93 124
59 94 121
58 92 121
58 92 117
60 94 122
59 93 122
59 93 114
59 93 125
56 90 120
57 90 115
60 94 130
58 91 117
58 92 118
56 89 110
59 92 121
56 89 113
59 93 117
58 91 115
59 93 134
55 88 102
58 91 111
56 89 110
56 89 105
56 89 110
57 90 113
57 89 110
70 96 88
103 120 18
106 119 0
115 129 0
124 139 0
121 136 0
120 134 0
115 130 0
111 124 0
111 125 0
113 127 0
122 137 0
120 135 0
123 137 0
124 138 0
122 139 0
128 141 0
112 127 0
126 142 0
124 140 0
129 146 0
120 136 0
140 155 0
127 141 0
124 137 0
118 132 0
129 145 0
122 138 0
132 148 0
128 145 0
127 142 0
135 151 0
140 156 0
128 142 0
136 151 0
132 147 0
141 157 0
136 150 0
134 150 0
138 153 0
134 151 0
122 138 0
126 140 0
128 144 0
125 141 0
130 144 0
128 141 0
135 152 0
139 153 0
136 151 0
144 161 0
142 154 0
139 153 0
142 155 0
141 158 0
143 158 0
142 158 0
135 148 0
135 148 0
145 159 0
147 161 0
144 158 0
138 152 0
143 158 0
147 161 0
139 157 0
143 156 0
138 149 0
137 153 0
144 157 0
142 158 0
139 153 0
140 154 0
141 156 0
147 162 0
148 164 0
141 153 0
143 154 0
139 155 0
152 167 0
145 160 0
143 157 0
147 163 0
147 163 0
141 154 0
150 163 0
146 159 0
151 169 0
145 158 0
144 159 0
150 165 0
160 179 0
148 163 0
150 166 0
151 167 0
152 164 0
152 169 0
150 168 0
152 168 0
145 161 0
159 174 0
151 168 0
151 165 0
142 154 0
153 167 0
150 165 0
149 164 0
150 165 0
153 169 0
153 167 0
158 173 0
147 161 0
152 167 0
159 177 0
150 167 0
150 165 0
154 171 0
159 175 0
156 172 0
164 179 0
155 171 0
160 177 0
157 173 0
164 183 0
159 177 0
159 177 0
157 172 0
160 176 0
158 175 0
157 174 0
162 179 0
161 179 0
156 173 0
162 181 0
161 180 0
161 179 0
162 181 0
160 177 0
159 176 0
164 183 0
162 178 0
161 181 0
156 173 0
163 182 0
161 178 0
163 182 0
168 188 0
159 179 0
160 178 0
165 182 0
163 184 0
161 179 0
167 185 0
164 184 0
167 186 0
158 175 0
168 188 0
168 187 0
163 181 0
162 181 0
163 181 0
164 183 0
167 191 62
171 195 84
171 194 51
171 195 88
170 194 57
172 196 57
171 194 76
171 195 76
169 193 62
174 198 72
168 192 76
168 192 57
171 194 72
171 196 67
170 194 72
171 195 80
170 193 67
168 193 62
168 193 84
171 195 95
167 192 84
171 197 84
165 190 80
172 196 76
170 194 76
172 196 67
167 192 72
166 190 67
168 192 80
164 189 62
169 193 67
164 187 57
161 186 76
168 192 67
171 195 57
167 192 92
169 194 67
167 191 36
167 192 95
168 192 72
166 191 51
168 192 72
164 188 67
168 193 57
162 187 80
158 181 57
170 193 67
162 186 67
166 190 62
164 188 57
165 189 62
163 187 88
167 191 76
165 189 51
161 185 67
159 184 76
163 187 76
161 185 57
159 182 67
163 186 80
162 185 57
161 184 67
154 177 62
160 184 72
162 185 67
158 182 84
167 191 57
159 182 67
160 184 80
161 185 84
156 179 76
155 178 84
157 180 76
166 190 80
157 181 88
159 181 84
159 182 80
158 179 57
151 173 72
150 173 67
160 184 95
150 172 72
157 180 92
160 182 84
154 176 76
149 172 67
150 172 76
146 168 62
142 164 60
102 127 124
97 123 122
80 109 115
90 116 112
88 115 127
100 126 134
92 119 136
83 111 120
83 111 126
93 120 136
86 113 121
85 112 129
95 122 144
91 117 140
93 119 133
88 115 124
99 125 133
81 108 123
98 123 145
90 116 135
93 119 139
92 119 134
101 127 134
90 117 139
90 118 137
98 124 145
84 112 143
91 116 137
91 117 131
101 126 136
94 120 144
94 120 146
87 116 140
92 120 142
74 106 158
80 110 160
83 113 166
90 117 159
64 99 151
82 110 154
67 97 139
77 105 153
78 104 136
76 103 141
76 104 144
68 98 139
60 95 140
59 94 130
60 94 133
63 97 140
61 95 140
58 92 125
59 94 139
59 94 133
64 96 126
66 98 131
66 97 124
86 113 92
58 92 120
59 93 129
59 93 118
59 94 122
58 92 126
58 92 118
58 92 129
60 95 135
60 94 137
60 94 129
59 94 128
58 92 126
59 93 126
59 93 128
57 91 116
58 92 125
60 95 134
58 92 122
59 94 131
57 91 117
59 94 127
60 94 134
59 94 141
60 94 133
57 91 118
59 93 125
59 94 125
60 95 136
60 94 134
58 93 124
58 92 124
60 94 124
59 93 128
58 92 120
60 94 130
59 93 129
61 95 136
58 91 115
58 92 114
59 94 133
59 93 130
59 93 129
59 94 129
59 93 126
60 94 130
58 92 117
60 94 125
59 94 117
60 94 125
60 95 134
58 92 120
60 94 130
60 94 130
60 95 139
59 94 121
58 92 120
58 92 126
58 92 122
60 94 125
59 93 114
58 92 124
60 95 124
57 90 114
58 92 115
59 92 117
59 93 124
59 93 125
59 93 129
58 92 120
59 93 121
59 94 130
58 92 125
58 92 114
59 93 122
57 90 122
59 93 114
58 92 115
58 92 122
58 91 115
59 93 130
57 90 115
58 92 120
57 90 118
55 87 107
57 89 115
57 91 110
56 88 117
54 87 99
56 89 111
57 90 111
69 96 86
91 107 25
118 132 0
122 135 0
112 126 0
101 113 0
99 113 0
110 123 0
119 134 0
113 127 0
118 133 0
120 133 0
114 127 0
126 141 0
119 133 0
126 141 0
120 136 0
129 144 0
132 149 0
130 145 0
125 140 0
122 137 0
130 143 0
132 147 0
117 131 0
131 146 0
131 147 0
130 145 0
132 149 0
116 132 0
131 145 0
129 143 0
136 151 0
121 137 0
132 150 0
132 148 0
132 146 0
131 145 0
135 150 0
125 140 0
134 149 0
130 146 0
131 146 0
135 151 0
129 145 0
137 151 0
131 146 0
140 157 0
139 154 0
139 157 0
131 145 0
138 154 0
143 159 0
131 148 0
130 145 0
135 150 0
134 152 0
136 151 0
141 158 0
138 153 0
137 152 0
129 141 0
144 159 0
138 152 0
136 151 0
148 164 0
143 158 0
145 159 0
134 148 0
144 157 0
141 154 0
134 148 0
146 161 0
144 159 0
144 159 0
142 158 0
148 161 0
145 158 0
145 162 0
146 162 0
148 165 0
145 160 0
150 166 0
151 167 0
148 166 0
152 168 0
154 168 0
149 164 0
145 161 0
152 168 0
147 163 0
143 155 0
148 163 0
150 166 0
144 160 0
156 169 0
139 154 0
156 172 0
159 177 0
153 170 0
153 171 0
158 172 0
157 175 0
155 169 0
158 174 0
156 172 0
153 169 0
159 177 0
158 173 0
155 172 0
148 163 0
153 171 0
150 165 0
152 166 0
160 176 0
155 172 0
157 173 0
155 170 0
153 169 0
161 177 0
156 171 0
156 174 0
155 172 0
159 178 0
159 175 0
158 175 0
160 177 0
154 170 0
161 178 0
158 176 0
158 175 0
158 174 0
160 177 0
165 185 0
161 178 0
157 175 0
163 184 0
158 177 0
165 182 0
165 182 0
161 179 0
160 180 0
161 179 0
161 178 0
163 183 0
161 180 0
164 183 0
163 182 0
163 181 0
165 184 0
162 182 0
166 186 0
160 178 0
163 181 0
159 177 0
166 184 0
164 183 0
161 179 0
161 178 0
162 181 0
162 183 0
164 183 0
167 187 0
168 193 72
171 196 76
170 194 72
170 195 95
172 196 76
174 197 67
173 197 80
172 196 57
171 195 76
171 195 62
170 193 72
168 193 80
169 194 67
171 196 84
170 194 57
162 187 62
167 192 80
172 194 62
167 192 76
167 192 80
170 193 76
167 191 67
172 197 84
166 189 62
169 193 62
168 192 80
167 191 88
167 191 67
165 190 76
166 189 72
171 196 80
168 192 80
170 195 80
162 186 44
169 194 88
166 190 80
163 187 99
169 193 80
160 184 51
161 186 72
169 194 80
170 193 76
164 187 57
164 188 84
162 186 67
167 191 62
163 187 80
172 196 84
166 190 72
165 189 67
167 191 51
159 183 44
168 192 95
159 182 67
160 184 62
155 179 72
163 188 67
166 189 76
159 183 76
163 186 76
163 187 62
161 185 67
160 184 76
165 189 72
155 179 80
161 184 62
161 185 88
163 186 67
156 179 76
160 183 80
156 179 51
149 172 51
164 187 84
161 185 80
152 174 44
163 185 67
158 181 67
152 175 92
158 181 84
153 175 57
161 184 76
148 171 60
144 166 76
152 175 72
151 173 72
144 166 57
151 175 80
142 164 88
146 168 88
133 155 94
80 108 114
100 126 133
85 112 118
96 123 133
80 109 122
74 104 118
89 116 115
93 119 131
86 113 126
92 119 134
91 117 128
82 111 136
91 118 137
92 119 147
104 129 140
81 109 131
88 114 133
86 114 142
86 113 133
95 121 137
97 122 131
95 120 130
96 123 129
84 112 133
92 119 138
107 133 141
96 123 119
102 127 128
92 117 116
98 124 146
81 109 133
89 116 140
90 117 127
82 110 150
71 104 156
74 106 162
95 122 164
91 119 168
77 108 156
75 105 145
72 101 151
67 97 137
76 103 140
79 105 144
79 104 135
62 96 143
58 92 126
60 95 133
61 95 137
59 94 140
58 92 131
68 100 129
59 91 128
61 95 126
59 92 117
59 94 128
78 106 113
63 95 123
60 94 130
57 90 120
59 94 129
57 91 118
56 89 120
58 91 110
60 94 131
59 93 121
57 90 118
59 93 120
59 93 124
58 91 122
58 92 121
57 91 108
57 91 121
56 88 111
58 92 129
58 92 122
59 93 128
57 91 120
59 93 125
58 91 111
58 92 118
60 95 133
59 93 133
58 92 118
58 92 129
58 93 118
58 92 128
59 93 129
60 95 130
60 94 133
59 93 125
59 93 133
58 92 129
59 93 126
59 94 125
59 93 130
59 93 126
59 93 120
59 93 124
58 92 121
57 91 115
58 92 124
58 92 117
59 93 128
58 92 117
59 93 128
60 94 134
59 94 135
60 94 131
58 92 125
60 94 125
59 93 118
60 94 130
57 90 111
60 95 130
59 93 115
58 92 118
59 93 131
58 91 115
57 91 115
59 93 131
60 95 135
59 93 125
58 92 125
58 92 120
57 91 114
59 93 124
59 94 126
58 93 125
58 92 117
58 92 117
58 92 113
58 92 121
58 92 128
58 92 120
57 90 115
58 91 120
55 87 99
57 91 113
55 87 102
57 90 103
56 88 100
57 90 113
57 90 107
57 90 108
53 85 103
75 99 82
119 134 25
119 135 0
115 128 0
110 124 0
118 133 0
121 136 0
111 123 0
105 119 0
111 125 0
110 122 0
113 127 0
125 140 0
116 131 0
122 138 0
132 147 0
125 140 0
126 143 0
133 148 0
111 125 0
125 144 0
127 142 0
124 138 0
131 146 0
129 145 0
118 133 0
128 143 0
137 153 0
137 151 0
120 135 0
121 137 0
131 146 0
120 134 0
127 143 0
127 144 0
134 150 0
133 149 0
137 153 0
131 148 0
138 155 0
139 153 0
143 158 0
133 149 0
138 156 0
130 145 0
144 159 0
129 144 0
133 148 0
140 155 0
135 148 0
138 154 0
132 149 0
144 159 0
145 160 0
132 147 0
136 152 0
136 150 0
140 154 0
135 149 0
136 152 0
136 152 0
143 158 0
143 159 0
140 155 0
146 160 0
140 155 0
150 165 0
136 151 0
142 158 0
141 153 0
134 150 0
146 162 0
136 151 0
150 169 0
147 162 0
151 166 0
146 162 0
135 151 0
138 152 0
148 166 0
150 166 0
148 161 0
143 157 0
153 169 0
146 164 0
152 169 0
146 163 0
157 172 0
149 165 0
158 175 0
152 167 0
151 165 0
154 169 0
150 164 0
150 166 0
148 162 0
152 167 0
153 169 0
141 157 0
150 165 0
155 172 0
151 164 0
157 175 0
151 166 0
150 168 0
148 164 0
150 166 0
149 163 0
159 176 0
156 173 0
156 173 0
161 177 0
155 172 0
156 172 0
159 173 0
154 170 0
151 166 0
155 171 0
158 176 0
155 171 0
163 180 0
159 178 0
156 176 0
159 178 0
159 177 0
158 176 0
154 173 0
158 177 0
152 169 0
159 176 0
160 178 0
159 174 0
158 175 0
162 181 0
161 180 0
157 175 0
161 176 0
159 174 0
162 181 0
158 175 0
164 182 0
160 178 0
160 178 0
162 180 0
161 177 0
164 181 0
164 181 0
167 188 0
165 184 0
161 180 0
158 176 0
166 186 0
159 178 0
164 185 0
168 187 0
164 185 0
165 184 0
163 184 0
163 179 0
164 184 0
172 192 0
163 185 0
166 186 0
167 187 0
169 193 80
170 195 80
170 195 72
170 194 76
171 196 80
172 196 67
169 193 76
170 194 80
170 194 80
169 194 80
168 193 99
171 195 92
166 190 72
171 195 72
171 195 76
169 193 67
168 192 51
166 191 62
168 193 102
171 194 84
171 195 51
167 191 80
170 194 76
165 189 57
170 194 51
170 194 67
171 195 51
169 194 84
171 195 80
171 195 57
167 192 88
168 191 67
168 192 72
167 191 72
167 191 72
168 193 84
167 192 88
166 190 51
162 187 76
165 189 72
166 190 76
169 194 72
166 191 62
164 188 88
169 193 67
167 191 76
169 192 51
165 189 51
163 186 57
165 190 80
163 187 62
162 186 76
164 188 62
164 189 95
159 183 88
164 188 84
163 186 72
160 184 62
159 182 62
157 179 51
162 184 57
161 185 72
163 187 80
157 181 57
161 185 76
158 182 62
157 180 44
155 179 76
157 181 99
156 179 57
154 177 67
157 180 57
158 180 67
160 183 80
155 178 72
157 179 84
166 189 80
153 176 84
158 181 88
156 178 72
155 179 62
146 168 80
152 174 76
152 175 84
154 177 62
143 166 67
152 175 80
154 176 72
143 165 62
148 170 72
131 154 110
89 115 103
76 105 117
94 121 122
102 128 131
83 110 114
91 117 126
104 129 125
94 120 118
95 121 131
85 112 128
97 122 139
85 113 121
93 120 144
82 110 123
91 117 122
88 116 136
101 126 146
83 111 123
89 115 129
102 126 126
88 114 145
98 124 129
97 123 138
82 110 135
100 126 144
93 120 139
95 121 132
102 127 121
101 125 137
95 120 124
93 119 127
85 113 131
91 118 142
65 99 149
80 110 161
77 107 156
68 102 157
74 105 152
85 113 159
60 95 143
71 101 138
74 102 134
71 99 130
77 103 138
75 101 126
60 95 136
59 94 139
59 94 136
59 94 133
61 95 128
62 95 118
59 91 122
64 97 130
64 97 131
59 92 114
68 98 117
79 108 118
57 90 116
57 90 120
56 89 115
59 93 121
58 92 122
59 93 128
60 94 128
59 94 136
58 92 131
56 89 115
57 91 114
58 93 117
59 93 131
59 94 133
58 93 125
58 92 128
59 93 133
59 94 134
60 94 126
60 94 135
59 93 114
58 91 118
59 93 133
59 94 134
59 94 134
57 91 115
60 94 128
58 92 122
58 92 120
60 94 129
60 95 133
60 95 134
61 96 142
60 94 130
59 93 124
60 94 126
60 94 130
59 94 121
59 92 128
59 94 131
58 92 121
59 93 126
60 94 137
60 95 139
59 93 124
59 93 125
59 92 130
60 94 128
58 91 117
59 94 131
59 93 118
57 90 105
58 92 126
59 94 124
58 92 125
59 93 118
57 90 111
58 92 121
58 92 121
59 92 124
59 93 122
59 93 121
59 93 124
58 92 122
56 90 107
59 93 129
57 91 118
58 92 113
59 93 126
59 92 120
58 92 110
57 91 110
58 93 124
57 90 117
57 91 114
60 94 129
60 94 129
57 91 115
59 93 125
56 88 102
55 88 102
58 91 113
55 87 105
56 88 114
56 88 103
54 85 100
57 90 115
69 94 82
111 127 25
108 122 0
99 114 0
121 134 0
110 123 0
121 135 0
113 129 0
114 129 0
117 132 0
117 132 0
125 140 0
120 134 0
126 141 0
114 126 0
124 138 0
126 140 0
118 131 0
122 138 0
116 129 0
125 141 0
116 130 0
115 130 0
124 140 0
136 152 0
134 151 0
128 143 0
120 134 0
126 140 0
132 148 0
134 149 0
121 137 0
130 146 0
129 143 0
134 149 0
135 152 0
131 146 0
141 158 0
136 154 0
136 153 0
128 145 0
138 152 0
129 145 0
137 154 0
144 160 0
128 144 0
139 154 0
138 155 0
144 158 0
145 162 0
148 163 0
137 153 0
133 148 0
149 165 0
137 152 0
147 163 0
141 155 0
144 162 0
145 162 0
135 150 0
142 158 0
144 162 0
146 163 0
145 163 0
148 165 0
146 162 0
133 147 0
147 163 0
144 162 0
149 165 0
142 157 0
140 154 0
144 158 0
146 164 0
144 158 0
133 146 0
132 147 0
141 155 0
146 161 0
148 162 0
153 169 0
142 155 0
149 164 0
141 158 0
149 164 0
149 164 0
154 172 0
154 170 0
148 162 0
154 170 0
142 158 0
152 168 0
149 165 0
153 168 0
144 161 0
143 161 0
155 170 0
156 171 0
147 162 0
152 169 0
152 168 0
156 171 0
160 177 0
159 174 0
150 166 0
156 172 0
154 171 0
150 164 0
151 168 0
164 182 0
153 170 0
161 178 0
157 174 0
153 169 0
159 174 0
159 176 0
155 171 0
158 175 0
159 176 0
144 160 0
151 167 0
157 173 0
162 181 0
160 178 0
156 172 0
162 181 0
165 184 0
156 172 0
157 177 0
161 177 0
162 180 0
158 175 0
159 177 0
159 177 0
160 177 0
162 180 0
165 183 0
161 176 0
165 185 0
164 183 0
165 181 0
162 180 0
163 182 0
166 186 0
159 178 0
162 179 0
158 175 0
158 176 0
158 174 0
165 182 0
161 181 0
159 177 0
159 177 0
165 186 0
163 185 0
163 182 0
167 186 0
167 187 0
166 184 0
164 183 0
166 187 0
167 186 0
167 186 0
163 183 0
165 186 0
172 196 57
173 197 80
170 194 72
173 197 76
170 194 76
169 194 84
168 193 72
168 192 67
167 191 67
170 194 80
169 194 67
167 191 72
167 191 88
168 192 76
171 195 57
167 192 76
171 195 51
171 195 72
173 197 72
168 193 62
170 195 72
167 191 51
170 193 57
167 192 84
167 190 76
170 194 72
169 193 51
167 192 62
165 190 57
164 188 72
168 193 88
164 187 36
169 193 67
170 194 84
169 194 72
165 189 88
163 187 72
168 193 76
161 186 51
165 188 57
163 187 76
164 188 72
166 191 95
168 193 80
163 186 57
166 191 88
164 188 57
163 187 88
164 188 80
167 191 80
163 186 57
162 187 92
162 186 57
166 191 84
165 190 92
166 190 80
159 184 57
166 190 72
160 184 51
160 184 72
157 180 67
151 173 57
159 183 88
156 179 67
159 182 57
160 183 76
156 181 84
159 184 72
162 185 57
157 181 88
151 174 62
155 178 57
159 183 80
153 175 67
160 184 95
164 187 67
160 183 67
159 182 76
154 176 80
156 178 76
152 174 72
148 171 67
162 185 80
152 173 51
156 179 80
153 175 84
155 178 76
146 169 80
149 170 76
146 168 76
144 165 67
106 130 95
76 105 113
90 116 132
81 108 110
99 125 128
86 113 117
92 119 120
91 118 136
94 119 115
90 117 120
93 119 118
89 116 122
88 114 122
88 115 135
97 122 129
89 116 144
90 116 145
106 131 141
83 109 127
83 110 128
93 120 139
92 118 137
87 114 135
104 130 138
101 126 134
105 130 136
92 118 134
107 130 131
106 130 132
100 124 124
98 121 131
96 121 140
78 107 131
89 117 157
87 115 161
75 106 156
77 107 156
80 109 159
71 103 149
65 99 153
65 97 137
67 98 137
75 101 122
70 99 134
75 103 134
69 98 137
60 95 140
58 93 131
62 96 140
59 93 136
62 96 131
63 97 130
63 96 134
66 98 125
60 94 120
63 96 122
79 107 111
59 92 117
57 90 114
58 92 124
59 93 126
58 91 121
58 91 120
58 92 114
58 91 120
57 91 111
59 93 132
58 92 122
60 94 131
58 92 121
58 92 126
59 93 122
58 92 118
57 91 120
59 93 129
58 91 121
59 94 127
59 94 133
59 93 120
56 90 108
59 93 129
60 95 130
58 92 131
59 93 121
59 93 129
58 92 115
59 93 124
58 91 129
59 94 129
59 93 126
58 91 125
59 93 134
59 93 120
60 94 135
58 92 118
58 92 121
58 92 115
58 91 122
59 92 125
58 93 125
58 92 121
58 92 115
60 94 134
58 92 124
60 94 120
61 96 144
59 94 125
58 91 117
58 91 95
57 91 115
58 92 120
58 91 117
59 93 124
59 92 111
60 94 121
58 92 115
59 94 128
58 92 120
57 90 113
59 93 122
58 92 120
56 90 110
59 93 131
59 93 117
58 91 120
56 89 110
58 91 120
58 92 117
59 93 126
58 92 118
58 92 124
58 91 118
57 90 100
58 92 103
59 93 121
57 90 113
56 89 99
58 91 113
55 87 103
58 91 110
56 89 100
56 88 105
55 88 97
74 97 78
115 130 25
118 133 0
117 132 0
110 126 0
115 132 0
118 132 0
108 123 0
113 128 0
115 131 0
116 131 0
123 139 0
121 137 0
125 139 0
123 138 0
110 125 0
127 141 0
129 146 0
127 144 0
116 131 0
117 134 0
125 143 0
116 134 0
139 155 0
130 147 0
120 136 0
130 145 0
126 143 0
131 147 0
129 146 0
134 150 0
131 146 0
138 155 0
133 150 0
138 155 0
132 149 0
129 145 0
138 153 0
128 144 0
135 150 0
134 150 0
131 147 0
134 148 0
136 152 0
132 148 0
135 152 0
142 160 0
137 152 0
142 157 0
144 162 0
133 149 0
141 157 0
143 159 0
133 147 0
146 161 0
138 155 0
137 153 0
142 156 0
144 159 0
144 161 0
145 161 0
144 160 0
144 160 0
150 165 0
141 158 0
141 157 0
139 151 0
142 156 0
144 159 0
147 163 0
144 159 0
140 154 0
142 157 0
158 174 0
145 161 0
148 162 0
136 150 0
147 163 0
150 167 0
149 165 0
149 164 0
153 171 0
146 161 0
147 162 0
152 168 0
150 163 0
145 159 0
153 170 0
154 171 0
150 168 0
148 164 0
149 164 0
143 161 0
153 169 0
156 172 0
156 173 0
148 162 0
155 173 0
153 169 0
154 173 0
157 175 0
151 168 0
149 164 0
152 169 0
157 173 0
155 170 0
158 174 0
156 173 0
160 177 0
151 166 0
149 165 0
154 170 0
156 174 0
159 176 0
155 173 0
156 173 0
154 172 0
157 173 0
154 170 0
156 173 0
154 170 0
158 175 0
163 181 0
155 173 0
162 182 0
156 173 0
162 179 0
157 175 0
155 172 0
159 177 0
168 185 0
160 179 0
162 180 0
162 181 0
156 175 0
163 181 0
166 185 0
161 178 0
160 179 0
164 184 0
162 181 0
163 181 0
160 179 0
160 179 0
163 184 0
161 179 0
160 180 0
162 180 0
158 176 0
163 182 0
163 183 0
166 187 0
165 186 0
160 179 0
161 180 0
163 183 0
160 179 0
166 184 0
162 181 0
167 186 0
164 181 0
160 179 0
163 183 0
166 186 0
163 183 0
165 186 0
173 197 80
169 192 76
167 191 62
168 193 72
173 197 80
170 194 76
170 194 51
168 192 88
172 196 62
170 194 76
168 192 44
171 194 76
172 196 76
174 197 76
171 195 57
163 188 62
168 192 67
171 195 84
170 194 57
167 192 84
170 195 72
174 197 57
169 194 72
166 189 62
169 193 67
168 193 88
169 193 72
166 191 72
167 191 76
167 193 99
165 190 72
168 192 62
167 192 92
167 192 67
167 191 88
163 187 57
166 191 92
169 192 57
170 195 92
165 190 95
162 186 67
168 193 72
167 191 67
168 192 76
163 188 62
169 194 88
168 191 72
160 185 72
166 189 51
160 183 51
155 179 67
168 193 88
163 188 80
158 181 67
166 191 84
161 186 80
164 188 84
154 177 36
161 186 92
168 192 92
161 185 92
152 176 62
162 186 72
162 186 84
156 180 72
160 184 80
157 181 72
162 186 72
163 187 76
163 187 72
163 187 92
159 182 84
153 176 62
149 171 57
156 179 62
149 172 84
158 181 72
153 175 76
160 182 62
139 162 72
151 173 84
150 173 57
155 177 80
153 176 62
157 179 76
153 175 88
148 170 67
156 179 72
141 163 44
146 166 62
144 165 57
140 161 36
94 119 113
85 112 113
86 114 126
90 116 115
83 108 108
82 109 110
84 111 119
86 113 105
90 117 126
101 126 124
91 117 138
84 110 127
88 115 132
89 116 125
97 122 129
77 107 136
92 118 123
97 124 144
84 112 127
99 125 139
95 120 128
105 130 129
87 115 136
108 132 146
104 129 144
103 129 129
95 120 140
87 113 125
106 129 119
96 122 142
102 126 140
95 120 137
85 113 136
83 112 161
78 109 163
90 117 160
67 100 148
80 110 155
82 111 153
73 103 143
70 98 134
75 102 133
75 102 141
72 100 137
75 100 122
61 95 137
58 92 121
57 91 120
60 95 138
59 93 133
64 97 130
63 96 115
64 96 122
64 97 118
65 97 120
81 110 111
69 100 113
57 91 119
58 92 130
57 91 115
57 90 112
58 91 111
57 90 115
57 91 115
58 91 125
58 92 129
58 91 118
58 92 114
58 91 122
57 91 111
57 91 117
59 93 126
58 91 114
58 92 120
57 90 126
58 92 126
59 94 133
57 91 119
58 92 126
57 91 117
57 90 97
58 91 121
60 95 133
57 91 115
60 95 122
59 93 125
59 93 128
59 94 134
59 93 128
58 91 115
58 91 122
58 92 124
59 93 126
59 93 124
59 93 130
58 92 118
58 92 118
57 91 113
59 94 121
58 93 125
59 93 129
58 91 118
58 92 121
59 93 117
59 93 124
58 91 117
59 93 124
58 91 117
59 93 118
59 94 129
60 94 131
58 91 129
60 94 131
58 91 113
57 91 115
58 92 115
58 92 115
59 93 122
57 90 115
57 91 114
58 92 126
55 87 114
58 91 125
59 93 113
59 93 130
57 91 113
57 91 113
58 91 115
57 90 118
57 90 113
58 92 120
56 89 111
57 90 107
56 88 118
56 89 103
55 87 107
53 84 102
55 86 103
56 89 95
56 89 103
54 86 102
81 100 74
112 127 0
107 122 0
117 133 0
99 113 0
119 134 0
104 118 0
111 126 0
119 134 0
125 141 0
112 128 0
125 138 0
127 142 0
106 120 0
123 139 0
125 141 0
122 139 0
128 143 0
113 128 0
130 145 0
120 136 0
124 138 0
118 134 0
123 137 0
130 147 0
127 144 0
129 144 0
123 140 0
129 145 0
130 145 0
123 138 0
129 144 0
121 137 0
127 141 0
134 149 0
144 162 0
124 138 0
137 155 0
130 146 0
140 158 0
140 155 0
125 141 0
133 146 0
126 142 0
139 157 0
130 145 0
138 155 0
134 151 0
145 162 0
148 164 0
136 152 0
134 148 0
133 147 0
143 160 0
140 157 0
138 153 0
139 157 0
139 155 0
139 155 0
130 143 0
140 155 0
144 163 0
147 163 0
155 173 0
144 158 0
149 162 0
141 157 0
138 154 0
142 156 0
142 157 0
152 169 0
146 164 0
150 168 0
134 148 0
144 161 0
139 155 0
143 158 0
148 164 0
135 150 0
149 166 0
152 170 0
145 158 0
142 157 0
154 173 0
150 166 0
148 165 0
149 166 0
142 157 0
144 162 0
159 175 0
150 167 0
152 166 0
149 165 0
151 166 0
147 163 0
148 165 0
154 171 0
145 160 0
148 163 0
154 171 0
148 164 0
152 167 0
153 167 0
160 177 0
154 169 0
158 176 0
149 164 0
155 172 0
158 174 0
154 170 0
153 169 0
159 176 0
158 175 0
150 167 0
149 163 0
157 174 0
154 172 0
157 172 0
147 163 0
152 170 0
158 176 0
160 179 0
159 176 0
161 178 0
154 174 0
162 180 0
165 182 0
158 174 0
160 177 0
158 173 0
162 181 0
159 177 0
165 186 0
153 172 0
161 179 0
162 180 0
155 173 0
165 183 0
159 179 0
162 182 0
164 184 0
161 178 0
163 183 0
160 179 0
163 182 0
164 183 0
165 185 0
162 180 0
165 186 0
159 178 0
162 182 0
158 178 0
162 180 0
160 178 0
162 181 0
162 181 0
161 181 0
168 188 0
166 187 0
165 183 0
159 178 0
166 187 0
167 187 0
162 181 0
164 184 0
162 180 0
162 181 0
171 196 95
170 193 72
168 192 67
169 193 62
168 192 67
171 195 80
168 192 72
169 194 95
172 196 72
173 197 72
169 193 57
167 191 76
171 196 99
168 192 72
171 195 72
169 193 57
168 192 51
169 193 62
168 192 57
161 185 67
168 193 92
170 193 44
165 189 62
172 196 72
166 189 84
168 191 51
167 192 72
171 196 80
166 191 88
167 191 80
167 190 76
169 194 80
164 188 67
168 192 67
169 193 62
167 191 84
160 184 80
164 189 44
166 189 51
170 195 67
165 190 88
161 185 99
167 192 84
166 191 76
161 186 57
167 191 84
165 188 72
165 189 51
164 188 72
168 191 44
160 183 76
167 191 95
171 195 88
164 188 76
160 184 88
163 187 72
163 187 76
160 183 57
163 186 92
165 188 76
165 189 84
164 187 88
165 187 76
162 186 62
162 185 76
160 183 76
157 180 44
154 177 62
168 191 84
157 180 76
155 179 72
163 187 88
158 182 72
156 178 57
155 178 62
152 175 62
162 186 88
157 180 84
162 185 76
158 181 88
151 173 80
162 185 95
148 171 72
151 174 80
147 170 36
154 177 80
144 166 62
154 176 80
141 162 76
139 160 36
150 172 72
142 164 84
143 165 57
106 130 125
89 115 124
88 115 122
80 107 113
76 104 117
103 128 136
93 119 128
94 119 125
95 121 142
103 128 143
95 120 131
95 120 124
109 134 139
99 124 133
91 117 120
85 113 128
91 118 141
91 116 131
109 132 134
92 118 140
93 120 140
99 124 134
81 109 114
99 124 134
114 137 132
102 127 133
103 128 139
93 117 99
98 120 135
99 122 131
97 121 129
79 108 134
82 111 153
85 114 159
77 108 151
83 111 151
91 118 157
86 114 157
80 109 148
72 100 131
66 97 142
67 98 133
69 97 122
68 98 132
75 101 125
59 94 135
60 94 135
60 95 137
60 95 131
62 95 133
61 94 117
66 98 123
59 92 110
57 89 116
64 94 109
78 106 113
59 93 124
57 91 118
57 91 110
58 91 122
59 93 126
58 92 125
59 93 124
57 90 110
58 91 117
58 92 124
58 91 114
59 93 128
58 92 125
57 90 111
60 95 128
58 92 118
59 94 125
57 90 116
58 92 115
58 92 124
58 92 124
58 92 124
58 92 118
57 91 115
59 92 126
59 93 127
58 92 115
59 93 126
59 94 135
58 92 128
58 93 122
58 92 121
59 93 118
59 93 129
58 92 113
59 93 125
59 93 120
57 91 117
57 90 117
57 91 118
57 91 113
59 92 111
58 92 118
57 91 111
57 90 108
57 90 118
58 92 118
58 92 125
58 92 113
57 91 114
59 93 122
58 92 125
58 92 125
59 92 118
58 92 118
58 92 117
58 91 120
59 93 124
56 90 108
59 94 126
58 92 115
58 91 110
60 94 117
56 90 102
57 90 111
59 92 124
58 91 118
58 91 110
57 90 110
59 93 121
56 89 111
57 90 110
55 87 102
55 88 102
57 90 102
56 89 103
56 88 105
56 88 110
55 87 95
56 88 102
53 84 88
55 87 102
52 82 97
99 118 47
95 110 0
114 127 0
118 132 0
118 134 0
114 129 0
99 114 0
110 125 0
111 126 0
115 131 0
115 129 0
116 132 0
108 123 0
117 132 0
115 130 0
126 141 0
115 130 0
116 130 0
120 135 0
117 133 0
135 153 0
123 138 0
116 131 0
126 142 0
124 141 0
132 148 0
132 149 0
121 136 0
116 132 0
133 148 0
123 139 0
130 147 0
127 142 0
127 143 0
123 139 0
127 144 0
138 154 0
131 145 0
144 160 0
134 150 0
138 155 0
132 150 0
136 152 0
133 151 0
138 153 0
135 150 0
131 146 0
138 153 0
131 146 0
140 157 0
132 147 0
139 155 0
148 164 0
135 151 0
140 157 0
135 150 0
141 157 0
148 163 0
141 157 0
129 145 0
148 164 0
149 167 0
147 163 0
145 161 0
133 148 0
138 154 0
147 164 0
146 165 0
144 160 0
146 164 0
144 160 0
145 161 0
150 170 0
145 161 0
142 160 0
145 161 0
147 165 0
149 165 0
154 173 0
146 160 0
147 163 0
139 155 0
145 162 0
143 158 0
151 169 0
137 154 0
146 163 0
146 164 0
148 166 0
144 158 0
151 166 0
143 159 0
148 164 0
157 174 0
152 167 0
154 169 0
149 167 0
151 167 0
158 175 0
154 168 0
155 172 0
154 170 0
150 168 0
154 171 0
152 169 0
151 165 0
154 172 0
156 174 0
147 165 0
151 168 0
152 169 0
154 171 0
149 166 0
152 168 0
156 175 0
157 173 0
158 177 0
158 177 0
155 172 0
160 177 0
158 177 0
156 173 0
160 179 0
160 177 0
165 184 0
162 179 0
157 176 0
158 176 0
161 179 0
162 182 0
159 178 0
157 174 0
154 171 0
159 179 0
157 174 0
155 174 0
161 182 0
157 175 0
163 183 0
161 178 0
156 173 0
158 177 0
158 177 0
161 181 0
169 188 0
163 183 0
164 184 0
167 185 0
159 179 0
162 180 0
158 176 0
164 184 0
161 181 0
163 183 0
162 183 0
158 175 0
163 184 0
164 185 0
163 183 0
165 186 0
165 185 0
164 182 0
164 183 0
162 180 0
165 182 0
164 183 0
163 180 0
165 184 0
168 191 62
168 193 72
170 193 67
172 197 72
173 197 67
170 194 72
168 192 62
172 196 72
164 188 62
170 193 44
170 195 76
168 192 84
166 190 51
166 190 62
169 193 62
168 192 76
171 195 95
166 190 72
164 188 72
169 193 57
167 191 72
169 193 76
166 190 62
165 189 57
170 193 57
163 187 44
170 194 72
165 188 62
162 186 67
168 192 62
168 192 72
168 192 62
167 190 62
169 194 76
161 185 44
160 184 72
167 191 76
167 191 67
158 183 84
169 194 84
163 186 62
165 190 84
168 191 57
163 188 72
171 195 111
171 195 102
169 192 72
161 185 80
163 187 92
171 194 76
167 192 88
167 190 84
169 192 80
161 184 108
163 186 95
165 188 84
161 185 76
165 189 92
162 186 76
168 191 95
159 181 62
162 186 92
167 190 88
169 192 95
163 186 95
158 181 88
162 185 72
162 186 80
159 182 76
162 185 92
156 178 62
153 176 67
155 179 72
159 182 67
157 180 72
161 184 84
158 181 84
157 180 95
149 171 76
162 184 76
149 170 67
149 172 51
159 182 80
154 176 62
158 181 67
146 168 72
141 163 67
150 171 67
141 162 44
152 174 76
158 179 67
148 168 76
142 162 57
141 164 99
94 120 107
77 104 107
88 114 115
81 109 120
80 107 119
96 121 113
81 108 113
93 119 133
92 118 134
81 108 125
99 123 123
94 120 107
87 114 125
91 117 114
84 111 118
92 118 123
90 116 118
81 109 136
90 117 145
95 120 128
104 128 136
96 121 134
98 123 121
102 127 136
102 126 117
112 134 128
98 122 127
94 119 118
101 125 145
98 122 129
98 122 141
87 114 139
75 106 154
84 113 152
78 108 158
74 105 149
85 113 156
94 120 155
85 112 151
70 99 137
72 100 125
76 101 126
77 102 126
66 95 127
64 94 134
59 93 122
60 94 125
59 94 133
57 91 122
64 96 121
59 94 129
64 96 114
58 91 111
67 98 107
84 111 97
59 91 118
58 91 111
56 90 107
58 91 125
58 91 120
59 93 123
59 92 124
58 91 121
59 93 135
57 90 118
58 91 115
57 90 124
57 91 112
58 92 124
58 92 129
58 92 125
58 92 118
59 93 122
58 92 121
60 94 124
57 91 113
58 92 118
59 93 124
59 93 124
58 91 113
58 92 113
58 91 122
58 92 124
59 92 126
59 93 125
59 92 114
61 95 136
59 94 125
57 91 121
58 91 113
59 93 122
58 92 121
58 92 120
59 93 125
60 95 131
58 92 114
58 93 118
58 92 108
58 92 120
59 93 120
59 94 120
58 91 113
59 93 125
57 91 124
56 90 113
59 93 125
58 91 125
58 91 113
58 93 111
56 90 115
57 90 114
56 89 97
58 91 108
58 92 117
58 91 115
59 92 120
59 92 125
59 93 125
56 90 107
59 92 121
56 89 117
57 90 118
56 90 111
57 90 107
58 92 113
57 90 107
56 88 110
56 89 111
57 90 114
57 90 118
56 89 108
54 86 99
57 90 113
55 87 114
56 88 103
55 87 100
57 85 84
97 115 47
107 121 0
110 125 0
99 115 0
116 132 0
112 127 0
101 115 0
115 128 0
119 132 0
102 116 0
110 127 0
126 142 0
120 136 0
112 128 0
131 149 0
120 135 0
120 136 0
120 135 0
122 136 0
123 139 0
121 138 0
118 137 0
122 138 0
119 134 0
129 145 0
132 150 0
125 141 0
132 149 0
122 139 0
128 144 0
120 134 0
138 156 0
130 146 0
132 149 0
143 162 0
130 148 0
137 154 0
126 142 0
132 147 0
138 154 0
133 151 0
135 151 0
138 155 0
144 160 0
143 159 0
138 154 0
128 145 0
131 146 0
136 155 0
130 144 0
139 154 0
143 160 0
136 152 0
140 159 0
141 158 0
138 153 0
141 158 0
141 159 0
142 156 0
134 152 0
131 147 0
147 163 0
141 157 0
140 155 0
148 166 0
145 161 0
144 161 0
153 171 0
137 155 0
151 167 0
150 165 0
147 163 0
137 151 0
142 159 0
148 165 0
142 160 0
148 164 0
146 162 0
153 172 0
146 164 0
146 161 0
139 154 0
148 166 0
146 162 0
146 164 0
150 167 0
154 171 0
147 164 0
146 164 0
157 174 0
150 166 0
142 157 0
150 166 0
149 166 0
152 169 0
156 173 0
148 163 0
155 173 0
149 167 0
152 169 0
157 173 0
152 169 0
156 174 0
154 172 0
161 177 0
146 162 0
155 171 0
155 171 0
151 167 0
153 171 0
144 158 0
158 176 0
149 166 0
159 176 0
156 173 0
159 178 0
156 173 0
155 174 0
153 169 0
155 173 0
159 178 0
160 177 0
155 173 0
158 176 0
158 175 0
161 179 0
160 174 0
162 180 0
155 173 0
157 178 0
160 178 0
164 182 0
156 174 0
158 177 0
156 174 0
159 178 0
164 181 0
163 183 0
159 177 0
159 177 0
156 173 0
157 175 0
164 183 0
161 180 0
164 184 0
160 178 0
159 177 0
164 183 0
160 179 0
165 184 0
159 179 0
163 182 0
162 182 0
166 184 0
160 179 0
157 177 0
161 180 0
164 182 0
163 183 0
166 185 0
160 181 0
166 187 0
162 182 0
165 183 0
161 180 0
169 189 0
165 185 0
162 181 0
165 186 0
171 196 92
170 194 80
176 199 76
172 196 80
173 197 80
168 193 72
170 194 84
170 194 72
169 193 62
170 195 76
170 194 76
171 195 80
170 194 72
170 194 88
171 194 72
170 193 76
168 193 84
169 192 36
167 192 76
169 193 95
165 189 57
170 194 76
166 191 84
167 191 51
172 196 84
170 195 99
169 193 76
167 191 51
169 193 80
168 193 95
168 192 72
165 189 67
171 196 80
167 192 72
164 189 80
167 192 80
169 194 84
170 193 72
166 191 108
168 191 72
169 192 88
166 189 92
168 192 99
163 187 92
166 190 84
166 189 80
165 187 88
157 181 76
168 191 84
162 185 72
163 185 80
162 185 62
171 194 95
158 180 80
163 186 80
161 184 72
165 188 72
164 187 92
164 186 84
163 186 99
164 187 80
165 188 102
162 186 88
161 185 92
167 189 108
164 187 84
164 187 80
152 175 72
152 175 84
159 182 102
158 179 76
164 188 84
155 177 80
151 173 80
165 188 95
159 182 67
152 176 51
146 169 76
159 181 67
153 174 76
160 182 67
153 175 44
152 174 92
151 173 62
148 170 72
145 166 62
146 167 84
156 177 76
153 175 72
148 169 67
144 164 76
149 171 67
136 157 84
142 163 76
132 153 92
79 106 110
74 103 113
100 125 127
82 109 112
93 119 125
95 122 130
97 122 122
90 116 121
89 115 125
96 120 124
84 111 126
84 111 135
90 116 126
80 108 124
95 121 130
93 118 129
82 110 131
91 117 128
91 117 129
82 109 124
93 120 136
103 128 134
106 130 141
95 121 113
105 130 143
86 111 109
100 123 103
86 113 136
83 111 136
93 118 127
88 115 129
74 105 157
67 100 147
77 106 149
77 108 151
91 118 155
85 113 152
78 108 145
71 102 142
65 96 131
70 98 128
59 94 132
71 101 134
76 101 130
59 93 135
57 91 118
60 94 139
67 99 118
58 92 124
64 96 115
63 95 117
59 93 115
60 93 124
89 114 90
69 99 111
58 92 114
58 91 120
58 92 117
57 90 120
57 91 120
55 88 108
58 91 121
59 93 123
56 89 108
58 91 120
59 93 122
56 89 120
57 90 114
57 91 115
60 94 122
59 93 129
57 90 114
57 91 122
58 92 125
58 92 127
59 93 128
58 92 113
55 88 111
57 91 122
58 92 113
57 91 110
58 91 114
60 94 126
58 91 114
60 94 130
60 94 131
58 92 117
59 93 121
60 95 125
60 95 128
58 92 120
58 92 121
57 90 107
57 91 111
56 88 100
59 93 117
59 93 128
59 92 126
58 92 121
58 91 120
58 91 113
58 91 115
59 93 129
57 91 122
57 90 99
57 91 115
58 92 118
57 90 110
56 90 115
57 90 113
57 91 125
57 90 108
58 91 113
57 90 108
59 92 118
58 91 118
57 90 120
57 89 114
57 90 111
58 91 115
57 90 121
57 90 111
57 91 108
54 86 102
56 89 108
56 89 107
58 92 110
57 89 103
58 91 117
57 90 110
57 90 108
57 90 110
54 86 100
53 84 92
64 89 86
96 111 36
112 127 0
116 131 0
107 122 0
112 125 0
107 123 0
113 128 0
116 130 0
112 126 0
110 125 0
128 144 0
111 126 0
106 117 0
119 133 0
109 125 0
122 138 0
119 134 0
127 143 0
115 131 0
123 139 0
112 129 0
121 139 0
125 140 0
126 144 0
133 149 0
138 153 0
131 148 0
131 149 0
132 148 0
124 142 0
122 140 0
124 139 0
124 140 0
135 151 0
134 152 0
134 151 0
131 149 0
122 140 0
141 157 0
138 154 0
139 156 0
135 150 0
135 150 0
133 150 0
139 157 0
151 170 0
138 154 0
143 160 0
136 154 0
136 152 0
137 151 0
141 158 0
145 161 0
133 149 0
136 152 0
134 149 0
144 160 0
137 152 0
129 148 0
135 152 0
136 154 0
144 160 0
137 154 0
149 164 0
140 156 0
148 166 0
136 155 0
138 155 0
147 164 0
131 146 0
152 169 0
145 163 0
145 162 0
144 159 0
141 155 0
146 161 0
143 160 0
144 158 0
140 155 0
141 157 0
150 165 0
149 165 0
151 167 0
145 160 0
145 161 0
150 166 0
147 162 0
149 167 0
150 168 0
154 171 0
152 169 0
144 161 0
149 167 0
151 168 0
145 163 0
151 166 0
146 162 0
150 165 0
156 172 0
154 171 0
149 164 0
156 175 0
156 174 0
152 170 0
153 169 0
153 169 0
153 167 0
156 175 0
152 169 0
151 168 0
155 171 0
156 173 0
152 169 0
151 169 0
156 173 0
158 176 0
150 168 0
153 169 0
160 179 0
159 179 0
159 177 0
158 177 0
158 176 0
162 182 0
159 179 0
160 177 0
163 181 0
160 178 0
157 174 0
159 178 0
164 181 0
158 177 0
158 176 0
164 184 0
158 177 0
167 186 0
163 180 0
165 186 0
152 168 0
162 181 0
157 172 0
159 179 0
166 186 0
164 182 0
164 183 0
168 187 0
163 182 0
161 180 0
157 174 0
163 182 0
159 176 0
163 181 0
167 187 0
160 179 0
167 189 0
166 184 0
163 182 0
163 182 0
164 184 0
167 188 0
166 186 0
163 183 0
161 181 0
167 185 0
167 187 0
164 184 0
165 185 0
161 181 0
162 181 0
168 189 0
171 195 67
168 191 72
173 197 72
166 190 84
169 194 62
173 196 67
170 194 102
169 193 67
173 197 84
170 193 57
172 195 62
168 192 67
170 195 92
169 193 62
169 193 67
163 187 67
167 191 80
164 188 67
167 192 62
168 193 95
173 198 72
167 191 57
173 197 76
169 193 76
170 195 80
168 192 57
164 188 76
169 193 76
167 192 84
159 183 57
167 191 72
166 190 76
166 189 62
172 195 80
167 190 72
169 192 88
173 196 99
164 187 57
164 188 84
167 190 84
168 192 88
169 192 92
161 184 72
166 190 88
161 184 72
163 188 84
170 194 84
167 190 76
161 185 84
160 184 88
162 184 76
166 189 84
162 185 62
167 190 92
165 188 95
160 183 84
163 186 84
164 188 80
173 196 117
161 183 72
164 187 76
166 189 105
164 187 67
169 192 102
158 181 67
162 186 62
157 180 76
159 181 72
157 180 84
165 187 84
159 181 84
163 186 95
154 176 67
157 180 88
154 176 99
163 185 102
153 176 72
163 185 92
147 169 80
155 176 88
150 171 57
153 175 80
152 175 44
144 165 67
153 175 62
149 171 67
141 163 57
148 171 84
147 168 76
141 162 72
147 169 72
134 155 67
144 165 92
141 161 67
133 153 51
127 148 100
89 115 103
90 118 118
98 123 120
87 113 115
80 107 119
100 124 108
82 109 113
84 111 123
85 110 108
85 111 113
85 113 131
93 118 126
92 117 115
96 120 134
92 118 124
92 117 119
92 117 136
93 118 136
101 125 129
98 124 134
82 109 126
99 123 139
103 128 129
98 123 140
97 122 127
90 115 128
97 120 125
80 108 136
95 119 134
86 112 121
90 116 141
86 114 159
68 101 152
78 108 159
75 106 158
86 114 150
76 106 137
71 103 140
73 102 136
71 99 127
82 105 132
75 102 134
71 99 133
66 96 123
58 92 125
59 93 121
60 93 126
61 95 129
61 94 128
63 95 114
59 93 120
63 95 115
68 97 102
83 111 115
57 90 111
57 90 113
57 90 108
57 90 114
56 90 107
57 91 109
56 89 94
57 91 115
58 91 121
56 90 107
59 93 121
57 91 114
57 90 117
55 88 99
54 86 98
56 89 111
57 91 121
56 89 113
59 93 128
58 92 113
59 93 130
58 92 125
56 89 95
59 93 118
59 93 118
58 91 120
57 91 120
59 93 122
58 91 113
57 91 115
58 91 120
57 90 110
57 91 114
58 92 122
59 92 118
58 92 121
58 92 120
59 93 117
60 94 121
58 92 124
57 90 117
58 91 113
56 89 97
58 91 118
56 90 117
59 93 120
58 92 117
56 89 108
59 92 121
58 91 111
57 91 108
57 90 114
59 93 121
56 90 105
58 92 117
57 91 114
55 88 102
58 92 117
57 90 111
58 92 117
57 90 107
57 91 108
56 89 95
57 91 108
58 92 124
57 91 111
56 88 108
56 88 110
57 90 102
57 90 97
56 89 105
58 92 115
56 88 113
55 87 100
54 86 107
52 83 90
57 89 108
54 86 97
81 103 90
92 107 18
118 131 0
103 118 0
106 121 0
106 121 0
110 125 0
116 131 0
117 131 0
108 123 0
115 129 0
113 130 0
119 136 0
123 139 0
120 134 0
111 128 0
124 141 0
124 139 0
120 136 0
119 136 0
132 150 0
130 148 0
123 141 0
128 144 0
133 149 0
131 148 0
118 135 0
134 150 0
124 139 0
126 143 0
125 141 0
127 142 0
124 142 0
136 153 0
133 149 0
132 149 0
129 147 0
124 140 0
125 143 0
131 147 0
134 151 0
135 153 0
137 154 0
136 153 0
145 160 0
134 149 0
135 149 0
142 157 0
135 153 0
135 154 0
137 154 0
130 147 0
145 163 0
140 156 0
145 160 0
143 161 0
144 160 0
144 159 0
136 152 0
139 156 0
148 164 0
144 161 0
142 159 0
139 156 0
146 162 0
144 161 0
147 164 0
134 150 0
144 161 0
149 166 0
130 148 0
144 162 0
145 160 0
143 160 0
141 158 0
150 165 0
154 172 0
139 155 0
150 166 0
146 161 0
149 165 0
139 155 0
148 165 0
148 165 0
133 149 0
155 174 0
151 168 0
144 161 0
138 156 0
153 171 0
142 157 0
148 165 0
146 164 0
148 164 0
156 174 0
151 169 0
151 167 0
149 168 0
140 158 0
152 168 0
147 162 0
146 164 0
155 170 0
156 174 0
154 172 0
154 172 0
154 172 0
156 172 0
158 176 0
155 173 0
155 172 0
148 164 0
158 176 0
152 171 0
156 173 0
153 170 0
153 169 0
149 164 0
156 174 0
157 174 0
159 176 0
160 178 0
154 170 0
157 176 0
160 180 0
152 169 0
157 173 0
159 177 0
159 178 0
158 175 0
158 176 0
161 178 0
154 169 0
167 185 0
160 179 0
164 183 0
159 175 0
163 181 0
158 177 0
161 179 0
162 180 0
161 179 0
159 178 0
163 180 0
161 180 0
165 182 0
161 179 0
161 181 0
161 180 0
162 182 0
159 178 0
170 191 0
163 182 0
165 185 0
166 186 0
164 184 0
162 181 0
166 187 0
163 184 0
158 177 0
165 186 0
165 185 0
164 182 0
164 184 0
166 184 0
163 184 0
168 190 0
168 189 0
166 185 0
166 186 0
164 184 0
163 182 0
168 192 51
169 193 67
171 195 80
175 198 76
172 197 92
169 193 62
168 193 88
167 192 67
172 196 67
170 194 92
166 189 44
170 194 62
168 192 44
168 192 84
169 193 62
168 193 72
170 195 88
170 194 76
167 191 62
165 190 72
169 191 51
166 191 57
168 192 76
169 193 80
168 192 72
172 196 99
169 193 57
162 186 62
167 191 72
170 194 88
172 195 92
172 196 95
171 194 84
172 197 108
166 190 84
170 194 99
172 196 95
164 189 92
169 193 80
168 192 99
165 190 67
169 194 111
162 185 88
165 188 80
165 189 102
167 190 105
164 187 51
167 191 95
166 190 62
166 189 105
165 188 95
161 184 76
163 187 105
166 188 76
165 188 95
164 187 92
164 187 99
165 187 76
159 182 88
166 188 102
160 183 95
164 187 108
162 185 80
160 182 105
156 178 88
162 185 99
156 178 84
165 188 88
162 184 95
158 181 67
154 177 99
160 183 95
155 178 62
159 181 95
161 184 80
154 176 80
156 179 92
155 176 72
152 174 99
151 173 51
148 171 70
153 177 80
159 181 76
148 171 67
156 177 67
154 176 57
153 174 80
153 175 72
144 166 51
147 169 57
149 171 67
142 164 72
130 151 51
133 153 44
142 162 51
156 177 80
115 137 90
90 115 110
87 113 109
85 111 103
90 116 130
85 112 115
92 117 122
89 114 111
87 113 122
92 117 117
107 131 128
91 116 118
80 107 110
86 113 139
96 121 118
102 127 132
104 128 136
96 121 120
89 115 136
100 125 137
93 120 133
108 133 134
105 129 138
104 128 131
104 128 123
100 125 118
112 135 131
99 124 133
85 110 130
91 116 136
84 111 131
77 106 147
71 103 147
74 104 148
83 111 154
77 107 144
80 108 149
72 104 141
63 96 137
68 96 124
71 99 124
74 100 132
65 94 127
70 97 121
67 98 131
58 91 126
62 94 122
60 94 117
63 94 112
61 93 118
63 95 112
67 97 113
69 97 94
93 117 92
58 91 118
57 91 118
58 91 118
56 89 107
58 91 116
57 90 115
58 92 118
58 91 115
57 90 108
58 92 126
59 93 124
58 92 121
57 91 114
58 92 124
57 91 122
57 90 113
56 89 105
56 89 99
58 91 114
58 93 114
57 90 115
58 92 108
56 89 112
58 92 118
58 91 118
57 90 103
58 91 118
58 91 114
58 92 121
58 91 118
59 93 118
58 92 115
58 92 115
57 90 121
58 92 117
59 93 120
57 90 97
59 93 128
58 92 120
59 93 125
59 92 128
57 91 108
58 92 115
59 92 115
57 91 117
58 92 122
57 91 121
59 93 124
58 91 114
57 90 120
59 92 122
58 91 111
59 94 118
57 91 124
58 91 120
57 90 117
55 88 103
56 89 118
57 91 107
57 90 113
54 86 82
57 90 110
58 91 115
57 90 117
58 91 125
56 88 110
55 88 97
57 90 115
57 89 115
56 89 113
53 86 86
56 88 108
55 88 92
56 88 102
54 86 103
56 88 102
55 85 82
89 110 60
103 118 0
99 111 0
112 126 0
109 125 0
101 116 0
92 105 0
120 136 0
103 117 0
105 119 0
112 128 0
115 129 0
116 132 0
113 128 0
116 132 0
120 136 0
129 146 0
129 146 0
110 127 0
118 135 0
124 142 0
120 136 0
123 140 0
128 145 0
118 135 0
126 143 0
131 147 0
134 152 0
127 143 0
126 142 0
119 136 0
136 153 0
120 136 0
133 151 0
135 153 0
125 141 0
123 139 0
133 150 0
128 142 0
135 153 0
131 147 0
123 140 0
131 149 0
141 156 0
124 141 0
142 158 0
138 155 0
136 152 0
138 155 0
137 152 0
147 164 0
144 161 0
139 156 0
141 158 0
130 145 0
137 156 0
142 159 0
143 161 0
142 156 0
142 159 0
144 163 0
142 159 0
139 156 0
147 165 0
141 159 0
145 163 0
148 165 0
138 156 0
146 160 0
139 157 0
144 163 0
152 170 0
141 158 0
140 157 0
139 156 0
146 164 0
139 157 0
149 163 0
139 157 0
143 161 0
153 170 0
153 171 0
143 160 0
144 159 0
154 173 0
150 169 0
138 155 0
146 163 0
152 169 0
152 168 0
147 166 0
151 170 0
156 173 0
151 168 0
145 161 0
145 163 0
150 168 0
153 169 0
156 173 0
153 171 0
148 163 0
153 169 0
154 172 0
153 171 0
152 169 0
156 174 0
157 176 0
156 173 0
157 174 0
163 179 0
155 172 0
152 171 0
156 174 0
153 172 0
145 163 0
155 173 0
162 178 0
155 173 0
159 179 0
156 173 0
159 177 0
155 172 0
155 172 0
156 172 0
147 163 0
156 173 0
157 174 0
162 180 0
159 177 0
160 180 0
157 174 0
156 175 0
158 175 0
152 167 0
154 173 0
158 177 0
162 180 0
164 183 0
162 181 0
161 180 0
160 180 0
158 176 0
162 183 0
157 175 0
159 178 0
160 179 0
162 181 0
161 179 0
165 185 0
161 179 0
161 181 0
163 183 0
163 179 0
162 180 0
160 177 0
164 183 0
162 181 0
162 180 0
160 179 0
160 176 0
159 177 0
161 181 0
161 181 0
162 180 0
167 188 0
169 189 0
164 183 0
165 186 0
161 179 0
163 182 0
161 182 0
160 180 0
169 189 0
167 191 72
171 195 84
171 195 72
170 193 62
172 195 67
167 191 72
170 194 72
166 190 62
174 199 99
171 195 76
169 194 67
171 195 88
171 194 92
169 193 72
167 190 57
166 190 57
170 194 80
167 191 57
171 195 62
167 190 62
169 193 92
167 191 51
168 192 88
164 188 72
161 186 67
169 193 88
168 192 72
170 194 84
169 193 92
168 192 76
167 190 88
169 193 84
171 193 62
171 195 84
165 189 92
166 188 102
168 191 72
166 191 95
171 195 92
170 194 76
168 192 57
173 196 84
168 191 114
173 196 105
164 187 95
167 189 105
164 189 92
172 195 105
172 195 128
166 189 95
167 190 92
162 183 84
168 191 102
170 191 99
171 194 117
162 184 108
165 188 88
162 185 80
159 181 72
157 180 62
161 183 80
168 190 95
164 186 105
162 184 88
164 186 80
165 188 99
163 186 105
160 182 102
160 182 102
157 180 80
156 179 92
155 177 57
152 175 84
156 178 84
152 175 72
147 169 67
142 165 62
160 182 92
158 179 62
153 175 84
152 174 84
157 179 80
148 170 80
152 174 76
145 167 84
145 167 80
149 171 80
144 166 62
149 171 67
139 160 84
152 173 72
137 158 51
145 167 70
143 164 62
143 164 62
144 165 76
139 158 62
109 131 88
82 109 110
87 112 110
84 110 103
98 123 124
91 117 118
81 108 102
93 118 120
97 123 143
93 119 125
86 114 110
90 116 120
83 110 118
98 122 124
85 112 119
92 118 122
101 126 136
97 121 128
91 116 124
98 123 140
100 125 140
106 130 139
110 134 144
112 136 140
108 132 135
89 115 131
86 111 107
95 119 122
87 112 129
79 107 127
110 125 122
75 106 159
81 110 154
64 97 141
74 104 145
83 111 144
76 106 117
78 108 125
76 106 130
72 99 130
70 98 122
70 97 113
70 98 121
73 99 122
60 95 135
59 94 129
64 95 119
63 95 117
66 98 125
60 93 105
63 95 108
65 96 100
92 117 84
72 101 103
55 88 113
57 91 109
57 89 110
57 90 115
57 90 117
55 87 99
56 89 118
56 88 97
57 91 111
58 91 113
57 90 108
57 90 112
57 91 115
58 92 119
58 92 115
57 91 114
57 91 117
56 89 97
57 91 115
58 92 128
56 89 110
58 91 124
58 92 120
58 91 113
58 91 111
59 93 128
60 94 125
57 90 111
57 91 122
58 92 121
58 92 115
57 90 110
58 92 110
57 90 115
58 92 110
59 92 122
57 90 112
57 90 108
58 92 111
58 91 114
58 92 118
58 92 122
57 91 110
59 93 122
57 91 117
58 91 110
56 89 107
57 90 118
54 87 99
57 90 103
56 89 117
58 91 114
57 91 111
56 89 100
57 90 118
58 91 117
57 90 108
57 90 114
56 89 105
57 90 114
56 89 107
56 88 100
56 89 107
56 89 99
56 89 102
55 87 86
57 90 111
58 91 113
54 86 108
54 86 92
57 90 111
55 87 99
55 87 103
52 83 74
64 89 84
96 111 18
98 113 0
108 123 0
110 126 0
109 123 0
105 123 0
108 124 0
103 119 0
103 117 0
110 126 0
112 126 0
117 134 0
113 128 0
124 140 0
117 132 0
116 129 0
115 131 0
117 131 0
124 140 0
125 142 0
119 134 0
120 135 0
118 133 0
118 134 0
125 142 0
126 143 0
125 141 0
127 143 0
130 146 0
133 151 0
126 143 0
131 149 0
129 148 0
138 154 0
131 145 0
125 140 0
135 154 0
134 149 0
137 155 0
119 137 0
130 148 0
132 150 0
128 144 0
139 156 0
122 137 0
131 147 0
133 149 0
128 145 0
131 150 0
141 159 0
132 150 0
141 158 0
133 149 0
142 160 0
144 161 0
143 162 0
139 155 0
136 153 0
144 163 0
146 163 0
137 155 0
135 151 0
132 147 0
151 168 0
143 160 0
128 144 0
138 157 0
143 162 0
137 154 0
145 161 0
152 170 0
139 156 0
143 160 0
147 166 0
147 163 0
148 167 0
143 160 0
146 165 0
150 168 0
144 160 0
152 169 0
149 167 0
153 169 0
143 161 0
153 170 0
142 161 0
152 171 0
147 163 0
151 169 0
147 166 0
153 172 0
156 174 0
145 163 0
148 165 0
153 171 0
150 167 0
149 166 0
154 172 0
150 167 0
147 165 0
151 169 0
144 161 0
153 171 0
161 181 0
151 169 0
149 166 0
150 167 0
157 176 0
158 176 0
155 172 0
148 166 0
157 172 0
153 169 0
157 175 0
152 168 0
159 179 0
151 167 0
162 182 0
156 173 0
160 178 0
157 174 0
157 175 0
156 173 0
153 170 0
163 182 0
157 174 0
159 177 0
153 173 0
159 174 0
158 177 0
160 177 0
157 174 0
161 180 0
154 171 0
159 178 0
155 175 0
162 180 0
156 174 0
163 184 0
158 176 0
161 180 0
165 185 0
162 180 0
163 182 0
161 180 0
159 179 0
165 185 0
162 184 0
163 182 0
161 179 0
165 185 0
161 179 0
157 173 0
165 185 0
163 185 0
163 182 0
163 185 0
164 181 0
159 176 0
162 182 0
162 179 0
164 183 0
162 181 0
167 187 0
167 187 0
163 184 0
161 181 0
165 184 0
164 183 0
170 192 0
166 185 0
165 186 0
165 184 0
160 178 0
169 193 57
172 195 51
173 197 76
173 197 92
170 194 67
168 193 67
168 192 51
173 197 62
168 191 44
167 190 80
171 195 80
166 190 51
164 189 84
168 192 92
171 195 76
168 192 80
168 192 84
163 188 57
167 191 67
165 189 80
167 191 67
167 192 72
171 195 72
169 192 95
168 192 88
167 189 88
171 195 80
169 193 92
172 195 72
170 194 84
166 190 80
172 195 76
164 188 95
161 185 72
169 194 105
171 195 102
168 191 111
168 191 92
165 187 95
167 190 51
170 193 108
168 191 99
164 189 80
167 189 99
165 189 111
170 193 99
170 194 95
158 181 92
165 190 99
169 193 95
172 196 95
167 190 102
168 190 102
164 187 99
164 187 84
166 189 99
159 181 102
174 196 111
166 188 102
168 191 114
170 193 111
168 191 117
163 185 84
163 185 72
164 186 92
164 186 99
158 180 84
163 184 84
157 179 95
165 188 99
149 172 108
165 188 95
160 183 105
156 179 80
147 169 88
161 183 111
146 168 72
156 177 76
161 182 108
155 177 76
148 170 72
155 179 108
150 171 88
150 172 84
148 169 76
146 168 76
157 178 99
145 166 84
149 171 99
145 167 57
149 170 57
144 165 62
141 161 72
137 158 67
139 159 57
141 161 88
135 154 76
142 162 76
103 126 88
85 110 100
92 118 131
88 114 118
97 122 128
96 121 123
98 123 122
89 116 126
94 119 123
84 111 115
101 125 137
91 115 120
94 120 124
94 118 110
81 110 121
90 115 118
102 126 132
102 127 139
98 123 111
104 128 134
98 124 126
96 123 134
107 131 137
108 132 135
103 128 134
83 110 117
103 126 118
87 114 121
104 126 127
119 132 120
116 129 129
78 108 152
73 104 142
78 108 151
79 108 142
75 106 136
74 106 136
75 106 129
74 105 126
67 95 120
67 95 129
65 94 116
67 96 122
63 94 121
58 92 125
64 98 126
61 93 110
64 97 111
62 95 113
60 93 118
57 89 103
86 113 102
75 103 103
54 86 112
57 91 110
58 92 119
56 89 103
55 88 103
56 88 106
58 92 120
58 91 111
56 89 108
57 90 110
58 92 113
56 89 113
57 90 108
58 92 113
56 89 113
57 90 115
58 91 111
56 89 103
55 88 107
57 90 123
58 92 123
57 90 114
59 92 122
58 91 108
58 91 121
58 92 108
57 90 108
58 92 110
57 91 105
57 90 111
58 91 113
56 89 108
57 90 117
57 90 113
55 88 105
58 91 124
57 91 107
58 91 110
57 91 114
58 92 120
57 90 107
55 88 97
57 91 113
58 91 116
57 91 113
57 90 123
57 90 110
59 93 122
57 90 111
58 92 115
55 88 99
58 92 113
57 91 111
58 91 114
57 90 110
58 91 120
56 89 103
54 86 90
57 91 113
56 89 105
58 92 120
54 86 94
55 87 111
56 88 110
57 90 110
57 90 107
56 88 102
55 88 92
53 84 92
56 89 111
54 85 95
54 86 99
54 85 94
75 96 54
102 114 0
99 114 0
110 126 0
104 118 0
98 114 0
97 112 0
111 128 0
101 116 0
116 132 0
113 128 0
115 131 0
124 141 0
118 136 0
109 125 0
110 125 0
110 125 0
116 132 0
114 127 0
118 136 0
115 130 0
119 134 0
126 143 0
108 126 0
132 149 0
125 141 0
123 139 0
124 142 0
129 145 0
131 148 0
123 138 0
144 161 0
133 151 0
124 141 0
127 143 0
121 137 0
119 136 0
131 150 0
126 143 0
128 144 0
133 150 0
128 145 0
139 156 0
144 163 0
137 155 0
133 149 0
125 142 0
137 154 0
132 148 0
134 151 0
141 159 0
133 152 0
145 163 0
135 152 0
143 160 0
137 154 0
141 160 0
136 153 0
145 161 0
140 158 0
138 155 0
140 158 0
141 158 0
145 163 0
138 156 0
146 164 0
142 160 0
147 164 0
138 158 0
149 165 0
144 161 0
138 156 0
142 158 0
134 154 0
139 156 0
136 152 0
146 165 0
146 165 0
146 164 0
150 168 0
140 158 0
141 159 0
156 174 0
151 166 0
144 159 0
150 168 0
147 165 0
146 165 0
149 166 0
155 174 0
147 163 0
146 164 0
154 172 0
153 171 0
151 168 0
140 155 0
152 169 0
147 164 0
152 168 0
146 162 0
153 170 0
147 162 0
154 171 0
149 167 0
154 172 0
155 173 0
147 164 0
154 170 0
155 173 0
153 172 0
156 176 0
150 168 0
157 175 0
157 176 0
156 173 0
155 172 0
151 168 0
156 171 0
158 178 0
161 179 0
164 182 0
156 172 0
160 181 0
159 178 0
154 172 0
153 170 0
150 167 0
163 181 0
159 176 0
153 170 0
162 180 0
157 174 0
158 174 0
159 176 0
157 177 0
160 178 0
159 178 0
160 178 0
160 178 0
160 180 0
162 179 0
158 177 0
160 178 0
160 178 0
162 181 0
162 178 0
155 175 0
162 180 0
160 179 0
163 180 0
161 179 0
161 180 0
165 185 0
163 181 0
163 182 0
165 184 0
163 181 0
164 182 0
161 181 0
163 184 0
159 179 0
167 187 0
165 184 0
160 180 0
163 183 0
166 187 0
163 185 0
163 183 0
167 187 0
164 185 0
164 184 0
166 185 0
165 184 0
166 186 0
169 188 0
164 183 0
172 196 62
172 196 62
170 194 76
171 196 84
171 196 88
174 199 88
167 190 51
170 194 67
169 192 67
168 191 62
170 195 80
169 193 80
167 191 76
167 191 76
167 191 72
169 192 67
172 196 76
168 192 67
171 195 88
168 191 67
169 193 72
169 192 72
172 197 95
165 189 51
170 193 72
168 191 84
165 189 76
170 194 88
167 191 72
165 189 72
169 192 76
171 194 84
168 192 92
169 192 105
171 194 114
168 192 88
168 192 114
165 187 102
169 192 117
168 192 92
164 187 80
164 187 99
166 188 84
164 187 99
170 194 114
168 191 88
170 193 114
170 193 122
163 186 95
172 196 125
165 188 102
173 195 122
170 192 114
167 191 105
169 193 125
158 181 72
156 178 76
170 193 88
171 194 117
162 184 80
160 183 99
158 182 92
162 186 117
165 187 99
155 178 88
158 181 95
168 190 88
166 189 99
158 181 80
164 186 111
154 177 95
154 176 95
162 184 88
163 186 114
156 178 102
152 173 95
157 179 84
155 177 88
155 178 99
155 177 80
158 180 62
146 166 99
143 163 88
158 179 114
146 168 62
132 154 67
146 168 95
144 165 67
151 172 92
147 168 76
150 171 84
140 161 62
135 156 62
151 172 72
138 159 44
140 159 80
139 159 76
132 152 84
139 159 72
112 133 97
89 115 107
86 111 105
86 112 106
93 120 131
89 114 113
86 112 113
97 122 134
79 107 115
105 128 137
93 118 115
98 123 133
83 110 126
86 112 117
90 116 131
93 118 112
94 119 113
94 119 126
91 117 126
94 119 125
87 112 128
99 123 136
107 131 125
104 127 136
114 138 122
104 127 112
97 121 116
92 117 115
100 123 134
141 140 90
85 110 150
73 104 143
79 108 135
82 111 144
70 102 129
76 107 128
71 102 136
70 101 105
76 107 133
67 94 117
78 101 128
65 94 114
64 92 122
60 92 120
62 95 122
71 102 124
61 93 126
62 94 113
61 93 113
55 88 113
84 110 88
88 113 82
57 91 115
56 88 103
56 89 113
59 93 117
56 89 111
57 91 109
58 92 119
56 89 100
55 87 102
58 91 111
56 89 117
57 91 116
57 90 108
58 91 113
58 91 103
54 86 107
58 92 115
59 92 120
56 90 105
56 90 105
57 90 115
57 90 114
58 91 114
57 90 116
56 90 103
57 91 113
57 90 110
59 92 117
58 92 117
55 87 103
56 89 99
57 91 110
58 91 110
57 90 111
57 90 118
57 90 105
57 90 113
57 90 111
57 91 108
58 91 111
56 89 105
57 90 117
57 90 114
56 88 108
58 91 110
56 89 100
54 87 102
58 92 115
57 90 110
57 90 108
56 89 100
57 91 103
55 88 94
57 90 114
56 89 110
57 90 111
57 91 105
56 89 102
56 89 111
57 91 111
57 90 114
54 86 107
54 87 103
55 88 102
55 88 107
54 86 103
54 87 95
54 86 94
52 83 82
55 87 95
52 82 86
67 91 67
109 123 25
99 113 0
104 120 0
105 120 0
111 127 0
100 116 0
101 117 0
113 129 0
104 119 0
104 119 0
106 122 0
110 125 0
123 136 0
115 130 0
117 132 0
110 127 0
116 131 0
111 127 0
115 131 0
122 137 0
117 133 0
122 139 0
118 135 0
120 137 0
118 134 0
110 125 0
118 137 0
133 149 0
119 136 0
130 148 0
128 143 0
118 135 0
124 142 0
128 145 0
128 146 0
125 143 0
134 152 0
132 151 0
128 146 0
123 140 0
142 160 0
131 148 0
136 152 0
135 152 0
133 151 0
142 159 0
128 145 0
145 163 0
129 147 0
140 159 0
136 152 0
147 167 0
136 154 0
134 150 0
145 163 0
143 160 0
139 157 0
141 159 0
142 159 0
137 155 0
143 160 0
147 165 0
148 165 0
140 158 0
143 159 0
149 167 0
141 158 0
140 158 0
132 149 0
140 158 0
145 163 0
142 159 0
152 170 0
142 158 0
145 162 0
144 162 0
143 160 0
149 169 0
155 174 0
139 155 0
143 160 0
155 173 0
141 158 0
152 169 0
147 163 0
146 163 0
145 163 0
149 167 0
147 166 0
143 162 0
144 160 0
144 162 0
139 155 0
148 165 0
150 167 0
150 167 0
149 166 0
153 171 0
151 171 0
151 171 0
150 167 0
152 170 0
152 169 0
159 175 0
154 172 0
157 176 0
152 168 0
155 171 0
156 174 0
155 175 0
154 170 0
154 171 0
154 172 0
149 165 0
160 178 0
162 180 0
153 170 0
155 173 0
157 175 0
151 168 0
152 169 0
155 173 0
159 178 0
152 170 0
153 170 0
154 172 0
159 178 0
161 179 0
158 175 0
160 179 0
158 176 0
162 181 0
155 173 0
158 178 0
157 174 0
158 174 0
161 181 0
160 178 0
159 177 0
164 182 0
162 182 0
163 183 0
163 185 0
161 182 0
159 178 0
161 178 0
158 177 0
159 178 0
161 181 0
163 184 0
162 181 0
163 182 0
159 177 0
164 183 0
161 180 0
163 182 0
162 181 0
165 185 0
164 184 0
160 180 0
168 189 0
166 185 0
164 183 0
168 188 0
165 183 0
165 188 0
164 184 0
161 183 0
168 187 0
164 185 0
165 185 0
167 187 0
165 184 0
165 186 0
162 182 0
163 184 0
165 186 0
171 195 72
173 197 80
170 193 72
168 192 67
169 193 57
166 190 72
171 195 62
172 196 99
171 195 76
169 193 62
170 195 67
170 194 76
168 193 62
170 195 80
168 192 62
174 198 72
172 196 84
168 192 88
168 192 80
166 190 92
167 192 84
166 190 84
169 193 88
170 194 84
170 195 99
170 194 88
171 195 76
167 192 88
170 194 99
166 189 80
166 190 95
170 194 105
173 196 114
171 194 95
165 189 95
166 189 84
169 192 108
173 196 99
164 188 95
167 190 108
168 191 108
175 198 117
168 191 88
165 188 111
170 193 120
171 194 95
170 194 92
170 193 111
159 182 84
164 187 80
161 185 88
168 191 114
161 184 84
169 192 95
168 190 111
167 190 88
168 190 88
168 191 95
163 184 92
161 183 108
161 183 95
166 189 102
160 182 80
160 184 84
158 181 95
158 180 80
157 180 105
161 184 80
163 186 120
152 174 76
165 187 105
165 187 102
160 182 95
157 180 84
150 172 105
161 182 122
160 181 99
147 167 84
158 180 105
151 173 80
154 176 99
147 168 80
155 177 111
153 175 92
152 174 92
152 173 76
144 165 62
150 170 92
151 171 88
152 173 99
148 169 76
151 172 62
140 161 72
138 160 76
138 159 57
144 165 99
133 154 72
136 157 62
151 170 80
140 160 90
111 134 108
91 116 108
93 118 115
76 103 105
95 120 131
99 123 129
99 123 115
98 123 120
86 113 113
84 109 105
100 125 124
101 124 125
92 118 122
92 117 125
97 121 119
89 115 127
92 118 128
94 118 134
88 114 128
86 113 120
93 119 133
99 125 122
103 128 131
105 131 120
117 139 117
89 115 121
94 119 138
98 121 128
124 131 104
137 136 78
81 108 143
67 99 142
80 109 145
65 98 129
71 103 131
75 106 137
76 107 130
73 104 123
73 101 121
72 98 131
74 99 124
66 92 110
62 91 111
59 92 115
65 95 116
56 89 108
61 92 110
61 93 95
62 93 103
86 112 104
82 108 76
62 94 102
55 87 92
57 90 111
53 85 90
58 92 111
56 89 102
56 89 105
57 90 122
58 92 108
56 89 103
55 88 97
55 87 109
57 91 113
56 90 111
58 91 110
56 90 108
57 90 105
57 90 110
57 90 114
58 91 123
57 91 108
57 90 114
58 92 113
55 87 103
56 89 107
56 89 102
56 89 113
57 90 118
59 93 125
57 90 108
55 88 103
57 91 108
57 90 107
58 92 115
55 88 103
57 90 115
55 88 99
56 89 97
57 90 113
56 90 105
57 90 110
56 89 102
57 90 108
57 90 105
56 88 114
55 88 102
56 89 108
59 93 114
58 91 118
56 88 99
56 88 99
56 89 105
56 89 99
56 90 113
53 85 90
57 90 111
56 88 115
55 88 110
57 89 111
56 88 102
55 87 99
56 89 110
56 88 90
56 89 103
55 87 102
55 87 99
53 84 94
54 86 95
54 85 88
59 88 95
87 105 44
97 112 0
91 104 0
95 109 0
104 120 0
106 120 0
109 126 0
99 114 0
111 126 0
119 135 0
102 116 0
106 122 0
109 122 0
106 123 0
108 124 0
117 134 0
119 135 0
108 124 0
119 137 0
119 136 0
119 136 0
121 139 0
120 135 0
118 134 0
106 121 0
128 145 0
129 144 0
117 134 0
112 129 0
121 137 0
118 134 0
128 145 0
137 156 0
131 148 0
132 148 0
132 151 0
127 144 0
135 154 0
135 154 0
127 143 0
138 157 0
123 139 0
135 152 0
136 153 0
142 161 0
140 158 0
131 146 0
138 154 0
136 151 0
136 154 0
135 152 0
140 156 0
144 162 0
142 160 0
136 156 0
134 149 0
139 158 0
145 162 0
134 152 0
143 163 0
135 152 0
135 152 0
140 159 0
131 150 0
138 154 0
142 160 0
145 164 0
150 167 0
146 164 0
147 166 0
144 162 0
147 166 0
146 164 0
146 165 0
137 153 0
134 150 0
144 164 0
150 169 0
147 166 0
147 164 0
146 162 0
148 165 0
147 164 0
144 164 0
150 170 0
148 164 0
148 166 0
150 169 0
150 169 0
145 161 0
151 171 0
148 166 0
148 165 0
154 173 0
156 173 0
157 174 0
150 168 0
151 168 0
149 166 0
146 163 0
156 174 0
148 164 0
154 172 0
150 167 0
154 172 0
156 174 0
154 173 0
151 170 0
147 164 0
154 173 0
155 172 0
151 169 0
155 173 0
161 181 0
151 168 0
158 176 0
160 179 0
154 174 0
151 169 0
154 174 0
160 179 0
155 174 0
153 172 0
155 172 0
163 182 0
156 176 0
159 179 0
157 179 0
155 173 0
158 177 0
161 180 0
161 181 0
157 173 0
152 168 0
160 180 0
155 173 0
159 178 0
160 179 0
160 179 0
163 183 0
164 183 0
156 176 0
158 178 0
160 178 0
159 180 0
158 179 0
162 181 0
165 185 0
159 178 0
156 174 0
158 177 0
159 179 0
168 188 0
162 182 0
160 180 0
162 182 0
161 179 0
163 182 0
163 182 0
162 182 0
160 181 0
159 177 0
165 187 0
164 184 0
164 182 0
165 186 0
155 173 0
158 176 0
168 188 0
165 186 0
164 185 0
166 187 0
165 184 0
164 183 0
164 185 0
167 187 0
167 188 0
165 184 0
166 187 0
172 196 95
172 195 72
168 193 72
170 193 62
170 194 67
169 193 80
170 193 57
167 191 88
170 195 67
169 192 67
168 192 67
167 191 62
170 194 62
169 193 72
171 196 92
172 195 76
169 193 72
170 194 88
174 197 102
168 192 102
169 193 80
174 197 99
166 188 76
168 192 84
167 191 80
171 195 102
162 186 62
166 189 80
171 195 92
170 193 88
167 190 102
171 195 92
173 196 102
174 197 111
167 191 105
171 196 95
167 191 84
162 186 76
169 192 92
169 192 92
166 189 111
170 193 111
168 192 102
168 191 99
170 193 95
168 192 108
159 182 95
163 187 88
166 190 102
164 188 105
162 185 92
160 184 84
160 183 99
166 189 105
166 190 67
167 189 99
162 186 108
157 180 88
165 187 88
159 182 84
165 188 84
162 184 95
163 187 105
163 185 84
155 177 80
163 186 92
162 184 117
168 190 111
160 183 88
162 184 105
156 178 92
152 175 105
154 176 95
170 192 102
156 179 99
162 184 80
162 184 95
160 182 105
150 172 76
152 174 117
163 185 92
160 181 88
152 173 111
150 173 72
152 173 80
155 176 99
147 169 92
142 164 80
156 178 76
142 164 72
140 160 67
142 162 88
141 162 92
147 167 84
143 163 72
140 161 67
140 160 62
138 158 67
137 156 62
130 150 62
127 147 74
108 130 107
72 100 98
100 125 125
94 119 115
90 114 111
82 109 117
80 106 108
101 123 106
99 123 121
87 113 117
91 116 111
97 121 125
98 123 129
93 117 122
93 119 129
79 106 114
98 123 126
83 111 117
105 128 136
88 114 120
101 126 123
103 126 134
100 126 124
98 123 119
100 125 124
103 127 142
93 117 115
108 124 126
135 132 71
111 116 101
83 111 144
81 110 145
72 103 126
74 105 135
77 108 125
67 99 118
74 103 115
80 109 110
74 101 111
59 91 125
71 97 110
69 93 103
74 102 102
61 94 120
68 99 120
64 96 108
63 94 108
55 88 110
65 93 94
86 111 88
69 99 102
57 90 110
57 90 106
54 87 97
55 88 90
55 87 110
55 88 102
56 90 103
56 89 111
57 90 105
55 88 104
58 91 114
57 90 108
58 92 117
55 88 95
58 91 113
54 87 88
56 89 110
56 89 107
57 90 108
58 92 124
57 91 108
59 93 129
59 93 120
55 88 104
57 90 108
58 92 107
55 88 105
56 89 103
57 90 117
57 90 115
55 88 103
58 92 110
56 89 110
57 91 110
55 88 105
57 90 114
58 91 113
56 89 100
57 90 103
57 91 102
57 90 107
57 90 99
55 88 99
59 94 118
56 88 108
55 88 99
57 91 105
57 90 103
56 89 107
55 87 102
57 90 100
59 92 113
54 86 97
56 89 105
56 88 103
55 87 100
57 89 113
56 88 99
56 88 90
57 89 103
54 86 94
55 87 100
55 87 84
55 86 90
54 86 94
54 86 84
56 85 90
67 91 67
102 116 25
95 109 0
94 107 0
103 119 0
93 107 0
89 104 0
96 111 0
108 122 0
113 128 0
111 125 0
117 131 0
105 120 0
109 124 0
108 123 0
125 141 0
117 132 0
120 134 0
129 147 0
114 128 0
110 126 0
117 133 0
110 126 0
109 126 0
128 145 0
122 139 0
134 151 0
114 130 0
120 136 0
124 140 0
121 140 0
123 140 0
121 139 0
125 143 0
134 152 0
135 152 0
138 157 0
120 137 0
127 145 0
116 133 0
119 137 0
134 152 0
134 151 0
137 153 0
133 148 0
134 152 0
130 147 0
131 150 0
136 155 0
125 141 0
142 160 0
132 150 0
146 164 0
138 156 0
145 164 0
141 160 0
147 166 0
142 160 0
135 152 0
142 160 0
139 156 0
143 162 0
141 159 0
141 158 0
144 160 0
140 157 0
139 156 0
145 162 0
153 172 0
138 155 0
150 168 0
146 165 0
148 165 0
145 164 0
152 172 0
147 165 0
146 164 0
152 170 0
140 157 0
142 161 0
152 169 0
145 165 0
149 168 0
147 167 0
154 173 0
149 166 0
154 172 0
153 170 0
149 168 0
157 178 0
152 171 0
141 161 0
150 168 0
148 166 0
151 170 0
149 167 0
151 170 0
152 168 0
149 166 0
153 169 0
156 175 0
156 173 0
150 170 0
151 169 0
147 164 0
154 172 0
155 173 0
151 169 0
156 175 0
156 175 0
157 176 0
152 170 0
152 170 0
157 171 0
155 175 0
157 175 0
153 173 0
155 173 0
154 170 0
156 177 0
158 178 0
157 176 0
149 166 0
153 172 0
157 175 0
153 171 0
158 177 0
163 182 0
153 171 0
154 172 0
162 181 0
154 174 0
161 181 0
158 177 0
164 183 0
160 178 0
158 177 0
158 177 0
163 182 0
160 180 0
164 185 0
158 177 0
166 185 0
160 180 0
160 180 0
162 182 0
159 179 0
162 182 0
166 187 0
163 183 0
158 176 0
162 180 0
153 171 0
158 176 0
159 178 0
164 183 0
163 182 0
161 183 0
158 178 0
163 185 0
164 184 0
160 180 0
163 182 0
159 179 0
164 184 0
164 184 0
158 176 0
165 185 0
160 180 0
167 187 0
167 187 0
165 185 0
163 183 0
164 183 0
168 189 0
159 177 0
164 184 0
167 188 0
164 185 0
170 190 0
166 186 0
172 195 57
167 191 84
173 198 88
167 191 57
166 190 67
166 190 62
172 196 95
173 197 57
170 194 62
166 190 67
169 194 84
169 193 80
170 194 76
169 194 76
170 193 84
171 195 84
175 198 111
173 196 57
173 196 80
169 193 72
169 192 67
170 195 80
174 198 88
168 191 95
175 197 102
171 196 108
168 192 111
164 188 84
171 196 111
165 189 99
169 192 99
169 191 84
166 189 80
168 192 99
174 197 102
171 193 108
171 194 108
172 195 111
165 188 72
173 196 99
170 193 92
165 189 92
171 194 105
166 189 88
162 185 88
162 185 80
172 195 95
166 190 80
164 188 105
164 187 76
163 187 105
168 191 92
163 186 92
166 189 108
164 187 92
164 187 92
162 185 88
164 187 88
155 178 84
158 181 88
164 187 84
166 189 88
167 190 105
160 182 76
165 188 88
166 189 92
168 190 122
165 188 114
163 185 105
163 186 111
155 178 108
154 177 88
152 174 95
161 183 102
162 184 108
162 184 117
160 183 105
152 175 92
160 181 99
162 183 92
154 177 80
146 167 102
156 178 88
152 173 95
155 176 88
155 177 102
155 177 111
146 168 76
153 174 84
146 168 72
146 167 88
151 171 80
154 174 84
147 167 88
145 166 57
146 165 92
145 166 80
124 143 80
126 145 80
133 153 72
135 154 72
129 149 82
105 127 92
92 117 113
94 119 106
80 106 103
92 116 117
84 111 102
97 121 116
80 107 115
96 121 120
88 114 129
85 111 111
103 126 128
96 121 120
105 129 126
83 110 120
103 125 121
95 120 137
119 141 136
101 125 130
98 122 130
106 130 136
94 121 125
108 132 125
92 118 118
84 111 116
87 113 107
82 107 124
142 142 94
126 121 58
108 121 129
76 105 140
69 101 129
66 98 134
65 98 122
75 106 121
72 103 125
72 103 131
81 110 114
82 110 120
85 111 112
82 110 110
69 97 108
60 92 113
59 90 102
58 90 110
63 94 109
61 93 100
59 90 97
88 112 83
72 101 88
55 88 97
55 88 94
57 90 108
56 89 111
54 86 102
53 85 99
55 88 90
56 89 94
55 87 100
55 87 94
58 91 107
58 91 113
56 89 102
56 89 111
56 88 99
57 90 108
55 88 97
57 90 110
55 88 100
58 91 117
56 89 107
55 87 102
55 88 100
58 92 111
57 91 111
57 89 102
57 90 108
56 89 99
56 89 100
57 91 113
55 88 99
57 90 108
55 88 100
57 90 103
55 88 102
56 89 107
58 91 120
56 89 111
58 91 115
55 87 110
57 90 111
56 89 105
55 87 92
57 91 107
56 89 95
56 89 117
55 87 97
56 90 110
57 90 113
54 87 90
56 90 102
57 90 105
56 88 108
54 86 92
53 86 88
54 86 95
55 87 100
56 88 102
54 86 99
54 86 103
55 87 100
52 83 86
52 83 78
53 84 94
54 83 80
76 98 70
96 113 25
88 104 0
93 107 0
107 123 0
107 122 0
107 121 0
110 127 0
99 116 0
107 121 0
107 122 0
114 128 0
111 126 0
118 134 0
119 134 0
104 120 0
115 132 0
107 123 0
117 133 0
119 136 0
127 145 0
117 134 0
121 139 0
127 143 0
120 136 0
128 145 0
116 134 0
126 143 0
115 131 0
121 137 0
117 132 0
126 143 0
124 142 0
131 146 0
126 145 0
119 135 0
134 153 0
128 144 0
136 154 0
139 158 0
132 151 0
124 140 0
132 148 0
140 159 0
139 156 0
141 160 0
131 148 0
126 143 0
132 149 0
134 153 0
141 160 0
146 163 0
132 149 0
140 158 0
132 149 0
141 158 0
139 159 0
144 161 0
145 162 0
140 159 0
141 159 0
145 163 0
143 160 0
143 159 0
132 149 0
126 144 0
144 163 0
153 173 0
146 162 0
140 157 0
148 166 0
148 166 0
142 161 0
140 158 0
146 165 0
150 168 0
143 160 0
149 170 0
151 169 0
147 164 0
156 175 0
147 165 0
146 164 0
143 161 0
146 164 0
149 167 0
144 160 0
148 169 0
144 161 0
143 160 0
149 168 0
143 164 0
156 176 0
149 165 0
150 169 0
141 159 0
148 165 0
153 170 0
140 158 0
151 170 0
145 164 0
158 177 0
142 158 0
154 173 0
158 176 0
150 168 0
151 168 0
146 164 0
151 168 0
150 168 0
154 173 0
148 167 0
150 170 0
147 164 0
154 172 0
155 173 0
158 177 0
156 175 0
153 173 0
155 171 0
158 177 0
160 179 0
158 177 0
155 173 0
156 173 0
158 178 0
155 173 0
159 177 0
160 178 0
153 173 0
158 177 0
157 175 0
157 176 0
154 173 0
161 181 0
156 177 0
159 178 0
154 172 0
157 177 0
159 178 0
160 178 0
160 180 0
158 175 0
162 181 0
159 178 0
162 180 0
161 180 0
160 179 0
167 189 0
166 186 0
159 179 0
164 184 0
154 173 0
160 180 0
163 184 0
165 186 0
159 177 0
162 183 0
159 181 0
166 186 0
158 176 0
163 184 0
165 186 0
164 182 0
162 182 0
163 184 0
162 181 0
161 181 0
159 180 0
167 186 0
161 182 0
160 182 0
159 179 0
165 186 0
165 184 0
165 186 0
168 189 0
162 181 0
164 183 0
167 189 0
166 186 0
167 187 0
165 185 0
172 196 72
172 196 57
169 193 62
171 194 76
170 194 95
170 193 57
169 193 72
171 195 62
170 194 80
168 192 76
168 193 80
171 195 99
169 192 80
173 196 84
164 188 76
169 193 76
172 196 88
172 195 76
170 194 76
170 194 72
170 194 105
171 194 95
166 189 72
170 194 95
165 190 84
175 197 108
165 189 72
171 195 76
171 194 92
170 193 111
170 194 80
173 196 120
168 191 114
170 192 111
168 192 105
170 193 84
169 192 102
169 192 117
166 190 105
171 194 102
166 189 108
168 191 102
167 192 92
164 187 80
164 188 102
165 188 88
167 191 105
169 192 99
164 187 95
165 188 99
162 185 95
169 192 105
166 189 105
169 192 111
165 189 84
167 191 105
164 188 92
163 186 94
162 184 99
166 189 80
160 183 111
158 181 88
167 190 99
165 187 105
161 183 113
160 182 99
162 186 95
151 173 84
163 186 99
157 178 92
158 181 92
163 186 114
159 181 102
165 187 95
157 179 80
162 184 108
164 185 105
164 186 108
152 173 67
153 174 102
152 174 99
161 182 117
155 177 114
160 181 108
144 164 84
145 166 88
151 173 108
152 173 92
143 163 84
142 163 80
144 165 80
140 162 72
151 172 88
139 158 76
149 169 95
141 159 92
139 159 51
134 153 51
134 154 72
139 159 74
124 142 72
129 147 72
123 142 80
93 115 92
79 104 94
96 119 113
83 108 110
89 114 97
91 115 115
98 122 117
93 118 114
92 117 103
86 111 115
90 114 122
96 120 121
102 126 129
90 116 102
96 122 130
98 122 129
82 110 120
96 120 109
82 108 108
103 127 121
90 116 114
89 116 106
93 118 110
94 118 120
92 116 110
98 123 119
116 121 85
120 117 80
113 108 54
78 102 122
73 104 124
77 107 113
72 103 120
76 106 119
68 99 113
76 106 124
83 111 110
73 100 111
90 116 114
73 101 109
80 105 111
69 96 107
64 96 125
63 95 110
66 98 99
62 94 111
59 91 103
101 123 78
84 110 88
56 89 100
55 88 92
56 88 103
55 88 110
56 89 109
54 86 88
55 87 99
54 86 92
55 87 107
57 89 108
55 88 99
56 88 108
57 91 105
56 89 105
56 88 105
56 89 113
55 88 105
55 88 103
56 88 108
58 91 114
58 91 111
57 89 99
56 90 101
55 87 98
57 90 108
55 87 103
56 89 107
55 88 99
55 87 94
56 89 107
56 90 103
56 88 110
58 91 120
55 88 99
57 90 105
57 90 108
57 91 108
56 89 103
55 87 103
59 92 120
56 89 100
55 87 94
57 90 100
56 89 110
57 91 113
54 86 92
55 88 107
57 91 114
55 88 107
55 87 102
53 85 97
55 88 99
57 90 105
56 88 105
52 83 100
54 85 99
55 87 92
57 89 102
56 89 102
53 85 82
54 86 84
55 87 103
52 82 90
64 89 78
94 110 40
101 116 0
99 113 0
103 118 0
113 129 0
109 123 0
99 114 0
111 127 0
103 118 0
109 124 0
111 125 0
96 110 0
99 112 0
115 130 0
113 129 0
108 123 0
101 118 0
119 135 0
103 118 0
108 123 0
118 132 0
117 132 0
104 118 0
123 139 0
124 141 0
122 139 0
114 131 0
117 133 0
117 132 0
112 126 0
120 135 0
126 144 0
123 140 0
128 146 0
134 150 0
126 144 0
132 150 0
132 149 0
128 146 0
128 147 0
127 146 0
132 149 0
133 151 0
135 154 0
137 156 0
135 153 0
135 154 0
136 154 0
129 147 0
123 139 0
142 160 0
132 150 0
140 159 0
140 157 0
145 162 0
132 150 0
139 156 0
137 155 0
140 157 0
139 157 0
132 148 0
131 149 0
143 161 0
144 160 0
135 152 0
149 167 0
144 163 0
144 161 0
148 166 0
137 155 0
138 155 0
138 156 0
142 161 0
148 165 0
140 160 0
146 162 0
140 159 0
151 167 0
143 161 0
143 162 0
144 160 0
148 167 0
145 163 0
151 168 0
144 161 0
153 170 0
148 166 0
141 161 0
153 170 0
151 169 0
151 169 0
156 175 0
150 170 0
156 174 0
153 172 0
143 160 0
151 168 0
156 175 0
147 165 0
151 168 0
149 167 0
156 174 0
157 174 0
154 173 0
154 173 0
154 172 0
154 170 0
148 167 0
156 174 0
147 168 0
152 169 0
158 179 0
150 168 0
160 177 0
158 178 0
157 175 0
151 170 0
156 175 0
159 179 0
155 173 0
159 177 0
152 167 0
152 171 0
153 169 0
155 174 0
157 177 0
155 175 0
154 173 0
156 178 0
155 175 0
158 180 0
157 176 0
158 176 0
163 182 0
155 174 0
153 172 0
154 171 0
156 173 0
158 176 0
159 178 0
162 182 0
159 180 0
162 179 0
154 172 0
157 178 0
157 176 0
163 184 0
158 179 0
165 185 0
158 176 0
163 183 0
160 178 0
160 177 0
163 181 0
159 177 0
163 181 0
162 182 0
165 184 0
164 184 0
165 185 0
160 180 0
163 183 0
162 181 0
162 182 0
165 185 0
164 184 0
157 179 0
162 182 0
164 183 0
165 185 0
164 184 0
164 184 0
162 183 0
160 180 0
160 181 0
158 178 0
161 182 0
167 187 0
169 189 0
163 184 0
170 192 0
164 184 0
166 187 0
166 188 0
169 194 84
172 196 72
171 194 84
171 195 51
169 192 51
168 192 62
172 196 84
173 197 99
170 194 72
170 194 67
170 193 72
172 196 80
171 195 88
170 193 92
171 195 80
169 193 95
171 194 88
170 194 72
172 195 99
173 196 99
171 193 99
174 197 95
174 196 102
166 190 108
173 197 95
173 196 105
170 194 102
171 194 95
168 191 84
178 200 117
176 198 102
169 192 76
167 190 95
170 194 99
168 191 105
167 190 102
167 191 99
166 188 111
169 192 108
167 190 92
165 188 80
172 194 102
168 191 88
170 194 111
170 193 76
169 193 102
169 193 95
166 189 95
172 194 99
166 189 92
171 194 95
160 183 88
171 194 95
167 191 111
166 188 99
163 187 95
166 189 113
169 191 99
162 186 118
162 186 111
164 187 102
165 188 95
157 180 92
159 182 102
164 186 117
162 185 102
164 185 102
159 182 105
162 184 122
158 181 105
163 185 99
164 186 99
159 181 102
153 176 84
154 175 92
162 183 95
152 173 84
162 184 108
150 171 95
155 176 105
149 171 102
158 179 105
160 183 95
153 173 108
151 172 99
148 169 88
152 173 105
153 173 120
154 175 102
151 172 95
145 165 76
148 169 80
150 170 102
153 173 102
140 160 92
148 168 99
140 159 76
150 169 111
132 151 62
124 143 51
135 153 62
134 153 76
136 155 92
125 143 99
102 123 88
89 112 95
87 111 103
82 108 124
98 122 110
95 120 128
94 120 125
94 118 117
94 118 113
93 118 121
106 128 110
99 124 125
99 123 125
97 121 121
90 115 130
88 113 117
99 123 128
104 127 140
106 129 124
109 134 95
103 128 114
94 120 115
107 131 110
100 125 120
103 125 122
109 126 105
128 130 63
118 120 68
124 127 76
73 103 124
71 101 121
70 101 113
75 104 110
71 101 117
73 104 108
81 110 111
69 99 114
72 101 125
75 103 100
78 104 103
77 102 100
59 91 102
62 94 111
68 98 105
63 95 99
62 92 95
104 126 62
91 117 92
58 90 102
56 90 111
55 88 97
55 88 105
55 87 94
54 86 110
56 89 102
54 86 93
54 86 97
59 92 118
59 92 114
56 89 107
55 88 97
57 90 108
56 89 103
57 90 99
56 89 103
57 90 109
57 90 99
56 88 111
56 88 99
56 88 97
55 88 99
56 89 100
55 87 94
56 88 102
56 89 97
55 88 92
56 89 108
58 91 108
55 88 86
56 89 110
58 91 113
54 86 99
55 87 88
54 86 92
57 89 120
56 89 110
56 88 108
54 87 97
55 88 94
57 90 100
53 85 97
56 89 111
56 88 111
55 87 95
57 90 103
56 89 111
57 89 108
54 85 88
57 90 99
53 84 86
55 87 103
55 87 97
54 86 99
54 86 102
53 84 82
54 86 95
53 84 94
53 84 82
56 88 105
69 92 65
81 97 40
104 119 0
100 116 0
82 96 0
101 116 0
98 115 0
102 118 0
98 112 0
98 112 0
111 127 0
110 126 0
105 120 0
113 130 0
97 113 0
104 120 0
117 135 0
105 121 0
117 133 0
109 126 0
121 139 0
118 135 0
113 130 0
123 141 0
116 134 0
113 128 0
118 135 0
116 131 0
119 136 0
121 138 0
117 135 0
127 145 0
123 138 0
122 140 0
114 129 0
131 150 0
128 145 0
137 155 0
128 147 0
128 146 0
136 153 0
131 149 0
129 146 0
127 144 0
137 155 0
136 152 0
136 153 0
142 160 0
133 152 0
127 145 0
137 155 0
130 149 0
132 150 0
134 153 0
135 155 0
140 158 0
145 162 0
143 160 0
140 157 0
144 161 0
137 156 0
136 154 0
144 164 0
140 160 0
141 161 0
139 158 0
138 156 0
142 161 0
136 154 0
147 165 0
135 153 0
149 169 0
143 160 0
130 149 0
147 164 0
141 160 0
148 167 0
149 167 0
143 161 0
146 165 0
145 163 0
148 167 0
144 159 0
144 165 0
149 166 0
155 176 0
144 164 0
142 160 0
149 166 0
145 162 0
144 161 0
152 172 0
147 167 0
158 178 0
150 170 0
150 170 0
153 172 0
148 164 0
146 163 0
145 163 0
146 163 0
147 165 0
152 169 0
153 173 0
151 170 0
150 168 0
152 172 0
152 170 0
150 169 0
154 173 0
151 171 0
158 176 0
159 179 0
159 177 0
157 177 0
157 176 0
147 166 0
145 163 0
156 176 0
156 173 0
159 177 0
153 170 0
152 171 0
151 169 0
155 175 0
163 181 0
156 174 0
160 179 0
154 173 0
160 178 0
156 175 0
158 175 0
153 170 0
153 172 0
160 179 0
152 170 0
157 176 0
156 174 0
164 181 0
159 178 0
163 182 0
159 180 0
154 175 0
166 185 0
156 175 0
161 179 0
158 177 0
163 183 0
158 178 0
161 181 0
159 176 0
158 178 0
160 178 0
160 178 0
163 182 0
164 185 0
161 180 0
162 181 0
156 174 0
158 180 0
158 176 0
159 177 0
162 182 0
163 183 0
167 185 0
160 179 0
164 184 0
166 187 0
165 184 0
160 181 0
161 183 0
163 184 0
166 188 0
165 186 0
163 181 0
165 184 0
165 186 0
166 186 0
163 183 0
165 185 0
167 187 0
166 187 0
164 186 0
166 189 0
163 184 0
166 186 0
162 182 0
167 191 44
170 193 57
168 193 51
171 195 72
173 197 67
169 193 72
171 195 67
165 189 76
168 192 84
173 197 80
175 197 84
172 196 72
168 191 76
173 196 88
175 198 102
172 195 92
170 193 76
172 196 88
175 198 95
177 199 88
172 196 108
171 195 102
170 193 111
168 191 88
170 192 108
171 194 111
170 193 92
170 193 92
168 191 84
171 195 99
174 197 80
169 193 99
170 193 95
164 187 99
167 190 67
169 192 84
168 191 88
163 186 84
166 189 95
172 195 111
169 192 95
170 194 99
166 189 92
166 189 84
160 183 76
164 186 92
165 188 105
163 187 57
167 190 108
164 187 80
167 189 95
164 188 95
169 193 92
164 188 88
166 190 118
169 192 111
170 194 105
163 186 80
167 191 108
159 182 94
161 183 113
167 190 102
157 181 92
164 186 102
168 191 126
160 183 94
159 181 80
153 176 99
160 181 99
170 193 111
158 179 92
163 184 92
160 182 95
163 185 117
166 187 92
154 176 122
157 179 105
159 181 95
159 179 117
152 173 108
155 177 105
158 180 92
152 173 95
153 174 105
156 177 105
149 170 80
153 173 99
157 178 80
149 170 88
157 178 117
153 173 92
142 163 92
149 169 84
148 168 108
149 170 92
147 166 84
140 160 88
141 161 102
131 150 57
144 164 62
135 154 76
142 162 84
126 146 62
125 142 95
127 145 84
102 123 74
89 112 97
89 112 99
84 109 105
96 121 118
73 101 82
97 121 124
109 132 124
100 124 114
83 109 107
92 117 118
88 113 110
87 114 110
93 119 122
95 121 112
105 129 120
89 114 114
108 132 134
97 123 111
89 114 97
99 125 103
104 128 107
86 112 110
98 123 129
118 139 114
164 183 40
162 176 44
146 156 36
119 132 72
80 109 124
72 104 117
71 102 115
74 105 115
69 101 118
70 100 103
71 101 115
73 103 110
68 97 118
71 100 115
76 101 95
73 101 105
64 96 117
55 87 94
56 89 102
53 85 94
98 120 78
91 114 82
64 95 97
55 87 90
56 89 115
56 89 102
57 89 107
54 85 86
53 84 80
53 85 90
56 88 88
53 85 86
54 86 95
54 86 97
54 86 92
55 88 95
55 88 100
56 89 112
55 87 107
55 88 108
56 89 115
57 90 110
55 88 107
57 90 111
56 89 100
54 85 86
56 89 100
56 89 108
55 88 99
55 87 111
56 88 96
57 90 111
55 88 99
58 91 120
56 89 100
55 87 103
55 88 94
55 87 94
54 86 92
57 90 105
56 88 102
56 89 103
54 86 95
55 87 105
56 89 102
56 89 105
54 86 103
55 88 103
53 85 82
54 86 88
52 84 95
55 87 92
56 89 102
54 86 92
54 86 86
54 86 94
53 84 88
51 81 82
51 81 94
53 85 102
57 87 90
66 90 62
81 98 40
93 107 0
107 121 0
98 111 0
89 105 0
99 114 0
90 104 0
93 109 0
104 120 0
103 117 0
103 119 0
112 128 0
100 116 0
102 118 0
110 126 0
102 118 0
121 137 0
110 125 0
111 126 0
121 138 0
108 123 0
114 132 0
117 134 0
121 138 0
107 123 0
112 128 0
108 125 0
126 144 0
122 139 0
121 139 0
123 141 0
127 144 0
116 132 0
128 145 0
124 142 0
129 147 0
122 138 0
136 155 0
119 137 0
131 147 0
134 152 0
128 144 0
124 142 0
136 154 0
134 152 0
122 140 0
131 149 0
123 139 0
120 138 0
138 156 0
134 152 0
131 147 0
146 165 0
131 148 0
138 156 0
126 145 0
142 161 0
139 157 0
140 158 0
135 153 0
142 160 0
133 151 0
147 165 0
139 154 0
141 158 0
132 150 0
139 160 0
140 157 0
141 160 0
145 163 0
148 167 0
141 161 0
139 156 0
143 162 0
136 155 0
146 166 0
139 156 0
150 170 0
143 162 0
146 165 0
154 173 0
147 166 0
148 167 0
139 156 0
145 164 0
144 160 0
154 174 0
146 164 0
145 164 0
151 170 0
150 166 0
137 156 0
152 172 0
148 166 0
146 166 0
149 169 0
155 174 0
156 174 0
150 168 0
150 169 0
155 173 0
147 167 0
149 166 0
148 165 0
151 169 0
155 175 0
151 169 0
153 171 0
151 170 0
153 173 0
152 171 0
152 170 0
158 175 0
156 174 0
159 178 0
154 172 0
151 170 0
162 182 0
157 176 0
154 173 0
159 178 0
156 174 0
163 183 0
159 178 0
156 175 0
156 175 0
156 176 0
157 175 0
157 175 0
160 180 0
155 175 0
158 176 0
156 174 0
156 177 0
155 174 0
151 168 0
161 182 0
157 175 0
159 177 0
157 177 0
160 181 0
158 178 0
161 182 0
162 182 0
158 178 0
161 181 0
162 181 0
164 183 0
164 183 0
159 177 0
161 181 0
156 175 0
158 177 0
163 183 0
164 183 0
156 177 0
161 180 0
162 182 0
156 173 0
158 176 0
165 186 0
158 178 0
164 184 0
163 183 0
161 180 0
166 187 0
163 184 0
165 184 0
167 187 0
164 185 0
166 186 0
166 185 0
160 179 0
161 183 0
163 184 0
158 179 0
164 183 0
158 179 0
163 184 0
167 188 0
160 181 0
166 186 0
166 188 0
167 186 0
166 187 0
164 183 0
166 187 0
168 190 0
175 198 57
170 194 76
173 197 76
174 197 62
170 194 95
172 196 76
171 195 80
171 194 80
174 197 99
174 198 95
171 195 88
168 191 76
168 191 84
172 197 102
170 193 102
173 197 102
173 197 102
176 199 95
172 195 105
170 194 84
168 191 95
170 194 108
167 192 92
169 192 88
175 197 99
172 195 88
168 191 95
171 194 99
167 190 84
170 194 88
167 191 92
168 190 95
167 190 92
168 192 92
168 192 105
174 197 108
169 193 117
174 196 114
166 190 102
166 191 92
165 188 105
174 196 117
163 186 111
171 193 92
164 188 95
166 190 117
166 189 84
171 194 120
165 188 88
169 192 102
167 191 95
165 188 105
166 189 105
162 185 82
168 192 95
166 189 108
166 189 90
160 184 84
165 188 95
158 180 80
159 182 80
159 181 99
162 185 103
156 180 84
160 182 95
160 181 114
167 189 115
161 184 92
165 188 105
165 188 102
157 180 102
161 183 95
149 171 88
159 181 92
154 177 80
155 177 84
141 163 88
156 179 99
151 173 80
163 185 88
157 178 111
156 177 111
165 187 111
155 176 95
157 178 117
142 164 99
150 171 102
146 166 95
150 170 100
158 179 108
146 166 84
143 163 88
139 159 84
148 169 88
145 165 88
146 166 102
146 165 80
132 151 80
142 162 76
145 164 105
143 162 88
135 154 72
139 158 76
124 143 62
132 151 57
124 141 95
110 130 90
90 112 107
87 112 111
95 118 111
91 115 108
90 114 92
100 124 126
81 107 99
88 114 113
91 116 105
103 125 113
99 123 115
107 130 131
100 124 133
99 123 122
92 118 114
110 133 133
98 122 108
91 116 110
98 123 120
109 133 118
105 128 96
84 112 120
101 126 121
165 183 51
160 174 44
150 161 31
140 145 0
105 120 82
76 106 121
70 101 110
72 102 113
82 110 110
67 98 113
79 107 114
76 103 111
80 107 110
78 104 102
70 94 97
68 97 102
60 91 99
57 88 99
59 91 103
56 86 80
101 123 67
103 126 81
73 102 94
55 87 99
55 87 99
54 86 97
55 87 103
56 89 94
55 88 99
54 86 95
54 86 92
55 88 97
52 83 94
55 88 110
53 85 82
54 85 94
55 87 97
54 86 83
54 86 97
54 87 94
57 90 103
54 86 88
54 86 90
57 89 102
57 90 99
54 86 99
56 89 107
55 87 95
56 89 108
56 89 100
55 88 94
56 88 103
55 87 107
55 87 100
55 86 94
54 86 90
53 85 94
54 86 99
55 87 99
55 88 97
57 90 103
54 86 97
55 87 105
53 84 92
56 88 95
55 88 99
54 85 101
55 88 99
54 86 92
55 87 97
54 85 82
52 82 94
55 87 88
53 84 86
53 84 100
52 84 84
52 83 82
55 87 111
51 79 76
69 91 65
95 111 25
96 110 0
104 120 0
103 117 0
110 126 0
89 103 0
106 120 0
97 112 0
88 104 0
95 110 0
97 115 0
109 125 0
105 121 0
86 100 0
117 133 0
116 133 0
117 132 0
118 133 0
102 119 0
104 119 0
116 132 0
102 118 0
121 137 0
113 131 0
120 137 0
128 145 0
123 141 0
114 131 0
124 141 0
118 135 0
120 139 0
131 148 0
120 138 0
118 133 0
125 142 0
135 154 0
133 150 0
111 126 0
122 139 0
130 149 0
130 147 0
126 144 0
139 158 0
132 150 0
134 152 0
129 146 0
130 148 0
129 148 0
133 152 0
142 160 0
131 148 0
141 159 0
142 159 0
132 153 0
129 149 0
132 150 0
138 155 0
135 153 0
145 164 0
141 160 0
134 153 0
141 160 0
134 152 0
137 154 0
142 160 0
144 162 0
139 158 0
144 163 0
131 149 0
144 162 0
139 158 0
150 169 0
141 159 0
149 167 0
143 163 0
145 162 0
150 168 0
142 159 0
142 161 0
138 156 0
144 163 0
147 165 0
147 167 0
139 157 0
150 167 0
152 171 0
150 166 0
147 165 0
150 170 0
145 164 0
151 168 0
145 163 0
154 173 0
152 172 0
147 165 0
146 164 0
148 167 0
149 166 0
151 168 0
151 172 0
151 171 0
148 168 0
153 172 0
151 168 0
156 174 0
148 166 0
150 170 0
146 165 0
155 174 0
151 169 0
153 174 0
152 172 0
156 175 0
155 176 0
146 164 0
154 174 0
161 179 0
161 178 0
157 175 0
153 172 0
157 175 0
155 173 0
155 173 0
162 182 0
153 173 0
159 179 0
152 169 0
156 175 0
159 179 0
153 171 0
158 178 0
152 171 0
160 179 0
156 175 0
164 182 0
157 175 0
156 176 0
157 176 0
153 172 0
156 174 0
161 181 0
160 180 0
160 177 0
158 177 0
160 180 0
156 175 0
159 178 0
157 178 0
163 182 0
160 181 0
166 185 0
159 179 0
160 177 0
159 176 0
159 177 0
163 182 0
159 176 0
163 183 0
160 179 0
158 177 0
159 179 0
161 181 0
160 181 0
166 187 0
163 180 0
159 179 0
169 187 0
160 179 0
164 185 0
158 179 0
159 179 0
161 181 0
165 185 0
161 181 0
161 181 0
161 183 0
166 187 0
166 187 0
160 180 0
162 181 0
164 186 0
166 186 0
166 188 0
165 184 0
165 184 0
163 183 0
168 187 0
167 189 0
163 184 0
165 185 0
171 195 80
173 197 72
172 196 51
165 189 57
174 198 84
173 196 80
170 194 76
178 200 99
167 190 57
171 194 80
174 198 67
164 189 62
171 195 92
173 196 92
174 197 102
168 191 76
172 195 88
168 192 80
171 194 88
175 198 111
171 194 102
167 191 88
172 196 111
170 192 102
170 193 80
169 192 105
166 189 88
170 194 92
171 195 95
171 195 102
170 194 99
170 194 102
169 192 88
170 192 95
165 188 72
166 189 99
169 193 108
167 191 95
167 189 76
166 190 76
165 186 114
164 187 80
166 188 84
168 192 102
164 187 105
163 186 80
165 186 108
172 196 84
162 185 76
168 192 105
165 189 95
160 183 92
162 185 72
162 185 92
161 184 99
166 189 88
162 184 90
161 184 72
158 181 92
166 190 100
163 186 102
159 181 100
166 189 105
153 175 99
163 185 88
167 190 102
165 187 107
160 182 92
158 180 88
162 185 99
156 178 92
161 183 105
161 184 105
157 179 99
164 185 117
163 184 95
158 180 88
154 176 95
161 183 122
153 174 95
161 181 130
146 167 51
153 174 80
154 175 108
151 172 95
154 176 99
141 162 72
151 171 114
148 169 76
154 174 111
144 164 84
140 160 84
152 171 95
149 169 95
141 161 80
146 166 95
139 159 95
142 163 84
136 155 76
133 151 67
147 166 80
132 151 62
130 148 80
135 155 57
112 130 36
136 154 84
125 141 84
112 130 80
76 101 92
88 113 115
62 90 82
83 109 105
87 110 118
93 117 111
103 125 125
100 123 103
84 109 98
107 130 129
88 114 126
85 111 110
110 133 115
99 122 120
92 118 117
95 119 105
105 130 114
97 121 113
100 125 111
101 124 111
91 117 107
100 124 110
145 164 72
163 181 47
147 159 18
140 147 18
133 141 18
90 114 92
65 96 113
69 99 115
66 97 115
77 107 121
75 104 107
69 98 103
73 102 118
69 98 102
84 107 100
78 105 103
65 92 95
60 92 113
60 90 92
60 90 97
87 109 65
100 123 70
71 98 82
53 84 88
54 85 90
53 84 76
53 85 84
54 85 92
51 82 92
54 86 99
55 88 80
52 83 86
55 87 92
54 87 100
56 89 90
55 87 94
53 85 86
57 90 97
56 88 110
52 84 78
56 89 97
53 84 92
54 85 92
55 87 94
55 88 97
55 88 92
55 88 92
55 87 99
55 88 102
55 87 100
53 84 80
57 90 100
56 89 102
56 89 99
55 86 92
54 86 86
57 90 103
56 88 102
56 88 103
54 86 90
55 88 103
57 90 110
55 87 92
53 84 95
55 87 95
55 87 97
55 88 103
53 85 95
56 89 105
52 84 74
53 84 84
54 85 95
50 80 84
52 82 90
50 80 76
54 86 92
71 94 67
77 94 51
90 105 0
96 108 0
95 109 0
87 102 0
97 110 0
94 110 0
88 100 0
107 122 0
108 124 0
100 115 0
107 123 0
92 107 0
93 106 0
115 131 0
106 121 0
110 125 0
111 128 0
115 132 0
121 138 0
111 129 0
114 131 0
114 130 0
117 134 0
109 126 0
110 127 0
114 128 0
125 142 0
120 138 0
121 137 0
114 132 0
113 131 0
125 141 0
119 136 0
132 148 0
121 138 0
136 153 0
120 135 0
122 140 0
128 145 0
134 152 0
122 139 0
125 141 0
129 146 0
127 145 0
129 146 0
129 147 0
126 143 0
136 154 0
129 146 0
136 154 0
139 156 0
133 150 0
125 143 0
133 151 0
131 149 0
136 154 0
136 154 0
143 162 0
140 158 0
136 154 0
147 164 0
122 139 0
145 164 0
135 153 0
135 153 0
138 158 0
141 160 0
138 156 0
152 171 0
132 150 0
143 162 0
154 173 0
142 162 0
149 167 0
151 170 0
151 170 0
144 163 0
143 161 0
146 166 0
140 160 0
138 157 0
148 168 0
149 169 0
140 158 0
146 163 0
151 170 0
148 166 0
142 162 0
147 166 0
151 170 0
150 169 0
146 164 0
158 176 0
146 165 0
147 167 0
150 170 0
157 175 0
147 167 0
150 170 0
151 172 0
152 171 0
151 169 0
151 171 0
147 167 0
151 169 0
151 169 0
151 170 0
151 169 0
156 175 0
152 170 0
158 178 0
154 173 0
153 172 0
149 170 0
157 176 0
155 174 0
154 173 0
157 177 0
152 171 0
155 174 0
157 176 0
151 169 0
157 176 0
160 178 0
156 175 0
158 177 0
151 169 0
150 170 0
158 176 0
155 177 0
163 182 0
157 177 0
157 174 0
161 179 0
159 177 0
153 172 0
154 174 0
160 179 0
156 175 0
159 177 0
150 169 0
160 181 0
164 182 0
162 180 0
158 176 0
158 178 0
161 181 0
157 176 0
166 186 0
159 178 0
156 174 0
162 184 0
163 185 0
160 181 0
162 181 0
164 185 0
158 177 0
161 180 0
162 182 0
162 180 0
158 178 0
162 182 0
164 183 0
166 185 0
159 180 0
166 187 0
165 186 0
160 181 0
160 180 0
167 189 0
160 180 0
162 182 0
163 182 0
162 185 0
163 183 0
162 183 0
162 183 0
165 186 0
160 179 0
161 180 0
166 186 0
161 183 0
164 186 0
167 188 0
165 187 0
166 187 0
166 187 0
165 185 0
163 184 0
165 186 0
163 184 0
165 185 0
171 195 67
168 192 62
170 194 72
173 196 88
174 197 76
172 196 80
172 196 88
170 195 84
175 199 92
173 196 84
176 198 84
170 194 99
172 195 99
177 200 99
172 195 84
172 195 88
174 197 99
169 192 84
175 199 125
168 191 108
172 195 92
169 194 92
170 194 99
170 194 102
164 188 92
171 195 102
175 198 95
173 196 92
167 191 102
164 187 80
165 188 102
171 194 92
166 188 88
171 194 114
170 193 108
172 195 108
168 192 92
169 192 92
171 193 102
163 186 102
170 193 108
165 188 88
163 188 92
167 190 102
165 188 92
163 187 108
168 191 84
173 196 92
167 190 105
169 192 105
168 192 88
165 188 95
163 185 108
159 182 95
161 185 92
163 186 102
163 186 99
158 181 90
168 190 103
169 192 110
167 190 102
159 181 92
162 185 92
162 186 124
161 183 102
165 188 99
158 181 107
165 187 120
161 184 84
155 177 88
160 183 108
163 185 108
155 177 102
157 179 108
156 178 88
159 181 88
157 178 99
159 181 99
158 179 99
167 189 88
152 174 95
155 177 102
148 169 108
145 165 102
144 165 84
156 177 80
149 170 67
151 172 102
149 169 88
146 166 95
147 167 92
153 174 125
139 159 92
150 170 102
150 170 99
137 156 76
141 160 76
135 153 80
145 164 84
139 158 99
145 164 99
140 160 92
142 161 76
126 145 76
123 141 80
128 147 72
117 134 57
116 134 67
110 128 70
88 112 99
90 115 121
84 108 108
86 110 114
106 128 135
101 125 105
113 135 133
96 120 113
112 134 125
89 115 95
96 121 117
94 119 122
108 130 111
94 120 107
99 123 115
87 115 115
100 125 117
106 128 103
95 119 109
92 117 110
95 119 107
138 156 90
162 177 78
148 159 18
135 144 31
138 144 18
140 153 25
68 97 103
78 107 114
84 112 95
74 104 111
77 105 92
75 102 105
72 100 108
82 105 97
70 96 102
76 101 93
79 103 67
62 92 100
63 93 102
57 87 80
89 111 65
92 115 72
93 118 84
52 83 87
51 83 83
53 85 90
55 87 84
53 83 103
54 85 92
54 86 95
53 84 81
52 83 84
56 88 88
54 86 99
56 89 107
55 86 103
56 88 103
54 85 100
54 86 92
56 88 99
54 86 84
55 87 97
57 91 113
55 87 90
57 90 100
56 88 88
54 86 99
55 87 95
54 87 97
53 85 88
55 86 90
54 86 97
55 87 102
56 88 99
53 84 97
56 89 108
54 85 90
55 88 80
53 85 78
53 84 80
54 86 90
53 85 97
52 83 80
54 85 92
52 84 76
55 87 111
52 83 82
52 82 88
52 84 82
53 84 74
53 85 86
53 84 86
52 83 84
59 85 82
75 97 62
89 103 31
90 103 0
80 95 0
96 111 0
91 106 0
85 99 0
88 103 0
102 116 0
102 115 0
99 115 0
105 121 0
105 122 0
98 115 0
115 133 0
107 123 0
117 132 0
104 120 0
115 132 0
108 123 0
103 120 0
121 138 0
98 115 0
108 126 0
121 139 0
118 136 0
117 135 0
122 139 0
117 133 0
123 140 0
113 130 0
117 133 0
116 133 0
119 138 0
126 142 0
114 130 0
103 121 0
123 140 0
122 138 0
127 143 0
135 153 0
128 146 0
117 135 0
126 144 0
132 150 0
123 141 0
121 138 0
126 144 0
129 146 0
124 141 0
129 147 0
124 143 0
135 153 0
132 151 0
136 151 0
135 150 0
128 144 0
129 147 0
137 156 0
136 154 0
139 157 0
142 160 0
136 153 0
134 155 0
132 151 0
138 156 0
131 148 0
146 166 0
136 156 0
144 162 0
141 159 0
138 158 0
138 156 0
139 158 0
141 160 0
140 160 0
149 168 0
148 166 0
145 165 0
138 155 0
144 164 0
136 156 0
151 171 0
148 167 0
149 168 0
142 162 0
143 164 0
156 175 0
145 164 0
150 169 0
144 161 0
152 170 0
152 170 0
157 175 0
155 175 0
155 176 0
146 165 0
145 163 0
147 167 0
146 164 0
159 176 0
150 170 0
149 165 0
148 165 0
152 169 0
153 171 0
150 167 0
150 170 0
152 171 0
156 175 0
156 175 0
156 176 0
149 168 0
157 176 0
147 166 0
145 164 0
154 172 0
154 172 0
152 172 0
148 167 0
150 169 0
154 172 0
155 174 0
156 177 0
156 176 0
155 174 0
156 175 0
154 173 0
153 170 0
159 179 0
158 176 0
153 171 0
153 174 0
156 176 0
151 170 0
158 177 0
158 178 0
161 181 0
162 184 0
153 172 0
164 184 0
164 183 0
155 175 0
162 182 0
162 180 0
164 182 0
162 181 0
158 178 0
158 177 0
168 189 0
157 174 0
158 178 0
158 178 0
159 180 0
159 179 0
157 178 0
156 176 0
157 175 0
161 182 0
162 181 0
158 177 0
157 178 0
160 179 0
158 177 0
156 174 0
163 182 0
155 174 0
161 180 0
165 186 0
167 186 0
162 182 0
155 173 0
164 185 0
162 182 0
162 181 0
168 187 0
163 184 0
164 183 0
160 181 0
161 181 0
167 187 0
167 187 0
165 187 0
167 187 0
160 182 0
163 183 0
164 185 0
163 182 0
169 190 0
163 185 0
165 184 0
167 188 0
164 185 0
165 186 0
162 183 0
166 188 0
166 190 72
172 196 57
172 196 76
171 194 80
170 194 88
174 198 99
175 198 84
174 198 108
169 193 76
165 189 102
169 192 72
174 197 102
175 198 88
176 198 99
176 199 117
171 195 111
165 188 62
176 199 111
168 192 84
166 190 99
170 193 76
169 192 88
172 194 84
170 193 92
173 196 108
172 196 95
173 197 120
170 193 88
167 191 102
173 197 105
172 195 111
171 193 102
171 195 80
172 195 95
173 196 105
160 183 72
163 187 88
169 192 108
169 193 105
165 189 95
174 197 105
167 192 102
170 193 117
170 193 92
166 190 84
167 190 88
164 188 105
171 195 111
172 195 114
167 190 102
162 185 92
168 191 125
164 187 67
165 188 95
164 187 102
167 190 95
169 192 111
166 190 95
166 189 113
163 186 84
161 185 80
156 179 88
158 180 92
157 179 94
158 180 67
163 186 111
160 183 102
161 183 95
157 179 92
163 185 102
161 185 105
158 181 92
158 181 102
156 178 99
159 180 111
160 181 95
150 172 102
149 171 102
150 171 105
150 172 57
155 177 111
156 178 95
154 175 88
163 183 105
149 170 92
148 169 92
159 180 108
144 164 62
154 175 117
147 167 99
144 165 67
141 160 80
151 170 108
144 163 99
147 167 84
143 163 84
147 167 99
144 163 95
144 164 95
150 170 102
149 168 80
124 143 72
138 155 99
131 150 88
126 143 80
116 133 80
131 149 67
119 135 67
117 135 67
120 137 82
97 119 108
85 109 82
79 104 88
94 117 106
89 114 115
83 108 84
102 125 115
86 111 107
89 115 108
94 118 131
94 118 113
90 115 102
97 121 108
90 116 107
97 120 104
100 126 102
104 128 115
97 119 100
99 124 108
81 108 100
120 141 89
164 181 51
156 169 31
144 153 0
135 145 18
129 140 25
127 142 67
67 96 103
70 100 108
73 101 94
65 95 100
68 99 110
77 103 90
73 101 103
78 101 78
72 98 90
83 106 77
89 111 82
63 94 107
55 85 90
89 108 57
110 132 47
91 116 76
50 80 80
52 84 88
51 81 67
53 85 83
52 84 86
51 82 75
51 81 80
52 83 94
54 85 80
55 88 97
53 85 88
50 80 78
54 86 88
55 87 80
54 86 94
54 86 78
55 87 90
53 85 94
53 84 86
54 86 95
55 87 94
52 84 86
55 87 94
54 86 94
54 86 82
55 87 84
53 85 94
54 86 95
51 82 84
53 85 80
54 85 99
56 88 90
53 85 88
52 84 72
55 87 97
53 85 78
55 86 102
55 87 82
52 83 86
54 85 88
51 81 78
52 83 82
52 83 90
51 82 82
51 81 78
52 82 84
53 84 86
64 86 65
79 98 51
84 100 31
92 105 0
84 97 0
84 100 0
102 117 0
86 100 0
107 123 0
97 111 0
85 100 0
105 121 0
97 110 0
110 126 0
114 130 0
108 123 0
87 103 0
87 103 0
113 132 0
121 136 0
104 118 0
105 121 0
108 125 0
114 132 0
111 129 0
121 137 0
118 136 0
119 136 0
118 135 0
122 139 0
115 131 0
102 118 0
117 134 0
116 132 0
126 144 0
126 143 0
124 140 0
121 136 0
129 148 0
118 136 0
118 136 0
118 137 0
124 142 0
110 130 0
132 148 0
126 143 0
139 156 0
134 152 0
123 140 0
137 155 0
125 144 0
126 143 0
131 149 0
138 155 0
131 150 0
130 147 0
135 154 0
127 145 0
137 155 0
137 155 0
139 158 0
129 147 0
138 157 0
133 151 0
137 155 0
135 154 0
139 157 0
134 154 0
141 160 0
128 147 0
147 166 0
146 165 0
138 156 0
139 157 0
142 162 0
143 163 0
136 155 0
143 162 0
146 165 0
141 160 0
146 164 0
132 150 0
141 159 0
144 162 0
144 163 0
149 170 0
146 165 0
145 164 0
149 167 0
151 171 0
137 156 0
145 167 0
138 157 0
150 170 0
153 172 0
154 175 0
140 159 0
154 171 0
151 169 0
148 168 0
146 165 0
149 168 0
148 167 0
150 169 0
145 166 0
153 173 0
148 170 0
144 162 0
145 163 0
153 170 0
151 169 0
150 168 0
149 167 0
153 172 0
153 171 0
153 172 0
154 174 0
148 167 0
152 170 0
159 179 0
156 175 0
150 168 0
154 173 0
155 176 0
147 165 0
160 180 0
156 175 0
159 178 0
156 175 0
159 178 0
152 172 0
156 175 0
151 170 0
157 178 0
159 179 0
147 165 0
159 180 0
161 181 0
161 182 0
156 177 0
159 179 0
160 178 0
161 181 0
158 177 0
154 172 0
161 177 0
163 183 0
158 176 0
157 176 0
154 172 0
163 183 0
161 181 0
161 181 0
154 173 0
160 182 0
158 177 0
161 180 0
160 181 0
159 178 0
158 180 0
164 184 0
158 178 0
158 177 0
163 181 0
159 180 0
160 180 0
164 184 0
154 175 0
162 178 0
165 185 0
161 181 0
166 184 0
167 189 0
161 183 0
160 178 0
165 184 0
161 182 0
165 185 0
166 188 0
162 181 0
164 184 0
159 177 0
166 185 0
161 182 0
163 184 0
166 185 0
166 185 0
162 182 0
160 180 0
164 186 0
163 183 0
160 180 0
168 188 0
162 182 0
163 184 0
162 182 0
164 185 0
165 184 0
168 189 0
165 187 0
172 196 62
168 192 99
173 196 88
171 195 84
176 199 95
172 196 84
170 194 92
172 197 95
173 196 102
170 193 95
172 195 105
166 190 80
170 193 88
170 193 88
171 195 95
173 197 92
173 196 108
166 190 67
176 199 120
176 198 99
175 198 102
166 189 84
171 194 99
165 189 88
169 191 102
173 196 111
170 194 95
170 193 102
172 196 111
171 194 99
165 189 108
166 189 108
167 189 99
171 195 111
169 193 99
164 187 99
169 192 95
162 185 88
166 190 99
164 188 102
166 189 108
167 190 114
168 191 108
164 187 84
168 191 99
163 187 95
166 190 95
168 191 99
162 186 88
160 184 62
166 190 94
165 188 92
165 188 95
162 185 99
160 184 102
165 189 103
165 188 92
169 193 102
163 185 92
159 181 62
161 184 72
156 179 99
159 182 111
161 185 82
164 187 111
160 183 107
162 185 82
156 178 88
160 182 105
164 186 99
164 186 114
160 182 99
161 184 111
158 179 105
161 183 105
155 177 102
166 189 84
156 178 95
153 174 84
155 177 84
154 175 102
150 172 95
151 172 99
157 178 92
144 166 80
151 173 72
144 164 105
156 176 108
150 171 102
148 169 95
154 173 99
151 171 92
149 169 102
146 166 99
139 159 102
147 166 108
142 161 102
144 163 84
132 152 92
142 161 90
142 161 76
125 143 51
139 157 95
133 151 84
127 146 80
129 148 44
129 147 80
127 145 88
113 130 67
116 132 72
122 139 78
111 130 105
83 107 94
90 114 99
95 118 100
86 111 90
89 113 103
96 120 113
90 114 105
97 121 121
83 109 115
83 109 99
99 123 86
104 128 100
93 117 102
100 125 107
100 125 114
103 127 97
98 122 110
91 117 118
110 132 99
160 174 51
156 167 31
151 162 18
152 164 18
141 153 18
141 155 18
124 142 80
70 100 100
74 103 105
73 102 99
74 101 102
73 101 94
76 103 86
75 103 95
73 97 88
76 102 79
84 107 67
67 94 76
57 88 98
92 112 51
107 127 62
88 112 74
48 76 65
50 80 78
52 83 79
51 82 65
52 82 79
52 83 86
53 84 74
53 84 92
55 88 92
53 85 82
54 86 92
51 82 70
53 85 84
54 85 92
52 84 78
53 85 92
54 85 88
51 82 73
51 82 90
51 83 88
54 86 82
52 83 82
54 85 90
55 88 100
54 85 92
51 82 99
53 85 80
54 86 99
52 83 86
54 86 97
52 83 78
55 87 97
54 85 90
51 82 80
54 85 84
50 79 67
50 80 80
53 84 88
49 79 60
52 82 70
50 80 78
50 80 72
53 84 88
54 81 65
74 95 54
81 98 36
81 96 0
94 109 0
95 109 0
87 101 0
85 96 0
98 113 0
95 109 0
88 104 0
85 101 0
102 117 0
107 123 0
96 111 0
96 112 0
97 112 0
104 119 0
104 120 0
92 108 0
97 113 0
101 118 0
101 118 0
99 114 0
117 134 0
103 118 0
106 124 0
104 123 0
116 132 0
119 135 0
120 137 0
117 134 0
104 121 0
106 125 0
107 124 0
102 118 0
121 140 0
115 131 0
121 140 0
117 135 0
123 140 0
119 136 0
125 144 0
110 124 0
116 135 0
127 146 0
126 145 0
131 149 0
124 141 0
128 148 0
135 154 0
131 148 0
129 147 0
122 140 0
133 151 0
125 143 0
131 150 0
138 154 0
130 149 0
126 143 0
128 146 0
139 158 0
138 157 0
134 152 0
137 156 0
135 155 0
139 158 0
127 147 0
136 155 0
140 159 0
133 150 0
142 162 0
142 161 0
143 163 0
136 157 0
138 158 0
142 162 0
140 159 0
156 175 0
145 166 0
135 154 0
145 166 0
144 163 0
138 155 0
142 160 0
136 156 0
154 175 0
143 162 0
153 173 0
145 164 0
150 169 0
140 160 0
149 167 0
147 169 0
146 165 0
146 165 0
144 162 0
149 169 0
155 174 0
149 169 0
149 169 0
153 172 0
150 169 0
148 168 0
154 172 0
152 172 0
151 169 0
149 166 0
153 172 0
155 174 0
150 169 0
159 180 0
154 176 0
151 170 0
155 174 0
154 174 0
153 173 0
160 179 0
149 170 0
155 174 0
159 178 0
151 172 0
156 176 0
159 178 0
156 177 0
157 176 0
167 189 0
152 170 0
154 173 0
159 178 0
155 175 0
154 174 0
161 180 0
155 175 0
152 170 0
159 178 0
154 173 0
157 178 0
154 173 0
156 175 0
159 178 0
146 165 0
163 183 0
153 172 0
158 177 0
161 181 0
158 176 0
151 169 0
156 176 0
153 171 0
156 177 0
162 183 0
159 179 0
161 181 0
163 184 0
159 179 0
159 181 0
160 179 0
164 184 0
155 174 0
160 179 0
157 176 0
161 181 0
162 182 0
162 180 0
162 183 0
161 180 0
160 179 0
160 181 0
160 180 0
159 177 0
157 175 0
163 183 0
160 180 0
159 179 0
160 180 0
162 182 0
160 180 0
162 180 0
158 178 0
163 184 0
166 186 0
158 179 0
163 183 0
161 180 0
164 185 0
160 179 0
165 186 0
160 180 0
165 186 0
164 185 0
162 183 0
162 182 0
167 186 0
168 190 0
165 186 0
169 190 0
164 186 0
164 186 0
169 188 0
164 184 0
167 188 0
166 187 0
163 185 0
171 195 102
172 196 84
168 191 76
175 198 88
171 194 67
172 195 67
175 198 92
174 197 95
171 194 88
170 194 108
172 195 95
173 195 95
178 200 95
173 195 84
173 195 99
173 196 108
175 199 102
172 195 99
173 197 84
171 194 92
170 195 108
170 194 99
170 193 92
172 195 80
169 193 76
174 197 111
174 198 114
176 199 114
170 193 99
170 193 88
168 191 84
175 200 117
168 191 76
169 192 72
166 190 108
168 191 108
170 193 99
167 191 120
168 191 102
169 193 95
171 195 99
166 189 105
168 191 108
169 193 111
166 189 102
170 193 105
171 195 99
168 191 99
166 189 105
163 186 92
169 191 88
161 184 107
165 188 74
162 184 84
164 187 102
160 184 80
165 189 114
160 183 102
167 191 115
158 181 80
162 184 99
168 191 108
162 185 92
162 185 111
160 183 86
155 178 90
160 184 94
165 188 111
161 183 99
159 181 95
168 191 114
161 184 99
160 183 114
153 175 105
155 178 95
162 184 111
155 178 95
155 176 105
159 181 84
158 179 105
145 166 80
156 178 95
158 179 99
153 174 62
154 175 99
152 173 92
155 175 99
162 183 122
151 172 80
157 177 95
158 178 105
153 173 114
151 171 111
150 170 84
149 169 108
148 167 92
152 172 100
146 166 108
140 158 88
133 151 99
138 157 76
146 166 62
126 145 62
143 162 102
139 157 102
129 145 88
132 149 76
134 152 84
116 132 57
138 155 102
132 149 76
124 141 88
97 116 78
101 123 110
84 108 107
98 121 95
91 114 105
90 113 115
94 118 100
92 115 100
97 120 118
88 113 117
99 123 116
100 125 108
98 122 113
97 122 110
101 125 124
99 123 102
96 120 102
98 121 99
95 116 84
155 172 36
157 171 25
138 149 18
135 147 0
140 152 25
133 148 18
131 148 18
100 123 86
76 105 88
70 100 97
65 95 100
66 96 98
76 101 95
82 105 94
74 98 86
69 94 84
78 103 84
82 106 54
66 94 89
99 118 57
85 108 67
93 117 74
75 97 44
69 89 36
74 96 60
50 80 74
50 81 65
51 82 70
51 82 78
51 82 90
49 78 65
50 81 72
51 81 76
53 85 83
53 84 78
53 84 90
53 84 82
54 86 82
53 84 88
53 84 92
52 83 86
51 82 90
55 87 88
52 82 82
52 83 82
52 82 92
52 83 78
52 84 80
49 79 57
51 82 82
53 84 88
50 80 80
52 83 88
52 84 76
49 79 84
52 83 74
51 81 84
53 83 86
50 81 78
51 82 72
50 80 76
54 81 84
55 81 76
75 92 31
75 91 25
79 92 0
76 90 0
94 107 0
85 100 0
91 104 0
80 95 0
99 112 0
94 109 0
89 104 0
88 103 0
97 113 0
110 126 0
104 119 0
102 118 0
98 113 0
104 120 0
98 113 0
105 121 0
101 117 0
98 114 0
104 121 0
100 117 0
106 123 0
114 131 0
89 106 0
110 126 0
108 123 0
115 132 0
119 133 0
113 129 0
115 131 0
117 135 0
119 137 0
117 135 0
120 138 0
117 132 0
120 136 0
121 138 0
119 137 0
116 135 0
128 145 0
128 147 0
123 139 0
111 127 0
124 141 0
116 133 0
122 141 0
124 143 0
125 142 0
127 145 0
125 144 0
130 150 0
139 157 0
135 154 0
135 153 0
135 154 0
133 151 0
131 147 0
140 161 0
144 163 0
133 150 0
140 158 0
132 150 0
135 153 0
138 157 0
135 153 0
133 153 0
132 150 0
139 158 0
140 160 0
142 162 0
129 147 0
142 161 0
143 161 0
134 152 0
145 164 0
137 156 0
145 164 0
144 164 0
144 163 0
143 163 0
146 165 0
151 171 0
146 167 0
139 159 0
150 169 0
141 162 0
143 162 0
147 167 0
139 158 0
139 158 0
141 161 0
146 164 0
145 165 0
145 164 0
145 164 0
148 169 0
152 171 0
151 171 0
143 162 0
143 162 0
144 164 0
142 159 0
157 178 0
150 169 0
149 169 0
157 178 0
146 165 0
146 165 0
158 179 0
146 164 0
151 170 0
154 171 0
156 177 0
156 177 0
157 177 0
156 175 0
152 170 0
146 164 0
157 178 0
157 176 0
155 176 0
159 179 0
149 165 0
154 173 0
155 175 0
143 163 0
155 174 0
156 175 0
157 177 0
154 174 0
155 177 0
159 180 0
154 174 0
154 173 0
153 172 0
157 178 0
155 176 0
157 178 0
159 178 0
155 176 0
158 178 0
160 180 0
157 177 0
156 177 0
156 177 0
159 178 0
158 179 0
162 181 0
155 173 0
159 178 0
158 177 0
166 186 0
160 180 0
155 174 0
155 175 0
158 177 0
155 176 0
161 180 0
156 175 0
158 178 0
159 177 0
161 181 0
161 182 0
159 180 0
166 187 0
161 182 0
156 175 0
163 185 0
165 184 0
163 183 0
161 182 0
158 178 0
164 185 0
163 184 0
163 184 0
158 177 0
161 181 0
160 181 0
164 184 0
164 184 0
169 191 0
163 184 0
163 183 0
166 188 0
165 185 0
158 178 0
162 180 0
165 184 0
166 188 0
167 187 0
160 180 0
164 186 0
164 184 0
162 182 0
167 188 0
167 189 0
166 187 0
160 181 0
164 185 0
164 187 0
167 187 0
169 192 0
164 184 0
168 191 62
169 193 80
171 194 76
167 190 84
170 195 99
174 197 92
169 191 108
169 192 95
169 192 84
170 193 80
176 200 95
177 200 102
170 194 108
171 195 105
176 199 117
172 196 84
174 197 95
174 196 102
174 198 95
174 198 95
173 196 76
170 193 92
171 194 88
168 192 76
169 193 114
169 193 95
167 191 108
170 193 92
169 192 102
158 181 67
169 191 108
172 196 117
168 192 102
166 190 105
170 194 99
169 192 105
172 195 102
166 190 95
162 185 95
168 191 111
168 191 111
164 187 95
166 190 88
166 189 95
163 186 80
168 191 80
167 192 105
166 190 99
170 194 99
171 194 103
158 182 88
164 187 110
157 180 78
169 192 120
160 184 105
165 188 92
160 183 102
161 185 92
162 185 90
164 187 99
157 180 86
159 181 67
162 184 108
161 183 92
165 188 102
166 189 129
161 184 92
151 173 62
162 185 74
154 176 102
162 184 97
155 177 84
165 187 111
157 181 120
154 176 95
164 186 76
162 185 84
151 174 99
162 185 88
158 179 99
143 164 95
149 172 76
161 182 111
152 173 99
141 162 92
156 177 102
163 184 105
146 166 92
157 177 120
152 173 95
143 163 92
148 168 88
148 168 88
153 173 105
135 154 72
136 156 67
142 162 88
155 175 130
144 163 88
149 169 102
135 155 76
132 151 80
140 160 76
142 161 105
136 153 95
141 158 99
125 144 72
130 147 84
117 133 80
117 134 44
119 135 76
124 139 76
113 127 76
102 120 72
89 113 102
108 129 121
98 119 101
91 114 105
90 113 100
100 122 113
95 119 121
93 118 100
86 112 108
102 124 90
88 113 103
102 127 103
91 118 95
106 128 105
105 129 105
93 116 118
110 131 113
153 170 44
151 168 25
147 160 0
153 168 0
137 153 25
135 149 18
131 147 0
137 153 18
92 115 72
69 98 95
66 95 99
69 98 102
63 93 99
72 98 84
66 93 87
79 105 88
71 97 82
75 99 72
86 109 76
86 107 65
94 117 74
105 128 57
87 106 51
82 97 0
96 111 0
94 110 0
81 96 0
67 84 40
82 99 47
67 89 57
64 88 51
51 79 67
48 76 47
49 78 70
49 78 67
51 82 80
50 81 78
50 80 72
50 81 61
51 82 97
52 83 80
52 83 78
51 82 84
50 80 67
51 81 82
50 80 88
53 84 84
50 80 74
51 82 74
50 81 77
47 76 62
50 80 67
51 81 78
51 82 80
50 79 78
64 87 51
58 81 51
68 87 60
75 95 44
75 91 40
81 95 18
90 105 0
88 103 0
99 114 0
87 101 0
65 79 0
94 110 0
84 97 0
83 97 0
85 98 0
97 112 0
94 107 0
90 104 0
97 112 0
107 124 0
112 127 0
99 113 0
110 126 0
104 120 0
97 113 0
96 111 0
95 111 0
113 131 0
106 123 0
105 119 0
112 129 0
116 132 0
115 131 0
98 115 0
106 123 0
100 118 0
110 128 0
107 123 0
100 117 0
115 130 0
117 134 0
119 136 0
116 132 0
111 129 0
122 139 0
119 136 0
116 132 0
110 128 0
122 141 0
121 139 0
129 148 0
118 137 0
118 135 0
140 159 0
121 139 0
125 143 0
125 143 0
118 138 0
125 143 0
124 143 0
140 158 0
128 146 0
134 153 0
133 152 0
122 139 0
141 157 0
136 156 0
132 150 0
135 153 0
133 152 0
138 158 0
132 149 0
130 148 0
127 146 0
142 161 0
134 153 0
140 160 0
133 150 0
116 134 0
135 153 0
129 148 0
144 162 0
147 166 0
128 147 0
142 160 0
137 154 0
148 168 0
147 167 0
144 164 0
141 161 0
145 164 0
146 166 0
144 163 0
144 164 0
146 165 0
142 161 0
136 154 0
152 173 0
144 164 0
143 162 0
145 166 0
151 171 0
153 172 0
149 167 0
150 170 0
148 165 0
145 165 0
150 169 0
152 172 0
158 179 0
149 169 0
157 176 0
154 171 0
148 167 0
149 169 0
149 169 0
157 178 0
154 173 0
149 169 0
155 174 0
153 172 0
155 174 0
151 172 0
151 169 0
149 167 0
150 168 0
145 163 0
160 179 0
149 169 0
150 169 0
153 170 0
151 171 0
156 178 0
148 165 0
157 177 0
152 173 0
152 172 0
150 171 0
155 173 0
157 177 0
158 178 0
159 179 0
156 176 0
146 164 0
165 185 0
155 177 0
156 175 0
159 180 0
152 171 0
161 181 0
153 171 0
153 173 0
158 179 0
158 177 0
153 172 0
161 179 0
160 181 0
160 180 0
159 178 0
156 174 0
161 182 0
155 174 0
157 175 0
161 181 0
161 180 0
160 180 0
162 183 0
162 183 0
158 179 0
167 187 0
160 182 0
159 177 0
162 181 0
162 182 0
157 179 0
160 179 0
163 181 0
160 181 0
162 181 0
159 178 0
161 180 0
163 184 0
161 180 0
162 183 0
165 186 0
164 185 0
163 182 0
161 179 0
156 176 0
161 182 0
163 183 0
162 182 0
167 188 0
165 184 0
164 184 0
159 180 0
163 185 0
165 184 0
163 183 0
163 183 0
158 178 0
167 189 0
165 184 0
165 185 0
166 186 0
167 189 0
164 185 0
161 182 0
164 184 0
165 186 0
164 184 0
170 190 0
167 190 0
162 183 0
171 194 92
170 193 67
175 199 95
172 195 76
175 197 111
171 195 76
170 194 76
172 195 111
173 196 114
169 192 80
172 195 92
175 198 102
174 198 99
173 196 95
168 192 95
172 195 105
173 195 99
166 189 92
174 198 108
173 196 108
170 193 95
168 190 102
168 191 92
174 197 117
163 186 92
170 192 84
170 194 114
168 192 92
171 194 95
170 193 92
166 190 95
164 188 102
165 188 84
174 197 117
168 191 88
170 193 84
165 188 95
164 187 99
168 191 108
167 190 108
166 189 108
168 191 111
162 185 88
163 187 88
167 189 99
169 192 92
165 189 92
172 196 84
166 190 108
167 190 105
169 192 88
162 186 105
161 185 95
157 180 108
165 189 92
161 184 95
165 188 76
160 182 92
162 186 92
162 185 97
163 186 105
158 182 95
159 181 67
157 180 76
159 181 72
156 180 111
170 192 120
159 181 88
154 177 82
155 177 88
165 188 88
161 183 117
159 182 88
161 184 92
157 179 105
160 182 92
158 179 92
157 179 84
152 174 67
157 179 102
156 177 95
153 175 95
158 179 114
142 163 67
148 168 108
157 179 95
149 170 88
155 176 99
155 175 95
155 176 95
143 164 95
141 161 95
153 174 99
148 168 88
142 162 94
152 171 105
148 168 99
153 174 95
145 165 108
140 159 102
137 156 84
134 152 105
130 148 76
141 160 88
127 144 102
135 153 67
139 156 105
129 146 84
123 140 72
120 138 80
128 145 57
126 143 84
122 139 72
119 136 67
114 130 78
95 114 90
81 104 88
98 120 105
96 118 103
94 116 99
91 115 113
87 112 95
91 116 100
92 118 80
87 113 90
99 123 94
102 126 110
115 137 108
93 115 90
96 120 92
128 149 99
141 157 36
156 170 18
157 170 18
146 161 0
144 156 0
143 160 0
139 158 0
141 158 18
131 149 18
73 97 78
74 99 88
72 99 88
67 93 74
73 100 88
69 97 95
68 97 92
77 103 72
67 92 74
89 108 36
94 113 51
106 127 57
102 125 70
80 101 47
106 120 0
86 101 0
97 111 0
84 97 0
75 90 0
95 109 0
85 99 0
87 102 0
97 111 0
90 104 0
71 85 25
76 92 40
55 74 31
66 85 31
65 85 47
57 81 47
60 83 47
58 83 62
49 72 54
60 83 70
65 88 70
54 79 54
60 85 57
67 87 47
74 95 54
55 77 47
74 92 51
84 101 44
61 80 51
71 89 18
87 102 0
78 93 0
91 104 0
84 98 0
84 97 0
81 93 0
91 105 0
77 92 0
80 94 0
101 116 0
73 87 0
98 112 0
93 107 0
96 110 0
92 106 0
92 107 0
89 104 0
86 102 0
92 107 0
96 112 0
87 103 0
107 121 0
109 124 0
97 113 0
101 118 0
107 124 0
104 121 0
102 118 0
105 121 0
96 113 0
106 124 0
119 137 0
111 128 0
119 136 0
103 120 0
119 138 0
117 133 0
103 118 0
126 143 0
118 136 0
120 137 0
110 128 0
128 146 0
115 132 0
111 129 0
112 129 0
113 129 0
126 145 0
115 132 0
126 146 0
114 131 0
119 137 0
124 143 0
128 147 0
127 146 0
118 135 0
123 141 0
127 145 0
130 149 0
129 148 0
125 144 0
130 151 0
139 156 0
133 152 0
132 153 0
128 146 0
137 155 0
128 146 0
128 147 0
135 153 0
134 152 0
141 161 0
137 156 0
137 156 0
133 151 0
127 145 0
133 149 0
138 158 0
136 156 0
138 156 0
131 150 0
140 158 0
147 166 0
143 163 0
141 162 0
143 163 0
148 168 0
139 159 0
145 164 0
132 153 0
145 165 0
147 168 0
144 161 0
139 160 0
143 162 0
143 163 0
145 165 0
145 165 0
141 161 0
137 155 0
148 166 0
138 157 0
152 174 0
156 175 0
144 162 0
149 169 0
150 171 0
144 163 0
146 167 0
146 163 0
147 167 0
148 167 0
145 164 0
150 167 0
150 170 0
153 172 0
141 160 0
156 176 0
157 177 0
152 171 0
153 173 0
151 170 0
154 172 0
148 168 0
152 172 0
154 173 0
149 167 0
151 170 0
152 172 0
161 181 0
151 171 0
151 170 0
154 174 0
153 172 0
155 175 0
150 170 0
154 175 0
160 180 0
154 174 0
156 178 0
161 182 0
150 170 0
151 172 0
154 175 0
160 179 0
158 178 0
156 175 0
157 177 0
157 178 0
160 180 0
160 181 0
161 181 0
152 171 0
162 180 0
163 184 0
157 178 0
160 180 0
158 178 0
158 179 0
158 178 0
160 180 0
160 181 0
161 182 0
158 178 0
156 175 0
158 179 0
163 183 0
157 178 0
155 176 0
159 181 0
155 174 0
156 175 0
160 180 0
158 178 0
159 180 0
157 178 0
159 177 0
162 183 0
160 182 0
160 181 0
161 182 0
162 182 0
165 183 0
165 187 0
156 177 0
157 179 0
166 188 0
163 184 0
162 182 0
161 181 0
167 187 0
160 181 0
159 177 0
166 186 0
163 183 0
160 180 0
166 187 0
164 183 0
162 182 0
165 186 0
164 187 0
162 184 0
161 180 0
165 188 0
165 184 0
163 182 0
164 184 0
167 188 0
163 184 0
159 180 0
165 187 0
164 185 0
166 188 0
170 191 0
165 185 0
168 190 0
174 198 88
175 198 108
175 197 95
172 196 92
174 197 84
169 192 102
178 200 120
171 193 92
173 196 95
171 194 92
168 192 92
171 194 76
175 198 108
171 195 80
172 195 99
171 194 84
173 196 105
172 195 105
167 191 95
172 195 99
165 189 114
169 193 84
169 193 88
168 191 88
169 193 80
172 194 117
169 192 102
170 193 88
169 193 102
174 198 120
164 188 92
164 187 76
169 194 102
169 192 80
162 184 80
169 193 102
169 193 108
169 192 99
170 194 114
159 182 111
168 191 105
165 188 95
168 191 99
171 195 105
167 190 108
169 192 92
170 194 111
158 181 92
161 183 95
160 183 72
172 194 114
162 185 88
171 194 105
157 180 88
163 185 100
163 187 97
165 188 108
160 184 84
165 189 99
162 185 110
162 185 90
165 188 102
166 189 94
169 192 108
166 189 103
156 179 92
161 184 95
166 189 108
162 185 115
157 179 102
144 165 80
157 180 99
156 178 92
159 182 99
167 188 108
149 172 76
155 177 92
163 185 108
150 172 99
151 173 80
151 173 105
157 179 92
161 182 92
151 173 76
162 183 111
150 171 102
147 168 84
146 166 51
152 174 99
151 171 92
149 170 88
154 174 108
148 168 92
148 168 114
145 165 99
150 169 114
153 174 108
137 156 92
152 170 122
145 163 102
144 163 95
144 163 76
142 160 95
142 160 88
132 150 84
144 162 108
121 139 62
122 140 80
118 134 67
113 129 51
137 154 80
123 139 51
123 139 72
118 133 84
111 127 51
116 132 76
108 126 94
99 119 102
88 110 105
86 108 97
110 130 118
73 100 88
90 116 94
94 119 82
85 110 88
99 122 90
104 128 92
96 120 100
103 125 107
97 119 100
103 124 76
137 154 36
157 173 0
152 169 18
157 175 25
149 164 25
141 158 25
145 164 18
135 153 18
140 157 0
123 140 31
84 107 84
74 100 74
74 102 95
67 91 82
71 95 103
84 107 86
79 102 82
82 104 65
102 119 36
87 104 18
99 119 44
92 114 67
91 110 51
93 108 0
101 116 0
99 113 0
103 118 0
91 104 0
95 109 0
97 113 0
103 116 0
79 92 0
91 106 0
86 101 0
77 90 0
104 118 0
69 84 0
91 105 0
79 94 0
86 102 0
79 92 0
87 102 0
76 90 0
91 104 0
81 94 0
92 107 0
86 100 0
93 107 0
86 99 0
90 104 0
84 99 0
85 98 0
70 84 0
87 101 0
83 95 0
95 110 0
83 98 0
85 99 0
91 106 0
88 103 0
79 94 0
82 96 0
97 112 0
89 104 0
96 112 0
84 96 0
104 118 0
84 99 0
89 102 0
99 113 0
97 113 0
100 117 0
85 100 0
98 114 0
94 110 0
101 119 0
109 127 0
91 106 0
106 122 0
109 126 0
110 127 0
102 119 0
107 124 0
108 124 0
109 125 0
119 135 0
114 131 0
108 125 0
109 125 0
111 129 0
113 130 0
119 135 0
116 130 0
108 124 0
109 126 0
117 135 0
117 135 0
118 136 0
128 148 0
130 147 0
120 138 0
117 135 0
118 133 0
116 135 0
120 139 0
122 139 0
133 151 0
132 151 0
137 156 0
127 146 0
128 147 0
129 148 0
123 141 0
129 148 0
125 144 0
127 146 0
131 151 0
127 147 0
122 141 0
130 148 0
136 156 0
122 140 0
133 152 0
130 149 0
132 152 0
136 155 0
128 146 0
141 160 0
146 165 0
137 155 0
137 156 0
143 164 0
134 152 0
149 168 0
134 153 0
144 163 0
140 158 0
145 165 0
145 164 0
144 163 0
145 163 0
147 167 0
144 164 0
145 164 0
140 159 0
146 166 0
150 171 0
144 164 0
144 163 0
144 165 0
137 156 0
146 165 0
149 171 0
146 166 0
149 169 0
152 171 0
141 161 0
140 158 0
148 167 0
148 166 0
148 166 0
146 166 0
147 168 0
151 171 0
153 171 0
152 170 0
155 174 0
151 170 0
153 174 0
151 170 0
147 168 0
146 165 0
156 176 0
144 163 0
146 164 0
153 172 0
154 174 0
146 166 0
152 171 0
150 169 0
152 172 0
160 181 0
151 170 0
159 178 0
157 177 0
159 180 0
160 180 0
154 174 0
142 162 0
166 187 0
156 175 0
156 175 0
159 179 0
156 178 0
161 182 0
159 176 0
156 178 0
156 175 0
159 178 0
154 173 0
158 175 0
159 178 0
156 176 0
162 183 0
158 178 0
160 180 0
160 179 0
154 175 0
154 176 0
165 185 0
157 177 0
159 179 0
160 178 0
158 178 0
155 176 0
162 181 0
157 177 0
158 178 0
159 179 0
162 183 0
159 178 0
160 181 0
156 177 0
161 181 0
159 180 0
167 186 0
157 178 0
166 185 0
163 184 0
157 178 0
159 181 0
163 183 0
162 183 0
158 177 0
163 182 0
164 185 0
164 185 0
164 184 0
164 183 0
164 186 0
164 184 0
167 186 0
166 187 0
161 183 0
163 185 0
162 182 0
161 181 0
163 184 0
164 185 0
161 179 0
164 184 0
158 180 0
164 186 0
159 179 0
165 187 0
161 181 0
166 186 0
160 179 0
165 187 0
160 182 0
160 182 0
163 184 0
169 190 0
156 176 0
162 182 0
168 188 0
166 188 0
162 182 0
161 183 0
168 192 80
174 197 80
174 197 92
170 194 95
174 198 99
172 195 99
170 193 80
174 197 114
174 197 111
173 196 99
177 200 108
173 196 99
174 197 80
176 199 99
171 195 108
173 197 99
174 197 99
171 195 95
170 193 67
172 195 102
170 194 99
167 191 99
169 193 99
170 194 95
168 191 99
170 194 111
168 192 102
170 193 99
177 201 114
173 196 88
170 194 105
168 191 102
165 188 92
167 190 80
170 193 102
164 188 72
163 186 72
169 192 105
166 189 88
164 187 92
165 188 88
166 189 108
164 187 108
166 190 95
165 188 108
165 188 76
167 191 99
161 185 67
165 188 95
166 190 102
166 189 105
162 185 102
166 189 105
163 186 92
171 194 111
165 187 84
168 192 95
162 185 76
161 185 88
162 185 88
168 191 111
162 186 99
157 180 95
162 185 88
156 179 99
152 175 88
152 175 86
158 181 95
162 184 95
154 176 99
158 179 99
159 181 99
153 176 72
159 183 76
156 178 95
165 187 102
158 180 84
161 183 102
156 178 102
163 186 108
149 171 88
143 165 95
155 177 80
154 175 102
157 178 99
157 178 111
157 178 111
157 178 105
147 168 102
155 175 108
155 175 114
150 171 108
155 176 105
159 180 102
151 171 92
151 171 84
139 158 102
147 166 88
142 161 88
160 180 122
131 149 102
146 164 99
134 153 72
139 157 92
131 149 92
123 142 76
131 149 102
136 154 88
130 146 80
120 137 80
119 135 72
128 144 67
127 143 80
127 143 88
121 138 76
104 118 72
115 131 72
96 111 47
88 109 90
96 118 92
89 111 102
87 113 90
92 118 114
98 120 94
85 111 76
114 137 120
108 130 100
90 114 110
113 134 102
100 122 102
116 136 76
128 147 51
151 168 36
155 171 18
140 156 25
144 157 22
140 158 18
133 149 0
142 160 0
119 136 18
128 145 0
115 132 18
95 116 60
73 98 88
69 97 95
74 98 70
65 92 80
82 104 67
73 95 51
106 123 0
115 130 0
99 117 0
102 124 40
86 106 51
107 122 0
94 109 0
84 99 0
104 120 0
100 116 0
93 108 0
92 107 0
70 85 0
89 104 0
70 84 0
96 111 0
86 101 0
88 103 0
81 95 0
95 110 0
87 101 0
88 102 0
85 99 0
77 92 0
85 101 0
93 107 0
92 105 0
94 108 0
93 107 0
90 103 0
89 102 0
104 119 0
91 106 0
97 112 0
96 111 0
78 92 0
88 103 0
96 112 0
89 104 0
94 109 0
98 112 0
98 112 0
101 115 0
84 98 0
98 113 0
84 97 0
101 116 0
95 111 0
104 120 0
98 113 0
105 120 0
104 121 0
110 126 0
92 107 0
100 116 0
94 110 0
105 122 0
107 123 0
116 135 0
110 128 0
105 122 0
102 118 0
107 123 0
114 130 0
112 129 0
97 113 0
116 133 0
106 122 0
123 140 0
107 125 0
117 136 0
108 124 0
117 134 0
105 121 0
114 130 0
114 132 0
122 139 0
116 133 0
118 138 0
126 144 0
119 136 0
127 143 0
124 143 0
120 139 0
128 147 0
116 133 0
133 153 0
126 143 0
115 133 0
116 132 0
140 158 0
124 143 0
123 143 0
130 148 0
131 148 0
135 153 0
123 141 0
131 150 0
132 150 0
122 141 0
142 161 0
135 153 0
140 159 0
133 152 0
138 157 0
127 147 0
135 153 0
135 155 0
135 153 0
137 157 0
137 157 0
137 155 0
137 156 0
136 154 0
142 162 0
139 157 0
135 152 0
138 160 0
139 159 0
140 159 0
141 160 0
143 163 0
137 156 0
144 163 0
145 164 0
144 164 0
140 159 0
142 163 0
141 160 0
146 166 0
145 165 0
148 169 0
142 163 0
149 167 0
144 164 0
149 170 0
144 164 0
147 167 0
145 164 0
144 164 0
144 164 0
144 163 0
149 167 0
154 172 0
150 169 0
146 166 0
146 166 0
153 174 0
156 177 0
153 172 0
144 163 0
150 169 0
145 165 0
154 176 0
148 168 0
150 170 0
150 169 0
148 167 0
153 173 0
154 175 0
151 170 0
148 169 0
160 179 0
151 169 0
150 170 0
154 174 0
148 167 0
154 173 0
148 168 0
151 173 0
153 173 0
158 179 0
162 182 0
156 175 0
157 178 0
164 185 0
153 172 0
152 173 0
158 176 0
161 180 0
159 180 0
158 177 0
160 182 0
152 172 0
153 173 0
157 177 0
155 173 0
157 178 0
160 180 0
154 172 0
159 180 0
144 164 0
160 180 0
155 175 0
160 180 0
152 172 0
159 180 0
160 180 0
164 184 0
159 178 0
163 186 0
163 185 0
163 183 0
157 178 0
160 181 0
157 179 0
161 181 0
157 178 0
157 178 0
159 179 0
164 184 0
160 180 0
163 184 0
156 175 0
165 187 0
160 178 0
163 185 0
159 179 0
159 180 0
157 177 0
161 181 0
163 185 0
163 184 0
163 183 0
162 186 0
160 180 0
163 186 0
160 179 0
159 180 0
160 182 0
167 187 0
164 185 0
163 184 0
165 186 0
163 184 0
164 184 0
164 185 0
167 188 0
164 184 0
168 189 0
165 186 0
162 182 0
165 186 0
166 187 0
168 189 0
165 187 0
164 186 0
171 191 0
167 188 0
165 186 0
162 184 0
176 199 125
168 192 76
174 197 105
175 199 99
177 199 105
174 197 84
172 195 102
173 197 102
171 193 108
175 198 108
169 192 92
168 191 108
175 198 108
176 199 102
170 193 99
171 194 108
172 195 92
167 191 99
165 189 76
171 195 95
167 191 111
171 193 114
170 194 99
173 196 99
173 196 102
169 192 88
167 191 99
171 194 95
170 193 108
170 194 108
168 191 111
170 193 117
167 190 108
169 192 95
162 185 76
167 191 99
166 188 88
164 188 80
170 193 114
167 191 88
167 190 95
168 191 95
170 193 95
168 192 99
167 191 92
163 185 102
167 190 105
163 186 88
166 188 88
159 183 80
169 193 118
164 187 99
168 191 102
160 183 95
159 182 99
167 190 99
165 188 113
161 184 97
169 192 120
164 188 105
166 188 105
160 183 107
167 189 114
168 190 108
151 174 78
159 181 84
165 186 102
158 181 102
163 186 95
162 186 108
159 181 97
159 182 95
160 182 95
156 178 84
162 184 114
163 185 108
156 178 99
160 182 88
162 184 125
156 178 108
154 176 105
156 178 95
155 177 102
153 175 72
144 166 88
148 168 99
160 181 108
158 179 114
143 164 80
151 172 102
155 175 111
144 165 92
149 169 105
147 167 99
151 171 92
147 167 99
147 168 92
146 165 92
150 169 84
135 155 76
146 164 111
145 164 102
136 154 95
144 162 95
138 157 62
136 155 72
125 143 67
146 165 88
129 145 84
124 141 67
116 133 76
130 146 67
119 136 76
135 152 99
106 123 51
121 138 76
127 142 92
122 137 84
109 123 67
86 104 74
91 111 74
78 102 70
87 112 95
90 114 78
91 113 105
92 117 92
102 125 88
100 124 95
107 128 97
97 118 65
97 118 62
132 149 47
159 176 0
148 164 25
150 168 0
149 168 18
154 173 18
141 161 0
140 159 0
129 148 0
128 146 0
125 142 0
120 136 0
106 125 60
76 98 60
72 98 76
69 95 65
72 93 47
91 106 18
105 121 0
116 132 0
105 122 0
113 132 25
83 99 25
91 107 0
112 129 0
106 123 0
98 113 0
103 118 0
87 102 0
100 115 0
104 119 0
83 99 0
102 117 0
91 106 0
107 123 0
91 106 0
79 94 0
89 105 0
95 110 0
87 101 0
90 105 0
79 95 0
88 103 0
93 107 0
86 100 0
97 112 0
94 108 0
94 107 0
95 110 0
94 109 0
90 105 0
96 111 0
97 111 0
95 109 0
97 112 0
95 110 0
93 107 0
80 96 0
88 103 0
75 91 0
99 114 0
90 104 0
90 106 0
93 107 0
91 106 0
100 116 0
99 113 0
109 125 0
97 112 0
109 125 0
102 117 0
110 125 0
89 104 0
114 131 0
109 125 0
89 104 0
109 126 0
95 112 0
103 119 0
115 131 0
113 131 0
109 127 0
105 120 0
107 125 0
116 133 0
108 125 0
106 125 0
116 134 0
117 134 0
120 137 0
111 130 0
108 125 0
121 139 0
110 127 0
109 128 0
121 139 0
106 122 0
111 127 0
130 149 0
114 133 0
128 145 0
129 148 0
124 143 0
123 140 0
120 137 0
127 143 0
135 154 0
128 148 0
129 150 0
133 152 0
126 145 0
129 148 0
134 151 0
125 144 0
131 149 0
130 149 0
139 158 0
137 157 0
134 152 0
135 152 0
137 155 0
139 158 0
131 150 0
135 153 0
142 161 0
138 159 0
141 160 0
135 155 0
146 164 0
145 163 0
138 158 0
148 168 0
142 162 0
132 152 0
139 158 0
138 158 0
144 164 0
145 165 0
147 166 0
146 165 0
144 164 0
142 163 0
147 167 0
142 164 0
138 158 0
142 161 0
142 161 0
142 160 0
141 160 0
148 168 0
150 171 0
149 169 0
140 160 0
153 173 0
144 164 0
146 166 0
144 164 0
146 167 0
150 172 0
145 164 0
142 162 0
149 167 0
160 181 0
151 171 0
148 168 0
155 174 0
148 168 0
143 163 0
155 176 0
151 171 0
155 174 0
153 172 0
153 172 0
146 166 0
155 177 0
153 173 0
145 165 0
159 179 0
157 177 0
161 181 0
149 168 0
156 177 0
152 172 0
156 174 0
159 181 0
151 171 0
150 169 0
159 178 0
154 174 0
160 181 0
157 177 0
160 181 0
152 172 0
157 176 0
161 182 0
157 176 0
155 176 0
163 184 0
154 174 0
158 178 0
153 172 0
156 176 0
153 174 0
161 179 0
157 177 0
153 176 0
154 174 0
161 183 0
154 174 0
153 175 0
162 184 0
163 183 0
161 181 0
154 173 0
157 177 0
157 176 0
159 179 0
161 181 0
161 182 0
165 185 0
151 170 0
163 183 0
164 185 0
151 170 0
157 177 0
164 184 0
160 180 0
156 176 0
164 183 0
159 179 0
163 184 0
163 184 0
160 181 0
162 183 0
163 184 0
163 185 0
165 186 0
160 181 0
162 180 0
164 184 0
160 181 0
162 182 0
166 186 0
163 185 0
162 185 0
154 174 0
162 182 0
164 185 0
165 187 0
167 188 0
163 184 0
163 181 0
167 189 0
166 186 0
161 183 0
167 187 0
163 182 0
165 187 0
165 186 0
165 187 0
162 184 0
167 188 0
168 191 0
166 187 0
167 188 0
162 183 0
168 191 0
167 187 0
161 181 0
173 196 95
175 198 88
172 195 99
177 200 108
173 196 117
170 193 92
170 195 84
171 194 99
167 191 108
171 194 99
173 195 76
174 198 120
175 197 117
172 195 84
175 198 111
168 191 102
167 191 102
168 191 95
166 188 92
167 190 76
176 199 99
167 191 80
169 193 92
171 194 84
165 189 102
167 190 95
164 188 95
172 196 111
169 193 99
168 192 92
168 192 99
169 193 99
170 193 92
169 193 105
166 189 95
164 188 72
163 186 92
172 196 133
169 192 105
167 191 95
169 193 105
164 188 95
165 189 88
166 189 102
163 186 102
169 192 108
166 189 88
167 190 80
166 189 92
170 194 122
163 186 80
163 186 95
165 188 100
158 181 78
162 185 67
163 186 105
158 180 90
169 192 108
165 189 99
163 186 82
163 186 99
158 180 74
161 184 120
170 193 121
165 188 102
165 188 115
166 188 111
157 180 105
156 178 80
158 180 102
149 171 74
155 178 92
158 180 84
164 186 80
162 184 99
146 168 95
155 177 105
161 183 92
146 167 80
152 174 92
152 173 84
158 180 92
147 170 76
164 185 114
150 172 62
148 170 99
149 170 88
158 179 84
149 170 88
163 185 105
140 160 76
150 170 114
146 166 108
144 165 88
149 169 88
140 161 84
149 169 108
151 169 122
145 164 99
147 167 111
154 174 92
144 164 88
154 172 102
147 167 92
140 159 80
139 158 88
124 143 72
141 160 84
129 147 80
137 155 95
134 151 84
127 143 88
124 140 76
133 151 72
124 141 84
113 129 62
114 130 84
117 132 72
121 135 84
117 132 72
115 131 70
86 107 70
84 106 67
106 129 105
96 119 86
98 121 92
112 134 102
91 115 102
106 129 84
97 119 76
131 150 18
131 151 40
158 173 0
151 168 0
152 170 18
153 173 18
135 154 0
145 164 25
128 145 18
130 148 18
113 129 0
121 137 0
118 136 0
111 128 0
114 130 18
99 114 25
92 110 40
96 111 0
100 115 0
89 104 0
103 118 0
112 130 0
120 136 0
95 114 0
95 110 0
96 112 0
102 117 0
108 124 0
99 114 0
96 113 0
106 123 0
108 125 0
92 107 0
105 122 0
92 107 0
103 119 0
95 111 0
92 107 0
96 111 0
92 107 0
101 115 0
92 107 0
86 101 0
107 122 0
88 104 0
80 98 0
94 108 0
94 109 0
103 117 0
106 122 0
86 100 0
87 102 0
95 112 0
87 102 0
91 107 0
93 109 0
94 110 0
103 119 0
88 104 0
104 119 0
98 115 0
95 110 0
98 111 0
100 117 0
99 115 0
88 104 0
104 119 0
100 116 0
93 107 0
113 130 0
113 130 0
101 117 0
97 114 0
101 117 0
94 109 0
107 123 0
109 126 0
97 116 0
113 130 0
112 129 0
114 131 0
113 130 0
117 133 0
113 131 0
96 112 0
120 136 0
115 132 0
121 139 0
113 132 0
122 139 0
111 129 0
115 133 0
119 137 0
112 131 0
119 136 0
134 153 0
114 133 0
119 138 0
121 139 0
127 146 0
120 139 0
121 140 0
130 149 0
122 140 0
128 147 0
132 150 0
132 152 0
117 134 0
126 147 0
129 148 0
131 150 0
132 150 0
135 155 0
136 157 0
132 152 0
122 139 0
136 155 0
133 152 0
124 143 0
132 151 0
135 155 0
140 159 0
134 153 0
134 153 0
141 161 0
132 150 0
120 137 0
139 159 0
129 150 0
138 158 0
135 155 0
137 156 0
142 162 0
135 153 0
135 152 0
144 164 0
127 147 0
132 151 0
140 158 0
146 166 0
146 167 0
150 170 0
144 162 0
139 158 0
140 159 0
150 171 0
145 164 0
142 162 0
152 172 0
145 166 0
138 159 0
149 170 0
146 164 0
150 170 0
146 165 0
140 159 0
142 162 0
150 170 0
151 172 0
150 167 0
148 169 0
148 168 0
144 164 0
145 165 0
148 170 0
148 169 0
149 170 0
152 173 0
157 179 0
159 179 0
143 164 0
153 174 0
146 166 0
155 177 0
147 168 0
147 165 0
153 175 0
148 167 0
147 166 0
153 174 0
148 166 0
154 175 0
158 178 0
154 173 0
151 172 0
155 175 0
158 179 0
153 172 0
151 170 0
152 171 0
154 173 0
159 179 0
150 169 0
159 179 0
149 170 0
154 176 0
156 175 0
160 180 0
151 171 0
160 181 0
158 179 0
159 179 0
162 182 0
153 173 0
160 181 0
162 183 0
151 172 0
156 175 0
159 180 0
157 177 0
155 175 0
155 175 0
156 177 0
161 181 0
163 183 0
165 186 0
163 184 0
155 176 0
160 179 0
156 175 0
165 187 0
157 178 0
163 184 0
164 185 0
157 178 0
162 183 0
160 181 0
159 179 0
162 183 0
164 186 0
164 184 0
165 186 0
166 187 0
162 184 0
159 178 0
163 184 0
167 189 0
158 180 0
154 173 0
160 180 0
165 187 0
162 183 0
159 182 0
162 182 0
163 184 0
163 182 0
165 184 0
166 187 0
162 184 0
165 185 0
168 190 0
167 189 0
166 187 0
169 191 0
165 185 0
167 187 0
162 182 0
164 186 0
165 187 0
165 186 0
166 187 0
167 189 0
166 190 0
170 191 0
170 191 0
166 185 0
165 186 0
167 188 0
162 184 0
166 188 0
170 193 88
176 199 108
172 196 114
171 194 88
176 200 99
170 193 84
171 195 88
174 197 108
172 195 102
170 194 95
176 200 128
171 195 108
172 195 105
169 192 80
168 192 88
168 191 84
168 192 99
174 197 102
174 197 117
170 193 102
172 196 92
170 194 99
167 191 92
173 197 102
171 194 99
169 193 95
170 194 99
165 189 62
173 197 102
170 194 102
167 190 95
168 192 95
169 191 108
171 195 102
165 189 102
168 191 92
167 190 102
166 189 95
158 181 80
170 193 80
164 187 84
166 189 95
165 188 108
161 184 92
160 183 51
165 189 88
168 190 88
159 182 76
161 184 99
161 184 80
170 193 108
166 190 80
166 189 92
160 184 105
167 190 95
160 183 108
156 180 84
157 181 95
161 184 76
167 190 115
160 183 76
166 190 117
165 187 92
161 185 92
163 186 94
162 185 84
158 181 100
150 172 67
157 180 95
158 180 105
167 190 114
156 178 99
163 186 117
163 185 122
157 179 76
162 185 92
154 177 99
159 181 117
162 184 80
160 182 95
154 176 95
154 176 95
158 181 99
150 172 102
160 182 105
153 174 88
151 172 108
149 170 92
155 175 105
155 175 108
151 172 105
161 182 111
143 164 84
145 165 95
158 178 105
145 165 84
138 158 84
148 168 99
144 162 99
151 170 95
154 174 105
147 166 108
136 156 84
149 167 99
141 160 99
137 154 95
143 161 88
141 160 67
136 155 80
135 153 95
137 156 67
129 147 92
133 152 57
128 145 76
118 134 51
111 128 44
119 136 51
102 118 44
111 126 62
121 136 51
100 116 44
104 119 44
105 119 72
86 104 65
91 113 82
78 102 92
93 116 88
101 123 92
88 112 65
121 140 40
120 137 25
118 137 44
152 170 0
149 165 0
152 169 0
137 155 0
147 166 0
143 162 0
138 157 0
141 161 0
121 138 0
117 135 0
115 130 0
121 137 0
93 107 0
103 117 0
100 117 0
90 104 0
108 123 0
121 138 0
108 125 0
105 121 0
107 124 0
115 132 0
95 112 0
103 119 0
90 105 0
106 122 0
102 118 0
101 117 0
97 112 0
93 110 0
100 116 0
89 105 0
93 107 0
101 117 0
89 105 0
104 119 0
96 111 0
92 107 0
100 117 0
94 110 0
103 118 0
89 104 0
110 125 0
104 121 0
100 115 0
109 124 0
105 119 0
91 106 0
81 95 0
95 111 0
105 122 0
109 125 0
105 121 0
94 109 0
102 117 0
114 130 0
102 116 0
92 107 0
94 111 0
93 109 0
93 108 0
93 109 0
106 122 0
96 111 0
106 123 0
109 126 0
98 113 0
109 126 0
106 122 0
101 117 0
98 113 0
103 120 0
97 115 0
122 138 0
98 115 0
109 127 0
112 128 0
106 122 0
120 135 0
115 133 0
122 139 0
108 126 0
113 130 0
111 130 0
106 122 0
125 143 0
108 125 0
110 128 0
108 127 0
111 128 0
127 145 0
122 138 0
128 147 0
116 136 0
123 142 0
120 138 0
125 142 0
117 135 0
129 148 0
123 142 0
124 142 0
124 143 0
126 144 0
126 146 0
126 143 0
125 145 0
141 158 0
122 141 0
130 149 0
137 155 0
137 156 0
125 144 0
133 153 0
128 147 0
139 159 0
131 152 0
138 157 0
134 155 0
137 156 0
141 159 0
134 153 0
130 150 0
147 168 0
135 154 0
134 153 0
134 152 0
144 164 0
153 174 0
132 151 0
143 162 0
132 151 0
136 156 0
144 163 0
154 175 0
144 162 0
136 155 0
145 165 0
138 158 0
148 167 0
141 161 0
148 167 0
142 163 0
137 157 0
157 178 0
153 173 0
145 165 0
148 169 0
146 167 0
151 171 0
158 180 0
144 165 0
149 170 0
146 165 0
151 172 0
154 174 0
152 173 0
155 174 0
154 175 0
147 168 0
149 168 0
145 164 0
144 165 0
145 166 0
149 171 0
154 173 0
149 167 0
147 165 0
159 180 0
151 171 0
146 165 0
156 178 0
144 162 0
150 171 0
153 173 0
155 174 0
156 174 0
153 172 0
155 175 0
155 177 0
155 175 0
153 174 0
155 175 0
157 177 0
159 180 0
148 166 0
150 169 0
152 172 0
150 170 0
158 180 0
159 180 0
162 183 0
155 176 0
160 180 0
159 180 0
158 179 0
152 171 0
157 178 0
156 177 0
154 174 0
158 179 0
156 177 0
160 179 0
159 181 0
160 180 0
158 180 0
156 176 0
157 177 0
157 175 0
153 174 0
161 183 0
163 182 0
159 179 0
161 181 0
164 186 0
158 178 0
152 171 0
160 181 0
155 176 0
157 177 0
158 179 0
161 183 0
158 178 0
159 178 0
159 181 0
165 188 0
163 181 0
161 181 0
165 184 0
161 182 0
165 185 0
163 183 0
166 187 0
164 185 0
161 181 0
160 179 0
159 179 0
164 184 0
167 188 0
162 183 0
166 187 0
161 183 0
163 182 0
166 188 0
158 180 0
162 183 0
161 182 0
163 184 0
164 185 0
164 186 0
163 183 0
166 187 0
168 189 0
160 182 0
161 182 0
163 184 0
168 189 0
163 184 0
164 185 0
167 188 0
163 184 0
166 185 0
165 185 0
164 186 0
168 190 0
167 188 0
162 183 0
158 180 0
167 188 0
171 195 95
174 197 92
174 198 95
172 195 99
170 193 88
173 196 102
173 196 92
170 193 105
169 193 102
169 192 99
175 198 117
174 197 99
173 196 102
172 196 102
172 195 114
173 197 111
167 190 84
172 196 99
170 194 99
170 194 102
171 194 95
172 196 108
174 197 108
168 191 99
169 193 92
172 196 117
163 187 76
170 194 102
168 192 105
168 192 95
170 195 88
175 198 128
163 186 92
170 193 108
166 190 92
166 190 92
164 188 105
167 191 99
165 189 105
167 192 108
166 190 92
168 191 105
172 195 105
165 188 102
164 188 80
167 190 95
164 187 99
163 187 72
166 189 111
168 192 95
164 188 111
169 192 102
168 191 95
163 186 111
170 193 94
162 186 84
157 180 99
164 187 99
162 185 99
159 183 92
160 183 67
156 180 95
155 178 84
158 180 95
160 183 88
165 189 102
156 179 82
154 177 84
156 179 95
162 184 72
162 185 100
161 183 105
167 188 120
158 180 99
163 185 102
163 185 102
159 181 111
156 177 114
153 174 80
157 179 102
156 178 80
161 183 99
152 174 88
160 181 102
147 170 99
149 171 80
149 171 102
161 182 102
161 182 114
151 172 99
152 172 99
154 176 92
145 167 92
146 167 80
145 166 95
156 177 99
155 176 99
147 166 105
151 170 105
148 167 88
146 165 108
142 160 84
142 161 88
137 155 88
147 164 108
147 165 108
152 170 108
137 156 76
129 146 80
122 140 72
131 149 72
140 158 102
143 160 95
132 150 72
131 148 76
128 145 84
132 148 88
124 139 84
108 124 51
115 130 44
109 124 62
105 120 51
99 113 51
113 128 51
123 137 67
112 130 80
105 124 76
115 134 67
112 129 54
120 138 0
125 141 36
135 154 25
149 165 0
160 178 0
146 165 0
153 173 0
142 162 0
149 168 0
144 162 0
134 151 0
132 151 0
122 138 0
120 138 0
108 125 0
118 133 0
102 119 0
116 133 0
106 121 0
103 119 0
100 117 0
109 126 0
108 126 0
117 134 0
108 125 0
102 118 0
114 131 0
103 120 0
102 118 0
112 128 0
97 114 0
104 121 0
89 105 0
99 114 0
108 124 0
109 124 0
85 99 0
106 122 0
98 114 0
102 118 0
102 120 0
89 103 0
93 109 0
97 112 0
109 125 0
94 109 0
104 120 0
83 98 0
91 106 0
87 101 0
97 112 0
91 108 0
113 130 0
106 122 0
94 110 0
96 112 0
110 126 0
100 116 0
101 116 0
100 116 0
102 117 0
103 118 0
106 122 0
94 110 0
105 122 0
106 121 0
102 118 0
100 116 0
92 111 0
102 118 0
106 123 0
103 120 0
110 126 0
94 111 0
96 113 0
113 130 0
105 121 0
111 129 0
117 135 0
116 134 0
122 139 0
119 136 0
123 141 0
121 138 0
113 132 0
121 139 0
109 126 0
115 131 0
128 147 0
121 140 0
124 142 0
118 135 0
128 146 0
118 137 0
129 148 0
120 138 0
122 142 0
118 137 0
122 142 0
125 143 0
127 146 0
114 131 0
120 139 0
123 140 0
123 141 0
126 144 0
123 143 0
126 145 0
130 149 0
124 142 0
126 143 0
128 149 0
136 156 0
132 151 0
126 145 0
137 155 0
135 153 0
135 157 0
140 159 0
140 160 0
141 163 0
127 144 0
129 148 0
138 158 0
141 160 0
149 169 0
143 163 0
141 162 0
138 157 0
133 152 0
140 160 0
137 155 0
150 170 0
140 159 0
138 157 0
145 165 0
144 164 0
145 166 0
134 153 0
142 160 0
143 161 0
143 163 0
145 165 0
145 164 0
148 169 0
149 170 0
139 160 0
145 165 0
149 168 0
139 157 0
150 171 0
149 170 0
147 168 0
153 173 0
149 169 0
148 169 0
141 160 0
153 175 0
150 172 0
145 164 0
145 164 0
142 161 0
150 169 0
151 170 0
150 170 0
147 167 0
144 164 0
147 167 0
152 172 0
150 170 0
151 171 0
146 165 0
148 167 0
155 175 0
145 165 0
146 165 0
153 172 0
152 171 0
161 181 0
154 174 0
159 177 0
156 176 0
153 174 0
153 173 0
159 180 0
150 170 0
158 177 0
157 176 0
155 175 0
158 179 0
153 172 0
155 177 0
159 181 0
160 181 0
159 180 0
160 180 0
160 178 0
158 178 0
163 184 0
156 175 0
161 182 0
160 180 0
165 185 0
158 179 0
159 179 0
155 176 0
157 179 0
159 179 0
159 179 0
160 182 0
159 180 0
156 175 0
158 178 0
156 175 0
159 180 0
160 181 0
157 176 0
163 184 0
158 179 0
155 177 0
162 183 0
156 177 0
162 184 0
159 181 0
166 188 0
161 180 0
159 179 0
165 187 0
158 175 0
160 182 0
161 182 0
161 182 0
167 188 0
162 183 0
162 183 0
162 183 0
163 184 0
160 181 0
163 184 0
167 188 0
161 183 0
164 185 0
166 186 0
158 179 0
168 190 0
166 186 0
165 184 0
163 185 0
165 186 0
160 181 0
163 184 0
166 187 0
166 188 0
165 186 0
169 190 0
162 182 0
166 186 0
167 187 0
160 182 0
167 189 0
168 189 0
164 186 0
166 187 0
163 184 0
165 187 0
163 185 0
164 186 0
163 184 0
165 187 0
167 188 0
166 189 0
176 199 95
176 199 114
175 199 102
178 201 120
170 193 92
172 195 95
175 197 108
175 197 99
175 198 95
171 194 72
168 192 95
165 188 84
172 195 102
174 197 99
171 194 105
173 197 102
171 194 99
164 188 84
174 197 88
171 195 88
169 193 92
172 197 95
169 193 105
171 195 92
170 193 108
168 191 105
172 195 92
169 192 114
175 199 102
165 189 92
171 194 84
165 189 111
168 190 76
162 186 88
169 192 99
165 189 88
169 193 117
164 188 84
169 193 108
168 191 102
170 193 99
168 191 76
170 194 105
164 187 92
169 192 125
169 193 99
163 186 80
164 187 84
169 192 111
165 188 114
163 185 95
163 186 84
166 190 99
169 192 92
164 188 99
165 188 102
161 185 105
158 182 84
157 180 88
160 183 92
165 188 99
152 175 78
156 179 76
170 193 120
160 183 92
161 184 95
155 178 76
166 189 120
164 186 80
161 184 102
162 184 102
152 175 111
166 188 105
163 186 111
161 184 117
160 182 95
156 178 84
166 188 95
156 178 84
156 178 95
154 176 102
151 173 84
154 175 95
157 179 102
158 179 99
159 180 92
160 181 120
157 178 99
144 165 95
158 179 84
149 170 102
151 172 99
159 180 102
152 173 88
158 178 92
156 176 102
140 160 84
146 165 92
149 169 92
144 162 99
155 174 108
149 169 80
140 158 99
139 157 99
157 175 128
133 151 72
135 154 102
136 154 76
139 158 80
142 159 108
149 167 105
130 148 80
125 142 72
123 141 62
124 141 62
117 132 62
125 142 72
105 122 25
111 128 25
123 139 51
120 136 57
110 127 25
118 133 72
121 138 76
111 125 62
123 138 51
109 124 51
104 118 57
118 136 44
115 134 25
120 138 0
123 141 0
153 172 0
154 174 0
158 178 0
151 170 0
143 161 0
142 163 0
141 159 0
142 160 0
132 150 0
124 141 0
122 139 0
111 129 0
108 125 0
115 131 0
114 131 0
100 116 0
112 128 0
107 123 0
112 130 0
112 130 0
122 140 0
108 127 0
98 115 0
105 122 0
94 111 0
102 118 0
106 124 0
97 113 0
96 112 0
100 116 0
105 122 0
106 124 0
97 113 0
101 116 0
101 117 0
105 122 0
97 112 0
96 112 0
104 122 0
100 116 0
92 108 0
104 120 0
93 108 0
111 128 0
104 120 0
107 123 0
100 117 0
98 114 0
96 113 0
92 109 0
102 120 0
96 112 0
116 132 0
107 122 0
112 128 0
101 116 0
103 121 0
114 130 0
102 119 0
88 105 0
107 124 0
114 131 0
93 111 0
103 118 0
103 120 0
110 126 0
112 129 0
98 116 0
116 131 0
104 122 0
112 128 0
114 130 0
116 134 0
104 121 0
113 130 0
113 130 0
119 137 0
95 113 0
113 130 0
116 133 0
119 137 0
124 140 0
123 141 0
110 127 0
107 125 0
118 136 0
111 129 0
125 141 0
111 129 0
131 149 0
126 144 0
121 138 0
118 136 0
122 140 0
109 127 0
122 139 0
121 141 0
123 142 0
114 133 0
126 145 0
130 149 0
123 140 0
128 148 0
124 143 0
131 151 0
124 142 0
131 147 0
133 151 0
135 155 0
127 147 0
130 150 0
140 161 0
131 150 0
135 152 0
137 158 0
135 154 0
125 145 0
139 158 0
140 159 0
138 158 0
139 159 0
136 154 0
135 154 0
136 156 0
138 157 0
138 159 0
137 157 0
142 163 0
145 165 0
145 166 0
136 155 0
131 151 0
143 163 0
142 161 0
137 156 0
148 167 0
150 171 0
142 162 0
159 180 0
144 165 0
143 163 0
145 165 0
151 173 0
145 164 0
143 165 0
151 171 0
141 161 0
153 173 0
141 159 0
149 169 0
151 172 0
148 170 0
152 174 0
148 170 0
150 171 0
151 171 0
154 174 0
152 174 0
148 169 0
153 173 0
147 168 0
148 170 0
147 167 0
148 168 0
154 172 0
152 172 0
152 172 0
152 171 0
150 170 0
159 178 0
157 178 0
152 172 0
152 172 0
156 178 0
157 177 0
149 168 0
161 182 0
156 176 0
151 172 0
148 169 0
154 174 0
153 173 0
150 169 0
158 178 0
158 180 0
145 165 0
163 182 0
151 172 0
155 175 0
156 178 0
159 180 0
156 176 0
158 179 0
155 176 0
157 175 0
164 186 0
158 178 0
160 181 0
158 178 0
157 177 0
157 175 0
152 172 0
160 180 0
158 177 0
159 180 0
158 178 0
160 180 0
156 176 0
158 180 0
159 179 0
160 181 0
161 182 0
156 177 0
155 175 0
164 185 0
163 185 0
160 181 0
163 183 0
166 187 0
162 183 0
158 179 0
161 180 0
161 180 0
160 181 0
163 184 0
164 187 0
166 188 0
164 185 0
159 180 0
160 180 0
159 180 0
157 178 0
164 185 0
163 184 0
163 183 0
162 183 0
160 181 0
164 186 0
164 186 0
159 179 0
165 185 0
167 187 0
165 186 0
162 185 0
164 185 0
164 186 0
169 190 0
165 187 0
163 185 0
165 185 0
159 180 0
165 186 0
165 186 0
167 189 0
165 185 0
157 177 0
158 180 0
164 185 0
167 189 0
163 185 0
168 190 0
171 194 0
166 187 0
167 187 0
166 186 0
163 185 0
163 185 0
165 187 0
174 197 99
169 193 84
176 199 99
175 198 117
176 199 95
173 196 80
172 194 99
173 197 102
168 192 88
170 193 105
172 195 114
174 196 105
172 195 80
170 193 88
172 195 108
174 198 102
171 194 102
166 189 67
172 195 95
169 192 105
171 194 92
167 189 108
164 187 88
172 196 102
167 190 88
171 195 108
164 187 99
167 190 92
170 194 99
168 192 72
167 190 102
166 190 92
172 196 99
168 191 92
166 189 99
164 188 99
170 193 88
172 195 102
158 181 84
168 191 111
169 192 108
168 191 120
162 186 108
165 188 80
166 189 95
168 192 108
166 190 102
164 187 88
158 181 92
167 190 92
167 191 120
162 185 72
165 188 76
160 183 84
163 186 102
168 190 92
165 187 88
160 184 95
153 174 72
157 181 95
153 175 95
162 185 107
163 187 99
157 181 108
162 185 108
160 183 80
161 184 86
159 182 102
160 183 94
154 177 62
165 187 108
157 179 88
163 186 120
162 185 84
168 190 95
166 188 105
153 175 84
164 186 102
156 177 105
158 180 102
165 186 95
160 181 92
151 173 105
157 178 84
160 181 102
159 180 114
162 183 95
156 178 95
159 179 108
155 176 114
150 171 105
152 172 105
153 173 105
158 178 114
162 182 117
159 179 117
153 173 111
149 169 111
154 174 88
150 168 114
146 166 95
155 174 105
152 171 108
152 171 95
139 158 92
146 165 102
139 158 76
146 165 92
132 151 72
137 156 72
141 159 92
143 160 105
123 141 88
131 148 80
137 153 84
117 134 72
125 143 62
125 142 76
105 122 57
128 145 67
118 133 51
115 131 25
107 122 51
113 128 72
113 127 80
119 136 51
111 128 25
122 139 44
130 148 25
124 141 36
123 141 25
129 146 0
146 163 0
154 175 0
158 176 0
147 165 0
151 171 0
136 156 0
140 159 0
130 149 0
127 145 0
131 149 0
121 137 0
113 130 0
120 136 0
109 125 0
106 123 0
114 132 0
98 114 0
101 119 0
123 140 0
111 129 0
109 128 0
128 147 0
116 134 0
101 117 0
108 124 0
106 122 0
93 109 0
96 114 0
103 120 0
108 124 0
103 119 0
110 127 0
91 107 0
106 123 0
110 127 0
103 119 0
107 123 0
110 125 0
96 114 0
103 119 0
103 119 0
107 123 0
100 117 0
96 112 0
97 114 0
103 119 0
99 116 0
99 117 0
97 114 0
99 116 0
98 116 0
103 121 0
89 105 0
101 117 0
103 119 0
108 125 0
94 108 0
107 124 0
103 120 0
108 123 0
106 124 0
103 120 0
104 121 0
104 121 0
104 121 0
97 113 0
103 120 0
102 119 0
102 118 0
127 145 0
110 127 0
112 130 0
125 143 0
110 127 0
122 140 0
115 132 0
122 140 0
106 123 0
115 131 0
113 131 0
118 135 0
109 127 0
120 138 0
120 138 0
117 135 0
123 142 0
120 139 0
129 149 0
123 141 0
129 147 0
116 135 0
129 148 0
123 142 0
125 143 0
116 135 0
128 148 0
124 143 0
136 156 0
130 148 0
142 159 0
127 146 0
125 145 0
132 151 0
126 144 0
133 152 0
128 147 0
129 147 0
133 152 0
140 159 0
139 159 0
133 152 0
129 147 0
127 146 0
136 156 0
142 162 0
130 152 0
135 153 0
140 160 0
137 156 0
134 154 0
139 159 0
145 165 0
144 164 0
138 159 0
148 170 0
143 163 0
137 157 0
142 162 0
141 162 0
141 161 0
139 156 0
148 168 0
149 170 0
140 160 0
147 168 0
152 173 0
146 166 0
143 163 0
147 167 0
143 164 0
152 172 0
148 170 0
150 170 0
147 166 0
138 157 0
152 173 0
143 164 0
153 171 0
154 176 0
151 173 0
150 169 0
142 161 0
149 170 0
154 175 0
155 176 0
148 167 0
153 174 0
151 168 0
147 167 0
149 170 0
152 172 0
151 171 0
147 166 0
147 166 0
152 173 0
152 173 0
151 173 0
147 167 0
157 176 0
152 172 0
153 172 0
153 174 0
149 170 0
151 172 0
154 177 0
154 176 0
154 174 0
152 174 0
158 178 0
158 179 0
153 174 0
159 181 0
160 182 0
156 177 0
151 171 0
161 181 0
153 173 0
159 181 0
163 182 0
155 175 0
150 169 0
157 176 0
161 180 0
159 181 0
155 176 0
156 178 0
156 178 0
161 182 0
156 178 0
160 181 0
162 181 0
160 181 0
156 176 0
156 176 0
160 181 0
158 177 0
153 174 0
163 183 0
163 183 0
157 177 0
163 184 0
158 180 0
161 182 0
158 179 0
163 184 0
166 185 0
162 182 0
159 181 0
161 182 0
161 182 0
158 178 0
164 184 0
162 184 0
159 180 0
162 185 0
164 185 0
157 177 0
168 189 0
161 181 0
160 181 0
163 186 0
163 183 0
164 186 0
165 187 0
158 179 0
159 180 0
164 185 0
158 179 0
159 179 0
165 185 0
160 180 0
162 184 0
163 184 0
164 186 0
160 181 0
165 187 0
165 186 0
164 185 0
163 185 0
160 180 0
162 182 0
171 193 0
162 185 0
165 187 0
167 189 0
167 187 0
166 187 0
166 188 0
160 183 0
167 188 0
169 191 0
161 180 0
164 184 0
168 189 0
164 184 0
166 188 0
162 183 0
164 185 0
170 193 84
173 196 72
174 196 105
172 195 95
170 193 92
173 196 95
170 194 57
174 198 95
172 196 88
172 195 99
172 196 114
172 196 111
173 197 111
171 195 102
170 192 88
171 194 95
169 193 105
170 194 102
171 194 102
172 195 105
170 194 92
169 191 99
170 194 95
171 194 105
169 193 92
172 195 105
167 190 105
170 195 102
172 196 105
169 193 84
166 189 99
171 194 95
170 193 84
162 185 84
168 192 95
162 185 80
162 185 105
168 192 99
163 187 84
168 191 102
164 188 88
159 182 88
160 183 84
155 178 72
159 182 95
169 192 105
167 190 99
166 189 95
164 186 80
168 191 122
162 185 108
152 175 84
164 187 108
165 189 95
166 189 95
163 186 94
166 190 84
167 189 105
157 180 102
168 191 117
163 186 100
158 181 111
154 178 94
159 181 80
165 189 84
164 187 105
155 177 84
164 187 105
156 178 105
159 181 108
160 181 105
160 183 84
159 182 92
158 181 84
152 174 95
160 181 117
159 182 105
157 179 92
161 183 95
153 176 57
161 183 108
162 183 95
147 168 92
153 174 88
161 182 102
156 177 88
154 175 99
154 175 95
149 170 105
145 166 80
153 173 105
150 170 88
147 167 102
155 176 102
152 172 99
154 173 102
152 172 108
150 169 84
139 158 92
139 158 84
142 161 114
148 166 105
132 152 76
156 175 111
153 172 105
140 159 67
145 163 92
150 168 95
139 158 67
133 151 76
138 157 84
135 153 88
144 162 72
125 144 36
138 155 76
128 145 62
140 158 95
128 146 57
128 145 51
118 135 62
116 132 67
108 125 0
115 131 57
109 126 0
121 138 67
115 131 67
117 134 51
126 144 67
122 140 25
127 146 0
119 137 0
136 155 0
148 166 0
155 174 0
154 173 0
156 174 0
155 175 0
147 166 0
139 158 0
139 158 0
136 157 0
135 153 0
119 137 0
113 130 0
123 140 0
107 125 0
120 135 0
99 117 0
113 129 0
110 128 0
109 126 0
120 139 0
123 142 0
121 140 0
107 125 0
119 137 0
116 134 0
97 114 0
105 122 0
115 133 0
112 131 0
101 118 0
111 128 0
113 130 0
96 113 0
106 123 0
105 123 0
103 121 0
96 111 0
96 113 0
106 123 0
105 121 0
90 105 0
108 125 0
103 119 0
105 121 0
119 136 0
97 114 0
108 124 0
114 132 0
96 113 0
103 120 0
95 112 0
98 115 0
102 118 0
108 126 0
117 133 0
103 120 0
115 132 0
101 118 0
104 120 0
106 122 0
116 133 0
106 123 0
103 119 0
103 121 0
117 134 0
106 123 0
116 133 0
118 135 0
120 137 0
114 131 0
116 133 0
105 122 0
122 139 0
117 135 0
110 128 0
121 141 0
111 129 0
120 138 0
113 129 0
119 136 0
103 121 0
118 136 0
128 146 0
130 149 0
122 141 0
127 147 0
121 139 0
121 141 0
116 135 0
128 147 0
128 148 0
127 147 0
135 153 0
128 148 0
129 146 0
120 138 0
119 139 0
118 138 0
125 144 0
128 147 0
125 145 0
132 151 0
132 150 0
124 143 0
128 148 0
131 150 0
128 148 0
130 148 0
138 157 0
124 143 0
128 147 0
133 152 0
132 152 0
133 153 0
135 156 0
129 149 0
140 159 0
139 158 0
137 157 0
145 166 0
134 153 0
141 162 0
144 164 0
130 149 0
138 157 0
142 163 0
138 159 0
137 158 0
132 151 0
143 164 0
146 165 0
144 164 0
146 165 0
146 166 0
149 168 0
151 170 0
141 161 0
132 152 0
142 159 0
146 165 0
150 170 0
155 172 0
144 164 0
139 160 0
147 166 0
151 171 0
153 173 0
145 166 0
148 169 0
147 166 0
154 176 0
147 167 0
147 166 0
147 167 0
152 173 0
155 176 0
147 167 0
142 162 0
143 163 0
159 180 0
154 176 0
149 170 0
156 176 0
155 175 0
147 168 0
157 177 0
159 180 0
152 174 0
151 172 0
156 177 0
149 170 0
158 178 0
155 175 0
157 177 0
152 173 0
156 177 0
155 174 0
157 177 0
159 180 0
158 179 0
156 175 0
160 182 0
157 178 0
158 179 0
155 176 0
158 181 0
156 175 0
150 171 0
150 171 0
157 179 0
162 183 0
157 175 0
152 171 0
164 184 0
155 176 0
159 181 0
152 172 0
165 185 0
155 175 0
164 186 0
163 183 0
152 172 0
162 183 0
163 183 0
156 177 0
158 176 0
155 173 0
162 181 0
157 177 0
159 179 0
163 185 0
149 169 0
153 175 0
157 179 0
158 180 0
154 174 0
158 178 0
155 175 0
163 183 0
159 178 0
165 187 0
162 183 0
163 185 0
160 180 0
160 179 0
162 182 0
161 180 0
162 182 0
161 184 0
160 183 0
163 185 0
158 178 0
161 183 0
162 182 0
165 187 0
165 187 0
165 187 0
164 184 0
161 183 0
165 187 0
167 191 0
157 179 0
164 185 0
166 188 0
167 188 0
163 185 0
162 183 0
165 188 0
164 185 0
161 182 0
166 188 0
163 184 0
165 188 0
169 191 0
169 191 0
165 185 0
162 182 0
167 188 0
160 182 0
165 186 0
164 185 0
163 181 0
166 187 0
164 185 0
166 187 0
165 188 0
170 192 0
167 189 0
173 196 111
173 197 95
175 197 108
174 197 105
175 198 120
176 198 105
173 196 88
171 195 76
173 197 108
171 194 102
170 193 84
171 194 102
173 196 76
172 196 105
173 196 120
174 197 102
176 199 108
174 197 99
170 193 102
170 193 92
168 192 102
173 196 92
165 189 76
170 195 84
170 193 84
167 190 76
167 190 105
171 194 88
168 191 92
167 192 102
174 197 108
166 189 84
164 188 105
160 184 84
172 195 92
168 191 108
165 189 95
171 194 102
165 188 111
161 184 99
164 187 80
167 190 80
165 189 76
166 190 105
166 191 102
166 189 95
166 190 76
164 188 84
162 185 95
161 184 92
171 194 114
163 186 80
159 182 92
167 190 105
165 188 114
163 186 88
158 182 111
156 179 88
165 189 105
165 188 80
164 187 99
166 189 102
161 184 95
164 187 111
157 179 102
164 187 95
162 185 102
155 177 88
152 175 105
164 186 108
165 187 99
155 177 114
165 187 88
156 179 80
158 180 95
155 177 102
155 177 92
160 182 108
167 189 102
158 181 99
156 178 92
161 182 105
153 174 95
153 175 92
157 178 99
155 176 88
155 176 92
153 174 76
151 172 92
143 164 67
153 174 102
153 173 99
142 161 84
155 176 80
150 170 102
155 174 102
154 174 108
154 174 111
147 167 102
159 179 117
154 174 105
149 168 105
144 162 84
147 165 92
149 168 80
140 159 102
154 173 120
149 167 102
146 165 88
138 156 72
143 162 84
140 158 92
131 148 84
115 135 57
128 146 62
137 154 80
118 137 36
127 144 51
121 139 51
134 153 51
129 147 36
105 121 44
109 126 36
131 148 84
106 121 57
120 138 51
117 136 25
113 132 25
121 139 0
117 135 44
135 154 0
139 159 36
150 170 0
157 179 0
154 173 0
154 173 0
146 166 0
142 162 0
144 165 0
137 157 0
135 154 0
129 149 0
127 144 0
118 137 0
116 135 0
110 127 0
111 128 0
111 127 0
109 126 0
115 133 0
119 137 0
108 126 0
119 136 0
107 126 0
106 123 0
106 125 0
102 119 0
121 139 0
116 134 0
117 135 0
100 117 0
113 131 0
116 134 0
103 120 0
105 122 0
108 124 0
101 119 0
113 131 0
103 119 0
95 113 0
108 124 0
102 118 0
106 124 0
103 120 0
115 132 0
112 129 0
113 129 0
106 123 0
94 111 0
115 132 0
123 141 0
103 120 0
97 114 0
110 126 0
99 116 0
115 131 0
110 128 0
97 113 0
110 129 0
121 138 0
107 125 0
109 126 0
105 123 0
127 146 0
122 141 0
112 129 0
102 121 0
115 132 0
107 124 0
110 127 0
107 125 0
122 139 0
109 126 0
98 115 0
116 135 0
114 133 0
119 137 0
116 135 0
118 137 0
113 132 0
122 140 0
117 134 0
127 146 0
127 144 0
123 142 0
117 136 0
109 127 0
108 126 0
114 131 0
121 139 0
127 147 0
127 146 0
125 142 0
135 153 0
132 151 0
121 140 0
132 151 0
123 143 0
128 146 0
130 149 0
136 156 0
126 145 0
130 151 0
122 141 0
141 162 0
119 139 0
122 142 0
120 138 0
136 155 0
136 156 0
123 144 0
136 154 0
138 159 0
132 153 0
135 154 0
134 154 0
136 155 0
128 147 0
137 157 0
141 161 0
141 161 0
138 158 0
137 157 0
142 162 0
138 158 0
132 153 0
136 154 0
141 160 0
132 151 0
137 157 0
141 161 0
139 161 0
144 164 0
140 161 0
141 159 0
144 164 0
136 155 0
138 158 0
141 162 0
146 165 0
145 165 0
148 169 0
146 167 0
150 172 0
141 161 0
144 164 0
146 167 0
142 161 0
155 175 0
143 162 0
137 158 0
144 164 0
148 170 0
153 174 0
147 168 0
142 163 0
151 174 0
153 173 0
145 164 0
153 174 0
149 170 0
155 176 0
153 171 0
151 172 0
152 172 0
154 175 0
151 172 0
148 169 0
155 177 0
150 169 0
159 180 0
141 162 0
151 170 0
154 174 0
154 174 0
149 172 0
146 165 0
147 168 0
154 174 0
161 182 0
151 170 0
151 171 0
153 174 0
156 177 0
154 174 0
158 178 0
152 172 0
152 174 0
156 176 0
161 182 0
152 173 0
157 178 0
159 181 0
160 181 0
161 182 0
156 176 0
158 179 0
162 183 0
152 172 0
161 182 0
156 176 0
155 175 0
163 183 0
162 183 0
166 186 0
155 175 0
159 179 0
154 174 0
157 177 0
154 175 0
167 189 0
159 180 0
163 183 0
161 182 0
160 182 0
159 181 0
164 185 0
163 183 0
157 177 0
161 181 0
162 183 0
161 182 0
158 179 0
160 181 0
162 181 0
162 183 0
165 185 0
163 184 0
166 186 0
165 186 0
153 172 0
166 186 0
166 186 0
165 187 0
161 182 0
164 185 0
162 182 0
162 183 0
162 184 0
161 183 0
163 185 0
162 183 0
165 186 0
164 186 0
165 187 0
165 187 0
164 185 0
166 187 0
164 185 0
163 186 0
161 182 0
164 186 0
169 190 0
166 186 0
164 186 0
164 184 0
170 191 0
167 189 0
167 187 0
165 187 0
164 186 0
169 190 0
166 189 0
164 184 0
168 190 0
162 183 0
164 185 0
164 185 0
163 184 0
162 185 0
176 199 108
173 196 88
173 196 88
167 190 84
174 197 111
176 199 88
170 193 111
170 193 88
166 190 84
170 194 114
167 191 84
168 192 99
171 195 102
168 191 99
170 193 99
168 191 76
174 198 99
167 190 84
173 196 84
173 195 95
168 191 88
173 197 95
170 194 111
170 193 114
171 195 111
168 191 99
169 193 99
170 193 92
169 192 76
168 193 111
160 183 92
166 189 95
165 189 92
167 191 108
168 191 117
166 190 99
166 190 92
170 194 88
163 186 111
164 189 102
167 190 111
163 186 84
162 185 95
166 189 88
168 191 84
165 188 105
165 188 84
160 183 99
171 194 120
165 188 122
172 195 117
168 192 117
159 181 72
163 185 102
165 188 80
159 183 84
163 186 92
160 182 92
166 188 88
168 191 111
158 181 115
163 186 126
160 183 95
163 185 80
159 182 88
162 185 102
159 182 88
152 175 90
160 184 110
157 179 76
166 189 95
162 183 102
156 178 76
159 181 99
161 182 92
157 180 102
161 183 105
155 177 95
158 180 99
165 187 108
160 181 99
160 182 117
164 186 114
147 169 102
150 171 99
161 182 114
158 180 99
152 173 105
160 181 95
157 178 111
153 173 102
151 171 80
150 170 92
154 174 99
151 172 117
150 170 95
168 188 133
145 165 102
149 169 84
151 170 76
141 161 99
139 159 95
148 167 99
143 162 99
144 163 99
153 172 102
142 160 88
156 174 111
135 154 67
146 165 92
140 159 95
130 148 80
139 156 88
137 155 92
135 152 67
134 153 62
128 147 57
120 139 57
115 132 44
126 144 62
127 144 51
119 137 57
124 141 44
119 136 57
129 146 36
121 138 67
114 131 36
132 150 36
118 137 25
123 141 0
127 147 0
138 157 0
154 173 0
155 175 0
149 171 0
151 170 0
152 172 0
145 166 0
146 167 0
140 159 0
137 156 0
134 154 0
138 157 0
126 144 0
117 136 0
115 131 0
112 130 0
102 119 0
110 127 0
119 137 0
117 135 0
119 136 0
128 147 0
124 142 0
116 135 0
105 122 0
109 126 0
114 131 0
103 120 0
107 125 0
97 114 0
112 129 0
110 128 0
109 126 0
125 144 0
123 140 0
113 130 0
104 120 0
106 125 0
119 136 0
105 122 0
114 130 0
100 116 0
120 138 0
110 126 0
108 126 0
118 135 0
102 119 0
117 134 0
102 119 0
102 120 0
108 125 0
119 136 0
108 124 0
109 126 0
116 132 0
108 126 0
115 133 0
108 126 0
114 132 0
113 131 0
106 124 0
113 132 0
111 128 0
115 133 0
120 139 0
120 138 0
108 126 0
121 139 0
105 122 0
119 137 0
112 128 0
108 126 0
118 136 0
116 134 0
104 122 0
112 130 0
111 128 0
121 139 0
109 128 0
121 139 0
117 135 0
113 132 0
111 128 0
120 138 0
112 131 0
130 149 0
129 149 0
115 134 0
120 139 0
120 140 0
121 140 0
126 146 0
136 156 0
129 148 0
118 137 0
123 142 0
120 140 0
132 151 0
131 150 0
126 145 0
136 157 0
131 151 0
140 161 0
125 144 0
128 148 0
136 156 0
130 148 0
130 150 0
135 154 0
135 153 0
134 153 0
145 164 0
132 152 0
134 154 0
127 145 0
146 166 0
143 163 0
137 157 0
138 158 0
132 153 0
144 164 0
147 168 0
138 156 0
133 154 0
145 164 0
140 162 0
140 159 0
143 164 0
142 161 0
139 158 0
147 168 0
145 166 0
136 156 0
143 162 0
139 159 0
142 163 0
138 158 0
146 167 0
146 165 0
143 164 0
134 154 0
153 173 0
148 167 0
146 167 0
148 168 0
148 169 0
143 162 0
142 160 0
149 169 0
147 167 0
150 171 0
152 172 0
142 162 0
152 173 0
152 172 0
145 166 0
157 179 0
150 169 0
144 165 0
149 170 0
149 168 0
151 173 0
153 174 0
149 169 0
160 180 0
146 166 0
151 174 0
156 178 0
153 174 0
146 167 0
150 170 0
154 174 0
154 174 0
155 175 0
156 176 0
150 169 0
156 177 0
156 176 0
157 180 0
152 173 0
157 177 0
157 176 0
163 184 0
157 177 0
155 176 0
158 178 0
152 173 0
156 175 0
146 168 0
160 180 0
156 175 0
158 178 0
160 179 0
153 174 0
153 173 0
153 174 0
159 180 0
161 181 0
156 178 0
163 185 0
165 188 0
163 183 0
160 180 0
158 179 0
161 183 0
165 185 0
159 178 0
157 178 0
158 179 0
164 186 0
159 179 0
162 182 0
161 181 0
162 182 0
158 178 0
160 181 0
162 184 0
159 180 0
164 186 0
157 178 0
160 180 0
159 178 0
165 185 0
160 182 0
158 178 0
162 183 0
163 186 0
162 183 0
163 184 0
164 185 0
160 180 0
165 187 0
164 185 0
162 184 0
165 187 0
164 187 0
161 183 0
164 186 0
165 186 0
168 189 0
162 184 0
164 184 0
164 185 0
159 181 0
167 189 0
160 182 0
163 185 0
159 180 0
167 189 0
158 178 0
162 184 0
166 187 0
162 183 0
168 190 0
163 186 0
162 182 0
167 189 0
165 186 0
167 187 0
165 186 0
165 186 0
161 183 0
166 188 0
166 187 0
165 185 0
169 191 0
166 186 0
168 190 0
163 184 0
172 194 102
174 198 95
171 194 99
169 193 92
171 194 102
172 195 105
176 199 95
170 193 92
165 189 67
172 195 92
172 195 84
172 194 92
171 194 95
171 194 67
171 194 80
169 193 95
173 197 108
167 190 84
171 195 102
170 193 105
172 196 105
169 192 92
169 193 84
172 196 108
171 195 102
171 194 95
172 195 102
173 195 102
174 198 120
166 190 84
171 195 111
166 190 88
168 191 92
166 189 72
165 188 111
167 190 102
162 187 84
164 188 84
166 190 102
169 192 84
168 191 80
168 191 105
167 190 111
166 190 105
166 189 102
168 192 102
168 192 95
164 187 114
164 188 102
158 181 92
163 186 80
163 186 76
167 189 102
168 191 95
162 185 84
156 180 88
160 182 80
164 187 122
156 178 76
162 185 92
154 176 90
153 176 80
160 182 80
161 185 102
155 177 80
160 183 102
160 183 84
156 179 90
158 181 80
164 187 95
161 184 99
156 179 102
158 181 88
152 175 88
166 189 108
155 177 80
161 183 102
159 180 95
166 187 102
157 178 95
156 177 72
157 179 95
164 185 99
163 184 130
153 174 95
162 183 102
160 181 72
152 172 108
153 174 102
164 185 111
153 173 99
153 174 76
156 177 95
157 177 105
154 174 80
161 181 111
156 177 108
155 176 92
155 175 88
147 166 76
151 170 80
152 173 80
155 175 92
152 172 99
146 165 102
143 162 84
146 164 105
145 162 120
139 158 80
149 167 105
137 155 72
142 160 80
142 159 111
138 155 92
147 166 84
137 155 67
134 153 44
127 146 57
124 143 67
123 139 51
131 147 72
121 138 62
123 139 67
126 144 62
124 141 57
135 153 62
121 140 0
119 138 36
126 144 36
129 149 0
144 163 0
125 143 0
153 171 0
151 171 0
150 170 0
155 175 0
143 163 0
147 167 0
146 166 0
143 163 0
132 151 0
130 150 0
131 150 0
116 134 0
115 134 0
115 133 0
117 134 0
116 134 0
126 146 0
108 125 0
125 143 0
122 141 0
116 135 0
113 133 0
119 138 0
113 132 0
113 131 0
121 138 0
112 130 0
120 138 0
120 138 0
107 126 0
122 140 0
120 137 0
123 141 0
109 127 0
111 129 0
116 133 0
115 132 0
104 121 0
120 139 0
118 136 0
106 123 0
106 124 0
105 123 0
106 124 0
112 130 0
105 122 0
109 126 0
109 126 0
115 132 0
103 120 0
107 124 0
98 115 0
102 120 0
116 135 0
102 118 0
113 131 0
107 123 0
107 125 0
108 126 0
115 133 0
120 139 0
107 124 0
119 138 0
120 139 0
115 134 0
109 126 0
109 126 0
115 132 0
117 135 0
111 129 0
115 134 0
113 132 0
107 125 0
116 135 0
120 138 0
129 147 0
123 142 0
112 131 0
109 127 0
123 141 0
118 136 0
124 143 0
120 139 0
129 149 0
135 155 0
122 139 0
120 140 0
126 144 0
127 148 0
125 144 0
131 150 0
134 154 0
135 155 0
122 139 0
128 147 0
132 152 0
133 153 0
129 149 0
131 151 0
136 154 0
122 141 0
129 149 0
132 151 0
137 157 0
132 151 0
127 146 0
145 166 0
133 153 0
141 161 0
142 163 0
134 152 0
129 149 0
134 154 0
138 157 0
138 159 0
134 153 0
132 148 0
149 169 0
142 164 0
140 160 0
132 152 0
145 167 0
140 160 0
129 149 0
145 166 0
138 159 0
143 162 0
142 162 0
144 164 0
150 169 0
147 167 0
133 156 0
146 166 0
140 160 0
146 168 0
150 171 0
143 164 0
151 172 0
150 171 0
146 167 0
151 171 0
152 173 0
148 169 0
144 165 0
146 166 0
143 164 0
141 162 0
133 152 0
152 172 0
150 170 0
157 178 0
153 175 0
156 177 0
148 167 0
153 174 0
151 172 0
152 174 0
152 172 0
146 165 0
144 164 0
150 170 0
150 171 0
148 170 0
149 170 0
149 169 0
152 174 0
149 170 0
158 178 0
159 180 0
156 177 0
155 177 0
154 174 0
157 177 0
150 172 0
152 173 0
153 174 0
158 177 0
152 171 0
163 186 0
154 173 0
154 174 0
158 179 0
159 180 0
155 176 0
156 177 0
160 180 0
154 173 0
154 174 0
150 170 0
157 179 0
155 175 0
160 179 0
154 174 0
160 180 0
155 176 0
154 176 0
157 177 0
159 179 0
162 182 0
157 179 0
162 182 0
157 178 0
156 175 0
161 182 0
162 182 0
159 181 0
163 184 0
163 183 0
154 175 0
160 181 0
161 180 0
164 185 0
161 181 0
163 183 0
164 187 0
161 181 0
160 182 0
159 179 0
161 183 0
160 181 0
163 183 0
164 185 0
166 189 0
159 178 0
157 178 0
158 180 0
165 186 0
162 181 0
162 184 0
164 184 0
162 183 0
162 186 0
161 181 0
164 186 0
168 188 0
167 188 0
165 185 0
165 185 0
164 186 0
162 183 0
160 182 0
166 186 0
162 183 0
164 184 0
165 186 0
168 189 0
162 183 0
163 182 0
165 187 0
167 188 0
159 181 0
166 189 0
168 189 0
163 183 0
163 183 0
165 186 0
164 186 0
162 184 0
166 188 0
164 185 0
161 182 0
169 191 0
161 181 0
167 189 0
166 187 0
166 188 0
169 189 0
164 185 0
173 197 111
176 198 102
172 195 80
171 194 84
173 197 105
176 199 95
174 198 105
172 195 80
168 191 80
174 197 111
170 194 80
173 197 102
170 194 76
176 199 111
174 197 105
170 194 102
173 197 92
170 194 92
174 197 99
170 194 80
170 194 92
173 195 102
168 191 80
170 193 72
173 197 102
166 189 95
169 193 88
166 189 95
170 194 120
165 189 99
168 190 88
171 194 105
162 186 105
163 187 105
172 196 125
167 190 88
166 189 102
169 193 92
170 193 99
170 193 88
163 186 88
162 186 102
169 192 92
165 188 95
169 192 88
159 183 102
162 185 76
170 193 105
160 184 99
163 186 95
163 186 105
164 187 95
161 184 76
157 181 92
161 184 84
164 186 111
163 186 80
163 186 105
166 188 92
159 182 105
166 189 102
165 188 108
160 182 95
162 186 111
159 182 111
158 180 102
160 183 95
159 181 102
159 183 80
160 183 99
162 184 95
165 188 102
161 182 67
158 180 92
159 182 80
162 184 99
156 179 102
155 176 57
160 182 108
157 179 88
160 182 125
160 182 105
161 183 95
163 185 88
149 171 88
151 172 88
158 181 99
163 185 99
149 171 92
165 184 105
159 180 120
151 173 92
152 173 99
154 176 102
155 175 102
158 179 88
149 169 95
159 179 92
146 166 84
163 183 99
151 171 99
147 166 108
153 172 117
142 160 95
157 175 125
145 164 102
152 169 105
151 169 99
139 158 92
134 152 92
134 152 84
141 158 88
137 156 67
145 162 102
131 149 84
138 156 44
134 153 51
129 149 44
131 149 84
126 144 51
136 155 57
122 141 51
128 146 67
133 151 62
129 147 57
126 144 62
125 144 36
130 150 36
131 151 36
137 156 0
123 143 25
131 151 25
144 163 0
151 171 0
157 179 0
152 172 0
149 170 0
142 163 0
147 166 0
147 166 0
134 153 0
137 156 0
132 152 0
129 148 0
132 150 0
133 152 0
116 133 0
123 141 0
121 140 0
113 131 0
122 141 0
119 138 0
126 145 0
114 132 0
112 130 0
110 128 0
114 131 0
111 129 0
110 128 0
121 139 0
120 138 0
115 133 0
91 108 0
118 135 0
120 137 0
123 142 0
125 144 0
112 130 0
112 130 0
114 132 0
104 121 0
99 117 0
100 117 0
108 126 0
115 132 0
113 132 0
129 147 0
125 143 0
114 131 0
115 132 0
117 136 0
112 130 0
113 131 0
122 139 0
112 130 0
109 126 0
98 116 0
122 140 0
106 123 0
108 126 0
109 128 0
123 140 0
108 127 0
120 138 0
118 136 0
105 122 0
122 140 0
119 137 0
118 137 0
105 124 0
130 148 0
110 128 0
99 118 0
110 129 0
120 139 0
126 144 0
109 129 0
121 140 0
130 149 0
120 139 0
124 143 0
129 147 0
120 140 0
118 136 0
124 144 0
119 138 0
125 144 0
118 137 0
118 137 0
126 146 0
131 149 0
121 140 0
131 150 0
116 134 0
133 152 0
131 150 0
130 151 0
128 147 0
136 155 0
131 152 0
136 156 0
127 147 0
130 150 0
133 154 0
126 146 0
134 154 0
138 158 0
142 162 0
134 154 0
134 155 0
133 153 0
144 163 0
135 154 0
136 156 0
138 159 0
138 158 0
133 154 0
136 156 0
133 155 0
132 152 0
138 158 0
145 165 0
145 166 0
140 159 0
145 165 0
138 157 0
150 169 0
141 160 0
132 152 0
146 166 0
149 168 0
146 166 0
138 159 0
141 161 0
150 170 0
142 163 0
145 166 0
146 166 0
142 163 0
142 163 0
144 163 0
144 164 0
148 169 0
151 172 0
151 171 0
145 166 0
148 170 0
145 167 0
149 170 0
150 171 0
137 156 0
146 166 0
146 166 0
146 168 0
146 165 0
145 166 0
144 166 0
146 166 0
151 172 0
151 170 0
149 171 0
161 184 0
151 172 0
158 179 0
155 175 0
154 175 0
151 172 0
151 170 0
150 169 0
153 174 0
150 171 0
154 173 0
149 170 0
150 170 0
155 175 0
157 177 0
161 182 0
157 179 0
157 178 0
150 169 0
156 178 0
157 178 0
155 176 0
153 174 0
157 177 0
159 181 0
157 178 0
157 179 0
160 181 0
158 178 0
163 184 0
159 181 0
157 177 0
162 181 0
152 173 0
156 177 0
155 176 0
157 178 0
161 181 0
155 175 0
163 185 0
158 179 0
158 179 0
152 172 0
164 184 0
158 179 0
156 177 0
152 172 0
164 185 0
164 185 0
163 184 0
163 183 0
164 185 0
160 181 0
160 181 0
160 181 0
162 183 0
162 184 0
162 183 0
163 185 0
163 183 0
162 184 0
161 180 0
164 186 0
163 185 0
156 177 0
161 183 0
158 179 0
165 187 0
155 177 0
161 180 0
163 185 0
162 181 0
161 182 0
154 176 0
165 186 0
165 185 0
164 185 0
169 191 0
161 182 0
168 191 0
165 185 0
164 186 0
163 184 0
165 187 0
163 184 0
166 187 0
169 191 0
166 188 0
164 186 0
163 184 0
164 184 0
162 184 0
166 187 0
164 186 0
162 182 0
161 181 0
166 187 0
160 181 0
165 187 0
166 190 0
166 187 0
167 189 0
164 187 0
164 183 0
169 192 0
165 186 0
164 186 0
171 193 0
168 189 0
173 196 92
176 199 111
176 199 108
172 195 102
170 193 88
169 193 80
169 192 84
168 191 88
172 195 102
171 195 95
172 195 95
171 195 92
171 193 95
167 189 92
165 189 88
170 194 105
175 198 99
169 193 95
170 193 105
163 186 67
169 193 105
171 195 111
170 193 102
171 194 99
171 195 95
173 197 102
172 194 76
164 188 95
169 192 80
170 193 92
165 188 84
169 192 84
168 192 99
166 189 88
161 184 76
163 187 92
169 193 92
169 194 108
166 190 88
163 186 99
167 190 95
166 190 95
169 193 99
167 190 105
163 186 99
165 188 102
168 192 84
173 196 108
168 192 88
166 189 95
163 186 88
168 191 80
162 184 95
159 182 95
164 186 92
169 192 114
161 183 102
164 186 99
164 186 95
160 184 114
161 184 92
164 188 80
162 186 80
163 185 108
158 181 88
164 186 105
166 188 88
159 183 99
157 179 92
164 186 108
162 185 95
154 177 88
152 175 72
158 181 102
159 181 99
153 175 92
159 181 72
163 185 80
161 182 117
156 179 99
153 176 95
161 183 117
160 182 92
150 171 88
157 178 111
155 177 95
152 173 108
158 179 108
163 184 117
164 185 120
157 178 84
151 171 84
151 171 76
153 174 88
152 173 92
162 183 105
152 172 88
154 174 111
149 169 95
157 177 117
151 170 108
149 169 80
151 170 111
147 167 108
148 167 92
148 167 105
148 166 88
149 169 92
145 163 102
146 165 95
138 157 80
148 166 88
146 166 84
146 166 76
140 159 57
131 150 0
136 156 57
132 151 44
125 143 51
132 150 67
135 155 57
131 150 62
128 146 67
129 146 80
126 144 51
134 153 0
126 145 0
128 147 25
133 154 0
126 145 0
138 158 0
134 154 0
151 170 0
157 178 0
154 175 0
141 159 0
151 172 0
141 161 0
150 170 0
137 158 0
139 159 0
144 164 0
132 151 0
115 134 0
124 143 0
107 126 0
133 150 0
124 143 0
127 146 0
111 131 0
123 142 0
117 136 0
133 152 0
124 143 0
114 133 0
117 135 0
111 129 0
119 138 0
121 139 0
111 129 0
130 148 0
112 130 0
106 124 0
121 139 0
122 139 0
109 126 0
115 133 0
115 134 0
115 134 0
101 119 0
123 142 0
115 133 0
113 130 0
112 129 0
102 120 0
112 130 0
118 137 0
111 127 0
108 125 0
119 136 0
118 136 0
116 133 0
110 128 0
111 128 0
110 128 0
117 135 0
114 132 0
106 125 0
116 134 0
116 134 0
121 140 0
121 140 0
116 134 0
117 135 0
114 132 0
119 139 0
128 145 0
117 134 0
107 126 0
112 130 0
116 135 0
116 134 0
120 139 0
124 143 0
117 136 0
123 141 0
120 137 0
127 148 0
118 136 0
121 139 0
123 142 0
121 140 0
123 142 0
128 147 0
121 140 0
129 147 0
121 140 0
126 145 0
125 143 0
126 145 0
125 144 0
116 136 0
128 149 0
132 152 0
133 153 0
128 147 0
130 150 0
126 145 0
134 154 0
138 156 0
126 146 0
136 155 0
133 151 0
132 152 0
138 158 0
140 159 0
137 157 0
137 158 0
131 153 0
136 156 0
134 153 0
126 147 0
140 161 0
142 163 0
135 153 0
124 143 0
136 154 0
142 163 0
151 173 0
136 155 0
137 158 0
133 155 0
140 159 0
145 165 0
145 165 0
134 154 0
135 153 0
139 159 0
139 160 0
146 166 0
137 158 0
144 164 0
137 156 0
144 166 0
140 161 0
153 175 0
141 160 0
150 172 0
141 162 0
138 157 0
140 160 0
145 164 0
135 155 0
152 174 0
151 172 0
150 170 0
155 175 0
155 176 0
146 167 0
151 173 0
146 165 0
156 176 0
151 171 0
151 169 0
144 164 0
158 177 0
150 172 0
150 171 0
152 171 0
154 176 0
148 169 0
154 175 0
147 168 0
153 176 0
157 178 0
153 174 0
148 170 0
152 174 0
158 179 0
149 169 0
151 171 0
152 174 0
152 174 0
156 176 0
157 180 0
159 181 0
153 173 0
156 176 0
156 177 0
158 177 0
157 177 0
149 169 0
150 171 0
158 178 0
153 172 0
157 178 0
150 173 0
158 178 0
153 175 0
155 176 0
162 183 0
159 181 0
159 179 0
151 170 0
159 181 0
154 174 0
158 179 0
156 177 0
158 178 0
156 175 0
163 184 0
165 185 0
157 178 0
161 181 0
158 179 0
160 180 0
162 181 0
157 177 0
159 178 0
163 185 0
163 186 0
156 178 0
161 182 0
161 182 0
158 180 0
162 184 0
156 176 0
164 184 0
163 184 0
162 185 0
159 181 0
161 181 0
161 183 0
166 188 0
163 185 0
160 182 0
160 180 0
163 184 0
159 181 0
154 174 0
165 186 0
164 187 0
165 186 0
164 187 0
164 185 0
161 181 0
159 180 0
165 187 0
162 183 0
163 183 0
160 182 0
168 189 0
168 189 0
162 182 0
161 183 0
164 185 0
165 187 0
166 187 0
162 183 0
161 183 0
164 184 0
162 185 0
165 188 0
162 183 0
167 187 0
164 186 0
166 188 0
163 182 0
166 189 0
163 184 0
166 188 0
164 185 0
161 182 0
169 192 0
167 189 0
165 187 0
168 189 0
162 183 0
166 185 0
169 190 0
174 197 92
173 196 99
169 193 117
171 195 84
172 195 72
175 198 102
166 190 102
171 194 120
172 195 105
164 186 67
175 198 114
172 195 67
167 191 102
170 194 76
171 194 105
173 197 95
170 193 88
171 194 105
173 196 120
167 191 92
171 195 84
171 194 80
170 194 114
171 196 120
166 189 99
169 193 76
172 196 102
165 188 108
171 195 92
167 190 88
172 195 72
171 194 88
166 189 88
164 187 92
170 193 105
164 187 95
168 191 111
171 195 102
164 188 88
167 190 76
164 188 92
168 192 108
168 191 88
167 191 99
167 190 84
169 192 108
164 187 102
164 188 102
159 183 80
160 184 88
164 187 111
160 184 88
163 187 111
157 179 84
165 188 88
169 193 105
169 194 125
165 187 102
166 190 108
163 186 120
163 186 88
161 184 88
164 187 105
162 185 92
161 184 111
159 183 84
168 190 111
161 184 92
164 186 108
163 186 72
157 179 80
157 179 92
151 172 95
162 183 95
162 184 108
152 174 84
162 183 99
156 178 108
164 186 84
157 179 88
157 179 105
159 182 84
150 171 80
156 178 92
158 178 108
152 173 84
164 186 84
155 176 84
152 173 95
161 181 125
158 179 80
161 182 92
166 186 128
156 177 102
161 182 99
164 185 105
161 181 108
155 175 102
152 173 108
159 178 108
152 172 92
155 175 84
149 169 62
157 177 92
147 166 88
148 166 105
146 165 95
149 168 92
143 163 80
149 167 105
146 166 92
140 159 84
124 143 72
140 158 99
144 163 67
135 154 36
132 152 36
130 149 25
132 152 62
126 145 57
138 156 72
128 147 57
132 151 44
132 152 67
134 153 44
121 140 36
117 136 0
125 146 0
130 152 25
138 159 0
138 157 25
124 144 0
146 166 0
156 178 0
154 175 0
154 174 0
148 170 0
148 169 0
147 167 0
139 160 0
140 159 0
129 149 0
135 156 0
125 144 0
121 140 0
125 143 0
120 139 0
121 139 0
123 142 0
126 143 0
114 133 0
113 132 0
131 151 0
117 137 0
105 123 0
117 136 0
126 144 0
120 139 0
118 137 0
119 138 0
112 131 0
124 142 0
116 134 0
107 125 0
113 132 0
131 150 0
112 130 0
123 141 0
107 125 0
119 137 0
119 137 0
116 136 0
108 125 0
117 137 0
115 133 0
109 128 0
115 134 0
113 130 0
122 141 0
105 122 0
111 130 0
113 130 0
125 143 0
109 126 0
123 142 0
120 139 0
129 148 0
111 129 0
118 136 0
105 123 0
114 132 0
116 135 0
117 136 0
112 132 0
115 135 0
111 131 0
110 129 0
119 137 0
130 149 0
126 144 0
117 134 0
128 147 0
125 143 0
125 143 0
134 154 0
126 146 0
124 144 0
124 141 0
129 148 0
115 135 0
119 140 0
130 149 0
123 141 0
124 142 0
126 146 0
123 142 0
125 146 0
117 134 0
110 129 0
122 140 0
126 145 0
132 151 0
132 153 0
136 157 0
120 139 0
123 142 0
127 146 0
146 167 0
134 154 0
140 161 0
146 167 0
130 150 0
131 149 0
134 154 0
135 155 0
131 150 0
131 150 0
146 165 0
141 162 0
128 147 0
139 159 0
135 156 0
136 157 0
143 163 0
141 161 0
145 165 0
139 159 0
139 158 0
139 159 0
140 160 0
145 165 0
133 154 0
141 162 0
135 156 0
142 162 0
138 157 0
146 168 0
146 165 0
138 158 0
145 165 0
144 165 0
139 160 0
143 161 0
140 160 0
139 159 0
152 173 0
141 161 0
142 163 0
140 160 0
147 167 0
147 168 0
150 171 0
149 171 0
149 170 0
149 171 0
143 164 0
147 167 0
152 174 0
144 164 0
151 172 0
149 169 0
144 165 0
156 178 0
158 179 0
154 177 0
153 173 0
145 165 0
156 176 0
160 180 0
156 178 0
157 179 0
154 174 0
150 170 0
148 168 0
147 168 0
152 172 0
151 172 0
155 176 0
151 172 0
150 171 0
154 177 0
155 174 0
155 176 0
150 171 0
156 177 0
160 181 0
160 180 0
154 176 0
154 175 0
161 182 0
150 170 0
161 182 0
151 171 0
161 181 0
154 176 0
154 175 0
158 179 0
151 171 0
154 174 0
159 180 0
165 188 0
161 182 0
157 180 0
162 183 0
157 178 0
159 180 0
156 176 0
164 185 0
160 182 0
152 172 0
154 176 0
159 180 0
163 184 0
162 185 0
165 187 0
159 181 0
167 189 0
156 176 0
157 177 0
163 184 0
167 188 0
162 183 0
156 177 0
161 181 0
163 183 0
166 188 0
160 181 0
161 180 0
164 185 0
156 176 0
163 183 0
156 177 0
159 179 0
164 186 0
165 186 0
161 182 0
163 182 0
163 182 0
159 179 0
161 182 0
159 181 0
164 185 0
162 183 0
165 186 0
165 186 0
159 181 0
163 185 0
166 188 0
157 178 0
165 186 0
161 181 0
164 186 0
164 185 0
163 186 0
161 182 0
165 184 0
159 179 0
166 188 0
167 188 0
162 184 0
166 188 0
166 187 0
165 185 0
168 190 0
165 186 0
162 182 0
164 186 0
167 189 0
168 188 0
169 190 0
163 185 0
166 188 0
166 188 0
165 187 0
169 192 0
160 181 0
170 192 0
167 189 0
169 191 0
165 186 0
174 197 80
172 195 76
172 195 88
175 197 111
170 193 99
173 197 84
172 196 92
174 197 108
173 197 92
177 200 120
170 193 102
173 196 88
172 195 102
175 198 108
169 193 84
168 192 102
171 194 111
170 193 111
172 196 105
168 192 95
173 196 95
172 196 102
171 195 99
174 197 88
165 188 122
169 191 105
170 194 95
162 185 80
168 191 88
176 199 122
165 189 88
170 194 114
165 188 92
167 191 84
167 189 80
165 189 95
164 187 92
162 185 80
162 186 84
169 193 114
167 191 108
165 188 105
167 190 88
163 187 111
171 194 99
169 192 105
168 191 99
167 190 88
167 189 102
164 187 92
165 187 102
168 191 111
162 185 92
164 186 102
167 190 105
161 184 99
168 191 99
159 182 72
167 189 95
158 181 92
160 183 95
163 186 102
160 183 102
161 184 88
165 187 84
160 183 95
164 187 114
171 194 122
156 178 95
162 185 99
154 177 72
158 180 84
158 180 102
158 179 102
168 189 114
157 180 95
162 184 99
153 176 76
155 176 84
162 184 105
162 184 102
154 176 84
155 176 72
162 184 111
160 181 117
159 180 120
157 178 105
156 178 111
158 180 88
160 181 102
157 178 99
151 172 92
148 169 80
159 179 108
151 171 62
155 175 95
149 168 99
150 170 92
156 177 88
156 176 105
152 171 105
149 168 105
156 176 102
151 172 99
154 173 99
149 168 84
145 164 95
151 169 105
148 167 95
149 167 99
154 174 99
144 163 88
148 166 80
141 161 72
142 160 80
134 154 51
138 157 25
132 151 67
142 161 62
124 143 36
130 148 57
125 143 36
134 152 57
142 160 76
124 143 36
129 147 0
139 158 25
132 152 36
130 149 25
126 145 0
140 159 25
140 160 25
148 169 25
149 168 0
157 179 0
148 168 0
148 169 0
148 169 0
148 168 0
142 162 0
133 154 0
141 162 0
124 144 0
121 141 0
134 152 0
130 150 0
130 148 0
119 136 0
125 142 0
128 148 0
124 142 0
130 149 0
125 144 0
131 151 0
120 138 0
124 142 0
132 151 0
121 141 0
114 131 0
122 140 0
124 142 0
111 129 0
120 137 0
115 134 0
119 139 0
119 138 0
132 151 0
114 133 0
112 132 0
124 142 0
103 121 0
114 132 0
124 142 0
124 143 0
112 130 0
121 140 0
128 148 0
119 138 0
130 148 0
119 137 0
119 137 0
109 127 0
113 131 0
122 141 0
116 134 0
117 136 0
118 137 0
126 144 0
128 146 0
119 137 0
103 121 0
116 135 0
129 149 0
126 145 0
107 126 0
111 129 0
125 143 0
118 137 0
117 136 0
123 142 0
122 139 0
133 150 0
126 146 0
125 145 0
133 152 0
122 141 0
125 144 0
120 139 0
128 147 0
124 143 0
125 144 0
123 141 0
128 148 0
130 149 0
125 143 0
133 153 0
121 141 0
122 142 0
132 151 0
140 160 0
130 150 0
124 143 0
129 148 0
134 155 0
130 150 0
136 155 0
136 156 0
126 146 0
127 147 0
136 156 0
126 144 0
137 158 0
131 151 0
142 163 0
128 149 0
146 168 0
136 156 0
135 154 0
138 158 0
134 154 0
145 166 0
138 157 0
134 153 0
141 160 0
131 150 0
151 172 0
144 164 0
128 148 0
135 155 0
136 156 0
149 170 0
144 164 0
140 160 0
139 159 0
133 154 0
142 163 0
145 165 0
148 168 0
141 160 0
148 167 0
148 168 0
148 168 0
139 159 0
155 175 0
145 167 0
143 163 0
150 170 0
136 157 0
150 171 0
146 169 0
146 167 0
155 177 0
146 168 0
150 170 0
147 167 0
146 168 0
145 167 0
148 169 0
139 157 0
154 174 0
153 174 0
149 170 0
151 173 0
146 167 0
147 168 0
151 172 0
148 169 0
147 169 0
152 173 0
148 169 0
155 174 0
156 175 0
151 172 0
149 169 0
159 179 0
152 174 0
147 166 0
159 180 0
155 177 0
155 175 0
150 171 0
151 172 0
153 174 0
150 169 0
157 178 0
160 182 0
161 182 0
156 177 0
150 170 0
158 179 0
161 182 0
162 184 0
152 172 0
153 175 0
160 182 0
156 178 0
154 172 0
160 183 0
162 183 0
159 180 0
160 183 0
155 176 0
159 180 0
158 178 0
157 178 0
154 174 0
153 173 0
152 172 0
155 177 0
155 178 0
158 180 0
156 179 0
160 183 0
163 185 0
160 180 0
165 186 0
161 181 0
155 175 0
160 181 0
159 181 0
159 179 0
160 181 0
163 184 0
165 186 0
164 185 0
158 178 0
164 187 0
161 182 0
167 189 0
161 182 0
163 185 0
158 179 0
162 182 0
161 181 0
162 184 0
162 183 0
163 186 0
164 186 0
165 187 0
161 181 0
164 184 0
161 181 0
165 187 0
164 186 0
160 179 0
162 181 0
164 187 0
162 183 0
162 185 0
166 188 0
164 186 0
163 184 0
165 186 0
165 187 0
170 193 0
167 189 0
166 187 0
160 183 0
167 189 0
167 188 0
167 190 0
171 194 0
165 187 0
162 184 0
164 186 0
164 185 0
158 179 0
164 187 0
162 184 0
167 188 0
163 184 0
171 190 0
169 192 0
163 185 0
167 188 0
165 187 0
168 189 0
166 189 0
167 188 0
168 190 0
173 196 88
173 196 84
174 196 99
170 194 95
175 198 105
171 194 105
178 201 120
175 198 88
169 192 88
174 197 80
169 192 99
173 196 105
172 194 88
173 196 99
171 195 99
171 194 99
170 193 92
175 198 120
172 195 105
171 194 111
173 197 108
175 198 102
169 193 102
170 193 102
169 193 88
174 198 117
173 196 102
170 194 114
170 193 92
172 195 95
168 191 111
172 196 120
166 188 80
167 190 84
168 192 105
163 186 108
170 194 105
167 190 105
163 186 76
166 189 84
171 195 105
164 188 108
159 182 99
166 189 92
164 187 88
163 186 99
163 186 95
161 184 92
159 182 76
163 186 92
159 182 80
167 191 99
171 194 95
161 184 99
166 190 108
158 181 95
167 191 128
163 186 92
155 177 102
160 182 72
166 189 108
159 181 92
155 178 99
166 189 102
164 186 102
160 183 80
156 178 102
163 186 108
161 183 102
158 180 105
163 185 117
162 185 92
152 174 72
169 191 99
160 182 95
159 181 102
163 184 114
162 183 114
157 179 99
162 184 99
151 173 80
157 179 99
148 170 72
161 184 99
158 180 95
157 179 108
154 175 95
155 176 111
158 179 111
154 175 92
155 175 88
157 179 76
157 178 95
159 180 117
156 177 111
160 180 95
160 180 99
159 181 88
147 167 99
152 171 108
145 165 92
152 172 95
147 167 84
156 175 111
155 174 105
146 165 88
164 182 111
150 170 95
144 163 102
145 164 84
154 173 105
152 171 95
144 162 84
143 163 62
143 162 92
135 154 67
141 161 36
146 167 57
135 154 57
138 156 67
144 162 92
134 154 36
138 156 51
131 149 25
135 153 0
142 163 25
125 144 36
128 148 25
145 165 25
132 152 36
140 160 0
136 157 25
151 172 25
159 180 0
156 178 0
159 180 0
150 172 0
154 174 0
149 170 0
136 156 0
142 161 0
140 160 0
124 142 0
130 148 0
127 147 0
124 142 0
112 132 0
109 128 0
124 144 0
123 142 0
124 143 0
130 149 0
129 149 0
123 142 0
112 131 0
117 137 0
113 132 0
132 151 0
116 133 0
116 135 0
122 141 0
124 143 0
121 139 0
122 141 0
112 129 0
125 144 0
117 136 0
120 139 0
125 144 0
110 129 0
124 144 0
107 125 0
129 147 0
108 126 0
123 142 0
116 134 0
121 140 0
118 136 0
123 142 0
111 129 0
103 121 0
121 139 0
118 136 0
119 136 0
122 140 0
117 136 0
120 138 0
116 136 0
125 145 0
106 125 0
120 139 0
118 137 0
119 138 0
114 134 0
112 132 0
113 132 0
134 154 0
119 137 0
116 135 0
123 143 0
133 152 0
123 141 0
119 136 0
131 151 0
123 141 0
124 144 0
143 162 0
116 133 0
129 149 0
127 146 0
137 155 0
133 151 0
126 145 0
121 141 0
128 148 0
137 157 0
131 151 0
135 154 0
135 154 0
132 153 0
125 145 0
127 147 0
126 146 0
131 150 0
137 157 0
126 146 0
134 155 0
123 142 0
128 147 0
133 153 0
136 156 0
133 153 0
136 156 0
134 155 0
141 161 0
139 159 0
130 150 0
128 147 0
138 157 0
142 162 0
135 156 0
137 158 0
131 153 0
134 155 0
143 162 0
137 157 0
145 165 0
141 162 0
139 159 0
140 159 0
146 167 0
147 168 0
130 149 0
140 160 0
139 159 0
145 167 0
143 164 0
135 155 0
144 164 0
153 174 0
139 159 0
140 159 0
137 158 0
144 165 0
146 166 0
137 156 0
150 170 0
148 169 0
140 161 0
143 164 0
146 168 0
151 172 0
146 166 0
152 172 0
145 167 0
154 177 0
146 168 0
152 172 0
156 178 0
153 174 0
147 169 0
148 169 0
145 166 0
150 169 0
153 174 0
158 180 0
158 178 0
161 182 0
151 172 0
152 173 0
146 167 0
147 168 0
153 175 0
150 172 0
143 163 0
153 173 0
152 173 0
159 180 0
147 170 0
146 168 0
153 173 0
151 172 0
154 176 0
151 172 0
153 174 0
153 174 0
159 180 0
151 172 0
158 180 0
157 179 0
157 178 0
154 177 0
159 181 0
160 182 0
154 175 0
152 173 0
155 176 0
152 171 0
158 179 0
157 177 0
154 174 0
164 185 0
155 177 0
149 168 0
163 185 0
159 180 0
165 187 0
165 186 0
156 177 0
165 187 0
156 176 0
159 180 0
162 183 0
160 181 0
156 176 0
161 183 0
157 177 0
158 179 0
166 187 0
163 184 0
159 181 0
160 182 0
157 177 0
155 177 0
155 174 0
158 178 0
155 176 0
162 183 0
156 177 0
156 178 0
154 174 0
162 183 0
158 181 0
163 183 0
163 183 0
162 182 0
165 187 0
161 184 0
163 182 0
162 184 0
164 185 0
162 184 0
163 185 0
164 185 0
163 184 0
165 186 0
164 186 0
163 186 0
160 179 0
160 183 0
163 185 0
162 182 0
165 186 0
159 180 0
165 186 0
163 184 0
170 191 0
160 182 0
165 185 0
161 181 0
168 189 0
166 185 0
164 185 0
168 189 0
166 187 0
164 186 0
167 188 0
167 188 0
163 184 0
161 183 0
166 188 0
161 182 0
166 188 0
166 186 0
164 185 0
164 186 0
163 186 0
166 187 0
164 186 0
164 187 0
172 196 102
176 199 114
173 197 88
175 197 84
170 193 88
171 194 80
176 199 95
172 195 99
176 199 111
177 199 99
168 192 88
173 197 114
170 193 111
172 195 80
172 196 88
169 192 102
167 189 95
169 191 99
168 192 72
167 190 105
167 190 95
171 194 76
167 191 92
166 189 76
172 195 92
167 191 114
168 191 105
168 192 108
167 190 80
165 188 99
164 187 80
168 192 84
169 193 111
162 186 80
167 190 84
172 196 114
169 192 108
174 198 120
173 197 105
168 191 92
173 196 114
156 180 99
164 187 84
168 191 84
165 189 111
169 192 108
165 189 95
164 188 92
167 190 95
161 185 95
163 186 111
167 191 111
167 189 111
163 186 95
160 183 88
154 177 84
162 185 99
161 185 99
162 185 84
158 181 76
169 192 120
155 178 99
165 187 99
160 183 92
163 185 84
163 186 120
162 184 95
163 186 88
155 176 84
170 192 111
157 180 108
155 177 105
159 181 92
162 184 111
163 186 84
164 186 117
156 178 88
157 179 102
158 180 105
158 179 84
157 179 99
152 173 95
162 183 108
154 175 92
159 180 120
157 179 95
158 180 84
163 185 102
155 177 88
156 177 92
141 163 76
148 169 92
149 171 80
151 172 95
151 171 117
150 171 102
149 169 99
143 163 67
154 174 88
155 176 88
154 174 111
147 168 76
152 171 105
161 180 120
155 174 99
151 171 102
146 165 92
140 158 84
155 174 92
144 163 92
141 160 84
144 162 88
147 166 84
139 159 51
136 155 62
132 151 36
143 163 57
146 164 57
144 165 72
141 161 44
140 159 62
130 150 51
142 161 57
136 156 0
148 168 36
131 151 25
136 157 25
140 160 36
137 157 25
133 153 0
144 164 44
143 162 44
152 173 0
156 177 0
153 174 0
154 175 0
151 173 0
149 171 0
146 166 0
151 173 0
148 169 0
144 165 0
143 163 0
135 155 0
124 144 0
126 145 0
133 152 0
130 149 0
117 136 0
122 140 0
130 150 0
129 149 0
132 152 0
122 143 0
130 148 0
102 120 0
121 140 0
118 137 0
122 142 0
125 145 0
113 134 0
107 126 0
125 144 0
129 148 0
127 146 0
114 133 0
108 126 0
127 146 0
116 135 0
120 139 0
122 140 0
124 143 0
127 147 0
116 136 0
121 140 0
128 146 0
116 134 0
117 136 0
125 143 0
118 137 0
116 134 0
123 142 0
121 138 0
123 142 0
124 143 0
122 141 0
125 145 0
127 146 0
126 145 0
117 136 0
136 155 0
120 139 0
117 136 0
127 146 0
117 135 0
129 148 0
128 146 0
119 138 0
125 144 0
118 137 0
124 144 0
125 144 0
119 139 0
133 152 0
133 153 0
121 140 0
129 148 0
139 159 0
122 140 0
128 147 0
124 143 0
132 152 0
134 153 0
125 145 0
128 148 0
134 154 0
130 150 0
133 152 0
135 154 0
128 148 0
138 159 0
133 152 0
128 147 0
138 158 0
127 146 0
136 156 0
132 152 0
125 144 0
134 154 0
127 147 0
134 154 0
137 157 0
134 155 0
139 159 0
132 153 0
136 157 0
142 163 0
150 170 0
133 152 0
135 156 0
140 161 0
138 158 0
142 161 0
134 155 0
149 169 0
138 158 0
146 167 0
145 166 0
141 161 0
144 164 0
148 170 0
146 167 0
148 170 0
142 164 0
142 162 0
145 165 0
142 163 0
143 164 0
141 162 0
154 175 0
138 158 0
155 176 0
142 163 0
150 171 0
147 169 0
147 167 0
148 170 0
144 164 0
148 168 0
147 167 0
133 154 0
144 166 0
151 172 0
157 178 0
143 165 0
147 167 0
156 176 0
148 165 0
147 169 0
148 169 0
154 175 0
154 174 0
150 170 0
144 164 0
148 169 0
148 169 0
150 171 0
150 169 0
158 181 0
154 176 0
151 172 0
147 167 0
154 177 0
153 174 0
156 177 0
155 175 0
150 170 0
151 170 0
150 170 0
158 179 0
154 175 0
156 177 0
148 170 0
148 167 0
160 182 0
158 181 0
153 175 0
155 176 0
159 181 0
152 173 0
151 173 0
153 175 0
155 176 0
159 180 0
160 180 0
156 179 0
155 175 0
150 172 0
159 179 0
157 178 0
160 181 0
156 177 0
161 183 0
159 180 0
155 177 0
157 177 0
153 174 0
161 182 0
159 180 0
158 180 0
156 177 0
161 183 0
163 184 0
159 182 0
159 180 0
157 179 0
154 175 0
162 184 0
156 178 0
162 183 0
161 181 0
158 178 0
165 186 0
162 184 0
164 185 0
160 181 0
153 172 0
162 183 0
160 183 0
160 180 0
158 178 0
157 178 0
166 188 0
163 185 0
159 181 0
159 182 0
167 189 0
162 184 0
164 187 0
160 181 0
164 187 0
157 179 0
164 186 0
161 183 0
166 187 0
163 184 0
162 184 0
162 184 0
165 187 0
157 177 0
164 186 0
164 186 0
163 184 0
162 183 0
165 185 0
159 180 0
161 183 0
165 186 0
164 186 0
165 186 0
158 178 0
164 186 0
165 187 0
162 183 0
165 186 0
167 188 0
169 190 0
168 190 0
162 183 0
165 186 0
161 183 0
167 188 0
162 184 0
169 191 0
166 188 0
165 188 0
164 185 0
169 190 0
167 189 0
164 187 0
172 195 99
176 199 92
171 194 95
170 193 88
173 196 95
172 195 114
172 195 99
170 194 95
172 195 114
171 193 102
170 194 102
170 193 99
174 197 120
170 193 117
174 197 117
172 195 102
167 190 99
172 196 114
172 195 105
176 199 117
170 194 80
171 194 76
166 188 80
167 191 108
167 190 95
165 189 111
166 190 102
166 190 88
169 193 105
174 197 102
171 195 99
172 196 105
170 192 80
166 189 95
175 198 108
169 193 105
171 194 95
169 194 114
167 190 95
169 192 92
167 190 95
165 189 92
162 185 84
165 189 111
165 189 76
170 194 117
159 182 72
168 191 72
163 185 88
164 187 108
166 189 105
159 182 102
157 180 67
169 191 88
161 184 72
161 184 84
163 186 111
168 191 102
161 184 105
160 182 84
162 184 108
161 183 62
165 188 108
160 182 102
164 188 108
163 186 102
160 182 99
165 187 105
159 181 72
156 178 95
153 175 80
161 184 111
161 184 108
166 188 114
167 189 99
157 179 88
165 187 92
151 173 88
160 182 95
154 174 111
161 183 111
152 175 105
161 182 108
165 186 84
152 174 88
159 181 114
162 183 95
156 177 99
157 178 120
160 181 102
158 179 108
155 175 95
168 188 120
161 182 99
161 182 102
151 172 95
158 179 92
161 181 105
156 175 105
151 171 84
157 176 105
154 174 88
158 178 99
156 175 108
145 166 72
152 172 92
148 167 102
158 176 111
143 162 99
151 169 99
133 154 57
140 160 76
145 165 57
139 158 62
152 172 72
151 169 102
147 167 62
143 163 62
137 156 36
136 156 62
138 157 62
141 160 76
145 164 72
139 159 44
142 162 0
135 155 25
132 152 0
135 155 25
151 171 25
139 160 44
141 161 0
136 157 0
148 169 0
157 177 0
157 179 0
149 172 0
148 170 0
145 166 0
154 174 0
131 152 0
137 158 0
148 168 0
136 157 0
129 151 0
132 151 0
131 150 0
135 156 0
121 140 0
127 147 0
132 151 0
127 146 0
132 152 0
133 154 0
130 150 0
122 140 0
123 142 0
127 147 0
115 134 0
121 141 0
115 135 0
125 145 0
129 150 0
111 130 0
122 140 0
130 149 0
116 135 0
122 141 0
124 142 0
123 143 0
118 136 0
116 136 0
121 140 0
125 144 0
118 136 0
122 139 0
129 147 0
120 139 0
119 138 0
121 140 0
114 132 0
112 130 0
105 123 0
120 140 0
127 145 0
117 136 0
137 157 0
116 135 0
120 138 0
119 139 0
115 134 0
118 137 0
128 146 0
122 140 0
122 140 0
119 138 0
120 138 0
138 156 0
142 162 0
121 140 0
106 127 0
123 141 0
126 145 0
127 146 0
133 153 0
127 147 0
125 144 0
119 138 0
124 143 0
130 151 0
111 129 0
129 150 0
130 150 0
129 149 0
136 155 0
130 150 0
124 144 0
136 156 0
137 158 0
142 162 0
133 152 0
131 151 0
128 148 0
139 159 0
138 157 0
137 157 0
137 158 0
143 163 0
138 158 0
146 166 0
133 152 0
140 161 0
141 162 0
139 159 0
132 151 0
135 154 0
137 156 0
147 168 0
138 159 0
141 162 0
140 160 0
134 155 0
138 158 0
136 156 0
145 164 0
133 154 0
135 154 0
141 162 0
145 166 0
133 153 0
142 162 0
138 159 0
152 172 0
139 161 0
142 163 0
146 167 0
140 161 0
147 168 0
150 172 0
144 165 0
141 160 0
138 161 0
146 166 0
147 167 0
155 175 0
141 161 0
145 168 0
151 171 0
149 169 0
152 175 0
155 177 0
143 162 0
151 171 0
149 170 0
157 178 0
145 167 0
142 161 0
147 169 0
146 168 0
153 174 0
152 175 0
154 173 0
149 170 0
150 171 0
149 169 0
149 170 0
155 178 0
151 172 0
151 172 0
154 177 0
153 172 0
145 167 0
157 179 0
153 176 0
152 173 0
157 177 0
159 181 0
153 174 0
157 179 0
157 178 0
156 176 0
151 172 0
159 181 0
156 176 0
160 181 0
156 177 0
153 174 0
159 181 0
155 177 0
161 182 0
160 182 0
155 176 0
157 179 0
162 184 0
162 184 0
155 175 0
157 178 0
150 170 0
160 180 0
157 178 0
153 176 0
159 180 0
162 184 0
160 181 0
161 183 0
165 186 0
161 182 0
164 185 0
163 184 0
161 184 0
161 184 0
157 178 0
158 179 0
161 183 0
161 182 0
161 183 0
162 183 0
163 184 0
158 180 0
161 182 0
159 181 0
162 182 0
157 177 0
160 181 0
160 183 0
163 184 0
159 180 0
163 184 0
167 188 0
164 187 0
159 180 0
164 185 0
165 185 0
159 181 0
163 183 0
161 182 0
159 179 0
161 184 0
166 188 0
160 183 0
161 181 0
162 186 0
161 184 0
164 185 0
163 186 0
163 184 0
166 188 0
165 186 0
165 187 0
165 187 0
165 187 0
167 189 0
164 187 0
168 190 0
162 184 0
162 185 0
162 184 0
166 188 0
163 184 0
162 184 0
167 188 0
163 184 0
162 184 0
166 188 0
165 186 0
167 188 0
163 184 0
166 187 0
166 187 0
162 184 0
169 190 0
163 185 0
164 187 0
164 186 0
166 188 0
168 189 0
168 189 0
165 186 0
168 190 0
165 187 0
163 185 0
174 198 108
174 197 111
172 195 76
175 198 111
171 194 88
172 196 80
172 196 92
165 188 92
174 197 92
169 192 84
165 189 92
175 199 111
174 197 114
173 196 105
170 193 95
174 197 105
170 193 84
172 195 80
170 193 92
170 193 84
165 188 95
171 194 95
173 197 114
168 192 114
175 198 111
170 193 76
172 196 111
166 189 84
172 196 114
167 190 88
165 188 95
165 188 95
167 190 80
167 191 92
165 188 99
171 194 108
171 194 108
169 192 102
170 192 92
170 193 92
168 191 76
163 186 62
167 191 95
165 189 99
160 184 111
166 189 102
164 187 72
165 188 84
169 192 102
159 182 95
167 191 92
165 187 99
165 189 92
158 181 76
165 187 76
162 184 122
167 189 92
162 186 88
167 190 125
160 183 88
169 191 117
163 185 102
162 184 95
165 188 92
157 180 88
170 192 95
164 187 102
164 187 102
172 195 108
159 181 99
148 170 84
163 186 95
160 182 76
159 182 92
160 182 102
158 181 92
160 183 92
152 174 92
150 172 88
166 188 88
162 184 95
150 173 84
169 191 125
162 183 80
162 183 108
156 178 84
159 180 105
162 183 105
160 180 84
158 178 84
152 173 99
152 173 88
162 182 105
156 177 108
152 173 92
159 180 95
152 173 84
149 170 88
146 165 92
156 177 92
155 175 88
155 174 117
155 174 88
143 163 62
159 178 105
150 169 92
154 173 102
154 173 114
152 172 80
152 171 88
157 175 102
144 164 84
142 161 88
138 159 36
148 168 62
145 166 44
145 165 62
147 168 51
136 155 44
126 145 44
139 159 57
138 158 51
135 156 25
142 162 25
130 150 36
135 155 36
134 155 25
139 159 36
141 161 25
128 149 0
143 164 25
148 168 25
159 179 0
161 183 0
156 177 0
154 175 0
149 170 0
150 171 0
145 165 0
144 163 0
143 164 0
145 166 0
157 178 0
130 150 0
122 143 0
134 154 0
134 153 0
136 156 0
126 146 0
127 146 0
143 163 0
137 157 0
136 156 0
119 139 0
127 147 0
130 149 0
119 138 0
131 151 0
133 152 0
129 148 0
120 139 0
126 146 0
114 134 0
112 132 0
122 140 0
117 137 0
117 136 0
126 146 0
122 142 0
119 139 0
113 132 0
134 153 0
124 143 0
124 144 0
121 139 0
137 156 0
121 140 0
134 153 0
128 147 0
118 138 0
120 139 0
118 138 0
123 141 0
123 143 0
129 147 0
116 134 0
128 147 0
119 139 0
123 143 0
116 134 0
123 142 0
110 129 0
122 141 0
126 145 0
113 131 0
125 145 0
129 148 0
131 150 0
135 155 0
119 138 0
135 156 0
142 162 0
130 150 0
121 140 0
122 141 0
133 151 0
115 133 0
130 151 0
126 146 0
136 156 0
130 150 0
126 146 0
123 143 0
136 155 0
139 159 0
132 152 0
127 146 0
137 159 0
130 148 0
133 153 0
135 154 0
138 158 0
133 155 0
131 151 0
136 156 0
132 151 0
132 153 0
135 155 0
131 150 0
136 156 0
130 151 0
132 154 0
126 147 0
133 153 0
131 149 0
141 162 0
144 165 0
136 156 0
142 163 0
141 162 0
143 164 0
142 163 0
141 161 0
136 157 0
137 158 0
133 153 0
140 161 0
146 167 0
141 162 0
138 157 0
139 159 0
145 166 0
148 170 0
149 170 0
147 167 0
143 164 0
146 167 0
147 169 0
142 163 0
149 170 0
138 158 0
150 169 0
146 167 0
147 166 0
144 164 0
151 173 0
153 175 0
135 156 0
149 172 0
146 168 0
149 170 0
146 167 0
142 162 0
152 174 0
153 175 0
143 163 0
152 173 0
153 174 0
156 176 0
150 172 0
148 168 0
145 165 0
152 173 0
156 176 0
159 181 0
153 174 0
153 174 0
156 177 0
149 171 0
146 167 0
159 182 0
150 172 0
155 176 0
159 180 0
160 182 0
150 171 0
156 178 0
153 174 0
156 178 0
154 175 0
154 175 0
154 174 0
154 175 0
162 183 0
159 181 0
158 178 0
158 179 0
155 177 0
156 177 0
161 183 0
163 186 0
156 178 0
164 185 0
161 183 0
160 180 0
160 181 0
153 175 0
158 178 0
158 180 0
153 174 0
157 177 0
157 177 0
152 173 0
157 176 0
164 186 0
159 180 0
154 174 0
158 180 0
156 177 0
162 183 0
161 182 0
159 179 0
162 183 0
161 181 0
158 179 0
163 185 0
165 187 0
163 183 0
156 177 0
165 186 0
161 182 0
163 185 0
160 180 0
159 182 0
163 183 0
159 179 0
159 179 0
160 181 0
158 179 0
166 188 0
166 187 0
160 181 0
161 183 0
165 187 0
165 187 0
166 188 0
160 181 0
166 188 0
164 186 0
164 186 0
168 189 0
167 188 0
163 187 0
163 183 0
164 187 0
166 190 0
167 190 0
160 181 0
167 187 0
163 186 0
164 185 0
167 189 0
166 187 0
164 184 0
164 187 0
168 190 0
167 188 0
168 190 0
165 187 0
170 192 0
168 190 0
163 185 0
164 186 0
163 185 0
169 191 0
163 185 0
166 188 0
165 186 0
166 188 0
160 181 0
166 188 0
164 186 0
168 190 0
163 185 0
166 187 0
167 187 0
170 192 0
170 192 0
166 188 0
167 188 0
174 196 88
173 197 80
172 196 105
170 194 67
174 197 105
174 197 108
169 192 84
175 198 108
173 196 117
173 195 88
173 196 72
173 196 88
167 189 80
173 196 95
172 196 99
170 193 95
166 189 88
173 197 105
174 197 120
172 195 102
171 195 117
170 193 88
163 186 80
169 193 80
174 198 99
166 190 108
164 187 84
167 191 76
168 192 80
165 189 99
170 193 99
172 196 84
171 195 111
167 191 99
167 190 99
171 194 99
166 189 99
166 189 84
166 189 105
169 193 111
169 193 95
166 189 88
165 188 80
164 186 88
166 190 105
163 185 80
166 190 111
169 193 108
167 190 108
166 189 99
166 188 92
171 194 92
160 183 99
166 189 92
163 185 84
160 183 80
164 187 99
164 186 80
159 182 105
160 182 95
158 180 80
159 182 72
163 185 84
159 181 105
154 176 88
157 180 80
157 180 99
163 185 92
162 185 84
165 187 117
157 179 88
159 182 88
160 182 84
154 176 108
163 185 84
161 183 102
154 176 99
162 183 88
150 172 80
155 176 92
159 180 88
157 179 95
164 184 95
164 186 111
156 177 99
158 179 99
148 169 88
157 179 99
154 175 88
158 179 108
149 170 76
154 175 92
162 182 117
154 175 92
150 170 80
152 173 92
150 171 80
159 180 95
156 176 95
168 187 120
162 181 95
149 169 102
159 180 88
155 175 92
152 172 84
149 169 99
160 180 99
165 184 111
149 169 92
158 176 95
147 167 92
139 159 84
143 163 72
150 169 72
153 172 88
142 163 51
140 160 67
131 151 57
144 163 80
139 159 51
143 162 57
137 157 25
142 163 36
144 165 44
143 163 36
136 156 25
132 151 25
141 161 25
142 162 25
145 167 0
140 162 0
137 157 0
154 176 0
157 180 0
158 179 0
158 179 0
154 175 0
152 174 0
141 162 0
149 170 0
143 164 0
141 160 0
134 154 0
132 153 0
134 155 0
136 157 0
131 152 0
139 158 0
131 151 0
133 154 0
134 154 0
125 145 0
136 156 0
125 144 0
126 146 0
125 144 0
115 135 0
121 141 0
126 146 0
121 140 0
130 150 0
133 152 0
119 139 0
120 139 0
119 139 0
134 154 0
131 151 0
129 149 0
119 139 0
128 147 0
120 139 0
118 138 0
127 147 0
135 154 0
126 146 0
120 138 0
124 143 0
118 137 0
128 149 0
124 144 0
127 147 0
121 141 0
125 145 0
121 140 0
127 149 0
115 133 0
130 149 0
125 145 0
127 146 0
126 145 0
118 138 0
126 146 0
123 142 0
132 152 0
138 158 0
125 144 0
111 130 0
126 146 0
125 143 0
137 157 0
129 149 0
135 156 0
125 144 0
115 135 0
130 150 0
122 142 0
132 153 0
131 151 0
127 145 0
131 151 0
134 153 0
132 151 0
131 151 0
129 149 0
138 159 0
126 145 0
145 166 0
137 158 0
135 156 0
134 154 0
133 154 0
131 151 0
137 159 0
124 143 0
120 141 0
133 152 0
139 158 0
134 156 0
137 158 0
139 161 0
132 152 0
139 160 0
141 161 0
143 165 0
142 164 0
140 161 0
146 166 0
134 153 0
142 163 0
145 166 0
142 163 0
146 167 0
133 156 0
139 158 0
143 165 0
148 168 0
140 160 0
148 169 0
143 164 0
143 163 0
145 165 0
146 166 0
146 167 0
141 162 0
147 166 0
150 172 0
145 166 0
144 165 0
147 169 0
138 158 0
151 172 0
150 170 0
143 165 0
148 169 0
146 167 0
149 171 0
150 172 0
149 169 0
147 168 0
143 164 0
148 168 0
157 177 0
138 160 0
147 169 0
145 166 0
154 176 0
150 171 0
151 171 0
155 177 0
154 175 0
143 163 0
157 179 0
156 178 0
155 178 0
150 171 0
155 175 0
145 164 0
153 175 0
157 178 0
143 165 0
153 174 0
151 172 0
160 180 0
160 183 0
153 173 0
161 181 0
149 171 0
156 177 0
151 172 0
153 175 0
155 175 0
154 175 0
152 172 0
155 177 0
154 176 0
156 177 0
163 184 0
156 177 0
156 178 0
162 182 0
160 180 0
157 178 0
155 176 0
156 178 0
154 176 0
156 176 0
158 179 0
162 184 0
158 180 0
150 171 0
163 185 0
155 176 0
162 183 0
165 186 0
162 184 0
159 181 0
159 181 0
157 177 0
156 178 0
158 180 0
161 181 0
156 177 0
162 184 0
159 180 0
155 177 0
159 180 0
161 184 0
158 179 0
161 182 0
155 176 0
154 176 0
161 183 0
164 186 0
166 188 0
162 184 0
166 187 0
166 187 0
163 185 0
162 183 0
164 185 0
161 181 0
162 185 0
162 182 0
165 187 0
160 181 0
164 185 0
164 185 0
161 182 0
162 183 0
166 187 0
156 177 0
161 181 0
165 185 0
162 183 0
163 186 0
163 184 0
167 187 0
166 187 0
164 186 0
167 189 0
165 189 0
163 186 0
164 186 0
165 187 0
166 187 0
164 187 0
165 186 0
167 188 0
162 184 0
167 189 0
167 189 0
167 187 0
165 186 0
166 188 0
161 183 0
170 192 0
165 188 0
168 190 0
166 188 0
167 188 0
171 194 0
166 187 0
165 187 0
162 183 0
168 189 0
169 191 0
162 185 0
166 187 0
165 186 0
165 187 0
174 197 88
169 193 95
171 194 92
176 199 120
172 195 92
169 193 92
171 193 76
170 193 95
172 195 108
172 195 84
173 196 92
174 197 114
167 191 76
168 192 84
166 189 84
170 194 80
172 195 95
165 189 76
167 190 84
168 191 92
172 195 92
175 198 120
169 193 80
165 188 84
170 192 102
172 195 108
171 194 84
170 194 111
164 187 95
168 191 84
168 191 88
171 193 95
166 190 80
168 190 84
168 191 92
172 195 108
166 189 95
172 196 128
166 190 111
167 190 76
164 187 95
170 193 88
164 186 105
162 185 88
171 194 114
168 191 95
166 189 117
160 183 92
171 193 105
162 185 102
162 184 72
166 189 99
171 193 105
164 187 111
159 182 88
171 193 102
163 187 102
163 186 88
170 193 114
163 185 84
168 190 105
161 183 92
167 190 99
163 185 111
159 182 88
163 186 99
166 189 105
162 185 111
162 184 84
167 189 105
157 179 80
157 180 95
151 173 88
150 172 95
157 180 80
162 183 99
159 180 95
150 172 72
159 181 95
164 186 122
154 175 95
155 177 76
160 182 95
159 180 95
153 175 102
164 185 99
149 170 105
155 175 95
149 171 92
155 176 88
156 176 92
159 179 108
152 173 88
157 178 80
157 178 105
157 177 105
152 171 88
158 180 102
169 190 105
164 183 117
153 173 108
150 171 88
149 169 84
163 183 92
152 172 99
148 168 105
161 180 114
148 169 84
153 172 108
162 180 108
147 167 76
148 168 80
143 163 76
137 157 67
152 173 62
138 158 44
143 164 62
140 159 44
145 165 67
138 156 51
133 154 36
148 168 36
131 151 36
145 165 25
136 155 36
139 160 36
143 162 36
139 159 25
145 166 36
152 174 44
143 164 0
142 163 25
158 179 25
157 179 0
157 177 0
153 175 0
149 171 0
154 176 0
148 168 0
142 162 0
151 172 0
145 165 0
141 161 0
143 165 0
137 157 0
134 154 0
133 154 0
138 159 0
127 148 0
124 144 0
135 154 0
133 153 0
138 157 0
130 151 0
130 150 0
125 145 0
130 151 0
116 135 0
123 143 0
130 150 0
124 145 0
132 152 0
115 135 0
124 144 0
135 153 0
124 144 0
126 147 0
117 136 0
125 143 0
132 152 0
136 155 0
128 147 0
129 148 0
124 144 0
137 157 0
134 153 0
125 145 0
125 145 0
123 143 0
136 157 0
113 133 0
136 155 0
126 146 0
125 145 0
125 144 0
133 152 0
132 153 0
114 132 0
121 140 0
118 138 0
120 139 0
123 141 0
129 149 0
126 146 0
123 143 0
123 143 0
128 147 0
124 144 0
138 157 0
121 139 0
125 146 0
124 144 0
125 145 0
123 143 0
128 150 0
125 144 0
126 145 0
123 143 0
127 147 0
129 149 0
142 162 0
130 152 0
135 156 0
130 150 0
126 147 0
127 148 0
143 164 0
133 152 0
138 159 0
129 149 0
138 159 0
138 159 0
134 153 0
131 150 0
125 144 0
133 153 0
130 150 0
139 159 0
141 161 0
148 169 0
139 158 0
139 160 0
141 161 0
140 159 0
139 159 0
143 164 0
140 161 0
141 161 0
136 157 0
146 166 0
145 166 0
148 167 0
140 160 0
143 165 0
131 153 0
148 169 0
146 166 0
144 165 0
142 162 0
149 171 0
145 166 0
148 170 0
148 170 0
145 166 0
144 164 0
152 173 0
143 165 0
141 161 0
137 158 0
141 161 0
150 172 0
144 164 0
146 167 0
146 169 0
150 170 0
150 171 0
155 176 0
150 171 0
150 171 0
157 178 0
148 170 0
149 171 0
147 168 0
148 171 0
153 173 0
148 169 0
151 172 0
151 172 0
156 178 0
152 174 0
153 175 0
149 171 0
150 170 0
154 175 0
157 178 0
157 178 0
151 173 0
160 181 0
154 176 0
158 179 0
155 177 0
153 175 0
153 174 0
153 174 0
157 178 0
156 176 0
159 181 0
151 171 0
158 181 0
156 179 0
156 177 0
155 178 0
151 173 0
154 176 0
156 178 0
154 175 0
156 177 0
154 176 0
157 178 0
158 180 0
155 177 0
162 183 0
161 182 0
153 173 0
158 179 0
154 175 0
157 179 0
163 184 0
155 176 0
157 179 0
166 187 0
157 178 0
159 181 0
154 174 0
162 183 0
160 181 0
160 183 0
157 178 0
158 180 0
162 184 0
156 177 0
162 184 0
160 182 0
161 184 0
156 176 0
164 185 0
154 175 0
159 181 0
163 184 0
156 178 0
155 174 0
162 185 0
156 177 0
163 186 0
157 178 0
163 184 0
162 183 0
163 184 0
161 184 0
161 182 0
159 179 0
163 185 0
161 183 0
165 186 0
164 186 0
166 187 0
166 188 0
165 186 0
166 188 0
161 182 0
164 185 0
164 186 0
161 182 0
162 184 0
163 183 0
163 185 0
160 181 0
166 187 0
167 190 0
169 190 0
161 182 0
168 190 0
163 184 0
165 187 0
163 184 0
167 189 0
161 182 0
166 187 0
163 184 0
168 191 0
166 187 0
164 187 0
164 185 0
163 185 0
163 186 0
164 185 0
167 190 0
167 189 0
166 189 0
159 181 0
158 179 0
167 187 0
164 186 0
165 187 0
167 189 0
169 191 0
167 188 0
163 183 0
166 189 0
167 189 0
174 197 99
171 195 80
174 196 95
173 196 102
173 196 62
165 188 80
172 195 92
173 197 84
171 194 105
174 196 88
170 192 92
173 195 102
169 193 99
173 196 111
173 195 102
173 196 105
173 196 92
171 194 95
168 191 102
165 188 95
170 193 95
167 190 76
168 191 95
164 187 84
166 190 88
168 191 76
171 194 105
165 188 88
164 187 80
164 187 62
165 188 102
170 193 108
164 187 84
168 191 88
166 189 111
172 195 111
164 188 92
163 186 88
164 187 84
166 189 72
167 190 92
168 192 111
161 184 102
167 190 92
166 188 92
160 184 92
166 190 99
164 187 99
171 195 120
163 186 88
171 194 105
167 191 95
167 189 72
171 194 108
171 194 108
164 187 84
167 190 62
166 189 92
161 183 99
174 196 117
165 187 84
162 185 95
164 187 88
163 186 102
162 184 105
158 180 92
156 178 92
157 180 92
164 186 95
168 192 102
155 177 92
165 187 105
162 185 117
165 186 88
154 177 80
164 186 92
165 187 108
159 181 95
163 185 88
156 178 80
153 174 95
158 180 80
163 185 108
161 182 88
154 174 84
152 173 99
161 182 95
163 185 99
154 175 99
160 181 95
165 187 117
157 178 88
163 184 111
160 181 92
155 176 80
150 171 95
156 176 105
151 171 92
151 172 102
161 182 128
159 179 99
148 168 80
154 174 99
159 179 99
159 179 92
153 173 92
149 168 80
161 181 108
160 180 114
153 173 72
151 170 88
148 168 57
148 169 62
146 166 72
147 166 57
146 166 67
153 174 51
148 169 51
144 163 44
137 158 0
149 170 44
137 157 36
140 160 25
140 161 36
148 169 44
139 159 51
139 159 0
138 159 25
129 150 25
141 161 0
147 168 0
140 162 0
158 181 0
158 180 0
156 177 0
156 177 0
154 176 0
150 171 0
151 173 0
150 172 0
155 177 0
139 159 0
128 149 0
140 161 0
131 152 0
133 153 0
130 150 0
144 164 0
132 152 0
131 152 0
138 159 0
132 152 0
132 152 0
129 150 0
120 139 0
126 146 0
133 153 0
125 144 0
127 147 0
126 145 0
133 154 0
130 150 0
132 151 0
132 152 0
131 151 0
127 147 0
122 142 0
135 156 0
124 144 0
117 137 0
129 149 0
136 156 0
127 145 0
119 139 0
128 148 0
115 134 0
121 141 0
123 142 0
129 149 0
127 146 0
127 147 0
128 148 0
132 152 0
138 157 0
141 161 0
136 157 0
125 145 0
134 154 0
127 148 0
125 145 0
120 141 0
117 137 0
126 144 0
121 142 0
136 156 0
136 155 0
122 142 0
125 145 0
120 139 0
129 150 0
130 151 0
131 152 0
133 152 0
131 151 0
133 153 0
126 146 0
133 153 0
139 159 0
137 157 0
127 147 0
136 156 0
124 143 0
126 145 0
135 155 0
141 161 0
137 157 0
136 157 0
131 152 0
148 168 0
130 150 0
139 161 0
139 159 0
133 153 0
136 157 0
142 163 0
133 154 0
136 156 0
135 155 0
143 164 0
142 164 0
136 157 0
134 154 0
137 158 0
145 166 0
135 156 0
142 163 0
144 164 0
145 164 0
147 167 0
139 159 0
143 164 0
140 160 0
144 166 0
138 158 0
148 170 0
150 173 0
146 168 0
148 170 0
139 159 0
149 168 0
142 162 0
147 169 0
151 173 0
151 172 0
140 160 0
147 169 0
138 159 0
149 171 0
146 167 0
139 160 0
149 169 0
144 165 0
150 172 0
137 157 0
147 167 0
148 170 0
138 159 0
150 172 0
157 179 0
154 176 0
148 169 0
151 172 0
149 171 0
152 173 0
148 170 0
152 172 0
151 173 0
155 177 0
146 168 0
162 184 0
154 176 0
153 175 0
151 172 0
150 171 0
150 172 0
153 175 0
152 172 0
151 173 0
157 178 0
154 173 0
153 173 0
153 173 0
159 180 0
154 175 0
152 172 0
159 181 0
159 180 0
156 177 0
158 180 0
158 180 0
156 177 0
154 176 0
155 176 0
150 172 0
156 179 0
157 178 0
158 179 0
149 169 0
157 178 0
160 181 0
157 177 0
161 183 0
161 183 0
159 181 0
151 174 0
164 186 0
155 176 0
160 182 0
166 188 0
161 183 0
157 177 0
159 180 0
163 185 0
159 179 0
167 189 0
158 179 0
159 179 0
164 186 0
161 183 0
154 176 0
163 185 0
164 186 0
161 183 0
162 183 0
157 179 0
161 184 0
164 185 0
158 180 0
167 190 0
167 189 0
163 185 0
161 183 0
163 185 0
158 180 0
166 189 0
161 181 0
163 185 0
164 186 0
159 182 0
163 186 0
164 185 0
162 184 0
161 183 0
161 184 0
161 183 0
163 184 0
165 186 0
164 185 0
162 182 0
165 186 0
163 186 0
163 185 0
161 183 0
167 190 0
166 189 0
163 185 0
158 180 0
161 183 0
160 180 0
163 185 0
164 187 0
166 188 0
163 185 0
160 181 0
164 186 0
164 186 0
167 189 0
166 187 0
164 186 0
167 189 0
162 186 0
163 185 0
167 188 0
165 185 0
167 190 0
168 190 0
161 183 0
165 186 0
165 188 0
167 189 0
168 191 0
164 184 0
167 190 0
164 187 0
169 190 0
169 192 0
167 190 0
167 190 0
162 184 0
168 190 0
175 199 95
172 195 80
171 194 92
176 198 84
170 193 99
167 190 99
175 199 108
171 194 88
168 192 84
179 201 99
173 196 88
168 192 111
172 195 88
175 199 102
168 191 92
169 191 102
172 195 80
168 191 95
170 194 88
172 195 102
171 195 105
171 195 105
169 192 92
175 199 114
173 197 108
172 195 88
167 191 76
166 190 80
169 191 72
171 195 92
169 192 95
169 191 67
165 188 111
171 193 95
165 189 76
167 190 95
170 193 84
162 185 80
169 192 95
171 194 72
164 187 99
165 188 92
165 188 105
169 191 102
161 184 88
165 188 102
171 194 117
161 183 92
164 186 114
167 188 76
169 193 84
169 192 99
168 191 102
164 188 102
161 183 108
159 181 62
165 188 114
167 190 102
165 188 95
166 188 80
162 185 99
161 184 105
162 185 92
164 186 108
165 187 111
160 183 105
158 181 88
159 181 92
160 182 102
162 185 95
153 175 99
152 174 72
159 181 95
157 179 80
160 182 88
153 174 67
165 186 117
162 184 108
155 176 76
161 183 95
156 178 95
157 179 95
155 177 92
162 183 108
153 174 76
162 183 122
164 185 102
157 178 99
153 173 99
147 168 76
155 177 92
153 174 102
160 181 99
153 174 92
160 180 99
148 169 99
153 173 92
153 173 105
157 177 99
158 179 88
158 178 105
157 177 105
154 175 84
158 178 102
152 172 80
151 170 88
157 176 108
161 180 92
145 165 92
156 176 80
153 173 99
155 174 88
142 162 67
150 170 80
157 177 92
141 161 72
145 165 36
146 167 25
138 158 36
136 157 25
136 157 51
143 165 25
134 156 36
140 160 25
142 163 36
140 160 36
144 164 36
146 166 0
143 164 0
136 157 25
145 167 36
143 164 0
158 179 0
154 176 0
154 176 0
157 180 0
156 179 0
153 175 0
141 161 0
148 170 0
152 174 0
138 159 0
142 163 0
138 158 0
136 156 0
142 162 0
140 161 0
135 155 0
133 152 0
134 155 0
126 147 0
133 152 0
135 155 0
136 156 0
126 146 0
137 159 0
132 152 0
133 152 0
131 152 0
128 148 0
129 149 0
126 146 0
119 138 0
122 141 0
138 157 0
130 149 0
132 152 0
137 157 0
133 153 0
120 141 0
121 141 0
140 161 0
141 161 0
126 146 0
130 150 0
122 140 0
127 147 0
129 148 0
119 138 0
124 144 0
118 138 0
118 137 0
123 142 0
129 147 0
130 148 0
123 142 0
120 140 0
134 153 0
126 144 0
138 158 0
130 149 0
130 150 0
136 156 0
133 153 0
130 151 0
122 142 0
114 133 0
132 153 0
129 149 0
138 159 0
134 153 0
127 147 0
139 159 0
139 161 0
136 155 0
136 156 0
137 159 0
133 154 0
138 158 0
137 159 0
137 155 0
127 147 0
125 145 0
140 160 0
130 150 0
138 157 0
130 152 0
138 159 0
138 158 0
135 155 0
146 166 0
126 144 0
138 160 0
142 162 0
137 159 0
133 152 0
134 155 0
134 155 0
126 146 0
138 158 0
138 160 0
141 162 0
134 154 0
153 173 0
141 162 0
144 164 0
142 162 0
137 158 0
150 171 0
142 162 0
149 171 0
146 168 0
155 177 0
141 162 0
154 175 0
146 168 0
132 153 0
148 169 0
145 166 0
158 178 0
145 166 0
145 165 0
143 166 0
144 165 0
148 169 0
150 172 0
147 169 0
148 167 0
148 170 0
144 165 0
146 165 0
151 173 0
149 170 0
151 173 0
150 172 0
146 165 0
144 166 0
155 176 0
147 169 0
148 170 0
143 165 0
156 178 0
148 168 0
152 172 0
148 170 0
151 172 0
156 179 0
148 170 0
150 170 0
152 172 0
149 171 0
153 174 0
151 172 0
157 178 0
157 178 0
157 179 0
150 170 0
154 176 0
157 180 0
156 178 0
153 175 0
150 172 0
148 169 0
150 171 0
159 181 0
156 177 0
156 177 0
152 173 0
148 171 0
155 177 0
154 175 0
153 173 0
159 181 0
158 180 0
151 172 0
152 173 0
162 184 0
158 178 0
159 179 0
160 181 0
160 182 0
157 179 0
157 179 0
156 177 0
162 184 0
152 175 0
156 178 0
161 183 0
160 182 0
161 181 0
160 181 0
155 177 0
157 178 0
160 184 0
165 187 0
161 182 0
159 181 0
162 183 0
161 182 0
162 184 0
161 183 0
164 185 0
164 185 0
158 181 0
162 184 0
161 183 0
163 185 0
167 189 0
162 183 0
165 187 0
160 183 0
159 180 0
165 187 0
156 177 0
163 185 0
164 187 0
159 180 0
160 182 0
161 184 0
165 187 0
164 186 0
167 188 0
164 186 0
163 184 0
163 186 0
167 188 0
165 186 0
168 189 0
163 185 0
164 185 0
169 191 0
163 183 0
164 185 0
160 182 0
167 189 0
162 184 0
160 182 0
165 186 0
160 182 0
162 183 0
163 185 0
165 188 0
163 184 0
168 190 0
165 187 0
159 180 0
165 188 0
163 185 0
165 188 0
167 189 0
162 183 0
164 187 0
164 185 0
165 186 0
165 186 0
162 184 0
168 190 0
168 190 0
164 185 0
164 187 0
164 185 0
166 187 0
161 181 0
168 191 0
167 189 0
167 188 0
167 188 0
162 184 0
162 185 0
165 187 0
169 193 92
175 198 102
167 190 102
170 193 72
171 194 92
172 195 95
174 198 99
176 199 95
171 195 114
171 193 99
173 196 99
174 197 105
170 192 80
159 182 57
168 191 92
170 193 99
171 195 111
159 183 92
165 187 99
171 194 105
171 194 99
170 191 117
168 192 108
164 188 99
172 196 105
169 192 95
171 194 102
175 198 122
170 193 88
162 185 76
163 186 105
164 187 117
167 190 76
170 192 88
172 196 117
172 195 88
163 186 92
175 197 111
172 195 84
165 187 88
166 188 92
162 186 95
171 194 117
168 191 111
168 191 84
164 187 88
162 185 95
169 192 92
167 190 84
169 192 88
165 188 99
168 191 99
166 190 111
164 186 84
168 190 92
157 179 88
162 185 95
162 184 102
167 190 108
165 187 102
167 190 92
166 188 102
164 187 88
162 184 84
166 187 99
158 181 88
160 183 114
166 188 92
162 184 102
163 185 92
165 187 99
160 182 92
157 180 92
156 177 92
160 183 105
158 180 67
167 189 99
164 186 95
158 179 76
160 182 102
159 181 84
157 178 88
162 184 117
154 177 80
162 184 92
159 180 111
169 191 102
164 185 88
155 176 92
154 175 84
157 179 92
166 186 111
155 176 67
151 172 88
154 174 95
164 185 105
154 175 92
152 173 95
162 182 111
149 169 72
162 182 99
157 177 111
156 176 92
154 173 108
161 181 102
158 179 108
147 167 76
150 169 84
158 178 84
151 171 88
147 166 67
146 166 84
159 178 102
149 169 57
134 154 72
149 169 72
155 174 92
145 166 44
150 171 0
143 164 36
149 171 36
136 156 25
140 160 0
142 162 25
138 159 25
148 169 44
137 158 25
149 170 51
147 168 0
151 173 0
135 155 25
140 161 0
154 176 0
158 179 0
157 180 0
154 176 0
154 176 0
150 171 0
151 172 0
147 169 0
146 167 0
149 170 0
145 166 0
144 164 0
149 170 0
125 145 0
142 162 0
129 149 0
121 142 0
141 161 0
142 163 0
134 153 0
132 152 0
130 150 0
126 147 0
127 148 0
138 158 0
126 145 0
133 153 0
141 161 0
132 154 0
129 150 0
133 152 0
126 146 0
138 157 0
122 141 0
130 150 0
125 146 0
133 153 0
126 146 0
130 151 0
126 144 0
123 143 0
132 151 0
128 148 0
130 149 0
140 160 0
127 146 0
130 150 0
130 151 0
144 164 0
115 135 0
121 140 0
137 156 0
124 144 0
136 157 0
124 144 0
133 153 0
128 148 0
123 144 0
119 138 0
125 144 0
125 146 0
131 149 0
128 146 0
129 149 0
139 159 0
127 146 0
137 157 0
139 158 0
133 153 0
136 156 0
125 145 0
124 144 0
130 150 0
123 143 0
139 159 0
129 150 0
130 150 0
129 150 0
129 150 0
133 154 0
129 150 0
141 161 0
134 153 0
143 163 0
145 166 0
136 157 0
140 160 0
140 162 0
142 163 0
132 151 0
123 143 0
140 161 0
136 156 0
141 162 0
138 159 0
143 163 0
134 154 0
142 162 0
145 167 0
145 165 0
137 157 0
131 151 0
140 161 0
135 157 0
149 169 0
143 163 0
139 158 0
149 169 0
142 163 0
145 166 0
144 166 0
145 167 0
143 165 0
149 171 0
153 175 0
148 169 0
140 158 0
152 173 0
151 172 0
147 169 0
142 164 0
145 166 0
154 175 0
150 171 0
144 165 0
150 172 0
144 166 0
155 174 0
149 171 0
146 167 0
145 167 0
145 166 0
142 163 0
145 167 0
154 174 0
148 168 0
144 166 0
150 171 0
156 179 0
153 173 0
152 172 0
148 168 0
151 172 0
152 172 0
150 171 0
153 172 0
147 167 0
150 171 0
158 180 0
151 173 0
154 175 0
151 172 0
152 175 0
151 172 0
147 168 0
160 182 0
159 181 0
151 173 0
153 174 0
158 179 0
163 184 0
153 174 0
153 175 0
156 179 0
152 173 0
152 173 0
162 183 0
154 175 0
153 174 0
154 175 0
156 178 0
159 180 0
158 180 0
163 184 0
157 179 0
156 178 0
159 181 0
151 171 0
151 174 0
163 185 0
161 182 0
158 179 0
161 184 0
158 179 0
160 181 0
161 183 0
159 180 0
155 177 0
159 181 0
161 182 0
158 181 0
153 174 0
159 181 0
158 179 0
162 184 0
157 178 0
158 179 0
163 185 0
152 173 0
161 182 0
157 179 0
164 185 0
161 183 0
162 184 0
161 184 0
157 178 0
162 183 0
164 186 0
159 181 0
166 188 0
156 178 0
161 184 0
158 179 0
162 185 0
163 186 0
165 185 0
162 183 0
159 182 0
160 182 0
160 182 0
167 189 0
158 182 0
164 186 0
166 186 0
166 189 0
159 180 0
165 187 0
163 184 0
167 189 0
166 189 0
162 183 0
161 182 0
165 186 0
163 184 0
163 185 0
168 189 0
160 181 0
166 187 0
168 189 0
164 185 0
163 185 0
164 186 0
162 185 0
163 184 0
165 186 0
168 190 0
169 191 0
168 191 0
162 184 0
167 189 0
167 190 0
167 189 0
165 188 0
168 189 0
168 190 0
165 187 0
164 187 0
166 187 0
163 185 0
164 188 0
169 191 0
171 193 0
167 189 0
169 191 0
168 189 0
168 189 0
165 186 0
168 189 0
171 195 108
175 197 80
170 193 108
173 195 102
172 194 92
176 199 111
171 193 76
174 196 105
172 196 84
175 198 108
177 200 117
172 196 88
173 196 114
173 197 105
169 192 67
176 199 111
166 189 111
169 193 92
170 193 117
173 196 99
170 194 117
172 195 88
172 195 92
166 189 102
171 194 105
171 194 99
168 191 84
169 193 102
164 187 95
170 193 92
172 195 76
165 188 88
170 193 99
168 191 67
166 189 105
161 183 84
169 191 72
171 194 105
159 183 72
166 190 114
160 183 67
164 187 117
167 190 108
163 187 80
159 182 111
158 181 80
166 188 88
167 189 102
161 184 88
166 189 105
167 189 95
170 192 108
157 180 99
160 182 88
171 193 67
163 186 114
162 185 99
166 188 84
167 190 108
165 187 95
164 186 92
167 190 111
162 186 111
166 189 111
162 183 92
159 181 95
165 188 111
159 182 102
161 183 99
163 184 99
162 184 62
163 185 99
161 184 99
158 180 76
166 188 84
166 187 99
160 181 95
158 179 80
159 182 92
161 183 95
162 185 80
162 183 108
163 184 95
159 180 105
165 187 111
162 184 102
162 184 114
163 184 105
160 180 95
156 176 88
162 183 114
158 179 76
152 173 99
166 186 122
163 184 95
165 186 99
152 173 80
161 182 99
155 175 95
159 180 102
156 177 67
148 168 88
154 174 84
160 180 99
157 178 88
151 171 92
155 174 99
158 179 99
160 179 99
156 176 99
155 174 92
153 173 67
134 156 25
141 161 67
149 169 62
144 165 62
151 171 62
146 166 36
148 169 25
135 155 0
148 169 44
146 167 44
141 162 44
148 170 51
143 164 36
135 154 25
158 179 25
148 170 25
143 163 0
153 175 25
141 161 0
156 176 25
161 182 0
157 178 0
164 187 0
154 175 0
141 163 0
154 176 0
145 165 0
137 159 0
141 162 0
146 167 0
146 167 0
142 163 0
135 156 0
144 164 0
141 162 0
142 163 0
135 156 0
139 160 0
134 153 0
137 158 25
132 153 0
134 154 0
127 146 0
127 147 0
136 156 0
134 154 0
120 139 0
136 156 0
134 156 0
130 150 0
128 148 0
136 156 0
129 150 0
130 150 0
133 154 0
141 161 0
134 156 0
129 149 0
132 152 0
127 147 0
124 144 0
123 143 0
136 156 0
134 154 0
135 155 0
136 156 0
137 158 0
127 148 0
127 146 0
127 148 0
133 153 0
127 147 0
130 150 0
130 151 0
128 149 0
138 156 0
132 153 0
130 149 0
139 159 0
130 151 0
135 157 0
133 154 0
128 148 0
130 150 0
135 156 0
134 155 0
138 159 0
123 144 0
135 155 0
138 158 0
141 162 0
140 160 0
130 150 0
125 147 0
137 158 0
139 156 0
126 147 0
137 158 0
138 157 0
127 148 0
134 155 0
145 166 0
135 153 0
138 160 0
131 151 0
135 157 0
142 163 0
138 159 0
144 166 0
136 157 0
134 155 0
139 160 0
139 159 0
135 156 0
137 159 0
140 160 0
140 160 0
140 161 0
152 173 0
147 167 0
140 161 0
140 161 0
145 168 0
137 158 0
137 159 0
144 165 0
140 160 0
142 164 0
137 158 0
137 158 0
150 171 0
141 163 0
144 165 0
149 172 0
149 171 0
146 167 0
147 169 0
143 165 0
140 162 0
149 170 0
147 169 0
147 169 0
152 173 0
148 170 0
138 159 0
140 161 0
146 167 0
151 174 0
149 170 0
153 174 0
149 171 0
146 167 0
154 176 0
152 174 0
147 169 0
150 172 0
153 175 0
150 173 0
157 177 0
157 178 0
149 168 0
145 166 0
146 168 0
158 180 0
157 177 0
150 172 0
161 181 0
155 176 0
157 177 0
155 177 0
154 175 0
160 180 0
153 176 0
153 173 0
160 181 0
156 178 0
148 170 0
155 176 0
157 179 0
160 182 0
158 180 0
163 183 0
154 175 0
153 174 0
158 179 0
158 180 0
156 177 0
164 188 0
159 180 0
161 182 0
157 180 0
151 172 0
154 177 0
158 180 0
160 182 0
159 180 0
149 171 0
159 181 0
152 173 0
160 181 0
154 176 0
158 178 0
161 182 0
162 183 0
157 178 0
165 186 0
154 175 0
155 177 0
162 183 0
155 176 0
159 181 0
162 185 0
163 184 0
157 179 0
156 177 0
156 177 0
162 184 0
157 178 0
157 178 0
161 181 0
159 182 0
164 186 0
165 186 0
163 184 0
165 186 0
161 183 0
164 184 0
161 183 0
161 182 0
164 186 0
163 184 0
158 179 0
162 184 0
165 188 0
162 181 0
164 185 0
163 184 0
162 183 0
156 178 0
165 188 0
165 188 0
161 182 0
156 178 0
161 182 0
161 182 0
164 186 0
159 181 0
162 184 0
155 178 0
165 187 0
168 190 0
166 187 0
164 187 0
163 185 0
166 188 0
162 183 0
164 186 0
160 181 0
168 191 0
163 185 0
163 185 0
164 186 0
165 186 0
165 186 0
161 183 0
165 186 0
167 189 0
162 184 0
163 185 0
166 187 0
163 185 0
159 180 0
167 189 0
164 186 0
163 184 0
164 186 0
167 188 0
170 191 0
167 189 0
167 189 0
166 189 0
169 192 0
169 193 0
164 187 0
166 187 0
171 194 0
167 190 0
169 190 0
169 192 67
170 193 80
176 199 102
175 197 105
172 195 99
174 197 92
176 198 92
173 196 102
172 196 114
174 198 99
171 194 102
174 197 108
173 195 105
171 195 76
175 198 105
173 195 92
174 196 114
166 189 92
175 199 95
174 196 95
167 191 99
166 190 99
173 196 105
172 195 102
171 194 92
169 191 102
171 194 88
165 188 88
170 193 92
168 192 84
164 188 92
163 186 88
169 193 80
167 190 92
166 190 92
169 193 111
166 190 80
172 196 108
165 188 76
169 192 88
163 186 76
165 187 92
169 192 99
169 192 108
164 186 84
166 189 92
166 189 99
166 189 88
166 190 117
166 189 92
160 183 92
165 188 95
169 192 99
163 186 80
161 184 102
167 188 92
163 186 88
162 185 99
166 188 92
166 189 108
166 189 92
160 182 88
165 186 95
161 183 102
165 186 88
162 185 99
161 184 111
163 185 102
165 187 108
166 188 102
159 182 84
171 193 99
167 189 105
161 182 108
160 182 99
168 190 102
161 183 105
163 184 95
166 188 95
163 185 92
163 185 111
163 184 92
168 189 114
167 188 80
161 182 102
163 184 114
161 182 95
163 185 92
159 180 102
155 176 84
154 176 84
168 189 105
155 177 92
159 180 72
155 176 95
162 182 95
158 177 120
152 171 80
159 179 84
164 183 108
165 184 117
152 172 80
154 174 95
168 188 92
158 179 88
154 173 99
157 177 88
158 178 95
155 175 102
160 181 80
156 176 92
155 175 88
151 171 72
154 174 72
149 169 80
147 168 51
147 168 51
143 163 0
148 170 36
147 168 0
139 160 0
149 170 44
142 163 25
148 169 36
148 169 25
155 177 51
139 162 25
135 157 36
157 178 57
145 165 0
146 166 36
158 180 0
160 182 0
156 178 0
160 182 0
160 182 0
153 177 0
152 174 0
148 170 0
151 173 0
150 170 0
145 166 0
140 162 0
146 166 0
142 163 0
140 161 0
135 156 0
144 164 0
136 157 0
139 159 0
142 163 0
141 161 0
134 154 0
145 166 0
125 146 0
135 154 0
131 152 0
127 149 0
140 160 0
136 157 0
137 158 0
124 144 0
123 144 0
131 152 0
131 152 0
129 149 0
133 154 0
137 157 0
138 157 0
137 156 0
138 159 0
135 155 0
131 151 0
133 154 0
145 166 0
120 141 0
132 152 0
140 158 0
122 142 0
130 150 0
125 145 0
134 155 0
133 154 0
131 151 0
136 155 0
121 141 0
143 162 0
127 148 0
134 155 0
130 150 0
127 147 0
131 152 0
136 156 0
130 150 0
132 151 0
133 154 0
123 144 0
136 158 0
130 149 0
135 155 0
122 141 0
137 158 0
130 151 0
136 155 0
140 161 0
135 156 0
135 155 0
133 154 0
135 155 0
129 149 0
140 160 0
137 159 0
139 160 0
139 159 0
130 150 0
134 153 0
130 150 0
143 163 0
132 151 0
130 150 0
141 161 0
127 146 0
143 165 0
149 168 0
135 155 0
141 161 0
144 163 0
144 165 0
143 163 0
137 159 0
141 161 0
137 158 0
143 165 0
141 162 0
140 161 0
141 161 0
143 163 0
140 163 0
140 161 0
151 172 0
148 170 0
149 170 0
146 167 0
150 170 0
151 172 0
149 170 0
141 162 0
148 169 0
142 162 0
139 162 0
139 161 0
147 166 0
148 169 0
143 164 0
146 167 0
138 160 0
147 168 0
150 172 0
150 170 0
146 168 0
154 174 0
147 167 0
151 172 0
146 167 0
156 178 0
156 177 0
155 176 0
149 171 0
150 170 0
153 175 0
150 172 0
151 174 0
147 169 0
155 177 0
153 174 0
147 168 0
155 176 0
149 171 0
150 172 0
155 176 0
149 169 0
154 175 0
156 176 0
153 175 0
149 171 0
157 178 0
155 177 0
158 180 0
162 183 0
146 167 0
151 173 0
152 174 0
155 177 0
152 175 0
156 178 0
158 180 0
164 187 0
152 173 0
157 179 0
161 184 0
151 172 0
159 181 0
155 177 0
157 176 0
158 180 0
158 180 0
157 178 0
159 180 0
162 185 0
160 181 0
160 182 0
160 182 0
162 182 0
154 172 0
157 178 0
163 184 0
154 175 0
163 186 0
159 180 0
159 181 0
158 179 0
162 184 0
161 183 0
161 184 0
155 177 0
162 184 0
163 186 0
156 178 0
161 183 0
158 180 0
167 190 0
158 181 0
160 181 0
157 178 0
160 182 0
160 181 0
160 183 0
162 183 0
159 180 0
159 181 0
158 180 0
164 185 0
161 183 0
164 187 0
160 183 0
167 189 0
163 185 0
163 184 0
161 183 0
161 185 0
164 188 0
159 181 0
165 188 0
165 186 0
161 183 0
162 183 0
161 183 0
165 186 0
160 183 0
162 184 0
162 183 0
156 176 0
163 184 0
159 180 0
167 189 0
168 191 0
166 189 0
160 181 0
166 188 0
162 185 0
157 178 0
167 190 0
160 181 0
162 184 0
166 189 0
162 184 0
164 186 0
168 191 0
163 186 0
167 189 0
168 190 0
172 193 0
165 185 0
164 187 0
162 184 0
164 185 0
164 184 0
166 189 0
166 188 0
167 189 0
168 190 0
163 185 0
165 187 0
165 188 0
163 184 0
166 188 0
167 190 0
170 192 0
166 190 0
166 188 0
169 192 88
176 199 102
175 198 120
173 196 95
172 195 105
171 193 95
170 193 92
174 197 105
172 194 102
178 201 120
174 197 114
175 197 102
170 193 99
167 191 92
172 195 95
168 191 92
172 195 88
170 194 88
176 199 99
168 192 88
166 189 108
165 188 80
166 189 88
169 192 105
171 194 99
167 191 76
169 192 99
175 198 105
170 193 120
169 192 108
170 193 92
176 198 108
168 191 105
172 196 108
169 191 99
166 189 102
166 190 99
164 186 102
170 193 105
168 191 88
170 193 88
169 191 105
163 186 88
165 187 102
166 189 80
167 190 111
172 195 102
166 189 84
162 185 108
162 185 80
169 192 108
167 191 99
167 191 111
168 191 67
164 188 102
168 191 88
165 187 120
174 196 102
167 190 108
161 184 92
160 183 84
162 184 51
160 182 102
158 181 88
163 185 99
169 192 133
161 183 88
155 178 102
162 184 95
153 175 76
157 180 95
157 179 88
158 180 92
157 179 99
165 186 99
162 183 92
160 182 92
164 186 99
163 184 99
156 178 76
161 183 95
152 173 92
160 182 92
159 180 99
162 183 95
162 183 120
153 175 57
158 180 99
158 180 99
162 184 102
157 177 92
159 179 108
158 180 95
161 182 88
157 177 88
156 177 95
161 182 108
159 180 108
154 174 92
167 187 122
159 179 99
158 178 92
160 181 88
156 176 99
156 176 105
155 175 76
150 171 80
150 170 92
149 169 84
156 176 95
147 168 76
148 168 72
162 182 67
141 161 62
159 179 80
156 177 67
150 171 44
145 167 25
152 174 36
148 170 0
148 169 25
147 168 36
146 168 25
152 172 0
148 169 25
145 167 25
130 152 0
144 165 25
149 171 36
147 169 0
146 168 25
149 172 0
159 182 0
154 176 0
155 176 0
155 177 0
156 179 0
152 175 0
159 182 0
151 173 0
149 172 0
146 167 0
141 163 0
146 167 0
141 162 0
135 156 0
131 152 0
145 166 0
140 161 0
138 159 0
146 166 0
144 165 0
137 159 0
138 158 0
139 159 0
129 147 0
119 139 0
126 148 0
128 147 0
132 154 0
138 158 0
129 148 0
131 152 0
131 151 0
139 160 0
133 153 0
125 146 0
132 152 0
135 154 0
131 151 0
136 155 0
131 151 0
130 150 0
131 150 0
118 140 0
129 148 0
131 151 0
138 158 0
135 155 0
135 155 0
134 155 0
124 144 0
124 145 0
134 153 0
137 157 0
130 151 0
135 155 0
134 155 0
139 160 0
136 157 0
140 161 0
125 146 0
135 155 0
134 154 0
135 156 0
141 162 0
132 153 0
128 149 0
131 151 0
142 163 0
140 162 0
135 155 0
137 157 0
133 153 0
146 167 0
147 170 0
133 154 0
131 152 0
139 159 0
133 153 0
135 156 0
134 155 0
136 157 0
141 162 0
135 157 0
139 160 0
141 161 0
142 163 0
138 159 0
142 163 0
143 166 0
142 163 0
145 166 0
145 165 0
143 164 0
141 162 0
145 165 0
140 161 0
148 169 0
142 162 0
144 165 0
148 168 0
152 174 0
138 160 0
146 167 0
138 160 0
145 166 0
138 159 0
136 157 0
142 163 0
146 167 0
139 160 0
151 172 0
146 168 0
143 164 0
147 168 0
152 172 0
145 167 0
140 162 0
145 167 0
144 165 0
145 167 0
146 168 0
150 172 0
151 173 0
149 171 0
144 164 0
144 164 0
154 176 0
143 163 0
148 168 0
148 169 0
154 176 0
140 162 0
152 173 0
151 171 0
155 177 0
152 175 0
154 175 0
149 170 0
149 171 0
154 175 0
147 168 0
158 180 0
157 179 0
153 174 0
153 175 0
147 168 0
150 172 0
149 169 0
141 162 0
152 174 0
151 173 0
154 174 0
147 169 0
154 177 0
155 177 0
156 177 0
149 170 0
152 173 0
149 169 0
158 180 0
153 176 0
157 180 0
152 173 0
154 174 0
156 179 0
156 179 0
162 182 0
154 174 0
156 175 0
154 177 0
162 183 0
157 178 0
154 176 0
160 182 0
158 180 0
152 173 0
159 181 0
161 181 0
159 180 0
158 178 0
155 177 0
160 182 0
156 177 0
159 181 0
157 180 0
157 179 0
161 182 0
159 180 0
162 185 0
159 181 0
165 188 0
165 186 0
163 186 0
165 189 0
156 176 0
162 184 0
160 183 0
159 180 0
160 181 0
163 185 0
159 180 0
160 182 0
154 176 0
162 183 0
163 185 0
162 184 0
163 185 0
161 184 0
164 185 0
159 181 0
162 183 0
168 190 0
164 185 0
164 186 0
163 185 0
167 189 0
166 188 0
159 181 0
165 187 0
163 186 0
160 182 0
162 185 0
162 183 0
169 190 0
164 185 0
166 189 0
161 182 0
170 191 0
162 183 0
164 188 0
166 185 0
162 183 0
164 184 0
166 189 0
167 190 0
167 189 0
163 183 0
163 184 0
165 187 0
169 191 0
164 184 0
168 190 0
159 179 0
167 188 0
166 187 0
168 190 0
166 189 0
168 190 0
164 185 0
163 186 0
167 189 0
168 189 0
163 184 0
164 187 0
164 186 0
165 186 0
168 190 0
168 190 0
165 188 0
165 186 0
165 187 0
167 189 0
166 187 0
166 190 0
166 189 0
167 188 0
169 190 0
167 190 0
171 194 80
175 197 105
174 197 76
178 200 117
169 192 92
171 195 99
174 197 99
172 195 99
175 199 125
174 197 95
170 193 95
173 196 80
169 193 67
173 197 105
171 195 99
175 198 114
168 192 99
165 187 88
168 192 72
169 191 76
164 187 76
173 195 102
164 187 62
168 191 105
170 194 99
167 190 80
168 191 80
168 191 76
167 191 99
165 189 88
175 199 102
168 191 105
165 188 105
164 187 99
170 194 105
168 191 99
165 188 92
167 190 76
168 191 92
170 193 88
156 179 88
169 192 111
167 190 105
165 188 95
168 192 88
169 192 95
164 186 88
170 193 105
165 188 99
167 190 88
163 185 84
161 183 105
163 185 76
168 190 95
163 185 88
166 188 92
168 192 105
166 188 88
159 181 67
159 181 99
167 189 99
161 183 99
168 190 108
162 184 99
163 186 95
162 184 108
168 190 92
161 184 99
163 185 108
162 185 88
163 185 99
166 188 99
164 186 95
161 183 62
168 190 128
157 178 95
163 185 111
166 186 95
159 180 84
157 179 102
156 178 80
169 191 111
165 187 111
162 183 99
156 177 117
156 177 92
162 184 102
158 178 117
158 179 92
147 169 76
160 180 88
164 185 99
155 176 120
159 180 92
169 189 99
159 180 111
164 184 95
165 185 102
151 171 92
159 180 95
151 171 84
165 185 108
161 180 99
153 173 84
155 176 95
160 179 99
158 177 102
159 178 99
157 178 92
161 180 114
154 173 80
163 181 105
146 167 80
152 172 84
154 174 62
143 165 44
152 174 25
144 166 0
151 173 0
156 178 36
145 167 25
133 155 0
152 174 25
148 169 36
140 160 0
146 168 0
143 164 0
143 165 0
158 179 67
143 164 0
153 174 0
155 177 0
152 174 0
157 178 0
148 171 0
155 177 0
156 179 0
156 178 0
155 177 0
150 172 0
130 151 0
152 173 0
149 171 0
151 172 0
132 154 0
137 158 0
138 160 0
135 156 0
143 164 0
144 165 0
138 159 0
134 156 0
140 161 0
137 157 0
136 155 0
130 151 0
131 151 0
140 161 0
126 147 0
149 171 0
132 152 0
138 159 0
141 163 0
134 155 0
127 146 0
138 158 0
122 142 0
126 145 0
136 156 0
122 142 0
138 159 0
132 152 0
136 156 0
128 148 0
132 153 0
135 155 0
125 146 0
131 152 0
129 149 0
134 153 0
132 153 0
130 151 0
129 151 0
132 154 0
141 162 0
133 152 0
138 158 0
138 159 0
127 145 0
133 154 0
121 142 0
137 157 0
124 145 0
135 156 0
139 160 0
140 161 0
137 156 0
139 159 0
139 159 0
129 149 0
127 147 0
132 152 0
132 152 0
136 155 0
133 154 0
134 154 0
146 167 0
129 149 0
150 171 0
132 153 0
134 154 0
128 148 0
140 160 0
142 164 0
141 161 0
136 157 0
140 161 0
137 158 0
137 158 0
142 161 0
141 162 0
131 152 0
133 154 0
142 162 0
146 168 0
153 175 0
142 164 0
142 162 0
142 164 0
141 161 0
139 161 0
145 166 0
143 164 0
150 173 0
141 162 0
148 171 0
139 161 0
145 167 0
148 170 0
142 163 0
139 160 0
138 160 0
152 173 0
141 162 0
140 161 0
147 169 0
140 160 0
148 169 0
147 168 0
157 179 0
144 166 0
155 176 0
151 173 0
146 167 0
146 167 0
151 173 0
154 175 0
150 172 0
144 167 0
152 174 0
153 174 0
157 178 0
145 166 0
155 178 0
146 168 0
147 168 0
154 175 0
153 174 0
146 168 0
146 167 0
154 176 0
154 175 0
149 170 0
150 172 0
151 172 0
146 167 0
157 180 0
143 164 0
148 171 0
157 180 0
154 175 0
148 169 0
154 176 0
158 178 0
157 179 0
157 179 0
150 171 0
155 176 0
151 172 0
156 177 0
151 172 0
153 174 0
153 174 0
157 180 0
154 175 0
157 177 0
159 181 0
160 182 0
159 180 0
149 170 0
161 182 0
156 180 0
156 178 0
159 178 0
156 178 0
157 177 0
153 175 0
157 178 0
158 179 0
161 183 0
158 181 0
163 184 0
162 185 0
159 181 0
165 187 0
164 187 0
154 176 0
158 180 0
160 184 0
158 179 0
160 182 0
159 180 0
160 183 0
160 180 0
157 179 0
163 184 0
156 179 0
156 175 0
160 183 0
163 185 0
160 182 0
161 183 0
161 182 0
155 176 0
161 182 0
162 184 0
167 190 0
167 190 0
159 180 0
167 190 0
163 185 0
169 190 0
163 185 0
164 187 0
161 184 0
162 186 0
161 183 0
162 185 0
162 183 0
161 183 0
166 188 0
160 181 0
167 189 0
161 182 0
165 188 0
165 186 0
166 187 0
164 187 0
166 188 0
164 185 0
161 183 0
164 186 0
162 184 0
163 184 0
164 186 0
163 185 0
167 189 0
167 188 0
165 187 0
165 186 0
169 192 0
164 188 0
165 187 0
166 188 0
166 190 0
169 191 0
169 192 0
167 189 0
165 188 0
163 185 0
168 190 0
162 184 0
165 186 0
159 181 0
168 189 0
163 185 0
169 192 0
167 190 0
163 187 0
166 189 0
169 191 0
164 185 0
167 188 0
163 184 0
169 191 0
163 185 0
163 185 0
170 190 0
169 191 0
165 188 0
170 193 99
171 194 92
174 197 84
171 193 92
173 195 92
170 194 92
172 195 72
173 195 111
173 196 84
170 193 84
169 192 95
169 192 92
173 196 105
173 196 117
174 197 95
169 193 92
169 193 95
172 196 92
172 195 108
171 194 102
174 197 120
168 191 102
169 192 95
171 194 92
172 196 108
166 188 92
165 187 67
167 191 102
173 196 105
172 195 95
167 191 76
164 188 108
170 194 105
168 192 88
173 195 95
169 191 76
167 189 102
168 191 102
161 183 92
166 189 102
172 195 92
170 192 108
163 186 80
166 188 95
169 192 114
162 185 72
163 187 99
160 183 72
169 192 105
163 185 95
168 191 88
165 188 88
167 190 88
159 181 92
168 191 108
166 189 108
159 182 102
165 187 88
169 191 99
168 190 111
168 191 111
160 183 105
164 186 99
160 181 88
160 183 99
169 191 99
160 182 95
157 179 92
160 182 102
167 189 99
164 185 99
163 185 102
168 190 120
164 186 95
165 187 92
158 180 105
152 174 72
157 178 80
159 180 72
169 191 102
160 182 99
155 176 88
159 180 99
162 183 92
155 177 88
160 180 88
155 177 84
158 179 102
153 175 99
163 184 105
166 187 120
162 183 92
166 188 102
152 174 88
157 178 105
159 179 95
162 182 102
157 178 92
159 179 108
155 175 117
164 185 92
152 174 88
159 180 76
158 179 72
151 173 36
164 185 88
157 178 72
148 169 88
161 181 95
158 178 95
156 177 88
152 172 88
153 173 80
152 173 67
149 169 44
148 169 36
158 179 51
147 169 0
142 162 44
143 164 25
146 167 44
156 177 36
151 172 25
155 176 25
143 165 25
146 169 25
141 163 44
151 172 0
147 169 25
145 167 25
146 169 0
158 181 25
162 186 0
155 176 0
158 181 0
154 176 0
151 171 0
158 180 0
149 171 0
150 172 0
148 170 0
142 163 0
158 180 0
147 169 0
141 161 0
141 161 0
133 154 0
142 164 0
136 157 0
147 168 0
144 166 0
144 165 0
132 153 0
133 154 0
132 154 0
133 152 0
139 159 0
143 163 0
138 159 0
149 169 0
127 147 0
140 161 0
147 168 0
134 155 0
137 158 0
133 153 0
139 160 0
140 160 0
131 152 0
126 146 0
139 160 0
116 136 0
133 154 0
135 156 0
140 161 0
137 158 0
127 147 0
134 154 0
143 164 0
131 151 0
131 152 0
124 146 0
134 154 0
140 160 0
132 152 0
126 146 0
136 157 0
137 157 0
135 155 0
127 149 0
134 156 0
130 150 0
135 156 0
144 167 0
141 162 0
130 151 0
141 162 0
123 144 0
136 156 0
135 156 0
130 149 0
131 150 0
135 156 0
137 158 0
140 161 0
130 151 0
140 162 0
146 168 0
135 156 0
143 164 0
146 166 0
146 168 0
135 155 0
133 154 0
139 159 0
139 161 0
143 164 0
149 170 0
135 156 0
142 162 0
141 163 0
150 171 0
140 161 0
130 152 0
136 157 0
146 168 0
144 167 0
145 167 0
140 162 0
143 165 0
146 167 0
144 166 0
142 162 0
144 167 0
148 169 0
146 167 0
145 165 0
139 160 0
150 171 0
146 167 0
155 176 0
139 161 0
147 168 0
148 170 0
147 167 0
146 168 0
152 174 0
141 164 0
143 164 0
144 164 0
153 174 0
149 170 0
149 170 0
148 170 0
142 163 0
153 175 0
147 168 0
147 168 0
154 177 0
149 171 0
154 176 0
149 171 0
143 165 0
142 162 0
152 174 0
146 168 0
137 159 0
153 175 0
149 170 0
154 176 0
156 178 0
156 176 0
148 170 0
156 178 0
153 174 0
154 176 0
146 168 0
150 172 0
155 177 0
153 175 0
144 165 0
157 179 0
154 175 0
153 176 0
152 173 0
153 172 0
146 167 0
158 181 0
155 176 0
158 181 0
152 172 0
156 177 0
151 172 0
151 172 0
152 174 0
157 178 0
154 174 0
154 175 0
152 175 0
156 178 0
155 177 0
159 181 0
164 187 0
156 177 0
156 176 0
161 183 0
160 180 0
158 180 0
154 175 0
163 184 0
159 182 0
160 182 0
155 178 0
160 182 0
163 185 0
153 173 0
163 184 0
156 178 0
161 181 0
162 185 0
157 179 0
161 182 0
157 177 0
160 182 0
156 177 0
162 183 0
162 184 0
163 185 0
161 184 0
162 184 0
165 187 0
165 187 0
163 184 0
163 184 0
161 183 0
160 182 0
164 185 0
158 180 0
166 187 0
158 180 0
161 182 0
162 184 0
164 184 0
167 189 0
166 188 0
162 183 0
165 188 0
167 190 0
161 183 0
165 186 0
164 185 0
163 185 0
160 182 0
163 185 0
159 181 0
164 186 0
163 185 0
164 186 0
162 184 0
166 189 0
166 188 0
162 185 0
164 184 0
166 187 0
162 183 0
167 188 0
165 186 0
163 185 0
162 184 0
163 184 0
164 186 0
167 190 0
164 186 0
165 186 0
167 188 0
164 185 0
165 187 0
167 188 0
168 190 0
165 188 0
168 191 0
165 188 0
163 185 0
165 186 0
167 190 0
164 186 0
164 187 0
164 186 0
168 190 0
168 190 0
165 186 0
166 187 0
163 185 0
169 191 0
162 184 0
163 186 0
168 190 0
164 187 0
163 184 0
165 186 0
174 197 88
174 197 117
173 196 95
169 192 95
171 194 99
171 194 95
174 197 102
171 193 99
175 197 84
174 198 84
170 193 95
166 189 84
172 195 102
167 190 72
169 192 99
173 197 117
170 193 92
174 197 108
171 194 95
166 188 76
169 192 88
169 192 92
170 193 57
168 192 102
170 193 76
164 187 92
171 194 95
171 194 102
173 198 114
167 190 102
167 190 76
167 190 88
171 194 92
165 187 84
171 193 102
168 191 88
163 187 84
170 194 99
171 195 95
167 189 88
172 196 99
158 180 92
169 191 92
166 189 95
166 189 92
165 188 102
163 185 84
167 190 99
168 191 84
163 185 84
162 185 92
164 187 95
163 186 92
160 182 92
166 188 102
166 188 88
171 194 105
165 187 102
167 188 105
165 187 102
161 183 99
163 185 92
161 182 95
163 186 76
159 182 80
162 183 95
161 182 102
164 187 130
154 176 84
168 190 111
163 185 92
163 185 99
157 178 95
160 182 92
161 183 80
160 182 99
162 183 92
158 180 99
161 182 105
155 176 76
159 181 99
165 187 102
164 186 84
172 193 117
161 182 105
163 184 108
160 181 80
163 184 102
161 182 95
153 174 67
167 187 120
152 173 84
159 179 102
150 171 80
157 177 92
154 174 84
162 182 114
158 179 95
157 177 99
159 180 88
148 169 88
156 177 76
167 188 84
153 173 72
166 185 117
162 183 88
152 173 72
150 170 84
158 179 92
157 178 84
159 178 92
155 176 76
158 179 67
154 175 44
146 167 36
151 172 25
145 167 51
147 169 25
150 172 0
148 169 25
143 164 25
151 172 44
143 165 0
151 172 36
159 181 44
154 177 25
151 172 44
152 174 25
146 169 36
143 164 25
154 177 25
160 181 0
159 182 0
159 182 0
159 182 0
155 178 0
160 182 0
148 171 0
156 179 0
150 172 0
151 173 0
143 164 0
148 170 0
141 162 0
141 162 0
148 170 0
134 155 0
138 159 0
142 165 0
145 166 0
140 161 0
136 157 0
135 155 0
139 161 0
144 165 0
126 147 0
132 152 0
141 162 0
137 157 0
134 154 0
139 159 0
138 158 0
140 161 0
135 155 0
142 163 0
139 160 0
131 151 0
143 164 0
137 158 0
143 165 0
127 148 0
128 148 0
141 162 0
137 158 0
135 155 0
136 158 0
138 159 0
122 143 0
142 163 0
140 161 0
139 159 0
141 161 0
136 157 0
150 170 0
133 153 0
135 156 0
138 160 0
143 163 0
136 157 0
131 153 0
137 158 0
133 155 0
141 162 0
131 152 0
149 171 0
136 157 0
130 152 0
142 163 0
138 158 0
137 158 0
144 166 0
140 161 0
128 150 0
135 157 0
131 152 0
144 165 0
131 152 0
144 166 0
138 159 0
143 164 0
143 164 0
143 164 0
140 160 0
142 164 0
140 163 0
142 163 0
142 163 0
141 161 0
145 166 0
145 166 0
140 161 0
153 173 0
144 165 0
149 169 0
146 166 0
148 169 0
147 167 0
147 168 0
147 169 0
141 163 0
146 169 0
140 162 0
143 163 0
139 160 0
151 172 0
142 162 0
140 161 0
145 167 0
147 168 0
137 159 0
148 168 0
141 162 0
145 165 0
152 173 0
150 172 0
153 175 0
145 167 0
152 175 0
148 169 0
145 167 0
153 174 0
151 173 0
150 172 0
150 170 0
148 169 0
144 165 0
146 166 0
141 161 0
149 170 0
154 176 0
144 166 0
152 174 0
144 166 0
153 174 0
153 174 0
153 174 0
153 174 0
151 172 0
147 167 0
154 176 0
155 178 0
150 171 0
152 174 0
149 169 0
152 174 0
158 180 0
153 172 0
156 178 0
155 177 0
151 173 0
156 178 0
154 177 0
154 176 0
148 170 0
153 176 0
157 178 0
159 181 0
157 180 0
156 178 0
154 175 0
162 184 0
153 174 0
162 183 0
157 179 0
159 181 0
159 181 0
155 178 0
158 180 0
153 175 0
156 177 0
156 177 0
153 176 0
157 179 0
159 182 0
156 177 0
154 176 0
160 181 0
159 182 0
163 186 0
156 178 0
159 182 0
156 177 0
158 180 0
162 184 0
160 183 0
161 181 0
160 179 0
157 177 0
155 177 0
161 182 0
168 191 0
160 181 0
164 184 0
157 180 0
156 178 0
159 180 0
166 187 0
163 185 0
164 186 0
160 183 0
161 183 0
161 183 0
165 187 0
161 184 0
159 180 0
162 184 0
164 186 0
162 184 0
162 183 0
157 179 0
168 189 0
165 187 0
162 183 0
163 185 0
164 187 0
164 185 0
167 189 0
164 186 0
167 188 0
165 187 0
163 185 0
165 187 0
162 183 0
164 186 0
167 189 0
165 188 0
164 187 0
162 184 0
168 190 0
161 183 0
164 186 0
161 183 0
165 188 0
164 187 0
166 188 0
165 186 0
165 187 0
161 184 0
165 187 0
161 182 0
165 187 0
167 189 0
160 181 0
164 187 0
166 188 0
165 187 0
163 185 0
168 190 0
164 184 0
162 182 0
168 190 0
166 188 0
167 190 0
167 190 0
166 187 0
168 190 0
168 190 0
167 190 0
169 193 0
167 190 0
166 188 0
167 189 0
168 190 0
166 187 0
171 194 0
164 185 0
162 185 0
162 184 0
161 183 0
169 191 0
172 195 80
177 199 114
177 200 105
173 196 105
177 199 114
175 197 108
168 191 80
170 194 95
170 194 99
171 193 95
165 188 76
173 196 80
171 193 102
166 189 72
169 192 92
172 195 102
169 192 72
168 191 84
166 189 99
174 196 105
172 195 99
162 184 84
172 195 111
172 195 102
173 195 95
169 192 88
167 189 95
172 196 92
166 189 76
169 192 88
168 191 105
167 190 80
172 195 102
157 181 99
170 193 92
168 191 99
162 186 80
169 192 108
165 188 62
172 194 92
171 194 92
162 186 95
171 195 114
166 189 111
159 182 67
164 187 95
170 193 92
170 194 111
162 184 72
166 188 76
164 187 95
166 187 95
165 188 95
158 181 76
164 186 72
164 186 92
165 187 95
166 188 62
162 185 88
168 191 99
163 186 111
163 185 92
161 183 88
164 186 95
171 193 102
163 185 88
166 189 99
159 181 95
162 184 95
165 186 102
166 188 117
157 179 88
163 184 99
162 184 92
160 183 84
159 181 95
169 190 122
166 187 102
162 184 99
154 175 88
163 185 84
171 194 102
159 181 108
160 181 95
162 183 102
166 187 114
166 187 99
158 179 108
165 186 99
162 182 92
160 181 95
162 184 80
158 179 80
156 176 84
160 180 99
160 180 102
164 184 99
166 186 99
163 183 108
158 178 102
154 175 84
157 177 88
159 179 95
164 186 80
157 178 80
156 177 88
159 179 76
148 169 76
162 182 88
158 179 102
154 175 72
156 176 88
160 182 76
155 176 44
163 185 62
158 180 62
145 166 0
150 171 0
149 170 0
149 170 36
147 169 25
151 172 36
152 174 36
143 164 36
145 167 0
152 174 0
150 172 36
149 170 25
154 176 36
150 172 0
157 179 0
159 181 0
161 184 0
159 181 0
152 175 0
157 179 0
155 177 0
154 176 0
158 180 0
160 182 0
149 171 0
142 164 0
147 169 0
142 164 0
138 159 0
143 164 0
136 158 0
139 161 0
143 164 0
149 170 0
137 158 0
148 170 0
140 162 0
136 157 0
145 165 0
129 149 0
137 158 0
128 149 0
140 160 0
140 161 0
120 140 0
125 146 0
129 150 0
140 160 0
129 149 0
137 158 0
134 155 0
133 153 0
142 163 0
139 161 0
131 150 0
145 166 0
132 152 0
135 155 0
137 158 0
138 160 0
142 164 0
136 156 0
131 151 0
135 156 0
130 151 0
134 156 0
139 160 0
139 160 0
137 159 0
136 157 0
134 155 0
136 157 0
140 160 0
145 167 0
147 169 0
152 174 0
138 159 0
137 159 0
138 159 0
139 160 0
128 147 0
136 157 0
141 161 0
147 168 0
141 161 0
143 164 0
142 162 0
138 159 0
135 156 0
139 159 0
143 164 0
132 153 0
147 169 0
140 161 0
138 158 0
140 162 0
146 168 0
134 155 0
134 154 0
138 159 0
147 169 0
140 160 0
138 160 0
137 158 0
142 164 0
143 164 0
142 165 0
142 163 0
141 162 0
147 168 0
151 173 0
143 164 0
146 167 0
148 170 0
137 157 0
145 166 0
148 171 0
147 169 0
152 175 0
145 166 0
142 165 0
142 163 0
147 168 0
142 163 0
136 156 0
154 177 0
139 160 0
144 165 0
143 165 0
149 171 0
151 172 0
147 168 0
154 176 0
139 161 0
146 169 0
143 165 0
157 179 0
149 169 0
152 174 0
149 170 0
152 173 0
153 174 0
159 181 0
150 172 0
153 173 0
145 165 0
157 179 0
143 165 0
151 171 0
153 176 0
158 180 0
156 179 0
151 173 0
154 176 0
155 178 0
152 174 0
150 172 0
157 179 0
150 171 0
153 175 0
149 170 0
158 180 0
149 170 0
161 182 0
151 174 0
156 178 0
149 171 0
156 177 0
151 173 0
161 181 0
151 173 0
160 183 0
153 175 0
152 174 0
157 178 0
160 182 0
163 185 0
145 167 0
154 175 0
149 171 0
156 177 0
154 176 0
154 176 0
159 180 0
150 171 0
160 182 0
160 182 0
160 182 0
162 184 0
149 170 0
160 184 0
154 175 0
154 176 0
163 185 0
155 178 0
162 185 0
162 185 0
165 187 0
158 180 0
157 180 0
151 173 0
164 185 0
159 180 0
163 185 0
167 190 0
160 182 0
162 184 0
160 182 0
161 183 0
160 181 0
161 184 0
163 186 0
163 184 0
164 185 0
157 178 0
162 184 0
167 189 0
161 185 0
160 181 0
159 180 0
165 187 0
159 180 0
159 180 0
160 182 0
165 186 0
163 184 0
161 183 0
159 182 0
165 186 0
165 188 0
158 181 0
159 182 0
164 184 0
165 189 0
164 186 0
160 181 0
165 186 0
167 189 0
162 184 0
164 186 0
168 190 0
162 183 0
163 185 0
165 186 0
165 186 0
166 188 0
161 182 0
165 187 0
160 182 0
159 179 0
164 187 0
168 190 0
166 187 0
165 187 0
168 191 0
166 190 0
154 176 0
167 189 0
170 191 0
164 186 0
168 191 0
166 188 0
163 184 0
166 188 0
165 188 0
164 187 0
166 187 0
167 189 0
164 186 0
168 190 0
165 187 0
165 186 0
165 187 0
168 189 0
163 185 0
166 186 0
160 181 0
169 192 0
164 185 0
163 185 0
167 189 0
163 185 0
164 186 0
167 190 0
173 196 117
176 198 99
174 197 105
172 195 88
180 202 122
171 195 88
167 189 84
177 200 105
173 197 88
175 198 84
175 198 102
170 193 99
174 197 111
172 196 99
170 193 95
171 194 114
170 192 108
171 194 99
174 197 114
169 192 95
173 197 114
170 194 111
167 192 99
173 196 102
173 196 111
168 191 99
169 193 105
172 195 99
169 191 99
170 193 111
170 192 102
168 191 111
169 192 108
168 190 102
165 187 80
164 187 76
168 191 105
170 194 88
167 190 114
171 193 92
164 187 92
169 191 102
171 194 117
163 186 92
172 195 108
162 184 76
167 190 108
170 192 92
164 186 84
166 188 99
168 191 92
159 181 99
162 183 67
163 185 108
163 186 80
168 190 99
164 187 111
166 188 95
168 190 108
157 180 95
171 193 120
166 189 105
157 180 102
164 187 99
162 183 95
160 182 84
163 185 92
165 187 111
162 184 84
167 188 84
162 184 84
165 187 92
165 186 114
160 182 99
163 185 111
160 181 72
172 193 108
165 187 117
159 181 88
160 182 95
161 183 102
164 186 88
166 187 111
162 183 92
160 181 105
160 181 92
152 173 76
157 178 80
153 174 76
158 177 111
166 186 99
161 182 105
174 194 122
156 178 72
166 186 102
159 180 111
167 186 117
157 177 111
153 174 88
170 191 105
156 177 72
160 180 80
149 171 84
160 181 102
161 182 102
154 175 72
156 177 88
155 175 95
159 179 95
156 176 84
145 165 62
161 183 67
150 171 57
150 171 51
147 168 44
147 168 51
157 178 51
155 176 57
147 167 25
157 179 0
148 171 0
161 183 36
143 165 36
153 176 25
158 180 25
149 171 44
151 173 44
148 171 0
146 169 44
152 174 36
159 181 36
157 179 0
159 182 0
154 177 0
160 183 0
156 179 0
157 179 0
148 171 0
147 168 0
146 168 0
147 169 0
146 169 0
150 172 0
139 161 0
135 156 0
142 165 0
145 165 0
141 162 0
152 172 0
138 160 0
142 163 0
123 144 0
136 157 0
134 155 0
140 161 0
136 156 0
144 164 0
141 162 0
141 161 0
141 162 0
134 155 0
132 153 0
140 160 0
143 164 0
137 158 0
141 162 0
140 160 0
136 157 0
142 163 0
130 151 0
137 158 0
131 151 0
142 162 0
135 155 0
139 160 0
143 164 0
134 155 0
140 161 0
143 164 0
137 159 0
138 158 0
139 160 0
138 158 0
135 155 0
141 163 0
129 150 0
143 164 0
141 162 0
144 165 0
131 152 0
141 162 0
136 157 0
141 160 0
137 157 0
147 167 0
130 151 0
140 162 0
144 165 0
144 165 0
138 159 0
138 158 0
146 168 0
149 169 0
126 147 0
134 154 0
141 162 0
150 171 0
135 157 0
125 147 0
139 160 0
140 161 0
136 157 0
144 166 0
152 174 0
134 154 0
138 161 0
144 167 0
140 160 0
135 156 0
135 155 0
141 160 0
147 168 0
141 162 0
134 154 0
150 171 0
144 166 0
139 159 0
142 163 0
144 166 0
150 172 0
141 162 0
143 163 0
147 167 0
145 166 0
155 177 0
148 169 0
146 168 0
141 162 0
148 170 0
149 171 0
151 173 0
148 170 0
149 170 0
150 172 0
149 170 0
144 167 0
144 165 0
146 168 0
148 168 0
149 171 0
158 182 0
147 169 0
142 164 0
153 176 0
148 169 0
155 176 0
144 165 0
153 175 0
150 170 0
153 174 0
157 181 0
140 161 0
157 179 0
153 174 0
152 174 0
157 179 0
149 170 0
156 179 0
154 177 0
158 180 0
155 176 0
155 177 0
144 167 0
150 171 0
158 178 0
154 176 0
156 179 0
154 177 0
156 178 0
164 186 0
158 180 0
156 179 0
151 172 0
158 178 0
157 179 0
156 177 0
156 178 0
157 179 0
150 172 0
156 179 0
149 170 0
156 178 0
156 178 0
153 173 0
159 181 0
152 173 0
159 182 0
155 178 0
153 176 0
151 173 0
162 183 0
160 181 0
157 178 0
164 186 0
154 175 0
153 175 0
157 179 0
162 186 0
163 186 0
159 182 0
160 183 0
152 172 0
156 179 0
156 178 0
163 184 0
159 180 0
163 185 0
155 177 0
160 182 0
161 183 0
160 182 0
164 185 0
157 178 0
164 186 0
164 186 0
163 184 0
167 189 0
166 190 0
164 185 0
165 186 0
163 186 0
162 183 0
165 188 0
165 187 0
168 190 0
158 178 0
164 186 0
164 186 0
161 184 0
161 182 0
167 189 0
162 185 0
160 180 0
165 189 0
163 185 0
165 187 0
170 193 0
160 182 0
168 189 0
163 186 0
159 180 0
162 184 0
165 186 0
163 186 0
166 189 0
164 187 0
164 186 0
169 192 0
166 187 0
164 187 0
164 186 0
160 179 0
162 183 0
162 185 0
166 188 0
164 187 0
166 189 0
164 186 0
166 190 0
164 185 0
161 183 0
163 187 0
166 188 0
167 188 0
164 186 0
165 186 0
168 189 0
164 187 0
166 188 0
165 186 0
163 184 0
165 187 0
169 191 0
165 186 0
169 192 0
168 190 0
165 188 0
162 184 0
165 187 0
169 190 0
168 190 0
163 185 0
163 185 0
166 189 0
167 190 0
165 187 0
172 194 0
165 186 0
163 186 0
166 188 0
176 199 108
170 193 80
173 196 102
176 199 117
171 193 92
174 197 88
170 193 105
172 195 80
174 196 102
172 195 99
168 191 80
170 192 105
170 193 102
176 199 102
175 197 108
173 196 84
170 192 74
168 191 88
171 194 102
172 195 105
170 193 84
165 188 92
170 193 95
171 195 88
172 194 84
173 196 120
168 191 76
169 193 102
175 197 94
171 194 95
171 194 105
174 196 80
171 195 88
168 191 108
166 189 84
173 196 117
172 195 105
164 188 105
168 190 108
164 188 99
168 191 108
165 187 57
168 190 99
168 190 108
170 192 99
165 188 92
169 192 108
164 187 84
167 190 88
164 186 105
171 194 92
171 194 102
167 190 102
165 188 95
164 187 92
160 183 102
166 187 80
165 188 95
166 189 111
167 190 88
163 185 92
160 182 99
165 187 99
169 191 99
165 186 99
165 188 95
156 177 80
163 186 95
154 176 76
171 193 105
163 184 105
169 191 111
163 185 76
162 184 99
166 188 92
161 183 105
160 182 122
167 188 84
161 182 99
159 180 92
168 188 125
164 186 76
164 185 111
159 180 92
159 180 92
164 184 111
160 180 108
156 177 72
163 184 95
163 184 84
169 189 111
169 190 111
161 182 102
153 174 84
154 175 88
166 186 92
154 175 88
161 182 67
161 182 102
148 169 62
152 174 67
160 181 102
155 176 80
163 183 88
159 180 80
152 172 67
162 182 88
164 185 95
169 188 111
159 179 88
148 168 76
157 177 76
146 167 36
159 180 51
153 174 36
158 179 62
151 173 44
147 168 0
155 177 25
151 173 36
145 167 25
155 175 36
154 175 36
157 179 36
149 171 44
151 174 25
149 171 25
155 178 57
148 170 36
151 173 0
160 182 0
155 177 0
159 182 0
158 182 0
153 176 0
156 179 0
158 181 0
157 179 0
144 166 0
154 178 0
153 174 0
152 173 0
144 164 0
149 170 0
141 164 0
144 165 0
146 168 0
148 169 0
140 160 0
148 169 0
152 173 0
139 161 0
142 162 0
141 161 0
144 166 0
148 167 0
137 159 0
138 159 0
146 166 0
136 158 0
140 161 0
145 166 0
142 163 0
133 152 0
136 158 0
141 161 0
142 163 0
130 150 0
138 159 0
139 160 0
133 154 0
136 158 0
143 164 0
137 158 0
136 156 0
136 157 0
141 162 0
137 157 0
139 160 0
127 149 0
138 159 0
133 153 0
134 156 0
132 152 0
139 160 0
133 153 0
130 150 0
143 164 0
145 165 0
137 157 0
139 160 0
138 159 0
137 159 0
144 165 0
144 165 0
145 166 0
137 159 0
142 163 0
135 157 0
134 155 0
135 157 0
135 156 0
147 167 0
134 154 0
136 157 0
142 163 0
139 159 0
140 161 0
142 164 0
145 167 0
145 167 0
147 169 0
139 159 0
141 161 0
147 169 0
144 165 0
145 166 0
147 168 0
148 168 0
143 165 0
133 153 0
138 159 0
148 169 0
144 166 0
148 170 0
150 171 0
151 174 0
147 168 0
145 167 0
156 177 0
145 167 0
150 172 0
147 169 0
145 168 0
152 173 0
150 173 0
141 162 0
146 168 0
150 171 0
149 172 0
150 172 0
149 172 0
151 174 0
151 173 0
140 161 0
145 166 0
146 168 0
148 170 0
147 169 0
150 171 0
150 172 0
148 169 0
149 171 0
151 173 0
153 175 0
157 178 0
148 169 0
151 172 0
154 175 0
149 171 0
155 177 0
143 164 0
150 172 0
143 163 0
154 175 0
155 177 0
150 171 0
155 177 0
156 179 0
144 166 0
158 180 0
150 171 0
150 171 0
149 171 0
154 176 0
159 182 0
151 172 0
159 181 0
152 173 0
165 186 0
154 176 0
149 171 0
149 168 0
160 182 0
153 174 0
152 172 0
157 178 0
161 183 0
161 183 0
153 175 0
154 177 0
157 177 0
157 178 0
157 179 0
156 177 0
160 182 0
152 173 0
146 167 0
155 177 0
159 180 0
155 178 0
160 182 0
158 179 0
159 182 0
155 178 0
156 179 0
161 181 0
160 180 0
165 186 0
162 184 0
163 185 0
162 183 0
160 183 0
156 177 0
157 179 0
157 179 0
161 183 0
162 183 0
158 179 0
161 182 0
161 184 0
163 186 0
165 187 0
155 177 0
162 183 0
156 179 0
162 184 0
164 185 0
161 183 0
164 187 0
163 185 0
159 183 0
160 182 0
162 185 0
164 188 0
159 181 0
162 184 0
162 184 0
165 186 0
164 187 0
160 182 0
162 184 0
163 184 0
163 186 0
164 185 0
157 180 0
165 187 0
171 192 0
164 185 0
161 184 0
166 188 0
164 186 0
162 184 0
162 184 0
167 189 0
167 189 0
158 180 0
165 187 0
162 184 0
168 190 0
163 185 0
166 187 0
166 189 0
169 191 0
161 182 0
168 189 0
162 183 0
164 187 0
162 184 0
170 193 0
168 190 0
161 183 0
163 184 0
165 186 0
162 183 0
163 184 0
168 190 0
162 183 0
166 187 0
168 191 0
167 189 0
163 186 0
166 189 0
161 183 0
168 189 0
164 186 0
165 187 0
164 185 0
170 191 0
163 184 0
164 185 0
166 188 0
169 191 0
167 190 0
171 193 0
169 192 0
167 189 0
167 189 0
170 193 0
169 190 0
175 198 99
176 199 76
177 199 99
175 198 105
172 195 102
170 192 92
170 191 84
170 193 99
177 200 102
171 193 88
174 197 102
168 191 88
170 194 88
170 194 111
175 198 117
172 194 95
174 196 122
170 192 80
172 196 99
171 195 102
170 193 114
178 201 122
166 189 92
170 193 99
166 188 72
168 190 80
174 197 102
164 187 99
169 192 92
170 194 105
168 190 84
171 194 76
172 194 92
170 193 95
168 191 92
162 185 95
165 189 99
169 192 92
166 189 105
169 192 80
166 188 102
168 191 95
160 183 88
162 186 111
163 185 99
167 188 92
162 184 92
164 187 108
170 192 95
164 186 84
165 188 99
163 185 92
166 187 95
165 187 102
167 189 88
163 185 88
165 188 95
168 191 111
172 193 95
164 186 88
164 187 84
166 189 111
168 190 95
162 185 67
161 183 84
159 181 84
167 189 108
168 189 105
160 182 88
161 183 84
168 190 84
162 184 105
166 187 108
163 186 105
167 189 105
157 178 95
163 184 72
161 182 84
161 182 92
161 182 95
164 185 88
164 185 92
156 178 92
156 177 84
158 180 92
156 177 108
155 176 92
162 183 105
166 187 102
159 179 92
158 179 84
155 175 95
165 185 102
157 177 114
164 185 105
163 183 111
157 177 80
154 176 88
155 176 76
161 182 84
159 179 95
164 185 92
164 185 80
159 179 95
153 174 92
149 169 72
164 185 80
158 178 72
158 178 76
149 169 62
146 167 44
154 175 57
154 175 62
155 176 51
151 173 36
141 162 36
153 175 25
147 169 0
151 173 25
147 169 25
143 164 0
146 169 25
145 166 62
153 175 36
153 175 36
154 176 0
149 171 0
152 174 0
154 175 25
151 173 25
158 180 0
161 183 0
160 182 0
159 182 0
153 175 0
150 173 0
157 179 0
152 175 0
151 174 0
158 181 0
152 173 0
152 173 0
146 167 0
138 159 0
145 167 0
157 179 0
147 167 0
148 170 0
148 170 0
148 168 0
142 164 0
133 154 0
137 158 0
144 165 0
149 170 0
147 168 0
141 162 0
135 157 0
139 161 0
147 168 0
145 166 0
140 162 0
147 167 0
139 160 0
131 151 0
146 166 0
136 157 0
135 156 0
142 163 0
132 152 0
147 168 0
139 159 0
141 163 0
132 153 0
130 152 0
146 168 0
146 167 0
150 171 0
141 162 0
143 164 0
133 153 0
133 154 0
135 155 0
141 162 0
138 159 0
136 156 0
142 163 0
133 154 0
149 170 0
131 152 0
130 150 0
140 161 0
139 160 0
141 161 0
138 159 0
138 160 0
131 152 0
148 168 0
153 174 0
142 162 0
145 167 0
145 167 0
148 168 0
143 165 0
136 157 0
136 157 0
148 169 0
154 176 0
136 157 0
142 163 0
142 165 0
136 158 0
141 162 0
141 164 0
141 163 0
134 156 0
146 169 0
140 162 0
133 154 0
143 164 0
141 162 0
139 161 0
140 160 0
139 160 0
147 169 0
156 178 0
143 163 0
148 171 0
145 167 0
143 164 0
155 177 0
151 172 0
141 162 0
144 166 0
141 162 0
143 164 0
150 172 0
148 169 0
151 174 0
151 172 0
145 167 0
154 175 0
141 161 0
149 172 0
146 168 0
141 162 0
152 174 0
154 176 0
153 174 0
149 171 0
150 172 0
158 180 0
153 175 0
147 168 0
147 168 0
147 167 0
145 167 0
151 173 0
153 175 0
144 165 0
151 173 0
151 172 0
158 180 0
151 173 0
151 173 0
157 179 0
148 171 0
156 177 0
147 168 0
148 169 0
162 185 0
154 175 0
152 173 0
155 176 0
160 182 0
158 180 0
151 172 0
155 176 0
158 179 0
165 186 0
155 178 0
158 180 0
157 180 0
151 173 0
152 174 0
158 179 0
158 180 0
158 179 0
149 171 0
153 175 0
150 172 0
157 176 0
164 186 0
155 178 0
160 184 0
160 182 0
158 180 0
159 180 0
155 177 0
161 184 0
157 180 0
158 180 0
163 186 0
157 178 0
157 178 0
160 182 0
160 181 0
161 184 0
163 186 0
157 181 0
160 180 0
157 179 0
160 182 0
156 177 0
157 179 0
158 180 0
160 183 0
159 181 0
151 174 0
162 184 0
166 188 0
157 178 0
162 184 0
161 181 0
159 181 0
164 187 0
164 187 0
160 182 0
167 188 0
162 184 0
160 181 0
164 186 0
160 182 0
161 184 0
163 184 0
168 191 0
159 181 0
159 181 0
162 184 0
161 183 0
163 186 0
162 185 0
161 183 0
163 184 0
160 182 0
168 190 0
159 181 0
166 188 0
161 182 0
160 182 0
166 187 0
166 188 0
163 186 0
165 186 0
163 185 0
164 186 0
164 187 0
162 185 0
163 184 0
170 192 0
157 179 0
160 181 0
167 189 0
166 189 0
161 183 0
162 184 0
166 189 0
170 192 0
162 184 0
162 183 0
164 185 0
170 192 0
166 187 0
164 186 0
164 186 0
164 185 0
164 187 0
169 190 0
168 190 0
160 182 0
163 185 0
166 189 0
167 189 0
166 189 0
166 188 0
170 193 0
166 187 0
164 187 0
168 191 0
164 188 0
166 188 0
164 188 0
170 191 0
166 189 0
167 190 0
170 193 0
166 188 0
167 190 0
166 188 0
170 191 0
173 195 84
179 201 120
175 198 102
169 192 99
175 197 72
169 191 88
168 191 108
180 202 120
173 196 108
173 196 88
164 187 84
174 196 105
173 195 99
172 195 80
167 191 84
168 191 76
163 186 76
161 184 88
171 194 99
171 194 84
172 195 102
174 196 102
166 189 88
174 196 99
172 196 137
171 194 114
174 197 102
172 195 84
170 193 84
174 196 102
173 196 111
170 192 92
166 189 105
171 193 99
164 188 99
168 191 92
166 189 99
166 188 80
172 195 92
167 189 92
161 183 92
169 191 105
171 194 108
172 195 99
169 192 108
165 187 72
168 190 88
162 185 76
162 185 102
171 194 105
163 186 95
167 189 95
163 185 62
164 187 92
167 190 92
161 184 84
161 182 92
163 185 102
164 186 105
160 183 105
165 187 76
161 184 99
161 184 95
164 186 88
167 189 105
173 195 105
164 187 92
162 184 88
165 186 76
162 184 95
163 185 84
161 182 102
168 190 117
161 183 76
161 183 88
162 183 92
159 180 76
154 175 80
166 188 84
157 177 84
168 189 117
161 183 102
159 179 117
166 187 99
156 176 84
158 179 84
166 187 92
157 179 88
171 191 92
154 175 76
166 185 120
167 187 117
157 178 84
163 184 84
159 179 99
160 180 88
157 178 67
159 180 95
157 177 88
165 186 95
162 184 99
154 174 67
158 177 95
167 188 105
164 184 92
162 184 62
163 183 95
159 179 84
161 182 80
156 176 80
156 178 25
154 175 62
155 176 62
154 176 25
159 180 67
159 180 25
143 165 44
148 171 25
141 162 0
151 172 0
147 169 0
148 169 36
150 171 51
150 172 36
155 177 25
146 167 25
154 174 51
148 170 25
156 178 36
157 180 25
157 179 0
157 181 0
158 181 0
161 183 0
160 182 0
149 171 0
158 180 0
157 180 0
159 183 0
154 176 0
154 176 0
146 169 0
152 173 0
153 174 0
151 173 0
149 171 0
148 169 0
150 171 0
141 163 0
147 168 0
149 170 0
145 166 0
148 168 0
142 163 0
136 157 0
144 165 0
143 164 0
146 167 0
138 160 0
145 166 0
135 156 0
143 165 0
134 154 0
142 163 0
142 162 0
142 163 0
137 158 0
140 161 0
141 163 0
132 153 0
140 161 0
145 167 0
147 168 0
146 168 0
143 165 0
143 163 0
139 159 0
144 166 0
129 151 0
147 168 0
140 161 0
145 166 0
141 163 0
147 167 0
142 163 0
138 159 0
141 162 0
145 166 0
143 163 0
139 160 0
152 173 0
141 163 0
140 161 0
144 165 0
143 163 0
142 162 0
137 158 0
140 161 0
137 158 0
134 156 0
142 162 0
136 157 0
140 161 0
154 175 0
144 165 0
135 156 0
141 162 0
140 162 0
134 156 0
140 161 0
146 167 0
141 161 0
144 165 0
143 164 0
138 159 0
145 166 0
144 167 0
131 153 0
141 162 0
136 158 0
143 163 0
146 167 0
148 170 0
144 164 0
141 162 0
137 159 0
139 160 0
148 170 0
148 170 0
143 164 0
152 174 0
151 172 0
145 167 0
161 183 0
147 168 0
144 165 0
136 157 0
158 180 0
141 162 0
161 183 0
147 168 0
150 173 0
147 169 0
143 163 0
146 168 0
147 169 0
156 179 0
152 174 0
147 168 0
155 176 0
146 167 0
150 172 0
151 173 0
149 171 0
154 175 0
146 169 0
143 163 0
150 173 0
151 174 0
144 166 0
149 170 0
157 179 0
154 176 0
152 172 0
149 171 0
153 174 0
150 172 0
149 171 0
153 175 0
150 172 0
156 179 0
159 182 0
150 172 0
154 176 0
158 180 0
154 177 0
151 173 0
154 176 0
150 172 0
157 179 0
153 175 0
154 176 0
158 180 0
159 182 0
156 177 0
160 182 0
156 178 0
156 178 0
162 184 0
160 184 0
162 184 0
159 181 0
160 181 0
157 179 0
153 176 0
151 173 0
157 179 0
159 181 0
162 183 0
157 178 0
154 176 0
157 179 0
158 181 0
158 180 0
159 180 0
155 176 0
156 179 0
156 177 0
163 184 0
161 183 0
161 183 0
159 181 0
163 184 0
154 175 0
158 180 0
162 184 0
157 178 0
157 179 0
163 185 0
166 188 0
159 183 0
164 187 0
163 185 0
158 180 0
158 180 0
164 186 0
164 184 0
159 181 0
160 182 0
163 187 0
158 180 0
164 186 0
164 185 0
161 183 0
166 188 0
161 183 0
159 182 0
162 183 0
162 184 0
167 189 0
159 180 0
164 186 0
163 183 0
161 184 0
161 182 0
164 187 0
161 182 0
167 189 0
167 190 0
161 183 0
160 182 0
162 185 0
165 186 0
165 188 0
165 186 0
167 189 0
164 187 0
163 186 0
162 184 0
168 189 0
164 186 0
162 184 0
165 186 0
165 186 0
164 185 0
164 185 0
166 188 0
164 186 0
170 192 0
168 192 0
164 188 0
167 189 0
164 186 0
167 189 0
163 185 0
167 190 0
166 187 0
162 183 0
164 186 0
166 188 0
168 189 0
162 186 0
167 190 0
165 188 0
165 186 0
161 182 0
170 191 0
164 187 0
167 188 0
163 183 0
167 190 0
167 189 0
169 189 0
164 186 0
164 186 0
166 189 0
168 189 0
169 190 0
165 186 0
166 190 0
174 197 114
170 192 72
171 193 92
176 198 111
174 198 105
177 199 105
175 198 102
179 201 114
177 199 111
178 201 114
175 197 99
170 192 72
172 195 99
173 195 92
172 194 80
170 193 108
169 192 95
168 191 67
170 192 102
165 188 76
167 190 95
172 194 99
173 195 114
168 192 88
169 192 80
165 188 80
170 194 95
176 199 92
169 191 78
172 195 105
168 191 105
166 189 102
170 192 108
166 190 99
171 194 111
167 189 95
170 192 105
161 184 80
163 185 99
171 193 92
171 193 92
169 192 88
170 192 108
172 194 80
167 190 99
163 186 99
163 186 92
166 189 92
170 193 105
170 192 108
161 183 84
168 191 105
173 194 88
172 194 111
160 182 95
166 188 102
158 180 72
165 187 92
160 182 105
162 185 114
169 192 95
170 193 130
166 188 84
159 181 88
171 194 111
165 187 108
169 191 99
169 190 95
165 187 92
160 182 108
159 181 102
170 191 102
169 191 111
156 178 88
167 188 108
164 186 84
162 183 88
162 183 99
169 190 102
163 184 88
158 179 99
162 184 84
166 188 95
159 181 88
164 185 111
165 186 108
156 177 88
164 184 120
162 183 92
170 191 122
160 181 95
165 185 117
154 174 95
159 179 88
163 185 76
155 176 57
163 184 88
159 180 80
160 181 76
159 179 62
150 171 72
157 179 92
161 181 99
158 179 80
153 173 72
157 177 88
143 164 62
160 181 51
158 179 57
162 182 84
154 175 72
156 178 72
142 163 57
153 174 25
145 166 25
157 179 62
151 173 36
151 174 25
149 171 25
148 171 0
155 177 44
156 179 25
156 178 36
154 175 25
152 174 0
158 179 36
154 175 51
154 177 25
152 173 44
151 173 0
165 187 0
160 184 0
159 183 0
160 183 0
165 186 0
158 181 0
153 175 0
158 181 0
151 174 0
147 168 0
152 175 0
145 167 0
150 172 0
152 174 0
152 174 0
145 166 0
149 170 0
141 162 0
135 156 0
139 161 0
148 169 0
144 165 0
143 164 0
146 167 0
142 163 0
140 161 0
133 155 0
139 160 0
150 171 0
149 170 0
143 164 0
145 166 0
131 151 0
143 164 0
146 167 0
128 150 0
132 153 0
142 163 0
148 169 0
154 175 0
142 163 0
143 164 0
139 161 0
143 164 0
151 172 0
140 162 0
141 163 0
141 163 0
139 159 0
144 165 0
141 162 0
142 162 0
145 165 0
139 160 0
144 165 0
145 166 0
145 166 0
138 159 0
146 168 0
136 159 0
150 172 0
140 161 0
138 160 0
139 161 0
148 170 0
141 162 0
148 170 0
150 172 0
137 158 0
138 159 0
143 164 0
140 161 0
134 155 0
138 159 0
141 162 0
150 171 0
141 162 0
152 174 0
140 162 0
136 159 0
144 167 0
147 167 0
144 166 0
147 169 0
154 174 0
144 165 0
146 168 0
141 162 0
144 165 0
148 169 0
153 175 0
137 159 0
150 171 0
140 162 0
138 159 0
136 158 0
157 179 0
150 171 0
137 157 0
152 173 0
147 168 0
143 163 0
145 166 0
152 172 0
148 170 0
150 171 0
145 166 0
149 172 0
149 171 0
146 168 0
144 167 0
147 169 0
148 170 0
146 167 0
160 182 0
157 179 0
141 163 0
151 172 0
148 171 0
154 175 0
157 179 0
148 169 0
146 167 0
151 173 0
152 174 0
148 171 0
154 177 0
154 176 0
151 173 0
148 171 0
155 177 0
157 179 0
158 179 0
152 174 0
154 177 0
152 174 0
148 170 0
152 174 0
149 171 0
150 172 0
156 178 0
152 174 0
155 176 0
151 172 0
153 173 0
152 174 0
156 179 0
160 183 0
153 175 0
157 178 0
149 171 0
149 169 0
152 175 0
155 176 0
158 179 0
159 181 0
156 177 0
156 179 0
155 176 0
164 188 0
152 173 0
158 180 0
160 182 0
157 180 0
160 183 0
158 180 0
155 177 0
158 181 0
159 181 0
163 186 0
151 174 0
159 181 0
161 183 0
153 175 0
155 177 0
163 184 0
161 183 0
164 187 0
161 183 0
161 185 0
161 183 0
162 185 0
156 180 0
162 184 0
162 183 0
159 181 0
157 178 0
169 190 0
159 181 0
163 186 0
167 189 0
154 175 0
163 185 0
158 179 0
157 179 0
162 184 0
162 184 0
164 186 0
162 184 0
159 181 0
163 184 0
163 185 0
155 177 0
164 185 0
159 181 0
160 181 0
165 188 0
166 189 0
165 187 0
166 188 0
159 181 0
165 188 0
167 189 0
168 190 0
163 185 0
165 187 0
166 188 0
163 184 0
165 188 0
166 189 0
167 189 0
165 188 0
161 184 0
166 187 0
163 185 0
169 191 0
158 181 0
164 186 0
164 187 0
167 189 0
163 186 0
165 188 0
168 190 0
163 185 0
166 189 0
166 187 0
165 188 0
158 181 0
168 191 0
166 188 0
164 186 0
164 186 0
169 191 0
164 185 0
162 185 0
167 189 0
162 184 0
162 185 0
168 190 0
168 190 0
165 188 0
163 185 0
167 189 0
166 188 0
167 189 0
166 187 0
165 186 0
162 184 0
170 192 0
166 189 0
168 190 0
166 187 0
168 191 0
169 191 0
166 188 0
168 190 0
169 190 0
167 189 0
168 193 0
163 184 0
