P3
400 225
255
204 226 255
204 226 255
204 226 255
204 226 255
204 226 255
204 226 255
204 226 255
204 226 255
204 226 255
204 226 255
204 226 255
204 226 255
204 226 255
204 226 255
204 226 255
203 226 255
203 226 255
203 226 255
203 226 255
202 224 255
194 215 255
182 202 255
172 191 255
175 194 255
139 154 255
152 169 255
136 151 255
126 141 255
123 137 255
90 100 255
88 98 255
109 121 255
73 81 255
64 71 255
64 71 255
49 55 255
45 50 255
20 22 255
20 22 255
0 0 255
0 0 255
20 22 255
20 22 255
20 22 255
35 39 255
35 39 255
57 63 255
49 55 255
66 74 255
63 71 254
87 98 255
100 112 255
90 100 255
104 116 255
127 142 255
142 159 255
143 160 255
147 165 255
159 178 255
179 201 255
190 213 255
199 222 255
201 224 255
200 224 255
200 224 255
200 224 255
200 224 255
200 224 255
200 224 255
200 224 255
200 224 255
200 224 255
200 224 255
200 224 255
200 224 255
200 224 255
200 224 255
199 224 255
199 224 255
199 224 255
199 223 255
199 223 255
199 223 255
199 223 255
199 223 255
199 223 255
199 223 255
199 223 255
199 223 255
199 223 255
199 223 255
199 223 255
198 223 255
198 223 255
198 223 255
198 223 255
198 223 255
198 223 255
198 223 255
198 223 255
198 223 255
198 223 255
198 223 255
198 223 255
198 223 255
198 223 255
197 223 255
197 222 255
197 222 255
197 222 255
197 222 255
197 222 255
197 222 255
197 222 255
197 222 255
197 222 255
197 222 255
197 222 255
197 222 255
197 222 255
197 222 255
196 222 255
196 222 255
196 222 255
196 222 255
196 222 255
196 222 255
196 222 255
196 222 255
196 222 255
196 222 255
196 222 255
196 222 255
196 222 255
196 222 255
196 221 255
196 221 255
195 221 255
195 221 255
195 221 255
195 221 255
195 221 255
195 221 255
195 221 255
195 221 255
195 221 255
195 221 255
195 221 255
195 221 255
195 221 255
195 221 255
195 221 255
195 221 255
195 221 255
195 221 255
194 221 255
194 221 255
194 221 255
194 221 255
194 221 255
194 221 255
194 221 255
194 221 255
194 221 255
194 221 255
194 221 255
194 221 255
194 221 255
194 221 255
194 221 255
194 221 255
194 221 255
194 221 255
194 221 255
194 221 255
194 221 255
194 221 255
194 220 255
194 220 255
194 220 255
194 220 255
194 220 255
194 220 255
194 220 255
194 220 255
194 220 255
193 220 255
193 220 255
193 220 255
193 220 255
193 220 255
193 220 255
193 220 255
193 220 255
193 220 255
193 220 255
193 220 255
193 220 255
193 220 255
193 220 255
193 220 255
193 220 255
193 220 255
193 220 255
193 220 255
193 220 255
193 220 255
193 220 255
193 220 255
193 220 255
193 220 255
193 220 255
193 220 255
193 220 255
194 220 255
194 220 255
194 220 255
194 220 255
194 220 255
194 220 255
194 220 255
194 220 255
194 220 255
194 221 255
194 221 255
194 221 255
194 221 255
194 221 255
194 221 255
194 221 255
194 221 255
194 221 255
194 221 255
194 221 255
194 221 255
194 221 255
194 221 255
194 221 255
194 221 255
194 221 255
194 221 255
194 221 255
194 221 255
194 221 255
194 221 255
195 221 255
195 221 255
195 221 255
195 221 255
195 221 255
195 221 255
195 221 255
195 221 255
195 221 255
195 221 255
195 221 255
195 221 255
195 221 255
195 221 255
195 221 255
195 221 255
195 221 255
195 221 255
196 221 255
196 221 255
196 222 255
196 222 255
196 222 255
196 222 255
196 222 255
196 222 255
196 222 255
196 222 255
196 222 255
196 222 255
196 222 255
196 222 255
196 222 255
196 222 255
197 222 255
197 222 255
197 222 255
197 222 255
197 222 255
197 222 255
197 222 255
197 222 255
197 222 255
197 222 255
197 222 255
197 222 255
197 222 255
197 222 255
197 223 255
198 223 255
198 223 255
198 223 255
198 223 255
198 223 255
198 223 255
198 223 255
198 223 255
198 223 255
198 223 255
198 223 255
198 223 255
198 223 255
198 223 255
199 223 255
199 223 255
199 223 255
199 223 255
199 223 255
199 223 255
199 223 255
199 223 255
199 223 255
199 223 255
199 223 255
199 223 255
199 224 255
199 224 255
200 224 255
200 224 255
200 224 255
200 224 255
200 224 255
200 224 255
200 224 255
200 224 255
200 224 255
200 224 255
200 224 255
200 224 255
200 224 255
200 224 255
200 224 255
201 224 255
200 222 253
201 208 237
201 199 227
201 182 207
202 181 206
201 162 184
202 154 175
200 150 171
200 119 135
202 123 140
201 105 120
201 105 120
201 92 105
203 71 80
205 50 57
203 45 51
203 63 72
203 39 44
204 0 0
204 0 0
202 0 0
204 0 0
201 22 25
203 22 25
203 22 25
205 45 51
205 63 72
204 50 57
207 78 88
204 95 108
204 112 128
203 105 120
205 115 130
203 135 153
204 149 169
202 153 173
204 156 177
205 182 206
203 180 204
203 194 220
203 208 236
203 216 245
203 226 255
203 226 255
203 226 255
203 226 255
203 226 255
204 226 255
204 226 255
204 226 255
204 226 255
204 226 255
204 226 255
204 226 255
204 226 255
204 226 255
204 226 255
204 226 255
204 226 255
204 226 255
204 226 255
204 226 255
204 226 255
204 226 255
204 226 255
204 226 255
204 226 255
204 226 255
204 226 255
204 226 255
204 226 255
204 226 255
204 226 255
198 219 255
184 205 255
164 182 255
150 166 255
133 148 255
117 129 255
111 123 255
76 84 255
35 39 255
0 0 255
0 0 255
0 0 255
0 0 255
0 0 255
0 0 255
0 0 255
0 0 255
0 0 255
0 0 255
0 0 255
0 0 255
0 0 255
0 0 255
0 0 255
0 0 255
0 0 255
0 0 255
0 0 255
0 0 255
0 0 255
0 0 255
0 0 255
0 0 255
0 0 255
0 0 255
0 0 255
0 0 255
0 0 255
0 0 255
0 0 255
0 0 255
0 0 255
0 0 255
0 0 255
0 0 255
0 0 255
0 0 255
0 0 255
0 0 255
0 0 255
0 0 255
28 31 255
72 80 255
100 112 255
118 132 255
140 157 255
159 178 255
167 187 255
180 202 255
195 218 255
200 224 255
200 224 255
200 224 255
200 224 255
200 224 255
200 224 255
200 224 255
200 224 255
200 224 255
199 224 255
199 224 255
199 223 255
199 223 255
199 223 255
199 223 255
199 223 255
199 223 255
199 223 255
199 223 255
199 223 255
199 223 255
199 223 255
199 223 255
198 223 255
198 223 255
198 223 255
198 223 255
198 223 255
198 223 255
198 223 255
198 223 255
198 223 255
198 223 255
198 223 255
198 223 255
198 223 255
198 223 255
197 223 255
197 222 255
197 222 255
197 222 255
197 222 255
197 222 255
197 222 255
197 222 255
197 222 255
197 222 255
197 222 255
197 222 255
197 222 255
197 222 255
197 222 255
196 222 255
196 222 255
196 222 255
196 222 255
196 222 255
196 222 255
196 222 255
196 222 255
196 222 255
196 222 255
196 222 255
196 222 255
196 222 255
196 222 255
196 222 255
196 221 255
195 221 255
195 221 255
195 221 255
195 221 255
195 221 255
195 221 255
195 221 255
195 221 255
195 221 255
195 221 255
195 221 255
195 221 255
195 221 255
195 221 255
195 221 255
195 221 255
195 221 255
195 221 255
195 221 255
194 221 255
194 221 255
194 221 255
194 221 255
194 221 255
194 221 255
194 221 255
194 221 255
194 221 255
194 221 255
194 221 255
194 221 255
194 221 255
194 221 255
194 221 255
194 221 255
194 221 255
194 221 255
194 221 255
194 221 255
194 221 255
194 221 255
194 221 255
194 221 255
194 221 255
194 220 255
194 220 255
194 220 255
194 220 255
194 220 255
194 220 255
194 220 255
194 220 255
194 220 255
194 220 255
194 220 255
194 220 255
194 220 255
194 220 255
194 220 255
194 220 255
194 220 255
194 220 255
194 220 255
194 220 255
194 220 255
194 220 255
194 220 255
194 220 255
194 220 255
194 220 255
194 220 255
194 220 255
194 220 255
194 220 255
194 220 255
194 220 255
194 220 255
194 220 255
194 221 255
194 221 255
194 221 255
194 221 255
194 221 255
194 221 255
194 221 255
194 221 255
194 221 255
194 221 255
194 221 255
194 221 255
194 221 255
194 221 255
194 221 255
194 221 255
194 221 255
194 221 255
194 221 255
194 221 255
194 221 255
194 221 255
194 221 255
194 221 255
194 221 255
195 221 255
195 221 255
195 221 255
195 221 255
195 221 255
195 221 255
195 221 255
195 221 255
195 221 255
195 221 255
195 221 255
195 221 255
195 221 255
195 221 255
195 221 255
195 221 255
195 221 255
195 221 255
195 221 255
196 221 255
196 222 255
196 222 255
196 222 255
196 222 255
196 222 255
196 222 255
196 222 255
196 222 255
196 222 255
196 222 255
196 222 255
196 222 255
196 222 255
196 222 255
196 222 255
197 222 255
197 222 255
197 222 255
197 222 255
197 222 255
197 222 255
197 222 255
197 222 255
197 222 255
197 222 255
197 222 255
197 222 255
197 222 255
197 222 255
197 223 255
198 223 255
198 223 255
198 223 255
198 223 255
198 223 255
198 223 255
198 223 255
198 223 255
198 223 255
198 223 255
198 223 255
198 223 255
198 223 255
198 223 255
199 223 255
199 223 255
199 223 255
199 223 255
199 223 255
199 223 255
199 223 255
199 223 255
199 223 255
199 223 255
199 223 255
199 223 255
199 224 255
199 224 255
200 224 255
200 224 255
200 224 255
200 224 255
200 224 255
200 224 255
200 224 255
200 224 255
200 224 255
200 218 249
201 206 236
201 187 214
202 172 196
200 155 177
202 143 163
201 114 130
204 100 114
204 38 44
203 0 0
205 0 0
206 0 0
202 0 0
202 0 0
202 0 0
204 0 0
203 0 0
204 0 0
205 0 0
202 0 0
200 0 0
204 0 0
206 0 0
201 0 0
206 0 0
207 0 0
205 0 0
207 0 0
207 0 0
205 0 0
208 0 0
207 0 0
207 0 0
207 0 0
205 0 0
204 0 0
207 0 0
205 0 0
206 0 0
204 0 0
205 0 0
203 0 0
202 0 0
208 0 0
204 0 0
207 0 0
207 0 0
207 0 0
205 0 0
207 0 0
206 0 0
206 39 44
204 67 76
206 101 114
207 148 167
203 143 161
204 148 167
205 175 198
204 208 236
203 220 249
204 226 255
204 226 255
204 226 255
204 226 255
204 226 255
204 226 255
204 226 255
204 226 255
204 226 255
204 226 255
204 226 255
205 226 255
205 226 255
204 226 255
204 226 255
201 223 255
183 202 255
165 182 255
147 163 255
126 139 255
108 119 255
40 45 255
0 0 255
0 0 255
0 0 255
0 0 255
0 0 255
0 0 255
0 0 255
0 0 255
0 0 255
0 0 255
0 0 255
0 0 255
0 0 255
0 0 255
0 0 255
0 0 255
0 0 255
0 0 255
0 0 255
0 0 255
0 0 255
0 0 255
0 0 255
0 0 255
0 0 255
0 0 255
0 0 255
0 0 255
0 0 255
0 0 255
0 0 255
0 0 255
0 0 255
0 0 255
0 0 255
0 0 255
0 0 255
0 0 255
0 0 255
0 0 255
0 0 255
0 0 255
0 0 255
0 0 255
0 0 255
0 0 255
0 0 255
0 0 255
0 0 255
0 0 255
0 0 254
0 0 255
0 0 255
0 0 255
0 0 255
0 0 255
0 0 255
0 0 255
0 0 254
0 0 255
77 86 255
102 114 255
129 145 255
123 138 255
165 184 255
187 210 255
199 223 255
200 224 255
200 224 255
200 224 255
199 224 255
199 224 255
199 224 255
199 223 255
199 223 255
199 223 255
199 223 255
199 223 255
199 223 255
199 223 255
199 223 255
199 223 255
199 223 255
199 223 255
199 223 255
198 223 255
198 223 255
198 223 255
198 223 255
198 223 255
198 223 255
198 223 255
198 223 255
198 223 255
198 223 255
198 223 255
198 223 255
198 223 255
198 223 255
197 223 255
197 222 255
197 222 255
197 222 255
197 222 255
197 222 255
197 222 255
197 222 255
197 222 255
197 222 255
197 222 255
197 222 255
197 222 255
197 222 255
197 222 255
196 222 255
196 222 255
196 222 255
196 222 255
196 222 255
196 222 255
196 222 255
196 222 255
196 222 255
196 222 255
196 222 255
196 222 255
196 222 255
196 222 255
196 222 255
196 221 255
195 221 255
195 221 255
195 221 255
195 221 255
195 221 255
195 221 255
195 221 255
195 221 255
195 221 255
195 221 255
195 221 255
195 221 255
195 221 255
195 221 255
195 221 255
195 221 255
195 221 255
195 221 255
195 221 255
195 221 255
195 221 255
194 221 255
194 221 255
194 221 255
194 221 255
194 221 255
194 221 255
194 221 255
194 221 255
194 221 255
194 221 255
194 221 255
194 221 255
194 221 255
194 221 255
194 221 255
194 221 255
194 221 255
194 221 255
194 221 255
194 221 255
194 221 255
194 221 255
194 221 255
194 221 255
194 221 255
194 221 255
194 221 255
194 221 255
194 221 255
194 221 255
194 220 255
194 220 255
194 220 255
194 220 255
194 220 255
194 220 255
194 220 255
194 220 255
194 220 255
194 220 255
194 220 255
194 220 255
194 220 255
194 220 255
194 220 255
194 221 255
194 221 255
194 221 255
194 221 255
194 221 255
194 221 255
194 221 255
194 221 255
194 221 255
194 221 255
194 221 255
194 221 255
194 221 255
194 221 255
194 221 255
194 221 255
194 221 255
194 221 255
194 221 255
194 221 255
194 221 255
194 221 255
194 221 255
194 221 255
194 221 255
194 221 255
194 221 255
194 221 255
194 221 255
194 221 255
194 221 255
194 221 255
195 221 255
195 221 255
195 221 255
195 221 255
195 221 255
195 221 255
195 221 255
195 221 255
195 221 255
195 221 255
195 221 255
195 221 255
195 221 255
195 221 255
195 221 255
195 221 255
195 221 255
195 221 255
195 221 255
195 221 255
196 221 255
196 222 255
196 222 255
196 222 255
196 222 255
196 222 255
196 222 255
196 222 255
196 222 255
196 222 255
196 222 255
196 222 255
196 222 255
196 222 255
196 222 255
196 222 255
197 222 255
197 222 255
197 222 255
197 222 255
197 222 255
197 222 255
197 222 255
197 222 255
197 222 255
197 222 255
197 222 255
197 222 255
197 222 255
197 222 255
197 223 255
198 223 255
198 223 255
198 223 255
198 223 255
198 223 255
198 223 255
198 223 255
198 223 255
198 223 255
198 223 255
198 223 255
198 223 255
198 223 255
198 223 255
199 223 255
199 223 255
199 223 255
199 223 255
199 223 255
199 223 255
199 223 255
199 223 255
199 223 255
199 223 255
199 223 255
199 223 255
199 224 255
199 224 255
200 224 255
200 224 255
200 224 255
200 224 255
200 221 253
200 209 238
200 187 214
202 167 191
203 130 149
202 100 114
201 67 76
205 0 0
201 0 0
201 0 0
201 0 0
202 0 0
204 0 0
199 0 0
205 0 0
203 0 0
203 0 0
202 0 0
204 0 0
204 0 0
204 0 0
204 0 0
204 0 0
205 0 0
205 0 0
204 0 0
205 0 0
202 0 0
204 0 0
206 0 0
206 0 0
204 0 0
201 0 0
205 0 0
204 0 0
204 0 0
204 0 0
207 0 0
208 0 0
205 0 0
207 0 0
207 0 0
209 0 0
207 0 0
206 0 0
207 0 0
206 0 0
203 0 0
207 0 0
207 0 0
206 0 0
205 0 0
206 0 0
208 0 0
208 0 0
202 0 0
205 0 0
207 0 0
206 0 0
205 0 0
205 0 0
204 0 0
210 0 0
202 0 0
208 0 0
205 0 0
209 0 0
202 59 67
204 87 99
203 117 133
205 156 177
205 179 203
204 212 240
205 223 252
204 226 255
204 226 255
205 226 255
205 226 255
170 188 255
150 166 255
114 126 255
79 87 255
20 22 255
0 0 255
0 0 255
0 0 255
0 0 255
0 0 255
0 0 255
0 0 255
0 0 255
0 0 255
0 0 255
0 0 255
0 0 255
0 0 255
0 0 255
0 0 255
0 0 255
0 0 255
0 0 255
0 0 255
0 0 255
0 0 255
0 0 255
0 0 255
0 0 255
0 0 255
0 0 255
0 0 255
0 0 255
0 0 254
0 0 255
0 0 255
0 0 255
0 0 255
0 0 255
0 0 255
0 0 255
0 0 255
0 0 255
0 0 255
0 0 255
0 0 255
0 0 255
0 0 255
0 0 255
0 0 255
0 0 255
0 0 255
0 0 255
0 0 255
0 0 255
0 0 255
0 0 255
0 0 255
0 0 254
0 0 254
0 0 253
0 0 255
0 0 253
0 0 255
0 0 254
0 0 255
0 0 255
0 0 255
0 0 254
0 0 255
0 0 254
0 0 255
0 0 254
0 0 255
0 0 255
0 0 255
0 0 255
40 44 255
100 112 253
107 120 255
140 156 255
166 186 254
193 217 255
200 224 255
199 224 255
199 224 255
199 223 255
199 223 255
199 223 255
199 223 255
199 223 255
199 223 255
199 223 255
199 223 255
199 223 255
199 223 255
199 223 255
199 223 255
198 223 255
198 223 255
198 223 255
198 223 255
198 223 255
198 223 255
198 223 255
198 223 255
198 223 255
198 223 255
198 223 255
198 223 255
198 223 255
198 223 255
197 223 255
197 222 255
197 222 255
197 222 255
197 222 255
197 222 255
197 222 255
197 222 255
197 222 255
197 222 255
197 222 255
197 222 255
197 222 255
197 222 255
197 222 255
196 222 255
196 222 255
196 222 255
196 222 255
196 222 255
196 222 255
196 222 255
196 222 255
196 222 255
196 222 255
196 222 255
196 222 255
196 222 255
196 222 255
196 222 255
196 222 255
196 221 255
195 221 255
195 221 255
195 221 255
195 221 255
195 221 255
195 221 255
195 221 255
195 221 255
195 221 255
195 221 255
195 221 255
195 221 255
195 221 255
195 221 255
195 221 255
195 221 255
195 221 255
195 221 255
195 221 255
195 221 255
195 221 255
194 221 255
194 221 255
194 221 255
194 221 255
194 221 255
194 221 255
194 221 255
194 221 255
194 221 255
194 221 255
194 221 255
194 221 255
194 221 255
194 221 255
194 221 255
194 221 255
194 221 255
194 221 255
194 221 255
194 221 255
194 221 255
194 221 255
194 221 255
194 221 255
194 221 255
194 221 255
194 221 255
194 221 255
194 221 255
194 221 255
194 221 255
194 221 255
194 221 255
194 221 255
194 221 255
194 221 255
194 221 255
194 221 255
194 221 255
194 221 255
194 221 255
194 221 255
194 221 255
194 221 255
194 221 255
194 221 255
194 221 255
194 221 255
194 221 255
194 221 255
194 221 255
194 221 255
194 221 255
194 221 255
194 221 255
194 221 255
194 221 255
194 221 255
194 221 255
194 221 255
194 221 255
194 221 255
194 221 255
194 221 255
194 221 255
194 221 255
194 221 255
194 221 255
194 221 255
194 221 255
195 221 255
195 221 255
195 221 255
195 221 255
195 221 255
195 221 255
195 221 255
195 221 255
195 221 255
195 221 255
195 221 255
195 221 255
195 221 255
195 221 255
195 221 255
195 221 255
195 221 255
195 221 255
195 221 255
195 221 255
195 221 255
196 221 255
196 222 255
196 222 255
196 222 255
196 222 255
196 222 255
196 222 255
196 222 255
196 222 255
196 222 255
196 222 255
196 222 255
196 222 255
196 222 255
196 222 255
196 222 255
196 222 255
197 222 255
197 222 255
197 222 255
197 222 255
197 222 255
197 222 255
197 222 255
197 222 255
197 222 255
197 222 255
197 222 255
197 222 255
197 222 255
197 222 255
197 223 255
198 223 255
198 223 255
198 223 255
198 223 255
198 223 255
198 223 255
198 223 255
198 223 255
198 223 255
198 223 255
198 223 255
198 223 255
198 223 255
198 223 255
199 223 255
199 223 255
199 223 255
199 223 255
199 223 255
199 223 255
199 223 255
199 223 255
199 223 255
199 223 255
199 223 255
199 223 255
199 224 255
199 224 255
200 224 255
200 214 245
200 197 226
199 170 194
199 132 151
204 83 95
201 38 44
203 0 0
202 0 0
203 0 0
204 0 0
203 0 0
204 0 0
203 0 0
204 0 0
206 0 0
201 0 0
203 0 0
205 0 0
205 0 0
202 0 0
204 0 0
207 0 0
203 0 0
202 0 0
203 0 0
205 0 0
202 0 0
206 0 0
206 0 0
202 0 0
206 0 0
206 0 0
207 0 0
203 0 0
205 0 0
207 0 0
207 0 0
207 0 0
207 0 0
206 0 0
206 0 0
205 0 0
205 0 0
207 0 0
203 0 0
207 0 0
205 0 0
205 0 0
208 0 0
207 0 0
203 0 0
206 0 0
206 0 0
204 0 0
206 0 0
204 0 0
207 0 0
208 0 0
205 0 0
207 0 0
206 0 0
206 0 0
207 0 0
206 0 0
206 0 0
206 0 0
204 0 0
205 0 0
208 0 0
210 0 0
207 0 0
206 0 0
208 0 0
206 0 0
206 0 0
206 0 0
204 0 0
205 0 0
207 22 25
206 87 99
206 130 147
206 137 155
206 184 207
0 0 255
0 0 255
0 0 255
0 0 255
0 0 255
0 0 255
0 0 255
0 0 255
0 0 255
0 0 255
0 0 255
0 0 255
0 0 255
0 0 255
0 0 255
0 0 255
0 0 255
0 0 255
0 0 255
0 0 255
0 0 255
0 0 255
0 0 255
0 0 255
0 0 255
0 0 255
0 0 255
0 0 255
0 0 255
0 0 255
0 0 255
0 0 255
0 0 255
0 0 255
0 0 255
0 0 255
0 0 255
0 0 255
0 0 255
0 0 255
0 0 255
0 0 255
0 0 255
0 0 255
0 0 255
0 0 255
0 0 255
0 0 255
0 0 255
0 0 255
0 0 255
0 0 255
0 0 254
0 0 255
0 0 255
0 0 255
0 0 254
0 0 255
0 0 255
0 0 255
0 0 254
0 0 255
0 0 255
0 0 254
0 0 254
0 0 255
0 0 255
0 0 255
0 0 254
0 0 255
0 0 255
0 0 255
0 0 255
0 0 255
0 0 255
0 0 255
0 0 255
0 0 255
0 0 254
0 0 252
0 0 254
0 0 255
0 0 254
63 70 255
97 109 255
137 153 255
169 190 255
191 214 255
199 223 255
199 223 255
199 223 255
199 223 255
199 223 255
199 223 255
199 223 255
199 223 255
199 223 255
199 223 255
199 223 255
199 223 255
198 223 255
198 223 255
198 223 255
198 223 255
198 223 255
198 223 255
198 223 255
198 223 255
198 223 255
198 223 255
198 223 255
198 223 255
198 223 255
198 223 255
197 223 255
197 222 255
197 222 255
197 222 255
197 222 255
197 222 255
197 222 255
197 222 255
197 222 255
197 222 255
197 222 255
197 222 255
197 222 255
197 222 255
197 222 255
197 222 255
196 222 255
196 222 255
196 222 255
196 222 255
196 222 255
196 222 255
196 222 255
196 222 255
196 222 255
196 222 255
196 222 255
196 222 255
196 222 255
196 222 255
196 222 255
196 221 255
196 221 255
195 221 255
195 221 255
195 221 255
195 221 255
195 221 255
195 221 255
195 221 255
195 221 255
195 221 255
195 221 255
195 221 255
195 221 255
195 221 255
195 221 255
195 221 255
195 221 255
195 221 255
195 221 255
195 221 255
195 221 255
195 221 255
195 221 255
194 221 255
194 221 255
194 221 255
194 221 255
194 221 255
194 221 255
194 221 255
194 221 255
194 221 255
194 221 255
194 221 255
194 221 255
194 221 255
194 221 255
194 221 255
194 221 255
194 221 255
194 221 255
194 221 255
194 221 255
194 221 255
194 221 255
194 221 255
194 221 255
194 221 255
194 221 255
194 221 255
194 221 255
194 221 255
194 221 255
194 221 255
194 221 255
194 221 255
194 221 255
194 221 255
194 221 255
194 221 255
194 221 255
194 221 255
194 221 255
194 221 255
194 221 255
194 221 255
194 221 255
194 221 255
194 221 255
194 221 255
194 221 255
194 221 255
194 221 255
194 221 255
194 221 255
194 221 255
194 221 255
194 221 255
194 221 255
194 221 255
194 221 255
194 221 255
194 221 255
194 221 255
194 221 255
195 221 255
195 221 255
195 221 255
195 221 255
195 221 255
195 221 255
195 221 255
195 221 255
195 221 255
195 221 255
195 221 255
195 221 255
195 221 255
195 221 255
195 221 255
195 221 255
195 221 255
195 221 255
195 221 255
195 221 255
195 221 255
195 221 255
196 221 255
196 221 255
196 222 255
196 222 255
196 222 255
196 222 255
196 222 255
196 222 255
196 222 255
196 222 255
196 222 255
196 222 255
196 222 255
196 222 255
196 222 255
196 222 255
196 222 255
197 222 255
197 222 255
197 222 255
197 222 255
197 222 255
197 222 255
197 222 255
197 222 255
197 222 255
197 222 255
197 222 255
197 222 255
197 222 255
197 222 255
197 222 255
197 223 255
198 223 255
198 223 255
198 223 255
198 223 255
198 223 255
198 223 255
198 223 255
198 223 255
198 223 255
198 223 255
198 223 255
198 223 255
198 223 255
198 223 255
199 223 255
199 223 255
199 223 255
199 223 255
199 223 255
199 223 255
199 223 255
199 223 255
199 223 255
199 223 255
199 223 255
199 223 255
200 214 245
199 194 221
201 170 194
202 126 144
200 70 80
203 0 0
200 0 0
201 0 0
201 0 0
203 0 0
203 0 0
204 0 0
206 0 0
204 0 0
205 0 0
205 0 0
204 0 0
204 0 0
205 0 0
204 0 0
202 0 0
204 0 0
204 0 0
205 0 0
203 0 0
205 0 0
204 0 0
204 0 0
204 0 0
202 0 0
203 0 0
205 0 0
203 0 0
209 0 0
205 0 0
206 0 0
201 0 0
207 0 0
208 0 0
205 0 0
203 0 0
208 0 0
207 0 0
205 0 0
205 0 0
203 0 0
203 0 0
204 0 0
205 0 0
204 0 0
206 0 0
205 0 0
207 0 0
206 0 0
204 0 0
205 0 0
206 0 0
206 0 0
204 0 0
209 0 0
210 0 0
207 0 0
208 0 0
206 0 0
207 0 0
208 0 0
206 0 0
206 0 0
207 0 0
208 0 0
205 0 0
205 0 0
207 0 0
210 0 0
205 0 0
209 0 0
208 0 0
206 0 0
205 0 0
206 0 0
207 0 0
204 0 0
205 0 0
205 0 0
206 0 0
206 0 0
204 0 0
206 0 0
0 0 255
0 0 255
0 0 255
0 0 255
0 0 255
0 0 255
0 0 255
0 0 255
0 0 255
0 0 255
0 0 255
0 0 255
0 0 255
0 0 255
0 0 255
0 0 255
0 0 255
0 0 255
0 0 255
0 0 255
0 0 255
0 0 255
0 0 255
0 0 255
0 0 255
0 0 255
0 0 255
0 0 255
0 0 255
0 0 255
0 0 255
0 0 255
0 0 255
0 0 255
0 0 255
0 0 255
0 0 255
0 0 255
0 0 255
0 0 255
0 0 254
0 0 255
0 0 255
0 0 253
0 0 255
0 0 255
0 0 255
0 0 255
0 0 255
0 0 255
0 0 254
0 0 255
0 0 255
0 0 255
0 0 254
0 0 255
0 0 255
0 0 255
0 0 255
0 0 255
0 0 254
0 0 255
0 0 255
0 0 254
0 0 255
0 0 255
0 0 254
0 0 255
0 0 255
0 0 253
0 0 255
0 0 255
0 0 255
0 0 255
0 0 254
0 0 255
0 0 255
0 0 255
0 0 255
0 0 254
0 0 254
0 0 254
0 0 255
0 0 254
0 0 255
0 0 255
0 0 253
0 0 255
52 59 254
134 150 253
157 176 255
180 202 254
199 223 255
199 223 255
199 223 255
199 223 255
199 223 255
199 223 255
199 223 255
199 223 255
199 223 255
199 223 255
198 223 255
198 223 255
198 223 255
198 223 255
198 223 255
198 223 255
198 223 255
198 223 255
198 223 255
198 223 255
198 223 255
198 223 255
198 223 255
198 223 255
198 223 255
197 222 255
197 222 255
197 222 255
197 222 255
197 222 255
197 222 255
197 222 255
197 222 255
197 222 255
197 222 255
197 222 255
197 222 255
197 222 255
197 222 255
197 222 255
196 222 255
196 222 255
196 222 255
196 222 255
196 222 255
196 222 255
196 222 255
196 222 255
196 222 255
196 222 255
196 222 255
196 222 255
196 222 255
196 222 255
196 222 255
196 222 255
196 221 255
195 221 255
195 221 255
195 221 255
195 221 255
195 221 255
195 221 255
195 221 255
195 221 255
195 221 255
195 221 255
195 221 255
195 221 255
195 221 255
195 221 255
195 221 255
195 221 255
195 221 255
195 221 255
195 221 255
195 221 255
195 221 255
195 221 255
195 221 255
195 221 255
194 221 255
194 221 255
194 221 255
194 221 255
194 221 255
194 221 255
194 221 255
194 221 255
194 221 255
194 221 255
194 221 255
194 221 255
194 221 255
194 221 255
194 221 255
194 221 255
194 221 255
194 221 255
194 221 255
194 221 255
194 221 255
194 221 255
194 221 255
194 221 255
194 221 255
194 221 255
194 221 255
194 221 255
194 221 255
194 221 255
194 221 255
194 221 255
194 221 255
194 221 255
194 221 255
194 221 255
194 221 255
194 221 255
194 221 255
194 221 255
194 221 255
194 221 255
194 221 255
194 221 255
194 221 255
194 221 255
194 221 255
194 221 255
194 221 255
194 221 255
194 221 255
194 221 255
194 221 255
194 221 255
195 221 255
195 221 255
195 221 255
195 221 255
195 221 255
195 221 255
195 221 255
195 221 255
195 221 255
195 221 255
195 221 255
195 221 255
195 221 255
195 221 255
195 221 255
195 221 255
195 221 255
195 221 255
195 221 255
195 221 255
195 221 255
195 221 255
195 221 255
195 221 255
196 221 255
196 222 255
196 222 255
196 222 255
196 222 255
196 222 255
196 222 255
196 222 255
196 222 255
196 222 255
196 222 255
196 222 255
196 222 255
196 222 255
196 222 255
196 222 255
196 222 255
197 222 255
197 222 255
197 222 255
197 222 255
197 222 255
197 222 255
197 222 255
197 222 255
197 222 255
197 222 255
197 222 255
197 222 255
197 222 255
197 222 255
197 222 255
198 223 255
198 223 255
198 223 255
198 223 255
198 223 255
198 223 255
198 223 255
198 223 255
198 223 255
198 223 255
198 223 255
198 223 255
198 223 255
198 223 255
198 223 255
199 223 255
199 223 255
199 223 255
199 223 255
199 223 255
199 223 255
199 223 255
199 223 255
199 223 255
199 223 255
200 205 234
199 167 191
200 146 167
199 83 95
205 0 0
201 0 0
200 0 0
201 0 0
202 0 0
201 0 0
202 0 0
203 0 0
204 0 0
206 0 0
204 0 0
205 0 0
202 0 0
201 0 0
204 0 0
203 0 0
208 0 0
205 0 0
205 0 0
201 0 0
203 0 0
205 0 0
204 0 0
206 0 0
207 0 0
207 0 0
207 0 0
203 0 0
204 0 0
204 0 0
204 0 0
206 0 0
207 0 0
205 0 0
206 0 0
204 0 0
204 0 0
206 0 0
206 0 0
208 0 0
208 0 0
207 0 0
209 0 0
206 0 0
207 0 0
204 0 0
207 0 0
205 0 0
207 0 0
206 0 0
206 0 0
205 0 0
205 0 0
206 0 0
209 0 0
209 0 0
206 0 0
207 0 0
204 0 0
205 0 0
208 0 0
205 0 0
208 0 0
208 0 0
207 0 0
208 0 0
207 0 0
208 0 0
203 0 0
206 0 0
208 0 0
206 0 0
207 0 0
209 0 0
207 0 0
207 0 0
205 0 0
209 0 0
208 0 0
210 0 0
209 0 0
204 0 0
205 0 0
208 0 0
205 0 0
209 0 0
208 0 0
207 0 0
0 0 255
0 0 255
0 0 255
0 0 255
0 0 255
0 0 255
0 0 255
0 0 255
0 0 255
0 0 255
0 0 255
0 0 255
0 0 255
0 0 255
0 0 255
0 0 254
0 0 255
0 0 255
0 0 255
0 0 255
0 0 255
0 0 255
0 0 255
0 0 255
0 0 255
0 0 255
0 0 255
0 0 255
0 0 255
0 0 255
0 0 255
0 0 255
0 0 254
0 0 255
0 0 255
0 0 255
0 0 255
0 0 255
0 0 255
0 0 255
0 0 255
0 0 255
0 0 255
0 0 255
0 0 255
0 0 255
0 0 255
0 0 255
0 0 255
0 0 255
0 0 255
0 0 255
0 0 255
0 0 253
0 0 254
0 0 255
0 0 255
0 0 255
0 0 254
0 0 255
0 0 255
0 0 254
0 0 255
0 0 254
0 0 254
0 0 254
0 0 255
0 0 254
0 0 255
0 0 254
0 0 255
0 0 255
0 0 254
0 0 254
0 0 255
0 0 254
0 0 254
0 0 255
0 0 255
0 0 255
0 0 255
0 0 254
0 0 255
0 0 255
0 0 255
0 0 255
0 0 255
0 0 255
0 0 255
0 0 253
0 0 255
0 0 255
39 44 255
119 134 255
152 170 255
187 210 255
199 223 255
199 223 255
199 223 255
199 223 255
199 223 255
199 223 255
199 223 255
199 223 255
198 223 255
198 223 255
198 223 255
198 223 255
198 223 255
198 223 255
198 223 255
198 223 255
198 223 255
198 223 255
198 223 255
198 223 255
198 223 255
198 223 255
198 223 255
197 222 255
197 222 255
197 222 255
197 222 255
197 222 255
197 222 255
197 222 255
197 222 255
197 222 255
197 222 255
197 222 255
197 222 255
197 222 255
197 222 255
197 222 255
196 222 255
196 222 255
196 222 255
196 222 255
196 222 255
196 222 255
196 222 255
196 222 255
196 222 255
196 222 255
196 222 255
196 222 255
196 222 255
196 222 255
196 222 255
196 222 255
196 222 255
196 221 255
195 221 255
195 221 255
195 221 255
195 221 255
195 221 255
195 221 255
195 221 255
195 221 255
195 221 255
195 221 255
195 221 255
195 221 255
195 221 255
195 221 255
195 221 255
195 221 255
195 221 255
195 221 255
195 221 255
195 221 255
195 221 255
195 221 255
195 221 255
195 221 255
195 221 255
195 221 255
194 221 255
194 221 255
194 221 255
194 221 255
194 221 255
194 221 255
194 221 255
194 221 255
194 221 255
194 221 255
194 221 255
194 221 255
194 221 255
194 221 255
194 221 255
194 221 255
194 221 255
194 221 255
194 221 255
194 221 255
194 221 255
194 221 255
194 221 255
194 221 255
194 221 255
194 221 255
194 221 255
194 221 255
194 221 255
194 221 255
194 221 255
194 221 255
194 221 255
194 221 255
194 221 255
194 221 255
194 221 255
194 221 255
194 221 255
194 221 255
194 221 255
194 221 255
194 221 255
194 221 255
195 221 255
195 221 255
195 221 255
195 221 255
195 221 255
195 221 255
195 221 255
195 221 255
195 221 255
195 221 255
195 221 255
195 221 255
195 221 255
195 221 255
195 221 255
195 221 255
195 221 255
195 221 255
195 221 255
195 221 255
195 221 255
195 221 255
195 221 255
195 221 255
195 221 255
195 221 255
196 221 255
196 222 255
196 222 255
196 222 255
196 222 255
196 222 255
196 222 255
196 222 255
196 222 255
196 222 255
196 222 255
196 222 255
196 222 255
196 222 255
196 222 255
196 222 255
196 222 255
196 222 255
197 222 255
197 222 255
197 222 255
197 222 255
197 222 255
197 222 255
197 222 255
197 222 255
197 222 255
197 222 255
197 222 255
197 222 255
197 222 255
197 222 255
197 222 255
198 223 255
198 223 255
198 223 255
198 223 255
198 223 255
198 223 255
198 223 255
198 223 255
198 223 255
198 223 255
198 223 255
198 223 255
198 223 255
198 223 255
198 223 255
199 223 255
199 223 255
199 223 255
199 223 255
199 223 255
199 223 255
199 223 255
199 223 255
200 201 230
199 167 191
203 128 147
201 70 80
201 0 0
199 0 0
202 0 0
203 0 0
203 0 0
204 0 0
201 0 0
205 0 0
201 0 0
205 0 0
205 0 0
202 0 0
199 0 0
201 0 0
205 0 0
201 0 0
202 0 0
201 0 0
205 0 0
205 0 0
206 0 0
207 0 0
204 0 0
204 0 0
203 0 0
207 0 0
204 0 0
205 0 0
206 0 0
202 0 0
205 0 0
207 0 0
204 0 0
202 0 0
207 0 0
206 0 0
206 0 0
208 0 0
206 0 0
205 0 0
208 0 0
204 0 0
207 0 0
206 0 0
207 0 0
209 0 0
205 0 0
206 0 0
208 0 0
207 0 0
207 0 0
204 0 0
209 0 0
211 0 0
207 0 0
205 0 0
205 0 0
206 0 0
206 0 0
206 0 0
204 0 0
208 0 0
207 0 0
205 0 0
208 0 0
208 0 0
207 0 0
206 0 0
209 0 0
208 0 0
210 0 0
206 0 0
207 0 0
205 0 0
205 0 0
206 0 0
207 0 0
209 0 0
208 0 0
205 0 0
206 0 0
207 0 0
205 0 0
207 0 0
205 0 0
209 0 0
209 0 0
206 0 0
207 0 0
207 0 0
206 0 0
209 0 0
0 0 255
0 0 255
0 0 255
0 0 255
0 0 255
0 0 255
0 0 255
0 0 255
0 0 255
0 0 255
0 0 255
0 0 255
0 0 255
0 0 255
0 0 255
0 0 255
0 0 255
0 0 255
0 0 255
0 0 255
0 0 255
0 0 255
0 0 255
0 0 255
0 0 255
0 0 254
0 0 255
0 0 255
0 0 255
0 0 255
0 0 255
0 0 255
0 0 255
0 0 255
0 0 255
0 0 254
0 0 255
0 0 254
0 0 254
0 0 255
0 0 255
0 0 255
0 0 255
0 0 254
0 0 255
0 0 255
0 0 255
0 0 255
0 0 255
0 0 255
0 0 255
0 0 255
0 0 255
0 0 255
0 0 253
0 0 255
0 0 255
0 0 254
0 0 255
0 0 255
0 0 254
0 0 255
0 0 254
0 0 253
0 0 254
0 0 254
0 0 254
0 0 255
0 0 254
0 0 253
0 0 255
0 0 255
0 0 253
0 0 255
0 0 255
0 0 254
0 0 255
0 0 255
0 0 255
0 0 255
0 0 255
0 0 254
0 0 255
0 0 255
0 0 253
0 0 254
0 0 255
0 0 255
0 0 255
0 0 254
0 0 255
0 0 254
0 0 254
0 0 253
0 0 255
0 0 255
74 83 254
124 139 255
150 168 255
189 212 254
199 223 255
199 223 255
199 223 255
199 223 255
199 223 255
199 223 255
198 223 255
198 223 255
198 223 255
198 223 255
198 223 255
198 223 255
198 223 255
198 223 255
198 223 255
198 223 255
198 223 255
198 223 255
198 223 255
198 223 255
198 223 255
197 223 255
197 222 255
197 222 255
197 222 255
197 222 255
197 222 255
197 222 255
197 222 255
197 222 255
197 222 255
197 222 255
197 222 255
197 222 255
197 222 255
197 222 255
197 222 255
196 222 255
196 222 255
196 222 255
196 222 255
196 222 255
196 222 255
196 222 255
196 222 255
196 222 255
196 222 255
196 222 255
196 222 255
196 222 255
196 222 255
196 222 255
196 222 255
196 221 255
196 221 255
195 221 255
195 221 255
195 221 255
195 221 255
195 221 255
195 221 255
195 221 255
195 221 255
195 221 255
195 221 255
195 221 255
195 221 255
195 221 255
195 221 255
195 221 255
195 221 255
195 221 255
195 221 255
195 221 255
195 221 255
195 221 255
195 221 255
195 221 255
195 221 255
195 221 255
195 221 255
195 221 255
195 221 255
195 221 255
195 221 255
194 221 255
194 221 255
194 221 255
194 221 255
194 221 255
194 221 255
194 221 255
194 221 255
194 221 255
194 221 255
194 221 255
194 221 255
194 221 255
194 221 255
194 221 255
194 221 255
194 221 255
194 221 255
194 221 255
194 221 255
194 221 255
194 221 255
194 221 255
194 221 255
194 221 255
194 221 255
194 221 255
194 221 255
194 221 255
194 221 255
195 221 255
195 221 255
195 221 255
195 221 255
195 221 255
195 221 255
195 221 255
195 221 255
195 221 255
195 221 255
195 221 255
195 221 255
195 221 255
195 221 255
195 221 255
195 221 255
195 221 255
195 221 255
195 221 255
195 221 255
195 221 255
195 221 255
195 221 255
195 221 255
195 221 255
195 221 255
195 221 255
195 221 255
195 221 255
195 221 255
196 221 255
196 221 255
196 222 255
196 222 255
196 222 255
196 222 255
196 222 255
196 222 255
196 222 255
196 222 255
196 222 255
196 222 255
196 222 255
196 222 255
196 222 255
196 222 255
196 222 255
196 222 255
197 222 255
197 222 255
197 222 255
197 222 255
197 222 255
197 222 255
197 222 255
197 222 255
197 222 255
197 222 255
197 222 255
197 222 255
197 222 255
197 222 255
197 222 255
197 223 255
198 223 255
198 223 255
198 223 255
198 223 255
198 223 255
198 223 255
198 223 255
198 223 255
198 223 255
198 223 255
198 223 255
198 223 255
198 223 255
198 223 255
198 223 255
199 223 255
199 223 255
199 223 255
199 223 255
199 223 255
199 223 255
200 211 241
200 171 196
199 151 173
198 67 76
198 0 0
201 0 0
202 0 0
199 0 0
204 0 0
201 0 0
204 0 0
202 0 0
202 0 0
200 0 0
203 0 0
204 0 0
202 0 0
202 0 0
202 0 0
203 0 0
202 0 0
206 0 0
205 0 0
203 0 0
204 0 0
205 0 0
202 0 0
206 0 0
202 0 0
209 0 0
202 0 0
207 0 0
204 0 0
208 0 0
205 0 0
202 0 0
205 0 0
205 0 0
202 0 0
206 0 0
206 0 0
206 0 0
207 0 0
204 0 0
204 0 0
205 0 0
209 0 0
209 0 0
205 0 0
206 0 0
206 0 0
205 0 0
206 0 0
207 0 0
204 0 0
206 0 0
207 0 0
207 0 0
205 0 0
207 0 0
207 0 0
207 0 0
206 0 0
209 0 0
208 0 0
205 0 0
204 0 0
209 0 0
209 0 0
206 0 0
206 0 0
206 0 0
209 0 0
208 0 0
207 0 0
207 0 0
206 0 0
211 0 0
209 0 0
207 0 0
207 0 0
208 0 0
204 0 0
209 0 0
212 0 0
207 0 0
208 0 0
207 0 0
207 0 0
208 0 0
209 0 0
207 0 0
205 0 0
208 0 0
205 0 0
207 0 0
209 0 0
207 0 0
211 0 0
208 0 0
0 0 255
0 0 255
0 0 255
0 0 255
0 0 255
0 0 255
0 0 255
0 0 255
0 0 255
0 0 255
0 0 255
0 0 255
0 0 255
0 0 255
0 0 255
0 0 255
0 0 255
0 0 255
0 0 255
0 0 255
0 0 255
0 0 255
0 0 255
0 0 255
0 0 255
0 0 255
0 0 255
0 0 255
0 0 255
0 0 254
0 0 255
0 0 255
0 0 254
0 0 255
0 0 255
0 0 255
0 0 255
0 0 255
0 0 253
0 0 255
0 0 255
0 0 255
0 0 254
0 0 254
0 0 255
0 0 255
0 0 255
0 0 255
0 0 255
0 0 255
0 0 255
0 0 255
0 0 255
0 0 255
0 0 254
0 0 255
0 0 255
0 0 255
0 0 254
0 0 255
0 0 255
0 0 255
0 0 254
0 0 254
0 0 255
0 0 255
0 0 254
0 0 255
0 0 255
0 0 254
0 0 255
0 0 255
0 0 255
0 0 254
0 0 253
0 0 255
0 0 254
0 0 255
0 0 254
0 0 254
0 0 254
0 0 254
0 0 253
0 0 255
0 0 255
0 0 255
0 0 255
0 0 254
0 0 254
0 0 255
0 0 253
0 0 255
0 0 253
0 0 254
0 0 254
0 0 254
0 0 255
0 0 254
0 0 254
28 31 255
109 122 255
121 136 254
177 198 255
198 222 255
199 223 255
199 223 255
199 223 255
199 223 255
199 223 255
198 223 255
198 223 255
198 223 255
198 223 255
198 223 255
198 223 255
198 223 255
198 223 255
198 223 255
198 223 255
198 223 255
198 223 255
198 223 255
198 223 255
197 223 255
197 222 255
197 222 255
197 222 255
197 222 255
197 222 255
197 222 255
197 222 255
197 222 255
197 222 255
197 222 255
197 222 255
197 222 255
197 222 255
197 222 255
197 222 255
197 222 255
196 222 255
196 222 255
196 222 255
196 222 255
196 222 255
196 222 255
196 222 255
196 222 255
196 222 255
196 222 255
196 222 255
196 222 255
196 222 255
196 222 255
196 222 255
196 222 255
196 222 255
196 221 255
196 221 255
195 221 255
195 221 255
195 221 255
195 221 255
195 221 255
195 221 255
195 221 255
195 221 255
195 221 255
195 221 255
195 221 255
195 221 255
195 221 255
195 221 255
195 221 255
195 221 255
195 221 255
195 221 255
195 221 255
195 221 255
195 221 255
195 221 255
195 221 255
195 221 255
195 221 255
195 221 255
195 221 255
195 221 255
195 221 255
195 221 255
195 221 255
195 221 255
195 221 255
195 221 255
195 221 255
195 221 255
195 221 255
195 221 255
195 221 255
195 221 255
195 221 255
195 221 255
195 221 255
195 221 255
195 221 255
195 221 255
195 221 255
195 221 255
195 221 255
195 221 255
195 221 255
195 221 255
195 221 255
195 221 255
195 221 255
195 221 255
195 221 255
195 221 255
195 221 255
195 221 255
195 221 255
195 221 255
195 221 255
195 221 255
195 221 255
195 221 255
195 221 255
195 221 255
195 221 255
195 221 255
195 221 255
195 221 255
195 221 255
195 221 255
195 221 255
195 221 255
195 221 255
195 221 255
195 221 255
195 221 255
195 221 255
195 221 255
196 221 255
196 221 255
196 222 255
196 222 255
196 222 255
196 222 255
196 222 255
196 222 255
196 222 255
196 222 255
196 222 255
196 222 255
196 222 255
196 222 255
196 222 255
196 222 255
196 222 255
196 222 255
196 222 255
196 222 255
197 222 255
197 222 255
197 222 255
197 222 255
197 222 255
197 222 255
197 222 255
197 222 255
197 222 255
197 222 255
197 222 255
197 222 255
197 222 255
197 222 255
197 222 255
197 223 255
198 223 255
198 223 255
198 223 255
198 223 255
198 223 255
198 223 255
198 223 255
198 223 255
198 223 255
198 223 255
198 223 255
198 223 255
198 223 255
198 223 255
199 223 255
199 223 255
199 223 255
199 223 255
199 223 255
199 222 254
200 195 223
199 170 194
200 94 108
201 44 51
198 0 0
201 0 0
201 0 0
205 0 0
196 0 0
202 0 0
201 0 0
204 0 0
204 0 0
204 0 0
202 0 0
202 0 0
205 0 0
204 0 0
206 0 0
203 0 0
200 0 0
205 0 0
206 0 0
203 0 0
205 0 0
204 0 0
202 0 0
204 0 0
206 0 0
201 0 0
203 0 0
205 0 0
208 0 0
204 0 0
205 0 0
203 0 0
207 0 0
201 0 0
209 0 0
205 0 0
206 0 0
205 0 0
205 0 0
205 0 0
207 0 0
207 0 0
206 0 0
207 0 0
201 0 0
206 0 0
205 0 0
206 0 0
209 0 0
205 0 0
209 0 0
206 0 0
203 0 0
206 0 0
209 0 0
208 0 0
209 0 0
206 0 0
210 0 0
208 0 0
208 0 0
207 0 0
209 0 0
205 0 0
207 0 0
207 0 0
206 0 0
209 0 0
209 0 0
207 0 0
205 0 0
207 0 0
207 0 0
209 0 0
209 0 0
208 0 0
206 0 0
206 0 0
208 0 0
206 0 0
207 0 0
210 0 0
208 0 0
208 0 0
209 0 0
209 0 0
207 0 0
206 0 0
209 0 0
210 0 0
210 0 0
210 0 0
207 0 0
207 0 0
207 0 0
209 0 0
208 0 0
208 0 0
211 0 0
0 0 255
0 0 255
0 0 255
0 0 255
0 0 255
0 0 255
0 0 255
0 0 255
0 0 255
0 0 255
0 0 255
0 0 255
0 0 255
0 0 255
0 0 255
0 0 255
0 0 255
0 0 255
0 0 255
0 0 255
0 0 255
0 0 255
0 0 255
0 0 255
0 0 254
0 0 255
0 0 255
0 0 254
0 0 255
0 0 255
0 0 255
0 0 255
0 0 255
0 0 255
0 0 255
0 0 255
0 0 255
0 0 255
0 0 255
0 0 254
0 0 255
0 0 255
0 0 255
0 0 255
0 0 255
0 0 255
0 0 255
0 0 255
0 0 255
0 0 255
0 0 255
0 0 255
0 0 255
0 0 255
0 0 255
0 0 254
0 0 255
0 0 255
0 0 254
0 0 254
0 0 253
0 0 255
0 0 254
0 0 254
0 0 255
0 0 254
0 0 254
0 0 254
0 0 255
0 0 255
0 0 255
0 0 255
0 0 255
0 0 254
0 0 255
0 0 255
0 0 253
0 0 255
0 0 253
0 0 254
0 0 254
0 0 254
0 0 254
0 0 254
0 0 255
0 0 254
0 0 254
0 0 253
0 0 253
0 0 255
0 0 253
0 0 255
0 0 254
0 0 252
0 0 255
0 0 255
0 0 253
0 0 253
0 0 255
0 0 255
0 0 255
0 0 255
0 0 254
63 70 254
127 143 253
158 177 255
189 212 255
199 223 255
199 223 255
199 223 255
199 223 255
198 223 255
198 223 255
198 223 255
198 223 255
198 223 255
198 223 255
198 223 255
198 223 255
198 223 255
198 223 255
198 223 255
198 223 255
198 223 255
198 223 255
198 223 255
197 222 255
197 222 255
197 222 255
197 222 255
197 222 255
197 222 255
197 222 255
197 222 255
197 222 255
197 222 255
197 222 255
197 222 255
197 222 255
197 222 255
197 222 255
197 222 255
196 222 255
196 222 255
196 222 255
196 222 255
196 222 255
196 222 255
196 222 255
196 222 255
196 222 255
196 222 255
196 222 255
196 222 255
196 222 255
196 222 255
196 222 255
196 222 255
196 222 255
196 222 255
196 221 255
196 221 255
195 221 255
195 221 255
195 221 255
195 221 255
195 221 255
195 221 255
195 221 255
195 221 255
195 221 255
195 221 255
195 221 255
195 221 255
195 221 255
195 221 255
195 221 255
195 221 255
195 221 255
195 221 255
195 221 255
195 221 255
195 221 255
195 221 255
195 221 255
195 221 255
195 221 255
195 221 255
195 221 255
195 221 255
195 221 255
195 221 255
195 221 255
195 221 255
195 221 255
195 221 255
195 221 255
195 221 255
195 221 255
195 221 255
195 221 255
195 221 255
195 221 255
195 221 255
195 221 255
195 221 255
195 221 255
195 221 255
195 221 255
195 221 255
195 221 255
195 221 255
195 221 255
195 221 255
195 221 255
195 221 255
195 221 255
195 221 255
195 221 255
195 221 255
195 221 255
195 221 255
195 221 255
195 221 255
195 221 255
195 221 255
195 221 255
195 221 255
195 221 255
195 221 255
195 221 255
195 221 255
195 221 255
195 221 255
195 221 255
195 221 255
195 221 255
195 221 255
196 221 255
196 221 255
196 222 255
196 222 255
196 222 255
196 222 255
196 222 255
196 222 255
196 222 255
196 222 255
196 222 255
196 222 255
196 222 255
196 222 255
196 222 255
196 222 255
196 222 255
196 222 255
196 222 255
196 222 255
197 222 255
197 222 255
197 222 255
197 222 255
197 222 255
197 222 255
197 222 255
197 222 255
197 222 255
197 222 255
197 222 255
197 222 255
197 222 255
197 222 255
197 222 255
197 222 255
198 223 255
198 223 255
198 223 255
198 223 255
198 223 255
198 223 255
198 223 255
198 223 255
198 223 255
198 223 255
198 223 255
198 223 255
198 223 255
198 223 255
198 223 255
199 223 255
199 223 255
199 223 255
199 223 255
199 216 248
201 181 207
202 134 153
201 63 72
203 0 0
200 0 0
201 0 0
202 0 0
200 0 0
204 0 0
204 0 0
202 0 0
202 0 0
204 0 0
201 0 0
204 0 0
201 0 0
204 0 0
204 0 0
203 0 0
204 0 0
201 0 0
201 0 0
203 0 0
206 0 0
206 0 0
205 0 0
207 0 0
205 0 0
203 0 0
205 0 0
203 0 0
206 0 0
204 0 0
203 0 0
205 0 0
203 0 0
204 0 0
208 0 0
206 0 0
207 0 0
204 0 0
205 0 0
205 0 0
207 0 0
209 0 0
205 0 0
208 0 0
202 0 0
204 0 0
205 0 0
207 0 0
209 0 0
207 0 0
207 0 0
205 0 0
208 0 0
207 0 0
211 0 0
204 0 0
210 0 0
205 0 0
207 0 0
207 0 0
207 0 0
206 0 0
210 0 0
207 0 0
210 0 0
208 0 0
208 0 0
207 0 0
209 0 0
210 0 0
209 0 0
209 0 0
208 0 0
205 0 0
207 0 0
209 0 0
212 0 0
206 0 0
209 0 0
206 0 0
209 0 0
209 0 0
208 0 0
207 0 0
210 0 0
209 0 0
206 0 0
210 0 0
211 0 0
208 0 0
207 0 0
209 0 0
207 0 0
210 0 0
210 0 0
206 0 0
210 0 0
205 0 0
207 0 0
205 0 0
206 0 0
209 0 0
209 0 0
0 0 255
0 0 255
0 0 255
0 0 255
0 0 255
0 0 255
0 0 255
0 0 255
0 0 255
0 0 255
0 0 255
0 0 255
0 0 255
0 0 254
0 0 255
0 0 255
0 0 254
0 0 255
0 0 255
0 0 254
0 0 255
0 0 255
0 0 255
0 0 255
0 0 255
0 0 255
0 0 255
0 0 255
0 0 255
0 0 255
0 0 255
0 0 255
0 0 254
0 0 255
0 0 255
0 0 255
0 0 255
0 0 255
0 0 255
0 0 255
0 0 255
0 0 255
0 0 254
0 0 255
0 0 255
0 0 254
0 0 255
0 0 255
0 0 255
0 0 255
0 0 255
0 0 254
0 0 255
0 0 254
0 0 254
0 0 255
0 0 255
0 0 254
0 0 255
0 0 255
0 0 254
0 0 255
0 0 254
0 0 255
0 0 253
0 0 255
0 0 255
0 0 255
0 0 255
0 0 255
0 0 254
0 0 255
0 0 254
0 0 253
0 0 255
0 0 254
0 0 255
0 0 252
0 0 254
0 0 255
0 0 253
0 0 255
0 0 255
0 0 254
0 0 255
0 0 254
0 0 254
0 0 254
0 0 255
0 0 254
0 0 255
0 0 255
0 0 255
0 0 255
0 0 255
0 0 253
0 0 250
0 0 255
0 0 254
0 0 254
0 0 253
0 0 252
0 0 253
0 0 255
0 0 253
0 0 254
19 22 253
110 124 253
158 177 255
191 214 255
199 223 255
199 223 255
199 223 255
198 223 255
198 223 255
198 223 255
198 223 255
198 223 255
198 223 255
198 223 255
198 223 255
198 223 255
198 223 255
198 223 255
198 223 255
198 223 255
198 223 255
198 223 255
197 223 255
197 222 255
197 222 255
197 222 255
197 222 255
197 222 255
197 222 255
197 222 255
197 222 255
197 222 255
197 222 255
197 222 255
197 222 255
197 222 255
197 222 255
197 222 255
197 222 255
196 222 255
196 222 255
196 222 255
196 222 255
196 222 255
196 222 255
196 222 255
196 222 255
196 222 255
196 222 255
196 222 255
196 222 255
196 222 255
196 222 255
196 222 255
196 222 255
196 222 255
196 222 255
196 222 255
196 221 255
196 221 255
195 221 255
195 221 255
195 221 255
195 221 255
195 221 255
195 221 255
195 221 255
195 221 255
195 221 255
195 221 255
195 221 255
195 221 255
195 221 255
195 221 255
195 221 255
195 221 255
195 221 255
195 221 255
195 221 255
195 221 255
195 221 255
195 221 255
195 221 255
195 221 255
195 221 255
195 221 255
195 221 255
195 221 255
195 221 255
195 221 255
195 221 255
195 221 255
195 221 255
195 221 255
195 221 255
195 221 255
195 221 255
195 221 255
195 221 255
195 221 255
195 221 255
195 221 255
195 221 255
195 221 255
195 221 255
195 221 255
195 221 255
195 221 255
195 221 255
195 221 255
195 221 255
195 221 255
195 221 255
195 221 255
195 221 255
195 221 255
195 221 255
195 221 255
195 221 255
195 221 255
195 221 255
195 221 255
195 221 255
195 221 255
195 221 255
195 221 255
195 221 255
195 221 255
196 221 255
196 221 255
196 221 255
196 222 255
196 222 255
196 222 255
196 222 255
196 222 255
196 222 255
196 222 255
196 222 255
196 222 255
196 222 255
196 222 255
196 222 255
196 222 255
196 222 255
196 222 255
196 222 255
196 222 255
196 222 255
197 222 255
197 222 255
197 222 255
197 222 255
197 222 255
197 222 255
197 222 255
197 222 255
197 222 255
197 222 255
197 222 255
197 222 255
197 222 255
197 222 255
197 222 255
197 222 255
197 223 255
198 223 255
198 223 255
198 223 255
198 223 255
198 223 255
198 223 255
198 223 255
198 223 255
198 223 255
198 223 255
198 223 255
198 223 255
198 223 255
198 223 255
198 223 255
199 223 255
199 223 255
199 223 255
199 219 250
198 177 203
197 116 133
199 44 51
200 0 0
202 0 0
199 0 0
200 0 0
198 0 0
202 0 0
206 0 0
203 0 0
200 0 0
202 0 0
202 0 0
201 0 0
206 0 0
201 0 0
201 0 0
204 0 0
204 0 0
201 0 0
200 0 0
206 0 0
203 0 0
204 0 0
204 0 0
204 0 0
204 0 0
204 0 0
207 0 0
207 0 0
207 0 0
201 0 0
205 0 0
204 0 0
206 0 0
208 0 0
204 0 0
205 0 0
207 0 0
205 0 0
207 0 0
206 0 0
203 0 0
204 0 0
209 0 0
206 0 0
204 0 0
206 0 0
207 0 0
208 0 0
206 0 0
208 0 0
205 0 0
202 0 0
211 0 0
206 0 0
209 0 0
209 0 0
204 0 0
205 0 0
207 0 0
208 0 0
208 0 0
204 0 0
206 0 0
207 0 0
208 0 0
209 0 0
206 0 0
212 0 0
207 0 0
209 0 0
206 0 0
206 0 0
207 0 0
206 0 0
209 0 0
208 0 0
209 0 0
206 0 0
207 0 0
208 0 0
206 0 0
208 0 0
205 0 0
208 0 0
209 0 0
207 0 0
208 0 0
207 0 0
210 0 0
209 0 0
208 0 0
207 0 0
210 0 0
209 0 0
210 0 0
204 0 0
209 0 0
208 0 0
207 0 0
210 0 0
210 0 0
206 0 0
209 0 0
208 0 0
211 0 0
211 0 0
0 0 255
0 0 255
0 0 255
0 0 255
0 0 255
0 0 255
0 0 255
0 0 255
0 0 255
0 0 255
0 0 255
0 0 255
0 0 255
0 0 255
0 0 255
0 0 255
0 0 255
0 0 255
0 0 255
0 0 255
0 0 255
0 0 255
0 0 255
0 0 255
0 0 255
0 0 254
0 0 255
0 0 255
0 0 255
0 0 255
0 0 255
0 0 255
0 0 255
0 0 255
0 0 255
0 0 255
0 0 255
0 0 255
0 0 255
0 0 253
0 0 254
0 0 253
0 0 255
0 0 255
0 0 255
0 0 255
0 0 255
0 0 254
0 0 255
0 0 255
0 0 253
0 0 255
0 0 255
0 0 254
0 0 254
0 0 254
0 0 255
0 0 255
0 0 255
0 0 255
0 0 254
0 0 255
0 0 252
0 0 255
0 0 255
0 0 255
0 0 255
0 0 254
0 0 255
0 0 255
0 0 255
0 0 255
0 0 253
0 0 255
0 0 254
0 0 254
0 0 254
0 0 255
0 0 254
0 0 254
0 0 254
0 0 254
0 0 252
0 0 253
0 0 254
0 0 252
0 0 255
0 0 252
0 0 252
0 0 255
0 0 254
0 0 253
0 0 254
0 0 255
0 0 254
0 0 254
0 0 254
0 0 249
0 0 255
0 0 255
0 0 253
0 0 254
0 0 254
0 0 253
0 0 253
0 0 253
0 0 254
0 0 253
0 0 254
19 22 255
130 146 254
163 183 254
197 221 255
199 223 255
199 223 255
198 223 255
198 223 255
198 223 255
198 223 255
198 223 255
198 223 255
198 223 255
198 223 255
198 223 255
198 223 255
198 223 255
198 223 255
198 223 255
198 223 255
198 223 255
198 223 255
197 222 255
197 222 255
197 222 255
197 222 255
197 222 255
197 222 255
197 222 255
197 222 255
197 222 255
197 222 255
197 222 255
197 222 255
197 222 255
197 222 255
197 222 255
197 222 255
197 222 255
196 222 255
196 222 255
196 222 255
196 222 255
196 222 255
196 222 255
196 222 255
196 222 255
196 222 255
196 222 255
196 222 255
196 222 255
196 222 255
196 222 255
196 222 255
196 222 255
196 222 255
196 222 255
196 222 255
196 222 255
196 221 255
196 221 255
195 221 255
195 221 255
195 221 255
195 221 255
195 221 255
195 221 255
195 221 255
195 221 255
195 221 255
195 221 255
195 221 255
195 221 255
195 221 255
195 221 255
195 221 255
195 221 255
195 221 255
195 221 255
195 221 255
195 221 255
195 221 255
195 221 255
195 221 255
195 221 255
195 221 255
195 221 255
195 221 255
195 221 255
195 221 255
195 221 255
195 221 255
195 221 255
195 221 255
195 221 255
195 221 255
195 221 255
195 221 255
195 221 255
195 221 255
195 221 255
195 221 255
195 221 255
195 221 255
195 221 255
195 221 255
195 221 255
195 221 255
195 221 255
195 221 255
195 221 255
195 221 255
195 221 255
195 221 255
195 221 255
195 221 255
195 221 255
195 221 255
195 221 255
195 221 255
195 221 255
196 221 255
196 221 255
196 221 255
196 222 255
196 222 255
196 222 255
196 222 255
196 222 255
196 222 255
196 222 255
196 222 255
196 222 255
196 222 255
196 222 255
196 222 255
196 222 255
196 222 255
196 222 255
196 222 255
196 222 255
196 222 255
196 222 255
197 222 255
197 222 255
197 222 255
197 222 255
197 222 255
197 222 255
197 222 255
197 222 255
197 222 255
197 222 255
197 222 255
197 222 255
197 222 255
197 222 255
197 222 255
197 222 255
197 222 255
198 223 255
198 223 255
198 223 255
198 223 255
198 223 255
198 223 255
198 223 255
198 223 255
198 223 255
198 223 255
198 223 255
198 223 255
198 223 255
198 223 255
198 223 255
199 223 255
199 223 255
199 223 255
199 223 255
201 177 203
200 146 167
200 44 51
197 0 0
201 0 0
201 0 0
203 0 0
199 0 0
202 0 0
199 0 0
199 0 0
200 0 0
202 0 0
205 0 0
203 0 0
203 0 0
205 0 0
202 0 0
204 0 0
205 0 0
204 0 0
200 0 0
206 0 0
202 0 0
205 0 0
203 0 0
206 0 0
207 0 0
199 0 0
204 0 0
199 0 0
207 0 0
204 0 0
206 0 0
205 0 0
205 0 0
206 0 0
205 0 0
205 0 0
208 0 0
207 0 0
205 0 0
203 0 0
207 0 0
205 0 0
209 0 0
209 0 0
206 0 0
204 0 0
205 0 0
205 0 0
207 0 0
205 0 0
205 0 0
207 0 0
207 0 0
208 0 0
207 0 0
208 0 0
208 0 0
206 0 0
207 0 0
207 0 0
210 0 0
203 0 0
211 0 0
206 0 0
208 0 0
206 0 0
205 0 0
209 0 0
209 0 0
206 0 0
211 0 0
208 0 0
207 0 0
206 0 0
210 0 0
208 0 0
206 0 0
211 0 0
209 0 0
206 0 0
209 0 0
205 0 0
207 0 0
207 0 0
209 0 0
210 0 0
208 0 0
209 0 0
212 0 0
205 0 0
209 0 0
209 0 0
208 0 0
209 0 0
211 0 0
209 0 0
209 0 0
209 0 0
208 0 0
208 0 0
210 0 0
207 0 0
207 0 0
210 0 0
212 0 0
209 0 0
208 0 0
208 0 0
210 0 0
0 0 255
0 0 255
0 0 255
0 0 255
0 0 255
0 0 255
0 0 255
0 0 255
0 0 255
0 0 255
0 0 255
0 0 255
0 0 255
0 0 254
0 0 255
0 0 255
0 0 255
0 0 255
0 0 254
0 0 255
0 0 255
0 0 254
0 0 255
0 0 255
0 0 255
0 0 255
0 0 254
0 0 255
0 0 255
0 0 255
0 0 255
0 0 255
0 0 255
0 0 255
0 0 255
0 0 254
0 0 253
0 0 255
0 0 253
0 0 255
0 0 255
0 0 255
0 0 255
0 0 255
0 0 254
0 0 255
0 0 255
0 0 255
0 0 255
0 0 255
0 0 255
0 0 255
0 0 254
0 0 255
0 0 255
0 0 255
0 0 254
0 0 255
0 0 255
0 0 255
0 0 254
0 0 254
0 0 255
0 0 255
0 0 255
0 0 254
0 0 254
0 0 255
0 0 255
0 0 253
0 0 253
0 0 254
0 0 255
0 0 253
0 0 255
0 0 255
0 0 254
0 0 255
0 0 255
0 0 255
0 0 255
0 0 254
0 0 254
0 0 253
0 0 254
0 0 255
0 0 255
0 0 254
0 0 255
0 0 255
0 0 255
0 0 253
0 0 253
0 0 254
0 0 253
0 0 250
0 0 254
0 0 254
0 0 255
0 0 254
0 0 255
0 0 255
0 0 253
0 0 249
0 0 253
0 0 253
0 0 250
0 0 255
0 0 254
0 0 255
0 0 254
0 0 255
59 67 254
126 141 255
175 197 255
199 223 255
199 223 255
199 223 255
198 223 255
198 223 255
198 223 255
198 223 255
198 223 255
198 223 255
198 223 255
198 223 255
198 223 255
198 223 255
198 223 255
198 223 255
198 223 255
198 223 255
198 223 255
197 223 255
197 222 255
197 222 255
197 222 255
197 222 255
197 222 255
197 222 255
197 222 255
197 222 255
197 222 255
197 222 255
197 222 255
197 222 255
197 222 255
197 222 255
197 222 255
197 222 255
197 222 255
196 222 255
196 222 255
196 222 255
196 222 255
196 222 255
196 222 255
196 222 255
196 222 255
196 222 255
196 222 255
196 222 255
196 222 255
196 222 255
196 222 255
196 222 255
196 222 255
196 222 255
196 222 255
196 222 255
196 222 255
196 222 255
196 221 255
196 221 255
196 221 255
195 221 255
195 221 255
195 221 255
195 221 255
195 221 255
195 221 255
195 221 255
195 221 255
195 221 255
195 221 255
195 221 255
195 221 255
195 221 255
195 221 255
195 221 255
195 221 255
195 221 255
195 221 255
195 221 255
195 221 255
195 221 255
195 221 255
195 221 255
195 221 255
195 221 255
195 221 255
195 221 255
195 221 255
195 221 255
195 221 255
195 221 255
195 221 255
195 221 255
195 221 255
195 221 255
195 221 255
195 221 255
195 221 255
195 221 255
195 221 255
195 221 255
195 221 255
195 221 255
195 221 255
195 221 255
195 221 255
195 221 255
195 221 255
195 221 255
195 221 255
196 221 255
196 221 255
196 221 255
196 222 255
196 222 255
196 222 255
196 222 255
196 222 255
196 222 255
196 222 255
196 222 255
196 222 255
196 222 255
196 222 255
196 222 255
196 222 255
196 222 255
196 222 255
196 222 255
196 222 255
196 222 255
196 222 255
196 222 255
196 222 255
197 222 255
197 222 255
197 222 255
197 222 255
197 222 255
197 222 255
197 222 255
197 222 255
197 222 255
197 222 255
197 222 255
197 222 255
197 222 255
197 222 255
197 222 255
197 222 255
197 222 255
197 223 255
198 223 255
198 223 255
198 223 255
198 223 255
198 223 255
198 223 255
198 223 255
198 223 255
198 223 255
198 223 255
198 223 255
198 223 255
198 223 255
198 223 255
198 223 255
199 223 255
199 223 255
199 223 255
200 189 217
199 150 171
199 67 76
199 0 0
201 0 0
203 0 0
203 0 0
201 0 0
199 0 0
200 0 0
201 0 0
203 0 0
203 0 0
202 0 0
206 0 0
203 0 0
206 0 0
204 0 0
201 0 0
204 0 0
205 0 0
204 0 0
204 0 0
200 0 0
203 0 0
209 0 0
206 0 0
206 0 0
202 0 0
201 0 0
205 0 0
204 0 0
206 0 0
204 0 0
206 0 0
203 0 0
210 0 0
206 0 0
208 0 0
204 0 0
204 0 0
205 0 0
207 0 0
205 0 0
206 0 0
208 0 0
207 0 0
207 0 0
207 0 0
209 0 0
206 0 0
207 0 0
207 0 0
204 0 0
208 0 0
206 0 0
201 0 0
203 0 0
211 0 0
206 0 0
207 0 0
209 0 0
207 0 0
209 0 0
207 0 0
207 0 0
207 0 0
205 0 0
208 0 0
205 0 0
208 0 0
206 0 0
205 0 0
206 0 0
207 0 0
207 0 0
208 0 0
207 0 0
209 0 0
207 0 0
205 0 0
208 0 0
210 0 0
210 0 0
208 0 0
210 0 0
211 0 0
208 0 0
207 0 0
207 0 0
207 0 0
208 0 0
207 0 0
208 0 0
209 0 0
207 0 0
209 0 0
210 0 0
208 0 0
208 0 0
208 0 0
206 0 0
209 0 0
208 0 0
211 0 0
211 0 0
205 0 0
208 0 0
208 0 0
211 0 0
210 0 0
210 0 0
211 0 0
210 0 0
211 0 0
0 0 255
0 0 255
0 0 255
0 0 255
0 0 255
0 0 255
0 0 255
0 0 255
0 0 255
0 0 255
0 0 255
0 0 255
0 0 255
0 0 255
0 0 255
0 0 255
0 0 255
0 0 255
0 0 255
0 0 255
0 0 254
0 0 255
0 0 255
0 0 254
0 0 255
0 0 255
0 0 254
0 0 255
0 0 255
0 0 254
0 0 255
0 0 255
0 0 255
0 0 255
0 0 253
0 0 255
0 0 255
0 0 255
0 0 255
0 0 255
0 0 255
0 0 255
0 0 255
0 0 255
0 0 255
0 0 255
0 0 255
0 0 255
0 0 254
0 0 254
0 0 255
0 0 255
0 0 255
0 0 254
0 0 255
0 0 255
0 0 255
0 0 255
0 0 254
0 0 254
0 0 254
0 0 254
0 0 255
0 0 254
0 0 255
0 0 255
0 0 253
0 0 254
0 0 253
0 0 255
0 0 254
0 0 254
0 0 255
0 0 253
0 0 253
0 0 254
0 0 254
0 0 253
0 0 255
0 0 255
0 0 255
0 0 252
0 0 254
0 0 255
0 0 255
0 0 254
0 0 254
0 0 253
0 0 253
0 0 252
0 0 255
0 0 255
0 0 253
0 0 255
0 0 254
0 0 255
0 0 253
0 0 252
0 0 254
0 0 254
0 0 254
0 0 253
0 0 254
0 0 253
0 0 253
0 0 254
0 0 253
0 0 255
0 0 252
0 0 253
0 0 252
0 0 253
0 0 254
0 0 255
0 0 255
71 80 254
151 170 255
186 209 255
199 223 255
199 223 255
198 223 255
198 223 255
198 223 255
198 223 255
198 223 255
198 223 255
198 223 255
198 223 255
198 223 255
198 223 255
198 223 255
198 223 255
198 223 255
198 223 255
198 223 255
198 223 255
197 222 255
197 222 255
197 222 255
197 222 255
197 222 255
197 222 255
197 222 255
197 222 255
197 222 255
197 222 255
197 222 255
197 222 255
197 222 255
197 222 255
197 222 255
197 222 255
197 222 255
197 222 255
196 222 255
196 222 255
196 222 255
196 222 255
196 222 255
196 222 255
196 222 255
196 222 255
196 222 255
196 222 255
196 222 255
196 222 255
196 222 255
196 222 255
196 222 255
196 222 255
196 222 255
196 222 255
196 222 255
196 222 255
196 222 255
196 222 255
196 222 255
196 222 255
196 221 255
196 221 255
196 221 255
195 221 255
195 221 255
195 221 255
195 221 255
195 221 255
195 221 255
195 221 255
195 221 255
195 221 255
195 221 255
195 221 255
195 221 255
195 221 255
195 221 255
195 221 255
195 221 255
195 221 255
195 221 255
195 221 255
195 221 255
195 221 255
195 221 255
195 221 255
195 221 255
195 221 255
195 221 255
195 221 255
195 221 255
195 221 255
195 221 255
195 221 255
195 221 255
195 221 255
195 221 255
195 221 255
195 221 255
195 221 255
195 221 255
196 221 255
196 221 255
196 221 255
196 221 255
196 222 255
196 222 255
196 222 255
196 222 255
196 222 255
196 222 255
196 222 255
196 222 255
196 222 255
196 222 255
196 222 255
196 222 255
196 222 255
196 222 255
196 222 255
196 222 255
196 222 255
196 222 255
196 222 255
196 222 255
196 222 255
196 222 255
196 222 255
197 222 255
197 222 255
197 222 255
197 222 255
197 222 255
197 222 255
197 222 255
197 222 255
197 222 255
197 222 255
197 222 255
197 222 255
197 222 255
197 222 255
197 222 255
197 222 255
197 222 255
197 222 255
198 223 255
198 223 255
198 223 255
198 223 255
198 223 255
198 223 255
198 223 255
198 223 255
198 223 255
198 223 255
198 223 255
198 223 255
198 223 255
198 223 255
198 223 255
198 223 255
199 223 255
199 223 255
198 210 241
199 164 188
198 70 80
197 0 0
200 0 0
197 0 0
203 0 0
199 0 0
200 0 0
203 0 0
201 0 0
202 0 0
207 0 0
205 0 0
206 0 0
202 0 0
204 0 0
203 0 0
204 0 0
204 0 0
204 0 0
205 0 0
206 0 0
200 0 0
206 0 0
201 0 0
205 0 0
202 0 0
205 0 0
203 0 0
204 0 0
202 0 0
204 0 0
209 0 0
206 0 0
205 0 0
205 0 0
206 0 0
202 0 0
207 0 0
205 0 0
206 0 0
205 0 0
208 0 0
207 0 0
205 0 0
205 0 0
203 0 0
207 0 0
206 0 0
205 0 0
206 0 0
208 0 0
204 0 0
207 0 0
206 0 0
204 0 0
206 0 0
210 0 0
204 0 0
207 0 0
206 0 0
208 0 0
206 0 0
207 0 0
205 0 0
207 0 0
205 0 0
205 0 0
210 0 0
206 0 0
207 0 0
208 0 0
210 0 0
208 0 0
209 0 0
207 0 0
208 0 0
204 0 0
206 0 0
207 0 0
208 0 0
208 0 0
208 0 0
207 0 0
208 0 0
208 0 0
210 0 0
210 0 0
208 0 0
213 0 0
212 0 0
211 0 0
207 0 0
209 0 0
207 0 0
209 0 0
211 0 0
209 0 0
210 0 0
208 0 0
211 0 0
213 0 0
208 0 0
211 0 0
207 0 0
207 0 0
212 0 0
210 0 0
208 0 0
210 0 0
209 0 0
207 0 0
208 0 0
207 0 0
210 0 0
209 0 0
209 0 0
0 0 255
0 0 255
0 0 255
0 0 255
0 0 255
0 0 255
0 0 255
0 0 255
0 0 254
0 0 255
0 0 255
0 0 255
0 0 255
0 0 255
0 0 255
0 0 255
0 0 255
0 0 255
0 0 255
0 0 255
0 0 255
0 0 255
0 0 255
0 0 255
0 0 255
0 0 255
0 0 255
0 0 255
0 0 255
0 0 255
0 0 255
0 0 254
0 0 255
0 0 255
0 0 255
0 0 255
0 0 255
0 0 255
0 0 255
0 0 254
0 0 255
0 0 255
0 0 254
0 0 255
0 0 255
0 0 254
0 0 254
0 0 254
0 0 253
0 0 255
0 0 255
0 0 255
0 0 253
0 0 253
0 0 255
0 0 255
0 0 254
0 0 255
0 0 254
0 0 255
0 0 254
0 0 255
0 0 255
0 0 253
0 0 254
0 0 253
0 0 255
0 0 255
0 0 255
0 0 255
0 0 254
0 0 255
0 0 254
0 0 255
0 0 255
0 0 253
0 0 254
0 0 254
0 0 253
0 0 253
0 0 253
0 0 254
0 0 253
0 0 255
0 0 253
0 0 255
0 0 254
0 0 250
0 0 250
0 0 252
0 0 253
0 0 252
0 0 254
0 0 255
0 0 254
0 0 253
0 0 253
0 0 254
0 0 252
0 0 252
0 0 255
0 0 252
0 0 253
0 0 253
0 0 254
0 0 248
0 0 250
0 0 254
0 0 254
0 0 252
0 0 252
0 0 254
0 0 255
0 0 254
0 0 255
0 0 252
0 0 254
0 0 252
114 128 254
164 184 255
197 221 255
199 223 255
199 223 255
198 223 255
198 223 255
198 223 255
198 223 255
198 223 255
198 223 255
198 223 255
198 223 255
198 223 255
198 223 255
198 223 255
198 223 255
198 223 255
198 223 255
198 223 255
197 223 255
197 222 255
197 222 255
197 222 255
197 222 255
197 222 255
197 222 255
197 222 255
197 222 255
197 222 255
197 222 255
197 222 255
197 222 255
197 222 255
197 222 255
197 222 255
197 222 255
197 222 255
197 222 255
196 222 255
196 222 255
196 222 255
196 222 255
196 222 255
196 222 255
196 222 255
196 222 255
196 222 255
196 222 255
196 222 255
196 222 255
196 222 255
196 222 255
196 222 255
196 222 255
196 222 255
196 222 255
196 222 255
196 222 255
196 222 255
196 222 255
196 222 255
196 222 255
196 222 255
196 222 255
196 222 255
196 222 255
196 221 255
196 221 255
196 221 255
196 221 255
195 221 255
195 221 255
195 221 255
195 221 255
195 221 255
195 221 255
195 221 255
195 221 255
195 221 255
195 221 255
195 221 255
195 221 255
195 221 255
195 221 255
195 221 255
195 221 255
195 221 255
195 221 255
195 221 255
195 221 255
195 221 255
196 221 255
196 221 255
196 221 255
196 221 255
196 221 255
196 221 255
196 222 255
196 222 255
196 222 255
196 222 255
196 222 255
196 222 255
196 222 255
196 222 255
196 222 255
196 222 255
196 222 255
196 222 255
196 222 255
196 222 255
196 222 255
196 222 255
196 222 255
196 222 255
196 222 255
196 222 255
196 222 255
196 222 255
196 222 255
196 222 255
196 222 255
196 222 255
196 222 255
197 222 255
197 222 255
197 222 255
197 222 255
197 222 255
197 222 255
197 222 255
197 222 255
197 222 255
197 222 255
197 222 255
197 222 255
197 222 255
197 222 255
197 222 255
197 222 255
197 222 255
197 222 255
197 223 255
198 223 255
198 223 255
198 223 255
198 223 255
198 223 255
198 223 255
198 223 255
198 223 255
198 223 255
198 223 255
198 223 255
198 223 255
198 223 255
198 223 255
198 223 255
199 223 255
199 223 255
198 219 250
198 184 211
200 102 117
200 38 44
196 0 0
204 0 0
201 0 0
200 0 0
197 0 0
203 0 0
202 0 0
206 0 0
200 0 0
201 0 0
199 0 0
200 0 0
202 0 0
200 0 0
205 0 0
199 0 0
205 0 0
206 0 0
200 0 0
205 0 0
201 0 0
204 0 0
205 0 0
202 0 0
203 0 0
203 0 0
207 0 0
197 0 0
206 0 0
203 0 0
204 0 0
204 0 0
207 0 0
206 0 0
205 0 0
205 0 0
205 0 0
208 0 0
209 0 0
205 0 0
205 0 0
205 0 0
207 0 0
205 0 0
205 0 0
204 0 0
207 0 0
208 0 0
206 0 0
205 0 0
205 0 0
209 0 0
208 0 0
211 0 0
206 0 0
206 0 0
206 0 0
209 0 0
207 0 0
210 0 0
206 0 0
207 0 0
208 0 0
209 0 0
205 0 0
206 0 0
211 0 0
211 0 0
209 0 0
207 0 0
206 0 0
209 0 0
207 0 0
208 0 0
211 0 0
210 0 0
208 0 0
210 0 0
211 0 0
207 0 0
208 0 0
209 0 0
207 0 0
208 0 0
209 0 0
209 0 0
209 0 0
210 0 0
208 0 0
209 0 0
210 0 0
208 0 0
211 0 0
205 0 0
210 0 0
207 0 0
207 0 0
211 0 0
212 0 0
207 0 0
212 0 0
210 0 0
209 0 0
209 0 0
211 0 0
206 0 0
205 0 0
207 0 0
208 0 0
211 0 0
211 0 0
206 0 0
209 0 0
209 0 0
212 0 0
211 0 0
211 0 0
0 0 255
0 0 255
0 0 255
0 0 255
0 0 255
0 0 255
0 0 255
0 0 255
0 0 255
0 0 255
0 0 255
0 0 255
0 0 255
0 0 255
0 0 255
0 0 255
0 0 255
0 0 255
0 0 255
0 0 255
0 0 255
0 0 255
0 0 255
0 0 255
0 0 255
0 0 255
0 0 254
0 0 255
0 0 254
0 0 254
0 0 255
0 0 255
0 0 255
0 0 255
0 0 254
0 0 255
0 0 255
0 0 255
0 0 253
0 0 255
0 0 255
0 0 254
0 0 255
0 0 254
0 0 255
0 0 254
0 0 255
0 0 254
0 0 255
0 0 255
0 0 255
0 0 255
0 0 255
0 0 253
0 0 253
0 0 254
0 0 254
0 0 255
0 0 255
0 0 253
0 0 255
0 0 253
0 0 255
0 0 254
0 0 254
0 0 253
0 0 255
0 0 252
0 0 255
0 0 255
0 0 254
0 0 254
0 0 254
0 0 252
0 0 253
0 0 254
0 0 255
0 0 255
0 0 254
0 0 255
0 0 252
0 0 253
0 0 255
0 0 254
0 0 254
0 0 254
0 0 255
0 0 254
0 0 254
0 0 253
0 0 254
0 0 254
0 0 253
0 0 254
0 0 250
0 0 255
0 0 254
0 0 254
0 0 255
0 0 254
0 0 253
0 0 252
0 0 253
0 0 253
0 0 253
0 0 254
0 0 255
0 0 252
0 0 253
0 0 253
0 0 254
0 0 252
0 0 255
0 0 253
0 0 255
0 0 252
0 0 254
0 0 254
0 0 252
0 0 250
89 100 253
150 168 255
182 204 255
199 223 255
199 223 255
198 223 255
198 223 255
198 223 255
198 223 255
198 223 255
198 223 255
198 223 255
198 223 255
198 223 255
198 223 255
198 223 255
198 223 255
198 223 255
198 223 255
198 223 255
198 223 255
197 223 255
197 222 255
197 222 255
197 222 255
197 222 255
197 222 255
197 222 255
197 222 255
197 222 255
197 222 255
197 222 255
197 222 255
197 222 255
197 222 255
197 222 255
197 222 255
197 222 255
197 222 255
197 222 255
197 222 255
196 222 255
196 222 255
196 222 255
196 222 255
196 222 255
196 222 255
196 222 255
196 222 255
196 222 255
196 222 255
196 222 255
196 222 255
196 222 255
196 222 255
196 222 255
196 222 255
196 222 255
196 222 255
196 222 255
196 222 255
196 222 255
196 222 255
196 222 255
196 222 255
196 222 255
196 222 255
196 222 255
196 222 255
196 222 255
196 222 255
196 222 255
196 222 255
196 222 255
196 222 255
196 222 255
196 222 255
196 222 255
196 222 255
196 222 255
196 222 255
196 222 255
196 222 255
196 222 255
196 222 255
196 222 255
196 222 255
196 222 255
196 222 255
196 222 255
196 222 255
196 222 255
196 222 255
196 222 255
196 222 255
196 222 255
196 222 255
196 222 255
196 222 255
196 222 255
196 222 255
196 222 255
196 222 255
196 222 255
196 222 255
196 222 255
196 222 255
196 222 255
196 222 255
196 222 255
196 222 255
196 222 255
196 222 255
196 222 255
196 222 255
196 222 255
196 222 255
196 222 255
196 222 255
197 222 255
197 222 255
197 222 255
197 222 255
197 222 255
197 222 255
197 222 255
197 222 255
197 222 255
197 222 255
197 222 255
197 222 255
197 222 255
197 222 255
197 222 255
197 222 255
197 222 255
197 222 255
197 222 255
197 223 255
198 223 255
198 223 255
198 223 255
198 223 255
198 223 255
198 223 255
198 223 255
198 223 255
198 223 255
198 223 255
198 223 255
198 223 255
198 223 255
198 223 255
198 223 255
198 223 255
199 223 255
199 223 255
198 215 246
199 161 184
201 77 88
198 0 0
201 0 0
200 0 0
201 0 0
200 0 0
201 0 0
201 0 0
203 0 0
199 0 0
202 0 0
201 0 0
203 0 0
205 0 0
197 0 0
202 0 0
204 0 0
203 0 0
205 0 0
208 0 0
202 0 0
207 0 0
202 0 0
201 0 0
206 0 0
203 0 0
202 0 0
205 0 0
205 0 0
205 0 0
204 0 0
204 0 0
206 0 0
205 0 0
201 0 0
203 0 0
202 0 0
208 0 0
208 0 0
208 0 0
205 0 0
203 0 0
207 0 0
201 0 0
209 0 0
205 0 0
209 0 0
209 0 0
206 0 0
208 0 0
206 0 0
207 0 0
203 0 0
207 0 0
207 0 0
205 0 0
206 0 0
209 0 0
204 0 0
210 0 0
207 0 0
206 0 0
209 0 0
207 0 0
205 0 0
209 0 0
208 0 0
207 0 0
206 0 0
209 0 0
205 0 0
210 0 0
208 0 0
201 0 0
207 0 0
207 0 0
210 0 0
206 0 0
208 0 0
208 0 0
208 0 0
209 0 0
208 0 0
209 0 0
208 0 0
208 0 0
210 0 0
206 0 0
210 0 0
207 0 0
206 0 0
210 0 0
208 0 0
209 0 0
208 0 0
207 0 0
209 0 0
206 0 0
213 0 0
209 0 0
209 0 0
209 0 0
210 0 0
209 0 0
211 0 0
211 0 0
206 0 0
206 0 0
205 0 0
212 0 0
212 0 0
208 0 0
210 0 0
210 0 0
209 0 0
209 0 0
211 0 0
213 0 0
211 0 0
207 0 0
209 0 0
0 0 255
0 0 255
0 0 255
0 0 255
0 0 255
0 0 255
0 0 255
0 0 255
0 0 255
0 0 255
0 0 255
0 0 255
0 0 255
0 0 255
0 0 255
0 0 255
0 0 255
0 0 254
0 0 255
0 0 255
0 0 255
0 0 255
0 0 255
0 0 255
0 0 255
0 0 254
0 0 254
0 0 255
0 0 254
0 0 255
0 0 255
0 0 255
0 0 255
0 0 254
0 0 255
0 0 254
0 0 255
0 0 255
0 0 254
0 0 254
0 0 254
0 0 255
0 0 254
0 0 255
0 0 254
0 0 254
0 0 254
0 0 255
0 0 255
0 0 255
0 0 254
0 0 255
0 0 255
0 0 253
0 0 254
0 0 253
0 0 254
0 0 255
0 0 254
0 0 254
0 0 255
0 0 254
0 0 255
0 0 253
0 0 253
0 0 255
0 0 255
0 0 254
0 0 254
0 0 254
0 0 253
0 0 253
0 0 255
0 0 255
0 0 252
0 0 254
0 0 254
0 0 252
0 0 254
0 0 255
0 0 255
0 0 254
0 0 254
0 0 253
0 0 255
0 0 249
0 0 254
0 0 254
0 0 255
0 0 250
0 0 254
0 0 255
0 0 254
0 0 252
0 0 254
0 0 254
0 0 250
0 0 253
0 0 250
0 0 253
0 0 253
0 0 254
0 0 254
0 0 253
0 0 253
0 0 252
0 0 252
0 0 253
0 0 252
0 0 253
0 0 254
0 0 254
0 0 250
0 0 254
0 0 253
0 0 252
0 0 250
0 0 253
0 0 253
0 0 250
0 0 253
0 0 255
19 22 253
129 144 250
175 197 255
199 223 255
199 223 255
199 223 255
198 223 255
198 223 255
198 223 255
198 223 255
198 223 255
198 223 255
198 223 255
198 223 255
198 223 255
198 223 255
198 223 255
198 223 255
198 223 255
198 223 255
198 223 255
198 223 255
197 223 255
197 222 255
197 222 255
197 222 255
197 222 255
197 222 255
197 222 255
197 222 255
197 222 255
197 222 255
197 222 255
197 222 255
197 222 255
197 222 255
197 222 255
197 222 255
197 222 255
197 222 255
197 222 255
197 222 255
197 222 255
196 222 255
196 222 255
196 222 255
196 222 255
196 222 255
196 222 255
196 222 255
196 222 255
196 222 255
196 222 255
196 222 255
196 222 255
196 222 255
196 222 255
196 222 255
196 222 255
196 222 255
196 222 255
196 222 255
196 222 255
196 222 255
196 222 255
196 222 255
196 222 255
196 222 255
196 222 255
196 222 255
196 222 255
196 222 255
196 222 255
196 222 255
196 222 255
196 222 255
196 222 255
196 222 255
196 222 255
196 222 255
196 222 255
196 222 255
196 222 255
196 222 255
196 222 255
196 222 255
196 222 255
196 222 255
196 222 255
196 222 255
196 222 255
196 222 255
196 222 255
196 222 255
196 222 255
196 222 255
196 222 255
196 222 255
196 222 255
196 222 255
196 222 255
196 222 255
196 222 255
196 222 255
196 222 255
196 222 255
196 222 255
196 222 255
196 222 255
196 222 255
196 222 255
196 222 255
196 222 255
197 222 255
197 222 255
197 222 255
197 222 255
197 222 255
197 222 255
197 222 255
197 222 255
197 222 255
197 222 255
197 222 255
197 222 255
197 222 255
197 222 255
197 222 255
197 222 255
197 222 255
197 222 255
197 222 255
197 222 255
197 223 255
198 223 255
198 223 255
198 223 255
198 223 255
198 223 255
198 223 255
198 223 255
198 223 255
198 223 255
198 223 255
198 223 255
198 223 255
198 223 255
198 223 255
198 223 255
198 223 255
198 223 255
199 223 255
199 223 255
198 198 227
198 132 151
199 44 51
199 0 0
203 0 0
199 0 0
201 0 0
201 0 0
203 0 0
201 0 0
203 0 0
203 0 0
201 0 0
204 0 0
203 0 0
201 0 0
203 0 0
201 0 0
202 0 0
203 0 0
204 0 0
201 0 0
203 0 0
200 0 0
207 0 0
204 0 0
201 0 0
202 0 0
204 0 0
206 0 0
207 0 0
208 0 0
205 0 0
205 0 0
205 0 0
204 0 0
206 0 0
204 0 0
203 0 0
203 0 0
201 0 0
205 0 0
206 0 0
205 0 0
207 0 0
208 0 0
208 0 0
206 0 0
207 0 0
207 0 0
210 0 0
203 0 0
205 0 0
204 0 0
206 0 0
207 0 0
209 0 0
207 0 0
204 0 0
204 0 0
202 0 0
204 0 0
208 0 0
205 0 0
204 0 0
208 0 0
203 0 0
204 0 0
205 0 0
209 0 0
207 0 0
205 0 0
209 0 0
207 0 0
207 0 0
209 0 0
210 0 0
209 0 0
208 0 0
208 0 0
209 0 0
210 0 0
207 0 0
206 0 0
210 0 0
208 0 0
207 0 0
210 0 0
207 0 0
211 0 0
211 0 0
209 0 0
209 0 0
205 0 0
208 0 0
208 0 0
210 0 0
209 0 0
210 0 0
209 0 0
210 0 0
211 0 0
209 0 0
212 0 0
211 0 0
210 0 0
208 0 0
210 0 0
211 0 0
211 0 0
208 0 0
212 0 0
211 0 0
210 0 0
210 0 0
209 0 0
212 0 0
213 0 0
210 0 0
209 0 0
214 0 0
209 0 0
209 0 0
211 0 0
210 0 0
0 0 255
0 0 255
0 0 255
0 0 255
0 0 255
0 0 255
0 0 255
0 0 255
0 0 255
0 0 255
0 0 255
0 0 255
0 0 255
0 0 255
0 0 255
0 0 255
0 0 255
0 0 255
0 0 255
0 0 255
0 0 254
0 0 255
0 0 255
0 0 255
0 0 254
0 0 255
0 0 255
0 0 255
0 0 255
0 0 255
0 0 255
0 0 255
0 0 255
0 0 255
0 0 255
0 0 254
0 0 255
0 0 254
0 0 254
0 0 255
0 0 254
0 0 255
0 0 255
0 0 252
0 0 255
0 0 255
0 0 255
0 0 253
0 0 252
0 0 254
0 0 255
0 0 255
0 0 255
0 0 255
0 0 255
0 0 255
0 0 254
0 0 254
0 0 255
0 0 255
0 0 255
0 0 255
0 0 255
0 0 255
0 0 254
0 0 254
0 0 255
0 0 255
0 0 253
0 0 254
0 0 254
0 0 255
0 0 255
0 0 254
0 0 255
0 0 250
0 0 254
0 0 253
0 0 255
0 0 255
0 0 253
0 0 253
0 0 255
0 0 254
0 0 253
0 0 254
0 0 254
0 0 252
0 0 252
0 0 253
0 0 253
0 0 254
0 0 255
0 0 253
0 0 254
0 0 253
0 0 252
0 0 250
0 0 254
0 0 253
0 0 252
0 0 253
0 0 253
0 0 254
0 0 254
0 0 253
0 0 253
0 0 252
0 0 253
0 0 254
0 0 252
0 0 253
0 0 255
0 0 253
0 0 249
0 0 253
0 0 252
0 0 255
0 0 254
0 0 249
0 0 254
0 0 252
0 0 254
0 0 252
0 0 252
93 104 253
147 165 254
198 222 255
199 223 255
199 223 255
198 223 255
198 223 255
198 223 255
198 223 255
198 223 255
198 223 255
198 223 255
198 223 255
198 223 255
198 223 255
198 223 255
198 223 255
198 223 255
198 223 255
198 223 255
198 223 255
198 223 255
197 223 255
197 222 255
197 222 255
197 222 255
197 222 255
197 222 255
197 222 255
197 222 255
197 222 255
197 222 255
197 222 255
197 222 255
197 222 255
197 222 255
197 222 255
197 222 255
197 222 255
197 222 255
197 222 255
197 222 255
197 222 255
197 222 255
196 222 255
196 222 255
196 222 255
196 222 255
196 222 255
196 222 255
196 222 255
196 222 255
196 222 255
196 222 255
196 222 255
196 222 255
196 222 255
196 222 255
196 222 255
196 222 255
196 222 255
196 222 255
196 222 255
196 222 255
196 222 255
196 222 255
196 222 255
196 222 255
196 222 255
196 222 255
196 222 255
196 222 255
196 222 255
196 222 255
196 222 255
196 222 255
196 222 255
196 222 255
196 222 255
196 222 255
196 222 255
196 222 255
196 222 255
196 222 255
196 222 255
196 222 255
196 222 255
196 222 255
196 222 255
196 222 255
196 222 255
196 222 255
196 222 255
196 222 255
196 222 255
196 222 255
196 222 255
196 222 255
196 222 255
196 222 255
196 222 255
196 222 255
196 222 255
196 222 255
196 222 255
196 222 255
197 222 255
197 222 255
197 222 255
197 222 255
197 222 255
197 222 255
197 222 255
197 222 255
197 222 255
197 222 255
197 222 255
197 222 255
197 222 255
197 222 255
197 222 255
197 222 255
197 222 255
197 222 255
197 222 255
197 222 255
197 222 255
197 223 255
198 223 255
198 223 255
198 223 255
198 223 255
198 223 255
198 223 255
198 223 255
198 223 255
198 223 255
198 223 255
198 223 255
198 223 255
198 223 255
198 223 255
198 223 255
198 223 255
198 223 255
199 223 255
199 223 255
198 221 253
198 184 211
201 107 122
199 0 0
200 0 0
203 0 0
200 0 0
201 0 0
202 0 0
201 0 0
202 0 0
202 0 0
197 0 0
201 0 0
203 0 0
201 0 0
202 0 0
201 0 0
202 0 0
200 0 0
206 0 0
207 0 0
199 0 0
204 0 0
205 0 0
203 0 0
201 0 0
206 0 0
204 0 0
206 0 0
205 0 0
204 0 0
203 0 0
204 0 0
205 0 0
205 0 0
205 0 0
204 0 0
208 0 0
205 0 0
204 0 0
207 0 0
205 0 0
204 0 0
209 0 0
204 0 0
207 0 0
205 0 0
203 0 0
203 0 0
202 0 0
206 0 0
209 0 0
207 0 0
208 0 0
206 0 0
207 0 0
208 0 0
204 0 0
208 0 0
205 0 0
206 0 0
206 0 0
205 0 0
208 0 0
209 0 0
207 0 0
205 0 0
207 0 0
207 0 0
208 0 0
208 0 0
208 0 0
210 0 0
209 0 0
209 0 0
210 0 0
211 0 0
208 0 0
205 0 0
206 0 0
206 0 0
204 0 0
209 0 0
210 0 0
211 0 0
205 0 0
212 0 0
208 0 0
208 0 0
209 0 0
209 0 0
209 0 0
211 0 0
210 0 0
208 0 0
211 0 0
210 0 0
210 0 0
211 0 0
210 0 0
207 0 0
211 0 0
209 0 0
209 0 0
207 0 0
210 0 0
210 0 0
209 0 0
209 0 0
210 0 0
210 0 0
211 0 0
206 0 0
209 0 0
211 0 0
205 0 0
208 0 0
210 0 0
212 0 0
208 0 0
210 0 0
208 0 0
209 0 0
212 0 0
211 0 0
211 0 0
210 0 0
0 0 255
0 0 255
0 0 255
0 0 255
0 0 255
0 0 255
0 0 255
0 0 255
0 0 255
0 0 255
0 0 255
0 0 255
0 0 255
0 0 255
0 0 255
0 0 255
0 0 255
0 0 255
0 0 255
0 0 255
0 0 255
0 0 255
0 0 254
0 0 255
0 0 255
0 0 255
0 0 255
0 0 255
0 0 254
0 0 255
0 0 255
0 0 253
0 0 255
0 0 254
0 0 255
0 0 254
0 0 255
0 0 255
0 0 255
0 0 255
0 0 255
0 0 255
0 0 255
0 0 254
0 0 255
0 0 255
0 0 255
0 0 255
0 0 254
0 0 254
0 0 255
0 0 255
0 0 254
0 0 255
0 0 255
0 0 255
0 0 255
0 0 254
0 0 254
0 0 255
0 0 255
0 0 255
0 0 255
0 0 255
0 0 254
0 0 252
0 0 254
0 0 254
0 0 254
0 0 253
0 0 254
0 0 254
0 0 255
0 0 255
0 0 252
0 0 255
0 0 255
0 0 254
0 0 255
0 0 254
0 0 254
0 0 252
0 0 255
0 0 254
0 0 254
0 0 253
0 0 252
0 0 250
0 0 252
0 0 250
0 0 254
0 0 253
0 0 255
0 0 255
0 0 254
0 0 252
0 0 253
0 0 253
0 0 249
0 0 253
0 0 253
0 0 253
0 0 252
0 0 253
0 0 253
0 0 254
0 0 252
0 0 255
0 0 252
0 0 249
0 0 252
0 0 250
0 0 253
0 0 253
0 0 253
0 0 253
0 0 252
0 0 252
0 0 254
0 0 254
0 0 246
0 0 254
0 0 255
0 0 254
0 0 246
0 0 254
0 0 253
74 83 254
156 176 255
194 217 254
199 223 255
199 223 255
199 223 255
198 223 255
198 223 255
198 223 255
198 223 255
198 223 255
198 223 255
198 223 255
198 223 255
198 223 255
198 223 255
198 223 255
198 223 255
198 223 255
198 223 255
198 223 255
198 223 255
198 223 255
197 223 255
197 222 255
197 222 255
197 222 255
197 222 255
197 222 255
197 222 255
197 222 255
197 222 255
197 222 255
197 222 255
197 222 255
197 222 255
197 222 255
197 222 255
197 222 255
197 222 255
197 222 255
197 222 255
197 222 255
197 222 255
197 222 255
197 222 255
197 222 255
196 222 255
196 222 255
196 222 255
196 222 255
196 222 255
196 222 255
196 222 255
196 222 255
196 222 255
196 222 255
196 222 255
196 222 255
196 222 255
196 222 255
196 222 255
196 222 255
196 222 255
196 222 255
196 222 255
196 222 255
196 222 255
196 222 255
196 222 255
196 222 255
196 222 255
196 222 255
196 222 255
196 222 255
196 222 255
196 222 255
196 222 255
196 222 255
196 222 255
196 222 255
196 222 255
196 222 255
196 222 255
196 222 255
196 222 255
196 222 255
196 222 255
196 222 255
196 222 255
196 222 255
196 222 255
196 222 255
196 222 255
196 222 255
196 222 255
196 222 255
196 222 255
196 222 255
197 222 255
197 222 255
197 222 255
197 222 255
197 222 255
197 222 255
197 222 255
197 222 255
197 222 255
197 222 255
197 222 255
197 222 255
197 222 255
197 222 255
197 222 255
197 222 255
197 222 255
197 222 255
197 222 255
197 222 255
197 222 255
197 222 255
197 222 255
197 223 255
198 223 255
198 223 255
198 223 255
198 223 255
198 223 255
198 223 255
198 223 255
198 223 255
198 223 255
198 223 255
198 223 255
198 223 255
198 223 255
198 223 255
198 223 255
198 223 255
198 223 255
199 223 255
199 223 255
199 223 255
199 217 249
196 161 184
195 89 102
202 0 0
196 0 0
197 0 0
199 0 0
201 0 0
201 0 0
199 0 0
201 0 0
201 0 0
202 0 0
197 0 0
200 0 0
200 0 0
200 0 0
199 0 0
197 0 0
202 0 0
200 0 0
205 0 0
201 0 0
204 0 0
206 0 0
203 0 0
205 0 0
205 0 0
206 0 0
199 0 0
206 0 0
203 0 0
207 0 0
202 0 0
201 0 0
205 0 0
206 0 0
206 0 0
205 0 0
203 0 0
206 0 0
207 0 0
209 0 0
208 0 0
204 0 0
206 0 0
207 0 0
208 0 0
207 0 0
207 0 0
210 0 0
210 0 0
210 0 0
203 0 0
206 0 0
209 0 0
206 0 0
206 0 0
208 0 0
206 0 0
207 0 0
206 0 0
211 0 0
209 0 0
212 0 0
208 0 0
206 0 0
211 0 0
203 0 0
204 0 0
204 0 0
209 0 0
208 0 0
212 0 0
210 0 0
204 0 0
208 0 0
210 0 0
208 0 0
209 0 0
208 0 0
211 0 0
206 0 0
211 0 0
212 0 0
207 0 0
207 0 0
205 0 0
210 0 0
210 0 0
210 0 0
210 0 0
209 0 0
210 0 0
214 0 0
209 0 0
212 0 0
212 0 0
211 0 0
212 0 0
213 0 0
210 0 0
210 0 0
208 0 0
208 0 0
211 0 0
212 0 0
210 0 0
208 0 0
208 0 0
211 0 0
208 0 0
209 0 0
207 0 0
211 0 0
210 0 0
210 0 0
211 0 0
210 0 0
212 0 0
210 0 0
209 0 0
209 0 0
209 0 0
212 0 0
210 0 0
208 0 0
211 0 0
211 0 0
210 0 0
0 0 255
0 0 255
0 0 254
0 0 254
0 0 255
0 0 255
0 0 255
0 0 255
0 0 255
0 0 255
0 0 255
0 0 255
0 0 255
0 0 255
0 0 254
0 0 255
0 0 254
0 0 255
0 0 255
0 0 255
0 0 255
0 0 255
0 0 255
0 0 254
0 0 255
0 0 255
0 0 255
0 0 255
0 0 255
0 0 255
0 0 255
0 0 254
0 0 254
0 0 255
0 0 255
0 0 254
0 0 255
0 0 254
0 0 255
0 0 253
0 0 255
0 0 253
0 0 254
0 0 255
0 0 253
0 0 254
0 0 255
0 0 255
0 0 255
0 0 255
0 0 255
0 0 254
0 0 255
0 0 255
0 0 255
0 0 255
0 0 254
0 0 255
0 0 255
0 0 253
0 0 253
0 0 255
0 0 254
0 0 255
0 0 255
0 0 255
0 0 253
0 0 255
0 0 253
0 0 249
0 0 252
0 0 254
0 0 254
0 0 250
0 0 254
0 0 253
0 0 255
0 0 254
0 0 254
0 0 252
0 0 255
0 0 254
0 0 252
0 0 253
0 0 250
0 0 253
0 0 254
0 0 254
0 0 253
0 0 252
0 0 250
0 0 252
0 0 255
0 0 254
0 0 254
0 0 252
0 0 252
0 0 252
0 0 250
0 0 255
0 0 254
0 0 254
0 0 252
0 0 254
0 0 253
0 0 253
0 0 252
0 0 252
0 0 252
0 0 255
0 0 252
0 0 254
0 0 248
0 0 252
0 0 253
0 0 255
0 0 253
0 0 252
0 0 252
0 0 253
0 0 250
0 0 249
0 0 252
0 0 250
0 0 250
0 0 254
0 0 254
0 0 252
0 0 252
59 67 254
146 164 254
192 215 254
199 223 255
199 223 255
199 223 255
199 223 255
198 223 255
198 223 255
198 223 255
198 223 255
198 223 255
198 223 255
198 223 255
198 223 255
198 223 255
198 223 255
198 223 255
198 223 255
198 223 255
198 223 255
198 223 255
198 223 255
198 223 255
198 223 255
197 222 255
197 222 255
197 222 255
197 222 255
197 222 255
197 222 255
197 222 255
197 222 255
197 222 255
197 222 255
197 222 255
197 222 255
197 222 255
197 222 255
197 222 255
197 222 255
197 222 255
197 222 255
197 222 255
197 222 255
197 222 255
197 222 255
197 222 255
197 222 255
197 222 255
197 222 255
196 222 255
196 222 255
196 222 255
196 222 255
196 222 255
196 222 255
196 222 255
196 222 255
196 222 255
196 222 255
196 222 255
196 222 255
196 222 255
196 222 255
196 222 255
196 222 255
196 222 255
196 222 255
196 222 255
196 222 255
196 222 255
196 222 255
196 222 255
196 222 255
196 222 255
196 222 255
196 222 255
196 222 255
196 222 255
196 222 255
196 222 255
196 222 255
196 222 255
196 222 255
196 222 255
196 222 255
196 222 255
196 222 255
196 222 255
196 222 255
197 222 255
197 222 255
197 222 255
197 222 255
197 222 255
197 222 255
197 222 255
197 222 255
197 222 255
197 222 255
197 222 255
197 222 255
197 222 255
197 222 255
197 222 255
197 222 255
197 222 255
197 222 255
197 222 255
197 222 255
197 222 255
197 222 255
197 222 255
197 222 255
197 222 255
197 222 255
198 223 255
198 223 255
198 223 255
198 223 255
198 223 255
198 223 255
198 223 255
198 223 255
198 223 255
198 223 255
198 223 255
198 223 255
198 223 255
198 223 255
198 223 255
198 223 255
198 223 255
198 223 255
199 223 255
199 223 255
199 223 255
199 223 255
198 218 249
200 161 184
199 74 84
197 0 0
199 0 0
199 0 0
196 0 0
195 0 0
200 0 0
201 0 0
202 0 0
203 0 0
205 0 0
203 0 0
198 0 0
196 0 0
198 0 0
203 0 0
200 0 0
201 0 0
201 0 0
199 0 0
205 0 0
199 0 0
198 0 0
202 0 0
204 0 0
203 0 0
200 0 0
204 0 0
201 0 0
204 0 0
205 0 0
207 0 0
207 0 0
209 0 0
206 0 0
206 0 0
207 0 0
201 0 0
203 0 0
205 0 0
206 0 0
206 0 0
208 0 0
206 0 0
209 0 0
207 0 0
211 0 0
209 0 0
205 0 0
207 0 0
207 0 0
206 0 0
207 0 0
208 0 0
207 0 0
207 0 0
210 0 0
208 0 0
205 0 0
207 0 0
206 0 0
209 0 0
208 0 0
210 0 0
203 0 0
206 0 0
207 0 0
208 0 0
208 0 0
208 0 0
208 0 0
207 0 0
209 0 0
208 0 0
208 0 0
207 0 0
212 0 0
211 0 0
210 0 0
210 0 0
208 0 0
211 0 0
209 0 0
208 0 0
208 0 0
208 0 0
207 0 0
208 0 0
209 0 0
208 0 0
210 0 0
209 0 0
207 0 0
208 0 0
209 0 0
214 0 0
209 0 0
212 0 0
210 0 0
206 0 0
208 0 0
208 0 0
211 0 0
211 0 0
208 0 0
210 0 0
211 0 0
210 0 0
209 0 0
210 0 0
205 0 0
212 0 0
210 0 0
212 0 0
207 0 0
207 0 0
211 0 0
210 0 0
208 0 0
211 0 0
211 0 0
207 0 0
212 0 0
211 0 0
210 0 0
209 0 0
212 0 0
211 0 0
209 0 0
210 0 0
0 0 255
0 0 255
0 0 255
0 0 255
0 0 255
0 0 255
0 0 255
0 0 255
0 0 255
0 0 255
0 0 254
0 0 255
0 0 255
0 0 255
0 0 255
0 0 255
0 0 255
0 0 255
0 0 255
0 0 254
0 0 255
0 0 255
0 0 255
0 0 255
0 0 254
0 0 255
0 0 255
0 0 255
0 0 255
0 0 255
0 0 254
0 0 255
0 0 255
0 0 254
0 0 254
0 0 254
0 0 255
0 0 255
0 0 252
0 0 255
0 0 255
0 0 254
0 0 252
0 0 255
0 0 255
0 0 254
0 0 255
0 0 254
0 0 255
0 0 253
0 0 255
0 0 255
0 0 255
0 0 255
0 0 252
0 0 254
0 0 254
0 0 255
0 0 253
0 0 253
0 0 254
0 0 253
0 0 255
0 0 255
0 0 255
0 0 255
0 0 253
0 0 254
0 0 252
0 0 253
0 0 254
0 0 254
0 0 255
0 0 254
0 0 255
0 0 253
0 0 253
0 0 254
0 0 255
0 0 254
0 0 254
0 0 254
0 0 253
0 0 255
0 0 254
0 0 252
0 0 254
0 0 253
0 0 255
0 0 253
0 0 254
0 0 253
0 0 253
0 0 255
0 0 253
0 0 253
0 0 250
0 0 252
0 0 253
0 0 253
0 0 252
0 0 255
0 0 255
0 0 253
0 0 255
0 0 253
0 0 253
0 0 255
0 0 253
0 0 253
0 0 254
0 0 253
0 0 253
0 0 252
0 0 250
0 0 252
0 0 246
0 0 253
0 0 254
0 0 252
0 0 253
0 0 252
0 0 250
0 0 253
0 0 253
0 0 245
0 0 252
0 0 249
0 0 253
0 0 248
0 0 252
69 77 252
146 164 254
196 220 255
199 223 255
199 223 255
199 223 255
199 223 255
199 223 255
198 223 255
198 223 255
198 223 255
198 223 255
198 223 255
198 223 255
198 223 255
198 223 255
198 223 255
198 223 255
198 223 255
198 223 255
198 223 255
198 223 255
198 223 255
198 223 255
198 223 255
198 223 255
197 223 255
197 222 255
197 222 255
197 222 255
197 222 255
197 222 255
197 222 255
197 222 255
197 222 255
197 222 255
197 222 255
197 222 255
197 222 255
197 222 255
197 222 255
197 222 255
197 222 255
197 222 255
197 222 255
197 222 255
197 222 255
197 222 255
197 222 255
197 222 255
197 222 255
197 222 255
197 222 255
197 222 255
197 222 255
197 222 255
197 222 255
197 222 255
196 222 255
196 222 255
196 222 255
196 222 255
196 222 255
196 222 255
196 222 255
196 222 255
196 222 255
196 222 255
196 222 255
196 222 255
196 222 255
196 222 255
196 222 255
196 222 255
196 222 255
196 222 255
196 222 255
196 222 255
196 222 255
196 222 255
197 222 255
197 222 255
197 222 255
197 222 255
197 222 255
197 222 255
197 222 255
197 222 255
197 222 255
197 222 255
197 222 255
197 222 255
197 222 255
197 222 255
197 222 255
197 222 255
197 222 255
197 222 255
197 222 255
197 222 255
197 222 255
197 222 255
197 222 255
197 222 255
197 222 255
197 222 255
197 222 255
197 222 255
197 222 255
197 222 255
197 222 255
197 223 255
198 223 255
198 223 255
198 223 255
198 223 255
198 223 255
198 223 255
198 223 255
198 223 255
198 223 255
198 223 255
198 223 255
198 223 255
198 223 255
198 223 255
198 223 255
198 223 255
198 223 255
198 223 255
198 223 255
199 223 255
199 223 255
199 223 255
199 223 255
199 223 255
199 150 171
202 54 62
196 0 0
198 0 0
201 0 0
199 0 0
204 0 0
200 0 0
202 0 0
201 0 0
198 0 0
200 0 0
200 0 0
204 0 0
204 0 0
200 0 0
204 0 0
202 0 0
202 0 0
205 0 0
199 0 0
202 0 0
206 0 0
207 0 0
201 0 0
204 0 0
204 0 0
200 0 0
201 0 0
205 0 0
204 0 0
204 0 0
203 0 0
204 0 0
206 0 0
204 0 0
203 0 0
197 0 0
205 0 0
204 0 0
207 0 0
202 0 0
209 0 0
206 0 0
203 0 0
207 0 0
211 0 0
203 0 0
207 0 0
209 0 0
209 0 0
207 0 0
206 0 0
206 0 0
206 0 0
206 0 0
210 0 0
209 0 0
212 0 0
207 0 0
210 0 0
207 0 0
207 0 0
211 0 0
208 0 0
209 0 0
207 0 0
212 0 0
209 0 0
206 0 0
205 0 0
209 0 0
206 0 0
208 0 0
209 0 0
206 0 0
212 0 0
208 0 0
208 0 0
208 0 0
207 0 0
206 0 0
209 0 0
209 0 0
209 0 0
209 0 0
209 0 0
209 0 0
210 0 0
206 0 0
210 0 0
207 0 0
210 0 0
206 0 0
206 0 0
209 0 0
209 0 0
210 0 0
209 0 0
209 0 0
209 0 0
212 0 0
210 0 0
207 0 0
208 0 0
209 0 0
209 0 0
210 0 0
211 0 0
212 0 0
212 0 0
212 0 0
211 0 0
206 0 0
212 0 0
215 0 0
214 0 0
212 0 0
211 0 0
209 0 0
211 0 0
211 0 0
211 0 0
211 0 0
209 0 0
211 0 0
213 0 0
211 0 0
209 0 0
210 0 0
212 0 0
207 0 0
211 0 0
0 0 255
0 0 255
0 0 255
0 0 255
0 0 255
0 0 255
0 0 255
0 0 255
0 0 255
0 0 255
0 0 255
0 0 255
0 0 255
0 0 255
0 0 255
0 0 255
0 0 255
0 0 255
0 0 254
0 0 255
0 0 255
0 0 255
0 0 255
0 0 255
0 0 255
0 0 255
0 0 255
0 0 255
0 0 255
0 0 254
0 0 255
0 0 254
0 0 255
0 0 255
0 0 254
0 0 255
0 0 254
0 0 255
0 0 254
0 0 255
0 0 255
0 0 254
0 0 254
0 0 255
0 0 255
0 0 255
0 0 255
0 0 255
0 0 255
0 0 255
0 0 253
0 0 254
0 0 253
0 0 254
0 0 253
0 0 255
0 0 254
0 0 254
0 0 255
0 0 250
0 0 255
0 0 254
0 0 254
0 0 254
0 0 254
0 0 254
0 0 255
0 0 254
0 0 254
0 0 253
0 0 255
0 0 255
0 0 253
0 0 255
0 0 253
0 0 254
0 0 255
0 0 249
0 0 252
0 0 255
0 0 252
0 0 255
0 0 253
0 0 250
0 0 252
0 0 252
0 0 254
0 0 252
0 0 254
0 0 255
0 0 254
0 0 252
0 0 252
0 0 254
0 0 254
0 0 255
0 0 255
0 0 254
0 0 253
0 0 254
0 0 255
0 0 249
0 0 253
0 0 254
0 0 253
0 0 250
0 0 253
0 0 249
0 0 254
0 0 255
0 0 250
0 0 253
0 0 254
0 0 252
0 0 248
0 0 245
0 0 253
0 0 252
0 0 252
0 0 252
0 0 249
0 0 246
0 0 252
0 0 254
0 0 254
0 0 254
0 0 253
0 0 250
0 0 253
0 0 255
0 0 253
0 0 246
0 0 249
56 63 248
151 170 253
197 221 255
199 223 255
199 223 255
199 223 255
199 223 255
199 223 255
199 223 255
198 223 255
198 223 255
198 223 255
198 223 255
198 223 255
198 223 255
198 223 255
198 223 255
198 223 255
198 223 255
198 223 255
198 223 255
198 223 255
198 223 255
198 223 255
198 223 255
198 223 255
198 223 255
198 223 255
197 223 255
197 222 255
197 222 255
197 222 255
197 222 255
197 222 255
197 222 255
197 222 255
197 222 255
197 222 255
197 222 255
197 222 255
197 222 255
197 222 255
197 222 255
197 222 255
197 222 255
197 222 255
197 222 255
197 222 255
197 222 255
197 222 255
197 222 255
197 222 255
197 222 255
197 222 255
197 222 255
197 222 255
197 222 255
197 222 255
197 222 255
197 222 255
197 222 255
197 222 255
197 222 255
197 222 255
197 222 255
197 222 255
197 222 255
197 222 255
197 222 255
197 222 255
197 222 255
197 222 255
197 222 255
197 222 255
197 222 255
197 222 255
197 222 255
197 222 255
197 222 255
197 222 255
197 222 255
197 222 255
197 222 255
197 222 255
197 222 255
197 222 255
197 222 255
197 222 255
197 222 255
197 222 255
197 222 255
197 222 255
197 222 255
197 222 255
197 222 255
197 222 255
197 222 255
197 222 255
197 222 255
197 222 255
197 222 255
197 222 255
197 222 255
197 222 255
197 222 255
197 223 255
198 223 255
198 223 255
198 223 255
198 223 255
198 223 255
198 223 255
198 223 255
198 223 255
198 223 255
198 223 255
198 223 255
198 223 255
198 223 255
198 223 255
198 223 255
198 223 255
198 223 255
198 223 255
198 223 255
198 223 255
199 223 255
199 223 255
199 223 255
199 223 255
199 223 255
199 220 252
197 170 194
195 63 72
195 0 0
201 0 0
202 0 0
198 0 0
203 0 0
199 0 0
201 0 0
205 0 0
196 0 0
200 0 0
202 0 0
199 0 0
201 0 0
201 0 0
200 0 0
201 0 0
201 0 0
205 0 0
202 0 0
202 0 0
203 0 0
202 0 0
204 0 0
203 0 0
204 0 0
205 0 0
204 0 0
205 0 0
205 0 0
204 0 0
199 0 0
206 0 0
202 0 0
207 0 0
209 0 0
211 0 0
204 0 0
206 0 0
208 0 0
208 0 0
206 0 0
205 0 0
206 0 0
203 0 0
202 0 0
208 0 0
206 0 0
207 0 0
204 0 0
205 0 0
205 0 0
205 0 0
207 0 0
203 0 0
205 0 0
209 0 0
207 0 0
210 0 0
203 0 0
205 0 0
212 0 0
209 0 0
209 0 0
208 0 0
209 0 0
212 0 0
206 0 0
205 0 0
208 0 0
206 0 0
206 0 0
209 0 0
210 0 0
209 0 0
206 0 0
206 0 0
209 0 0
207 0 0
210 0 0
205 0 0
208 0 0
209 0 0
209 0 0
208 0 0
208 0 0
209 0 0
209 0 0
211 0 0
208 0 0
208 0 0
211 0 0
209 0 0
206 0 0
210 0 0
212 0 0
208 0 0
208 0 0
211 0 0
208 0 0
213 0 0
213 0 0
209 0 0
208 0 0
211 0 0
208 0 0
211 0 0
211 0 0
212 0 0
211 0 0
212 0 0
214 0 0
210 0 0
210 0 0
209 0 0
209 0 0
210 0 0
210 0 0
213 0 0
210 0 0
207 0 0
212 0 0
214 0 0
208 0 0
211 0 0
214 0 0
211 0 0
210 0 0
211 0 0
210 0 0
214 0 0
210 0 0
211 0 0
213 0 0
0 0 255
0 0 253
0 0 255
0 0 255
0 0 255
0 0 255
0 0 255
0 0 255
0 0 255
0 0 255
0 0 255
0 0 255
0 0 255
0 0 254
0 0 255
0 0 255
0 0 255
0 0 255
0 0 255
0 0 255
0 0 255
0 0 255
0 0 255
0 0 255
0 0 254
0 0 254
0 0 255
0 0 255
0 0 255
0 0 255
0 0 255
0 0 255
0 0 254
0 0 254
0 0 255
0 0 255
0 0 255
0 0 254
0 0 253
0 0 255
0 0 255
0 0 255
0 0 255
0 0 255
0 0 255
0 0 254
0 0 255
0 0 253
0 0 255
0 0 254
0 0 255
0 0 255
0 0 253
0 0 255
0 0 255
0 0 255
0 0 254
0 0 255
0 0 255
0 0 255
0 0 254
0 0 254
0 0 255
0 0 253
0 0 254
0 0 255
0 0 255
0 0 254
0 0 254
0 0 255
0 0 254
0 0 254
0 0 252
0 0 249
0 0 254
0 0 253
0 0 253
0 0 253
0 0 255
0 0 254
0 0 254
0 0 254
0 0 252
0 0 255
0 0 255
0 0 252
0 0 254
0 0 254
0 0 253
0 0 252
0 0 253
0 0 250
0 0 253
0 0 255
0 0 249
0 0 253
0 0 253
0 0 254
0 0 255
0 0 253
0 0 255
0 0 254
0 0 254
0 0 252
0 0 252
0 0 250
0 0 252
0 0 253
0 0 255
0 0 254
0 0 253
0 0 250
0 0 254
0 0 254
0 0 253
0 0 252
0 0 248
0 0 252
0 0 253
0 0 250
0 0 250
0 0 255
0 0 250
0 0 250
0 0 248
0 0 249
0 0 252
0 0 253
0 0 250
0 0 252
0 0 250
0 0 250
0 0 250
0 0 253
0 0 254
56 63 254
155 174 254
194 218 255
199 223 255
199 223 255
199 223 255
199 223 255
199 223 255
199 223 255
199 223 255
198 223 255
198 223 255
198 223 255
198 223 255
198 223 255
198 223 255
198 223 255
198 223 255
198 223 255
198 223 255
198 223 255
198 223 255
198 223 255
198 223 255
198 223 255
198 223 255
198 223 255
198 223 255
198 223 255
198 223 255
197 223 255
197 222 255
197 222 255
197 222 255
197 222 255
197 222 255
197 222 255
197 222 255
197 222 255
197 222 255
197 222 255
197 222 255
197 222 255
197 222 255
197 222 255
197 222 255
197 222 255
197 222 255
197 222 255
197 222 255
197 222 255
197 222 255
197 222 255
197 222 255
197 222 255
197 222 255
197 222 255
197 222 255
197 222 255
197 222 255
197 222 255
197 222 255
197 222 255
197 222 255
197 222 255
197 222 255
197 222 255
197 222 255
197 222 255
197 222 255
197 222 255
197 222 255
197 222 255
197 222 255
197 222 255
197 222 255
197 222 255
197 222 255
197 222 255
197 222 255
197 222 255
197 222 255
197 222 255
197 222 255
197 222 255
197 222 255
197 222 255
197 222 255
197 222 255
197 222 255
197 222 255
197 222 255
197 222 255
197 222 255
197 222 255
197 222 255
197 222 255
197 222 255
197 222 255
197 223 255
198 223 255
198 223 255
198 223 255
198 223 255
198 223 255
198 223 255
198 223 255
198 223 255
198 223 255
198 223 255
198 223 255
198 223 255
198 223 255
198 223 255
198 223 255
198 223 255
198 223 255
198 223 255
198 223 255
198 223 255
199 223 255
199 223 255
199 223 255
199 223 255
199 223 255
199 223 255
199 223 255
199 221 253
199 177 203
195 67 76
196 0 0
197 0 0
198 0 0
202 0 0
200 0 0
202 0 0
198 0 0
198 0 0
200 0 0
199 0 0
200 0 0
201 0 0
199 0 0
197 0 0
198 0 0
201 0 0
200 0 0
204 0 0
206 0 0
200 0 0
202 0 0
202 0 0
206 0 0
200 0 0
203 0 0
204 0 0
204 0 0
201 0 0
201 0 0
208 0 0
209 0 0
203 0 0
211 0 0
207 0 0
203 0 0
203 0 0
205 0 0
204 0 0
205 0 0
206 0 0
203 0 0
208 0 0
205 0 0
205 0 0
208 0 0
205 0 0
209 0 0
205 0 0
208 0 0
203 0 0
210 0 0
202 0 0
211 0 0
206 0 0
206 0 0
204 0 0
202 0 0
208 0 0
208 0 0
208 0 0
204 0 0
206 0 0
213 0 0
207 0 0
209 0 0
206 0 0
208 0 0
207 0 0
208 0 0
209 0 0
207 0 0
208 0 0
204 0 0
206 0 0
209 0 0
211 0 0
211 0 0
212 0 0
208 0 0
208 0 0
206 0 0
210 0 0
209 0 0
209 0 0
208 0 0
208 0 0
209 0 0
211 0 0
209 0 0
211 0 0
208 0 0
208 0 0
208 0 0
211 0 0
211 0 0
212 0 0
208 0 0
207 0 0
207 0 0
211 0 0
209 0 0
207 0 0
208 0 0
211 0 0
208 0 0
212 0 0
210 0 0
210 0 0
210 0 0
211 0 0
211 0 0
211 0 0
209 0 0
213 0 0
209 0 0
211 0 0
211 0 0
210 0 0
213 0 0
213 0 0
209 0 0
210 0 0
208 0 0
212 0 0
213 0 0
209 0 0
211 0 0
213 0 0
210 0 0
215 0 0
209 0 0
210 0 0
215 0 0
211 0 0
213 0 0
0 0 255
0 0 255
0 0 255
0 0 255
0 0 255
0 0 255
0 0 255
0 0 255
0 0 255
0 0 255
0 0 255
0 0 254
0 0 254
0 0 255
0 0 255
0 0 255
0 0 255
0 0 255
0 0 255
0 0 255
0 0 255
0 0 255
0 0 255
0 0 254
0 0 255
0 0 255
0 0 255
0 0 254
0 0 255
0 0 255
0 0 255
0 0 255
0 0 254
0 0 254
0 0 255
0 0 255
0 0 254
0 0 254
0 0 255
0 0 255
0 0 255
0 0 254
0 0 255
0 0 255
0 0 255
0 0 255
0 0 254
0 0 255
0 0 255
0 0 254
0 0 254
0 0 253
0 0 253
0 0 255
0 0 254
0 0 253
0 0 255
0 0 253
0 0 255
0 0 254
0 0 254
0 0 255
0 0 253
0 0 254
0 0 255
0 0 253
0 0 252
0 0 255
0 0 250
0 0 255
0 0 255
0 0 250
0 0 255
0 0 255
0 0 253
0 0 253
0 0 254
0 0 253
0 0 255
0 0 254
0 0 250
0 0 253
0 0 254
0 0 254
0 0 254
0 0 252
0 0 254
0 0 254
0 0 255
0 0 254
0 0 250
0 0 252
0 0 253
0 0 254
0 0 252
0 0 254
0 0 254
0 0 254
0 0 252
0 0 249
0 0 253
0 0 246
0 0 254
0 0 254
0 0 250
0 0 254
0 0 252
0 0 250
0 0 249
0 0 255
0 0 249
0 0 253
0 0 252
0 0 248
0 0 249
0 0 252
0 0 254
0 0 248
0 0 250
0 0 252
0 0 248
0 0 250
0 0 246
0 0 249
0 0 252
0 0 250
0 0 249
0 0 249
0 0 250
0 0 252
0 0 248
0 0 252
0 0 249
0 0 253
0 0 252
0 0 248
0 0 254
71 80 253
169 189 255
199 223 255
199 223 255
199 223 255
199 223 255
199 223 255
199 223 255
199 223 255
199 223 255
199 223 255
198 223 255
198 223 255
198 223 255
198 223 255
198 223 255
198 223 255
198 223 255
198 223 255
198 223 255
198 223 255
198 223 255
198 223 255
198 223 255
198 223 255
198 223 255
198 223 255
198 223 255
198 223 255
198 223 255
198 223 255
198 223 255
198 223 255
197 223 255
197 222 255
197 222 255
197 222 255
197 222 255
197 222 255
197 222 255
197 222 255
197 222 255
197 222 255
197 222 255
197 222 255
197 222 255
197 222 255
197 222 255
197 222 255
197 222 255
197 222 255
197 222 255
197 222 255
197 222 255
197 222 255
197 222 255
197 222 255
197 222 255
197 222 255
197 222 255
197 222 255
197 222 255
197 222 255
197 222 255
197 222 255
197 222 255
197 222 255
197 222 255
197 222 255
197 222 255
197 222 255
197 222 255
197 222 255
197 222 255
197 222 255
197 222 255
197 222 255
197 222 255
197 222 255
197 222 255
197 222 255
197 222 255
197 222 255
197 222 255
197 222 255
197 222 255
197 222 255
197 222 255
197 222 255
197 222 255
197 222 255
197 222 255
197 222 255
198 223 255
198 223 255
198 223 255
198 223 255
198 223 255
198 223 255
198 223 255
198 223 255
198 223 255
198 223 255
198 223 255
198 223 255
198 223 255
198 223 255
198 223 255
198 223 255
198 223 255
198 223 255
198 223 255
198 223 255
198 223 255
198 223 255
199 223 255
199 223 255
199 223 255
199 223 255
199 223 255
199 223 255
199 223 255
199 223 255
199 223 255
200 180 206
197 94 108
197 0 0
194 0 0
199 0 0
195 0 0
191 0 0
198 0 0
199 0 0
197 0 0
202 0 0
199 0 0
202 0 0
204 0 0
198 0 0
199 0 0
200 0 0
194 0 0
202 0 0
203 0 0
202 0 0
203 0 0
202 0 0
203 0 0
204 0 0
202 0 0
202 0 0
201 0 0
202 0 0
201 0 0
204 0 0
206 0 0
205 0 0
201 0 0
204 0 0
200 0 0
203 0 0
205 0 0
204 0 0
205 0 0
207 0 0
205 0 0
205 0 0
203 0 0
204 0 0
205 0 0
204 0 0
208 0 0
205 0 0
199 0 0
203 0 0
211 0 0
205 0 0
206 0 0
207 0 0
206 0 0
208 0 0
205 0 0
205 0 0
212 0 0
211 0 0
203 0 0
207 0 0
209 0 0
204 0 0
207 0 0
203 0 0
209 0 0
206 0 0
207 0 0
203 0 0
208 0 0
210 0 0
204 0 0
212 0 0
209 0 0
203 0 0
211 0 0
208 0 0
210 0 0
207 0 0
212 0 0
209 0 0
209 0 0
209 0 0
209 0 0
206 0 0
209 0 0
211 0 0
208 0 0
211 0 0
209 0 0
207 0 0
209 0 0
210 0 0
212 0 0
210 0 0
210 0 0
210 0 0
207 0 0
209 0 0
212 0 0
209 0 0
212 0 0
207 0 0
213 0 0
212 0 0
207 0 0
208 0 0
211 0 0
212 0 0
210 0 0
212 0 0
211 0 0
211 0 0
211 0 0
211 0 0
215 0 0
207 0 0
212 0 0
211 0 0
210 0 0
212 0 0
213 0 0
208 0 0
206 0 0
210 0 0
212 0 0
216 0 0
209 0 0
214 0 0
207 0 0
212 0 0
211 0 0
213 0 0
211 0 0
212 0 0
212 0 0
215 0 0
0 0 255
0 0 255
0 0 255
0 0 255
0 0 255
0 0 255
0 0 254
0 0 254
0 0 255
0 0 255
0 0 255
0 0 255
0 0 255
0 0 255
0 0 255
0 0 255
0 0 254
0 0 255
0 0 255
0 0 255
0 0 255
0 0 254
0 0 255
0 0 253
0 0 254
0 0 255
0 0 255
0 0 253
0 0 255
0 0 255
0 0 254
0 0 254
0 0 254
0 0 254
0 0 255
0 0 255
0 0 254
0 0 254
0 0 255
0 0 255
0 0 254
0 0 255
0 0 254
0 0 255
0 0 255
0 0 255
0 0 255
0 0 255
0 0 255
0 0 255
0 0 254
0 0 255
0 0 255
0 0 252
0 0 254
0 0 253
0 0 254
0 0 254
0 0 253
0 0 255
0 0 255
0 0 252
0 0 255
0 0 254
0 0 255
0 0 255
0 0 255
0 0 254
0 0 255
0 0 254
0 0 253
0 0 254
0 0 254
0 0 255
0 0 253
0 0 253
0 0 255
0 0 254
0 0 253
0 0 254
0 0 254
0 0 255
0 0 252
0 0 255
0 0 253
0 0 250
0 0 253
0 0 253
0 0 250
0 0 253
0 0 253
0 0 252
0 0 253
0 0 252
0 0 253
0 0 253
0 0 254
0 0 252
0 0 250
0 0 253
0 0 254
0 0 253
0 0 253
0 0 253
0 0 254
0 0 253
0 0 255
0 0 252
0 0 252
0 0 250
0 0 246
0 0 252
0 0 249
0 0 252
0 0 248
0 0 252
0 0 253
0 0 252
0 0 254
0 0 250
0 0 252
0 0 252
0 0 250
0 0 254
0 0 250
0 0 253
0 0 248
0 0 245
0 0 250
0 0 246
0 0 249
0 0 246
0 0 249
0 0 252
0 0 249
0 0 250
0 0 249
0 0 252
0 0 248
89 100 253
181 203 255
199 223 255
199 223 255
199 223 255
199 223 255
199 223 255
199 223 255
199 223 255
199 223 255
199 223 255
199 223 255
198 223 255
198 223 255
198 223 255
198 223 255
198 223 255
198 223 255
198 223 255
198 223 255
198 223 255
198 223 255
198 223 255
198 223 255
198 223 255
198 223 255
198 223 255
198 223 255
198 223 255
198 223 255
198 223 255
198 223 255
198 223 255
198 223 255
198 223 255
198 223 255
197 223 255
197 222 255
197 222 255
197 222 255
197 222 255
197 222 255
197 222 255
197 222 255
197 222 255
197 222 255
197 222 255
197 222 255
197 222 255
197 222 255
197 222 255
197 222 255
197 222 255
197 222 255
197 222 255
197 222 255
197 222 255
197 222 255
197 222 255
197 222 255
197 222 255
197 222 255
197 222 255
197 222 255
197 222 255
197 222 255
197 222 255
197 222 255
197 222 255
197 222 255
197 222 255
197 222 255
197 222 255
197 222 255
197 222 255
197 222 255
197 222 255
197 222 255
197 222 255
197 222 255
197 222 255
197 222 255
197 222 255
197 222 255
197 222 255
197 223 255
198 223 255
198 223 255
198 223 255
198 223 255
198 223 255
198 223 255
198 223 255
198 223 255
198 223 255
198 223 255
198 223 255
198 223 255
198 223 255
198 223 255
198 223 255
198 223 255
198 223 255
198 223 255
198 223 255
198 223 255
198 223 255
198 223 255
198 223 255
198 223 255
199 223 255
199 223 255
199 223 255
199 223 255
199 223 255
199 223 255
199 223 255
199 223 255
199 223 255
199 223 255
199 189 217
200 109 125
197 0 0
196 0 0
198 0 0
198 0 0
196 0 0
200 0 0
204 0 0
198 0 0
203 0 0
195 0 0
195 0 0
194 0 0
201 0 0
202 0 0
201 0 0
200 0 0
204 0 0
202 0 0
202 0 0
198 0 0
204 0 0
201 0 0
203 0 0
205 0 0
201 0 0
203 0 0
206 0 0
204 0 0
203 0 0
199 0 0
205 0 0
202 0 0
207 0 0
204 0 0
206 0 0
205 0 0
203 0 0
204 0 0
202 0 0
205 0 0
202 0 0
204 0 0
201 0 0
204 0 0
206 0 0
204 0 0
206 0 0
207 0 0
208 0 0
207 0 0
204 0 0
207 0 0
205 0 0
208 0 0
210 0 0
207 0 0
206 0 0
204 0 0
209 0 0
204 0 0
210 0 0
204 0 0
207 0 0
205 0 0
207 0 0
205 0 0
209 0 0
209 0 0
210 0 0
209 0 0
212 0 0
211 0 0
211 0 0
204 0 0
209 0 0
208 0 0
210 0 0
213 0 0
207 0 0
215 0 0
207 0 0
206 0 0
210 0 0
208 0 0
210 0 0
209 0 0
213 0 0
210 0 0
210 0 0
211 0 0
210 0 0
210 0 0
212 0 0
211 0 0
211 0 0
209 0 0
211 0 0
210 0 0
212 0 0
210 0 0
209 0 0
209 0 0
209 0 0
208 0 0
210 0 0
207 0 0
208 0 0
211 0 0
206 0 0
211 0 0
208 0 0
211 0 0
208 0 0
211 0 0
210 0 0
208 0 0
210 0 0
210 0 0
209 0 0
213 0 0
210 0 0
209 0 0
213 0 0
216 0 0
211 0 0
211 0 0
213 0 0
210 0 0
209 0 0
209 0 0
212 0 0
206 0 0
211 0 0
210 0 0
213 0 0
212 0 0
213 0 0
210 0 0
211 0 0
0 0 255
0 0 255
0 0 255
0 0 255
0 0 255
0 0 255
0 0 255
0 0 255
0 0 255
0 0 255
0 0 255
0 0 255
0 0 255
0 0 255
0 0 255
0 0 254
0 0 255
0 0 255
0 0 254
0 0 254
0 0 255
0 0 255
0 0 255
0 0 254
0 0 255
0 0 255
0 0 255
0 0 254
0 0 255
0 0 254
0 0 255
0 0 255
0 0 255
0 0 254
0 0 254
0 0 255
0 0 255
0 0 255
0 0 255
0 0 253
0 0 255
0 0 254
0 0 255
0 0 254
0 0 255
0 0 254
0 0 255
0 0 255
0 0 255
0 0 255
0 0 255
0 0 252
0 0 252
0 0 253
0 0 253
0 0 253
0 0 255
0 0 254
0 0 250
0 0 255
0 0 254
0 0 255
0 0 252
0 0 253
0 0 255
0 0 254
0 0 254
0 0 250
0 0 254
0 0 253
0 0 255
0 0 253
0 0 255
0 0 255
0 0 252
0 0 252
0 0 252
0 0 254
0 0 254
0 0 253
0 0 254
0 0 255
0 0 254
0 0 253
0 0 254
0 0 253
0 0 253
0 0 249
0 0 252
0 0 253
0 0 250
0 0 252
0 0 254
0 0 253
0 0 252
0 0 249
0 0 253
0 0 252
0 0 250
0 0 252
0 0 252
0 0 252
0 0 254
0 0 254
0 0 253
0 0 250
0 0 250
0 0 254
0 0 254
0 0 253
0 0 250
0 0 248
0 0 250
0 0 252
0 0 253
0 0 252
0 0 254
0 0 249
0 0 252
0 0 252
0 0 245
0 0 250
0 0 252
0 0 252
0 0 253
0 0 250
0 0 248
0 0 246
0 0 249
0 0 248
0 0 254
0 0 248
0 0 250
0 0 249
0 0 246
0 0 253
0 0 252
0 0 250
0 0 250
0 0 249
0 0 253
123 138 254
187 210 253
199 223 255
199 223 255
199 223 255
199 223 255
199 223 255
199 223 255
199 223 255
199 223 255
199 223 255
199 223 255
199 223 255
199 223 255
198 223 255
198 223 255
198 223 255
198 223 255
198 223 255
198 223 255
198 223 255
198 223 255
198 223 255
198 223 255
198 223 255
198 223 255
198 223 255
198 223 255
198 223 255
198 223 255
198 223 255
198 223 255
198 223 255
198 223 255
198 223 255
198 223 255
198 223 255
198 223 255
198 223 255
198 223 255
198 223 255
197 223 255
197 223 255
197 223 255
197 222 255
197 222 255
197 222 255
197 222 255
197 222 255
197 222 255
197 222 255
197 222 255
197 222 255
197 222 255
197 222 255
197 222 255
197 222 255
197 222 255
197 222 255
197 222 255
197 222 255
197 222 255
197 222 255
197 222 255
197 222 255
197 222 255
197 222 255
197 222 255
197 222 255
197 222 255
197 222 255
197 222 255
197 222 255
197 222 255
197 222 255
197 223 255
198 223 255
198 223 255
198 223 255
198 223 255
198 223 255
198 223 255
198 223 255
198 223 255
198 223 255
198 223 255
198 223 255
198 223 255
198 223 255
198 223 255
198 223 255
198 223 255
198 223 255
198 223 255
198 223 255
198 223 255
198 223 255
198 223 255
198 223 255
198 223 255
198 223 255
198 223 255
198 223 255
198 223 255
199 223 255
199 223 255
199 223 255
199 223 255
199 223 255
199 223 255
199 223 255
199 223 255
199 223 255
199 223 255
199 223 255
199 223 255
199 212 242
198 124 142
194 22 25
195 0 0
195 0 0
196 0 0
199 0 0
200 0 0
200 0 0
191 0 0
199 0 0
199 0 0
199 0 0
204 0 0
202 0 0
205 0 0
202 0 0
204 0 0
196 0 0
204 0 0
204 0 0
197 0 0
196 0 0
198 0 0
198 0 0
205 0 0
204 0 0
204 0 0
203 0 0
201 0 0
204 0 0
204 0 0
206 0 0
200 0 0
200 0 0
202 0 0
203 0 0
203 0 0
204 0 0
205 0 0
207 0 0
198 0 0
204 0 0
207 0 0
206 0 0
203 0 0
200 0 0
205 0 0
204 0 0
202 0 0
209 0 0
203 0 0
207 0 0
208 0 0
208 0 0
211 0 0
207 0 0
205 0 0
212 0 0
204 0 0
206 0 0
207 0 0
208 0 0
210 0 0
210 0 0
207 0 0
210 0 0
211 0 0
207 0 0
206 0 0
208 0 0
209 0 0
207 0 0
207 0 0
207 0 0
210 0 0
208 0 0
209 0 0
208 0 0
208 0 0
209 0 0
210 0 0
209 0 0
206 0 0
209 0 0
207 0 0
207 0 0
207 0 0
210 0 0
207 0 0
208 0 0
207 0 0
212 0 0
206 0 0
205 0 0
211 0 0
214 0 0
208 0 0
211 0 0
209 0 0
210 0 0
209 0 0
211 0 0
209 0 0
212 0 0
208 0 0
210 0 0
214 0 0
214 0 0
210 0 0
211 0 0
213 0 0
212 0 0
209 0 0
211 0 0
208 0 0
210 0 0
206 0 0
212 0 0
210 0 0
211 0 0
213 0 0
210 0 0
211 0 0
214 0 0
213 0 0
212 0 0
213 0 0
210 0 0
212 0 0
212 0 0
212 0 0
208 0 0
211 0 0
212 0 0
212 0 0
212 0 0
213 0 0
211 0 0
211 0 0
212 0 0
212 0 0
212 0 0
0 0 255
0 0 255
0 0 254
0 0 255
0 0 254
0 0 255
0 0 255
0 0 255
0 0 255
0 0 255
0 0 255
0 0 254
0 0 255
0 0 255
0 0 255
0 0 255
0 0 255
0 0 255
0 0 254
0 0 255
0 0 255
0 0 254
0 0 254
0 0 255
0 0 254
0 0 255
0 0 255
0 0 255
0 0 254
0 0 255
0 0 254
0 0 255
0 0 255
0 0 253
0 0 254
0 0 255
0 0 255
0 0 255
0 0 255
0 0 255
0 0 254
0 0 255
0 0 254
0 0 254
0 0 255
0 0 254
0 0 255
0 0 255
0 0 253
0 0 254
0 0 255
0 0 255
0 0 255
0 0 254
0 0 254
0 0 255
0 0 255
0 0 255
0 0 254
0 0 255
0 0 253
0 0 252
0 0 254
0 0 253
0 0 254
0 0 253
0 0 254
0 0 253
0 0 253
0 0 254
0 0 254
0 0 250
0 0 254
0 0 253
0 0 254
0 0 253
0 0 250
0 0 250
0 0 254
0 0 250
0 0 254
0 0 254
0 0 254
0 0 253
0 0 253
0 0 254
0 0 254
0 0 254
0 0 253
0 0 252
0 0 255
0 0 254
0 0 255
0 0 253
0 0 249
0 0 254
0 0 249
0 0 254
0 0 254
0 0 254
0 0 250
0 0 250
0 0 254
0 0 250
0 0 250
0 0 250
0 0 254
0 0 254
0 0 254
0 0 250
0 0 252
0 0 250
0 0 248
0 0 246
0 0 248
0 0 254
0 0 254
0 0 254
0 0 253
0 0 250
0 0 250
0 0 250
0 0 249
0 0 250
0 0 248
0 0 253
0 0 252
0 0 252
0 0 249
0 0 249
0 0 252
0 0 250
0 0 250
0 0 245
0 0 250
0 0 248
0 0 250
0 0 250
0 0 249
0 0 250
0 0 250
0 0 252
56 63 249
141 158 253
197 221 255
199 223 255
199 223 255
199 223 255
199 223 255
199 223 255
199 223 255
199 223 255
199 223 255
199 223 255
199 223 255
199 223 255
199 223 255
199 223 255
199 223 255
198 223 255
198 223 255
198 223 255
198 223 255
198 223 255
198 223 255
198 223 255
198 223 255
198 223 255
198 223 255
198 223 255
198 223 255
198 223 255
198 223 255
198 223 255
198 223 255
198 223 255
198 223 255
198 223 255
198 223 255
198 223 255
198 223 255
198 223 255
198 223 255
198 223 255
198 223 255
198 223 255
198 223 255
198 223 255
198 223 255
198 223 255
198 223 255
198 223 255
198 223 255
198 223 255
198 223 255
198 223 255
198 223 255
197 223 255
197 223 255
198 223 255
197 223 255
197 223 255
197 223 255
197 223 255
198 223 255
198 223 255
198 223 255
198 223 255
198 223 255
198 223 255
198 223 255
198 223 255
198 223 255
198 223 255
198 223 255
198 223 255
198 223 255
198 223 255
198 223 255
198 223 255
198 223 255
198 223 255
198 223 255
198 223 255
198 223 255
198 223 255
198 223 255
198 223 255
198 223 255
198 223 255
198 223 255
198 223 255
198 223 255
198 223 255
198 223 255
198 223 255
198 223 255
198 223 255
198 223 255
198 223 255
198 223 255
199 223 255
199 223 255
199 223 255
199 223 255
199 223 255
199 223 255
199 223 255
199 223 255
199 223 255
199 223 255
199 223 255
199 223 255
199 223 255
199 223 255
199 223 255
196 161 184
197 31 36
198 0 0
196 0 0
198 0 0
199 0 0
197 0 0
196 0 0
197 0 0
196 0 0
196 0 0
200 0 0
198 0 0
202 0 0
198 0 0
204 0 0
204 0 0
200 0 0
200 0 0
203 0 0
204 0 0
205 0 0
205 0 0
206 0 0
197 0 0
206 0 0
201 0 0
203 0 0
198 0 0
203 0 0
202 0 0
200 0 0
202 0 0
204 0 0
205 0 0
205 0 0
206 0 0
206 0 0
206 0 0
205 0 0
205 0 0
207 0 0
203 0 0
209 0 0
208 0 0
203 0 0
205 0 0
210 0 0
204 0 0
208 0 0
205 0 0
205 0 0
207 0 0
210 0 0
208 0 0
206 0 0
209 0 0
205 0 0
206 0 0
209 0 0
209 0 0
205 0 0
212 0 0
212 0 0
202 0 0
207 0 0
205 0 0
212 0 0
210 0 0
212 0 0
210 0 0
207 0 0
210 0 0
206 0 0
210 0 0
205 0 0
209 0 0
207 0 0
205 0 0
210 0 0
208 0 0
209 0 0
209 0 0
206 0 0
207 0 0
211 0 0
207 0 0
209 0 0
206 0 0
212 0 0
207 0 0
207 0 0
210 0 0
207 0 0
211 0 0
210 0 0
210 0 0
209 0 0
213 0 0
208 0 0
209 0 0
211 0 0
210 0 0
212 0 0
212 0 0
211 0 0
211 0 0
213 0 0
210 0 0
206 0 0
207 0 0
212 0 0
213 0 0
212 0 0
210 0 0
208 0 0
213 0 0
211 0 0
208 0 0
209 0 0
213 0 0
212 0 0
213 0 0
214 0 0
212 0 0
207 0 0
211 0 0
210 0 0
214 0 0
210 0 0
211 0 0
209 0 0
210 0 0
211 0 0
215 0 0
211 0 0
213 0 0
211 0 0
212 0 0
212 0 0
214 0 0
216 0 0
213 0 0
211 0 0
0 0 255
0 0 254
0 0 255
0 0 255
0 0 255
0 0 255
0 0 255
0 0 255
0 0 254
0 0 255
0 0 253
0 0 255
0 0 255
0 0 255
0 0 255
0 0 254
0 0 254
0 0 255
0 0 254
0 0 255
0 0 255
0 0 255
0 0 255
0 0 255
0 0 255
0 0 255
0 0 255
0 0 254
0 0 255
0 0 255
0 0 255
0 0 255
0 0 255
0 0 255
0 0 254
0 0 255
0 0 253
0 0 255
0 0 254
0 0 254
0 0 254
0 0 254
0 0 254
0 0 254
0 0 255
0 0 253
0 0 255
0 0 253
0 0 255
0 0 252
0 0 255
0 0 255
0 0 254
0 0 253
0 0 255
0 0 252
0 0 254
0 0 254
0 0 254
0 0 255
0 0 253
0 0 253
0 0 254
0 0 255
0 0 254
0 0 254
0 0 255
0 0 255
0 0 254
0 0 255
0 0 253
0 0 255
0 0 253
0 0 252
0 0 252
0 0 255
0 0 255
0 0 255
0 0 255
0 0 255
0 0 254
0 0 252
0 0 254
0 0 252
0 0 249
0 0 252
0 0 253
0 0 254
0 0 252
0 0 255
0 0 254
0 0 254
0 0 250
0 0 249
0 0 255
0 0 254
0 0 255
0 0 253
0 0 254
0 0 254
0 0 252
0 0 252
0 0 253
0 0 253
0 0 252
0 0 253
0 0 252
0 0 250
0 0 250
0 0 252
0 0 253
0 0 253
0 0 252
0 0 252
0 0 248
0 0 252
0 0 254
0 0 250
0 0 253
0 0 249
0 0 254
0 0 254
0 0 252
0 0 246
0 0 250
0 0 249
0 0 252
0 0 244
0 0 252
0 0 253
0 0 254
0 0 246
0 0 246
0 0 252
0 0 246
0 0 249
0 0 245
0 0 249
0 0 249
0 0 245
0 0 253
0 0 253
0 0 250
0 0 252
79 89 249
170 191 254
199 223 255
199 223 255
199 223 255
199 223 255
199 223 255
199 223 255
199 223 255
199 223 255
199 223 255
199 223 255
199 223 255
199 223 255
199 223 255
199 223 255
199 223 255
199 223 255
199 223 255
198 223 255
198 223 255
198 223 255
198 223 255
198 223 255
198 223 255
198 223 255
198 223 255
198 223 255
198 223 255
198 223 255
198 223 255
198 223 255
198 223 255
198 223 255
198 223 255
198 223 255
198 223 255
198 223 255
198 223 255
198 223 255
198 223 255
198 223 255
198 223 255
198 223 255
198 223 255
198 223 255
198 223 255
198 223 255
198 223 255
198 223 255
198 223 255
198 223 255
198 223 255
198 223 255
198 223 255
198 223 255
198 223 255
198 223 255
198 223 255
198 223 255
198 223 255
198 223 255
198 223 255
198 223 255
198 223 255
198 223 255
198 223 255
198 223 255
198 223 255
198 223 255
198 223 255
198 223 255
198 223 255
198 223 255
198 223 255
198 223 255
198 223 255
198 223 255
198 223 255
198 223 255
198 223 255
198 223 255
198 223 255
198 223 255
198 223 255
198 223 255
198 223 255
198 223 255
198 223 255
198 223 255
198 223 255
198 223 255
198 223 255
199 223 255
199 223 255
199 223 255
199 223 255
199 223 255
199 223 255
199 223 255
199 223 255
199 223 255
199 223 255
199 223 255
199 223 255
199 223 255
199 223 255
199 223 255
199 223 255
199 223 255
200 190 217
201 92 105
195 0 0
194 0 0
198 0 0
194 0 0
198 0 0
197 0 0
197 0 0
194 0 0
199 0 0
202 0 0
203 0 0
202 0 0
201 0 0
195 0 0
199 0 0
195 0 0
203 0 0
198 0 0
202 0 0
200 0 0
203 0 0
200 0 0
200 0 0
204 0 0
205 0 0
201 0 0
205 0 0
200 0 0
199 0 0
204 0 0
202 0 0
208 0 0
203 0 0
203 0 0
202 0 0
203 0 0
203 0 0
202 0 0
204 0 0
201 0 0
205 0 0
207 0 0
207 0 0
207 0 0
206 0 0
207 0 0
204 0 0
205 0 0
211 0 0
203 0 0
209 0 0
208 0 0
209 0 0
206 0 0
209 0 0
207 0 0
206 0 0
205 0 0
209 0 0
208 0 0
208 0 0
209 0 0
210 0 0
207 0 0
211 0 0
208 0 0
209 0 0
208 0 0
207 0 0
206 0 0
209 0 0
207 0 0
206 0 0
211 0 0
209 0 0
209 0 0
209 0 0
212 0 0
205 0 0
208 0 0
206 0 0
211 0 0
209 0 0
209 0 0
208 0 0
210 0 0
209 0 0
209 0 0
207 0 0
209 0 0
209 0 0
207 0 0
210 0 0
209 0 0
209 0 0
210 0 0
207 0 0
209 0 0
213 0 0
213 0 0
212 0 0
210 0 0
209 0 0
209 0 0
213 0 0
209 0 0
211 0 0
215 0 0
210 0 0
210 0 0
207 0 0
213 0 0
209 0 0
210 0 0
209 0 0
211 0 0
209 0 0
208 0 0
216 0 0
211 0 0
213 0 0
211 0 0
213 0 0
211 0 0
210 0 0
210 0 0
214 0 0
211 0 0
210 0 0
214 0 0
211 0 0
213 0 0
209 0 0
211 0 0
208 0 0
213 0 0
213 0 0
211 0 0
214 0 0
211 0 0
214 0 0
208 0 0
211 0 0
212 0 0
0 0 255
0 0 255
0 0 255
0 0 255
0 0 254
0 0 255
0 0 255
0 0 254
0 0 255
0 0 255
0 0 255
0 0 255
0 0 255
0 0 255
0 0 254
0 0 255
0 0 255
0 0 255
0 0 254
0 0 254
0 0 253
0 0 255
0 0 254
0 0 255
0 0 255
0 0 254
0 0 255
0 0 252
0 0 255
0 0 254
0 0 255
0 0 255
0 0 254
0 0 255
0 0 253
0 0 255
0 0 253
0 0 255
0 0 255
0 0 254
0 0 254
0 0 254
0 0 255
0 0 253
0 0 255
0 0 255
0 0 255
0 0 255
0 0 254
0 0 254
0 0 255
0 0 255
0 0 255
0 0 254
0 0 254
0 0 254
0 0 255
0 0 255
0 0 253
0 0 253
0 0 254
0 0 254
0 0 253
0 0 255
0 0 254
0 0 253
0 0 253
0 0 255
0 0 254
0 0 252
0 0 252
0 0 254
0 0 254
0 0 252
0 0 252
0 0 253
0 0 253
0 0 250
0 0 253
0 0 254
0 0 253
0 0 250
0 0 255
0 0 253
0 0 253
0 0 254
0 0 254
0 0 250
0 0 249
0 0 250
0 0 253
0 0 252
0 0 253
0 0 254
0 0 250
0 0 254
0 0 254
0 0 254
0 0 252
0 0 252
0 0 252
0 0 252
0 0 252
0 0 252
0 0 249
0 0 253
0 0 250
0 0 252
0 0 248
0 0 250
0 0 252
0 0 245
0 0 250
0 0 249
0 0 246
0 0 250
0 0 249
0 0 252
0 0 253
0 0 249
0 0 254
0 0 250
0 0 253
0 0 252
0 0 250
0 0 250
0 0 249
0 0 253
0 0 253
0 0 253
0 0 250
0 0 248
0 0 252
0 0 248
0 0 249
0 0 244
0 0 250
0 0 253
0 0 246
0 0 252
0 0 245
0 0 250
0 0 249
0 0 241
0 0 246
0 0 252
99 112 245
192 216 254
199 224 255
199 223 255
199 223 255
199 223 255
199 223 255
199 223 255
199 223 255
199 223 255
199 223 255
199 223 255
199 223 255
199 223 255
199 223 255
199 223 255
199 223 255
199 223 255
199 223 255
199 223 255
199 223 255
199 223 255
198 223 255
198 223 255
198 223 255
198 223 255
198 223 255
198 223 255
198 223 255
198 223 255
198 223 255
198 223 255
198 223 255
198 223 255
198 223 255
198 223 255
198 223 255
198 223 255
198 223 255
198 223 255
198 223 255
198 223 255
198 223 255
198 223 255
198 223 255
198 223 255
198 223 255
198 223 255
198 223 255
198 223 255
198 223 255
198 223 255
198 223 255
198 223 255
198 223 255
198 223 255
198 223 255
198 223 255
198 223 255
198 223 255
198 223 255
198 223 255
198 223 255
198 223 255
198 223 255
198 223 255
198 223 255
198 223 255
198 223 255
198 223 255
198 223 255
198 223 255
198 223 255
198 223 255
198 223 255
198 223 255
198 223 255
198 223 255
198 223 255
198 223 255
198 223 255
198 223 255
198 223 255
198 223 255
198 223 255
198 223 255
199 223 255
199 223 255
199 223 255
199 223 255
199 223 255
199 223 255
199 223 255
199 223 255
199 223 255
199 223 255
199 223 255
199 223 255
199 223 255
199 223 255
199 223 255
199 223 255
199 223 255
199 223 255
199 223 255
199 224 255
199 212 242
196 143 163
198 0 0
197 0 0
193 0 0
193 0 0
199 0 0
192 0 0
197 0 0
195 0 0
192 0 0
191 0 0
194 0 0
194 0 0
197 0 0
198 0 0
201 0 0
201 0 0
201 0 0
200 0 0
198 0 0
201 0 0
204 0 0
198 0 0
198 0 0
198 0 0
208 0 0
200 0 0
202 0 0
203 0 0
203 0 0
203 0 0
205 0 0
199 0 0
205 0 0
202 0 0
198 0 0
203 0 0
204 0 0
204 0 0
208 0 0
202 0 0
204 0 0
205 0 0
203 0 0
203 0 0
204 0 0
206 0 0
209 0 0
207 0 0
204 0 0
208 0 0
211 0 0
205 0 0
204 0 0
203 0 0
207 0 0
201 0 0
203 0 0
208 0 0
209 0 0
212 0 0
203 0 0
209 0 0
209 0 0
209 0 0
211 0 0
209 0 0
210 0 0
210 0 0
207 0 0
207 0 0
212 0 0
210 0 0
208 0 0
208 0 0
210 0 0
208 0 0
207 0 0
210 0 0
205 0 0
210 0 0
208 0 0
210 0 0
207 0 0
211 0 0
209 0 0
209 0 0
212 0 0
213 0 0
209 0 0
208 0 0
209 0 0
210 0 0
208 0 0
211 0 0
214 0 0
213 0 0
210 0 0
210 0 0
215 0 0
211 0 0
211 0 0
209 0 0
210 0 0
212 0 0
212 0 0
207 0 0
211 0 0
208 0 0
212 0 0
211 0 0
210 0 0
212 0 0
212 0 0
209 0 0
210 0 0
211 0 0
209 0 0
212 0 0
211 0 0
210 0 0
209 0 0
213 0 0
211 0 0
209 0 0
213 0 0
215 0 0
210 0 0
214 0 0
211 0 0
210 0 0
211 0 0
213 0 0
210 0 0
213 0 0
213 0 0
212 0 0
209 0 0
213 0 0
209 0 0
213 0 0
214 0 0
214 0 0
215 0 0
211 0 0
214 0 0
211 0 0
0 0 255
0 0 255
0 0 255
0 0 254
0 0 255
0 0 255
0 0 255
0 0 255
0 0 255
0 0 255
0 0 255
0 0 255
0 0 255
0 0 255
0 0 255
0 0 255
0 0 255
0 0 255
0 0 255
0 0 255
0 0 255
0 0 254
0 0 255
0 0 255
0 0 255
0 0 255
0 0 254
0 0 255
0 0 253
0 0 255
0 0 255
0 0 255
0 0 254
0 0 255
0 0 254
0 0 255
0 0 255
0 0 255
0 0 255
0 0 254
0 0 255
0 0 254
0 0 253
0 0 253
0 0 253
0 0 250
0 0 255
0 0 254
0 0 255
0 0 255
0 0 254
0 0 255
0 0 254
0 0 255
0 0 255
0 0 254
0 0 254
0 0 255
0 0 255
0 0 254
0 0 255
0 0 255
0 0 252
0 0 255
0 0 253
0 0 250
0 0 253
0 0 253
0 0 252
0 0 255
0 0 253
0 0 255
0 0 252
0 0 254
0 0 254
0 0 254
0 0 253
0 0 253
0 0 253
0 0 253
0 0 255
0 0 255
0 0 253
0 0 253
0 0 252
0 0 253
0 0 252
0 0 250
0 0 253
0 0 252
0 0 254
0 0 249
0 0 254
0 0 254
0 0 253
0 0 250
0 0 254
0 0 253
0 0 252
0 0 252
0 0 249
0 0 253
0 0 249
0 0 250
0 0 252
0 0 253
0 0 248
0 0 248
0 0 249
0 0 252
0 0 253
0 0 253
0 0 250
0 0 253
0 0 252
0 0 250
0 0 254
0 0 249
0 0 249
0 0 250
0 0 253
0 0 240
0 0 246
0 0 249
0 0 250
0 0 249
0 0 249
0 0 253
0 0 253
0 0 250
0 0 250
0 0 250
0 0 252
0 0 245
0 0 250
0 0 249
0 0 249
0 0 249
0 0 253
0 0 248
0 0 249
0 0 246
0 0 248
0 0 250
0 0 249
0 0 245
0 0 245
40 44 253
161 180 252
200 224 255
199 224 255
199 224 255
199 224 255
199 223 255
199 223 255
199 223 255
199 223 255
199 223 255
199 223 255
199 223 255
199 223 255
199 223 255
199 223 255
199 223 255
199 223 255
199 223 255
199 223 255
199 223 255
199 223 255
199 223 255
199 223 255
199 223 255
199 223 255
198 223 255
198 223 255
198 223 255
198 223 255
198 223 255
198 223 255
198 223 255
198 223 255
198 223 255
198 223 255
198 223 255
198 223 255
198 223 255
198 223 255
198 223 255
198 223 255
198 223 255
198 223 255
198 223 255
198 223 255
198 223 255
198 223 255
198 223 255
198 223 255
198 223 255
198 223 255
198 223 255
198 223 255
198 223 255
198 223 255
198 223 255
198 223 255
198 223 255
198 223 255
198 223 255
198 223 255
198 223 255
198 223 255
198 223 255
198 223 255
198 223 255
198 223 255
198 223 255
198 223 255
198 223 255
198 223 255
198 223 255
198 223 255
198 223 255
198 223 255
198 223 255
198 223 255
198 223 255
198 223 255
199 223 255
199 223 255
199 223 255
199 223 255
199 223 255
199 223 255
199 223 255
199 223 255
199 223 255
199 223 255
199 223 255
199 223 255
199 223 255
199 223 255
199 223 255
199 223 255
199 223 255
199 223 255
199 223 255
199 223 255
199 224 255
199 224 255
199 224 255
200 224 255
195 172 196
194 44 51
198 0 0
196 0 0
198 0 0
197 0 0
201 0 0
194 0 0
198 0 0
201 0 0
203 0 0
198 0 0
201 0 0
200 0 0
198 0 0
200 0 0
196 0 0
202 0 0
199 0 0
199 0 0
196 0 0
198 0 0
201 0 0
203 0 0
207 0 0
200 0 0
202 0 0
201 0 0
201 0 0
205 0 0
203 0 0
199 0 0
209 0 0
204 0 0
203 0 0
199 0 0
203 0 0
204 0 0
200 0 0
201 0 0
201 0 0
204 0 0
206 0 0
210 0 0
202 0 0
201 0 0
204 0 0
206 0 0
208 0 0
206 0 0
206 0 0
209 0 0
203 0 0
203 0 0
208 0 0
208 0 0
204 0 0
208 0 0
209 0 0
198 0 0
204 0 0
208 0 0
212 0 0
209 0 0
207 0 0
206 0 0
210 0 0
205 0 0
210 0 0
207 0 0
206 0 0
206 0 0
204 0 0
211 0 0
210 0 0
209 0 0
210 0 0
209 0 0
213 0 0
212 0 0
207 0 0
209 0 0
212 0 0
212 0 0
200 0 0
206 0 0
208 0 0
209 0 0
207 0 0
214 0 0
210 0 0
213 0 0
208 0 0
208 0 0
209 0 0
210 0 0
213 0 0
209 0 0
209 0 0
209 0 0
212 0 0
210 0 0
211 0 0
209 0 0
209 0 0
212 0 0
212 0 0
209 0 0
212 0 0
208 0 0
208 0 0
210 0 0
213 0 0
211 0 0
208 0 0
209 0 0
214 0 0
212 0 0
210 0 0
211 0 0
208 0 0
212 0 0
211 0 0
211 0 0
213 0 0
212 0 0
213 0 0
215 0 0
212 0 0
212 0 0
213 0 0
212 0 0
205 0 0
211 0 0
212 0 0
213 0 0
212 0 0
212 0 0
213 0 0
213 0 0
211 0 0
212 0 0
215 0 0
208 0 0
211 0 0
209 0 0
211 0 0
211 0 0
211 0 0
0 0 255
0 0 255
0 0 255
0 0 255
0 0 255
0 0 255
0 0 255
0 0 255
0 0 255
0 0 255
0 0 255
0 0 255
0 0 255
0 0 255
0 0 255
0 0 255
0 0 255
0 0 254
0 0 255
0 0 254
0 0 255
0 0 255
0 0 255
0 0 254
0 0 254
0 0 255
0 0 254
0 0 255
0 0 254
0 0 255
0 0 254
0 0 255
0 0 255
0 0 254
0 0 255
0 0 255
0 0 255
0 0 254
0 0 255
0 0 254
0 0 254
0 0 254
0 0 255
0 0 254
0 0 255
0 0 254
0 0 254
0 0 253
0 0 253
0 0 255
0 0 254
0 0 254
0 0 255
0 0 255
0 0 253
0 0 255
0 0 255
0 0 254
0 0 253
0 0 255
0 0 255
0 0 254
0 0 254
0 0 255
0 0 254
0 0 255
0 0 255
0 0 253
0 0 254
0 0 252
0 0 253
0 0 254
0 0 254
0 0 253
0 0 253
0 0 254
0 0 253
0 0 255
0 0 252
0 0 253
0 0 253
0 0 254
0 0 250
0 0 252
0 0 254
0 0 254
0 0 252
0 0 254
0 0 255
0 0 253
0 0 252
0 0 254
0 0 254
0 0 254
0 0 246
0 0 250
0 0 252
0 0 252
0 0 254
0 0 246
0 0 250
0 0 249
0 0 252
0 0 250
0 0 252
0 0 252
0 0 250
0 0 252
0 0 250
0 0 253
0 0 255
0 0 255
0 0 253
0 0 254
0 0 248
0 0 254
0 0 252
0 0 252
0 0 244
0 0 245
0 0 249
0 0 248
0 0 248
0 0 250
0 0 249
0 0 246
0 0 250
0 0 253
0 0 246
0 0 248
0 0 253
0 0 249
0 0 245
0 0 248
0 0 252
0 0 245
0 0 248
0 0 250
0 0 245
0 0 244
0 0 250
0 0 249
0 0 248
0 0 244
0 0 245
0 0 245
0 0 254
0 0 252
0 0 249
103 116 249
188 211 255
200 224 255
200 224 255
200 224 255
199 224 255
199 224 255
199 224 255
199 223 255
199 223 255
199 223 255
199 223 255
199 223 255
199 223 255
199 223 255
199 223 255
199 223 255
199 223 255
199 223 255
199 223 255
199 223 255
199 223 255
199 223 255
199 223 255
199 223 255
199 223 255
199 223 255
199 223 255
199 223 255
199 223 255
199 223 255
198 223 255
198 223 255
198 223 255
198 223 255
198 223 255
198 223 255
198 223 255
198 223 255
198 223 255
198 223 255
198 223 255
198 223 255
198 223 255
198 223 255
198 223 255
198 223 255
198 223 255
198 223 255
198 223 255
198 223 255
198 223 255
198 223 255
198 223 255
198 223 255
198 223 255
198 223 255
198 223 255
198 223 255
198 223 255
198 223 255
198 223 255
198 223 255
198 223 255
198 223 255
198 223 255
198 223 255
198 223 255
198 223 255
198 223 255
198 223 255
199 223 255
199 223 255
199 223 255
199 223 255
199 223 255
199 223 255
199 223 255
199 223 255
199 223 255
199 223 255
199 223 255
199 223 255
199 223 255
199 223 255
199 223 255
199 223 255
199 223 255
199 223 255
199 223 255
199 223 255
199 223 255
199 223 255
199 223 255
199 224 255
199 224 255
199 224 255
199 224 255
200 224 255
200 224 255
198 215 245
198 126 144
193 0 0
193 0 0
192 0 0
196 0 0
202 0 0
196 0 0
198 0 0
195 0 0
200 0 0
201 0 0
195 0 0
198 0 0
191 0 0
194 0 0
196 0 0
202 0 0
198 0 0
199 0 0
201 0 0
199 0 0
198 0 0
204 0 0
196 0 0
200 0 0
199 0 0
202 0 0
200 0 0
201 0 0
200 0 0
206 0 0
202 0 0
206 0 0
207 0 0
200 0 0
206 0 0
205 0 0
203 0 0
202 0 0
201 0 0
204 0 0
209 0 0
204 0 0
211 0 0
207 0 0
203 0 0
207 0 0
200 0 0
203 0 0
207 0 0
202 0 0
204 0 0
203 0 0
207 0 0
208 0 0
203 0 0
206 0 0
210 0 0
208 0 0
209 0 0
207 0 0
206 0 0
206 0 0
203 0 0
209 0 0
204 0 0
206 0 0
207 0 0
205 0 0
210 0 0
207 0 0
209 0 0
209 0 0
212 0 0
209 0 0
207 0 0
212 0 0
209 0 0
210 0 0
210 0 0
210 0 0
210 0 0
206 0 0
211 0 0
207 0 0
208 0 0
210 0 0
211 0 0
209 0 0
209 0 0
212 0 0
209 0 0
211 0 0
208 0 0
207 0 0
210 0 0
213 0 0
209 0 0
211 0 0
209 0 0
209 0 0
210 0 0
209 0 0
211 0 0
210 0 0
215 0 0
213 0 0
210 0 0
212 0 0
210 0 0
213 0 0
210 0 0
213 0 0
210 0 0
210 0 0
210 0 0
210 0 0
211 0 0
213 0 0
211 0 0
212 0 0
212 0 0
211 0 0
213 0 0
209 0 0
212 0 0
212 0 0
212 0 0
212 0 0
212 0 0
211 0 0
214 0 0
214 0 0
212 0 0
210 0 0
213 0 0
213 0 0
213 0 0
212 0 0
214 0 0
210 0 0
212 0 0
212 0 0
210 0 0
214 0 0
211 0 0
215 0 0
212 0 0
211 0 0
214 0 0
0 0 254
0 0 254
0 0 255
0 0 255
0 0 255
0 0 255
0 0 255
0 0 255
0 0 255
0 0 255
0 0 255
0 0 255
0 0 255
0 0 255
0 0 255
0 0 255
0 0 255
0 0 254
0 0 255
0 0 255
0 0 255
0 0 255
0 0 255
0 0 255
0 0 255
0 0 253
0 0 255
0 0 255
0 0 255
0 0 255
0 0 255
0 0 254
0 0 254
0 0 255
0 0 255
0 0 255
0 0 254
0 0 255
0 0 254
0 0 255
0 0 255
0 0 253
0 0 252
0 0 254
0 0 255
0 0 255
0 0 254
0 0 254
0 0 255
0 0 255
0 0 254
0 0 255
0 0 255
0 0 253
0 0 255
0 0 255
0 0 253
0 0 255
0 0 254
0 0 254
0 0 255
0 0 255
0 0 253
0 0 252
0 0 254
0 0 255
0 0 253
0 0 253
0 0 253
0 0 253
0 0 255
0 0 253
0 0 255
0 0 254
0 0 254
0 0 254
0 0 253
0 0 253
0 0 253
0 0 254
0 0 255
0 0 253
0 0 253
0 0 250
0 0 254
0 0 250
0 0 255
0 0 253
0 0 253
0 0 252
0 0 254
0 0 253
0 0 252
0 0 255
0 0 250
0 0 253
0 0 254
0 0 253
0 0 252
0 0 254
0 0 252
0 0 254
0 0 253
0 0 248
0 0 255
0 0 252
0 0 254
0 0 249
0 0 253
0 0 253
0 0 246
0 0 248
0 0 248
0 0 248
0 0 252
0 0 249
0 0 249
0 0 253
0 0 253
0 0 249
0 0 249
0 0 245
0 0 252
0 0 249
0 0 249
0 0 249
0 0 250
0 0 245
0 0 249
0 0 246
0 0 248
0 0 248
0 0 252
0 0 249
0 0 248
0 0 249
0 0 246
0 0 246
0 0 248
0 0 252
0 0 246
0 0 249
0 0 245
0 0 246
0 0 252
0 0 249
0 0 241
0 0 242
0 0 248
0 0 249
44 50 246
155 173 254
200 224 255
200 224 255
200 224 255
200 224 255
200 224 255
199 224 255
199 224 255
199 224 255
199 224 255
199 223 255
199 223 255
199 223 255
199 223 255
199 223 255
199 223 255
199 223 255
199 223 255
199 223 255
199 223 255
199 223 255
199 223 255
199 223 255
199 223 255
199 223 255
199 223 255
199 223 255
199 223 255
199 223 255
199 223 255
199 223 255
199 223 255
199 223 255
199 223 255
199 223 255
199 223 255
199 223 255
199 223 255
199 223 255
198 223 255
198 223 255
198 223 255
198 223 255
198 223 255
198 223 255
198 223 255
198 223 255
198 223 255
198 223 255
198 223 255
198 223 255
198 223 255
198 223 255
198 223 255
198 223 255
198 223 255
198 223 255
198 223 255
198 223 255
199 223 255
199 223 255
199 223 255
199 223 255
199 223 255
199 223 255
199 223 255
199 223 255
199 223 255
199 223 255
199 223 255
199 223 255
199 223 255
199 223 255
199 223 255
199 223 255
199 223 255
199 223 255
199 223 255
199 223 255
199 223 255
199 223 255
199 223 255
199 223 255
199 223 255
199 223 255
199 223 255
199 223 255
199 223 255
199 224 255
199 224 255
199 224 255
199 224 255
200 224 255
200 224 255
200 224 255
200 224 255
200 224 255
198 191 218
193 63 72
192 0 0
193 0 0
193 0 0
203 0 0
197 0 0
198 0 0
195 0 0
197 0 0
195 0 0
197 0 0
194 0 0
201 0 0
199 0 0
195 0 0
203 0 0
199 0 0
196 0 0
202 0 0
200 0 0
201 0 0
199 0 0
205 0 0
208 0 0
200 0 0
205 0 0
201 0 0
202 0 0
203 0 0
200 0 0
201 0 0
204 0 0
207 0 0
201 0 0
199 0 0
202 0 0
200 0 0
199 0 0
205 0 0
208 0 0
205 0 0
206 0 0
207 0 0
207 0 0
203 0 0
201 0 0
204 0 0
200 0 0
205 0 0
209 0 0
207 0 0
205 0 0
204 0 0
204 0 0
206 0 0
205 0 0
209 0 0
205 0 0
209 0 0
203 0 0
207 0 0
208 0 0
207 0 0
209 0 0
208 0 0
205 0 0
208 0 0
208 0 0
209 0 0
212 0 0
205 0 0
214 0 0
214 0 0
207 0 0
213 0 0
209 0 0
206 0 0
208 0 0
212 0 0
212 0 0
210 0 0
211 0 0
210 0 0
206 0 0
209 0 0
207 0 0
209 0 0
211 0 0
213 0 0
209 0 0
211 0 0
211 0 0
208 0 0
213 0 0
210 0 0
212 0 0
209 0 0
209 0 0
214 0 0
211 0 0
213 0 0
214 0 0
213 0 0
210 0 0
209 0 0
206 0 0
211 0 0
209 0 0
213 0 0
210 0 0
214 0 0
209 0 0
208 0 0
213 0 0
209 0 0
213 0 0
210 0 0
211 0 0
211 0 0
206 0 0
213 0 0
211 0 0
214 0 0
210 0 0
212 0 0
206 0 0
214 0 0
214 0 0
213 0 0
213 0 0
208 0 0
210 0 0
208 0 0
208 0 0
210 0 0
214 0 0
212 0 0
211 0 0
211 0 0
215 0 0
216 0 0
209 0 0
213 0 0
213 0 0
213 0 0
211 0 0
210 0 0
211 0 0
213 0 0
211 0 0
214 0 0
0 0 255
0 0 255
0 0 255
0 0 255
0 0 254
0 0 255
0 0 255
0 0 255
0 0 255
0 0 254
0 0 254
0 0 255
0 0 254
0 0 255
0 0 255
0 0 254
0 0 255
0 0 255
0 0 255
0 0 255
0 0 255
0 0 254
0 0 255
0 0 255
0 0 255
0 0 254
0 0 255
0 0 255
0 0 254
0 0 255
0 0 255
0 0 254
0 0 254
0 0 255
0 0 255
0 0 255
0 0 255
0 0 255
0 0 254
0 0 255
0 0 255
0 0 253
0 0 254
0 0 254
0 0 255
0 0 253
0 0 254
0 0 254
0 0 254
0 0 253
0 0 255
0 0 255
0 0 254
0 0 252
0 0 255
0 0 254
0 0 252
0 0 254
0 0 253
0 0 255
0 0 253
0 0 253
0 0 252
0 0 253
0 0 253
0 0 254
0 0 252
0 0 252
0 0 253
0 0 253
0 0 253
0 0 254
0 0 253
0 0 255
0 0 253
0 0 254
0 0 253
0 0 253
0 0 254
0 0 254
0 0 254
0 0 253
0 0 253
0 0 253
0 0 254
0 0 254
0 0 254
0 0 253
0 0 254
0 0 253
0 0 255
0 0 253
0 0 254
0 0 254
0 0 250
0 0 253
0 0 250
0 0 253
0 0 255
0 0 253
0 0 252
0 0 253
0 0 255
0 0 248
0 0 253
0 0 252
0 0 252
0 0 253
0 0 250
0 0 253
0 0 252
0 0 250
0 0 250
0 0 255
0 0 252
0 0 252
0 0 252
0 0 252
0 0 249
0 0 245
0 0 253
0 0 252
0 0 249
0 0 250
0 0 249
0 0 252
0 0 250
0 0 244
0 0 246
0 0 246
0 0 246
0 0 245
0 0 249
0 0 249
0 0 248
0 0 250
0 0 248
0 0 245
0 0 249
0 0 237
0 0 248
0 0 242
0 0 245
0 0 245
0 0 249
0 0 252
0 0 246
0 0 248
0 0 244
0 0 249
0 0 242
0 0 250
109 122 248
193 216 255
200 224 255
200 224 255
200 224 255
200 224 255
200 224 255
200 224 255
200 224 255
200 224 255
199 224 255
199 224 255
199 224 255
199 224 255
199 223 255
199 223 255
199 223 255
199 223 255
199 223 255
199 223 255
199 223 255
199 223 255
199 223 255
199 223 255
199 223 255
199 223 255
199 223 255
199 223 255
199 223 255
199 223 255
199 223 255
199 223 255
199 223 255
199 223 255
199 223 255
199 223 255
199 223 255
199 223 255
199 223 255
199 223 255
199 223 255
199 223 255
199 223 255
199 223 255
199 223 255
199 223 255
199 223 255
199 223 255
199 223 255
199 223 255
199 223 255
199 223 255
199 223 255
199 223 255
199 223 255
199 223 255
199 223 255
199 223 255
199 223 255
199 223 255
199 223 255
199 223 255
199 223 255
199 223 255
199 223 255
199 223 255
199 223 255
199 223 255
199 223 255
199 223 255
199 223 255
199 223 255
199 223 255
199 223 255
199 223 255
199 223 255
199 223 255
199 223 255
199 223 255
199 223 255
199 223 255
199 223 255
199 224 255
199 224 255
199 224 255
199 224 255
200 224 255
200 224 255
200 224 255
200 224 255
200 224 255
200 224 255
200 224 255
200 224 255
199 213 244
194 120 137
194 0 0
194 0 0
197 0 0
189 0 0
200 0 0
192 0 0
198 0 0
197 0 0
199 0 0
201 0 0
193 0 0
198 0 0
199 0 0
201 0 0
195 0 0
200 0 0
199 0 0
199 0 0
200 0 0
201 0 0
203 0 0
198 0 0
202 0 0
204 0 0
199 0 0
199 0 0
204 0 0
204 0 0
201 0 0
198 0 0
200 0 0
202 0 0
204 0 0
205 0 0
204 0 0
207 0 0
205 0 0
206 0 0
204 0 0
207 0 0
207 0 0
205 0 0
208 0 0
206 0 0
207 0 0
206 0 0
209 0 0
207 0 0
208 0 0
203 0 0
204 0 0
205 0 0
205 0 0
208 0 0
207 0 0
209 0 0
207 0 0
203 0 0
207 0 0
210 0 0
207 0 0
200 0 0
210 0 0
207 0 0
206 0 0
205 0 0
205 0 0
206 0 0
207 0 0
208 0 0
212 0 0
204 0 0
208 0 0
204 0 0
209 0 0
209 0 0
211 0 0
210 0 0
208 0 0
211 0 0
206 0 0
208 0 0
211 0 0
206 0 0
210 0 0
209 0 0
211 0 0
208 0 0
209 0 0
208 0 0
207 0 0
212 0 0
208 0 0
206 0 0
210 0 0
211 0 0
213 0 0
211 0 0
210 0 0
207 0 0
212 0 0
212 0 0
208 0 0
209 0 0
207 0 0
208 0 0
210 0 0
214 0 0
210 0 0
211 0 0
212 0 0
211 0 0
211 0 0
211 0 0
210 0 0
212 0 0
211 0 0
209 0 0
216 0 0
209 0 0
209 0 0
209 0 0
213 0 0
206 0 0
211 0 0
211 0 0
214 0 0
213 0 0
212 0 0
209 0 0
211 0 0
211 0 0
211 0 0
214 0 0
212 0 0
215 0 0
210 0 0
209 0 0
214 0 0
213 0 0
211 0 0
211 0 0
212 0 0
215 0 0
215 0 0
213 0 0
213 0 0
210 0 0
214 0 0
215 0 0
210 0 0
206 0 0
0 0 255
0 0 255
0 0 255
0 0 255
0 0 255
0 0 255
0 0 255
0 0 255
0 0 254
0 0 255
0 0 255
0 0 255
0 0 255
0 0 254
0 0 255
0 0 255
0 0 253
0 0 254
0 0 253
0 0 255
0 0 254
0 0 255
0 0 255
0 0 255
0 0 255
0 0 253
0 0 254
0 0 255
0 0 255
0 0 255
0 0 255
0 0 254
0 0 254
0 0 253
0 0 254
0 0 255
0 0 255
0 0 255
0 0 253
0 0 253
0 0 254
0 0 252
0 0 254
0 0 255
0 0 254
0 0 255
0 0 255
0 0 254
0 0 254
0 0 254
0 0 254
0 0 255
0 0 254
0 0 255
0 0 254
0 0 254
0 0 252
0 0 254
0 0 254
0 0 254
0 0 249
0 0 254
0 0 255
0 0 254
0 0 254
0 0 252
0 0 253
0 0 255
0 0 253
0 0 254
0 0 254
0 0 255
0 0 255
0 0 253
0 0 250
0 0 255
0 0 253
0 0 252
0 0 253
0 0 248
0 0 252
0 0 255
0 0 253
0 0 252
0 0 249
0 0 250
0 0 252
0 0 252
0 0 250
0 0 254
0 0 248
0 0 250
0 0 249
0 0 254
0 0 249
0 0 254
0 0 255
0 0 254
0 0 253
0 0 249
0 0 252
0 0 250
0 0 253
0 0 253
0 0 255
0 0 250
0 0 250
0 0 250
0 0 254
0 0 250
0 0 248
0 0 255
0 0 245
0 0 242
0 0 250
0 0 253
0 0 254
0 0 244
0 0 246
0 0 249
0 0 252
0 0 244
0 0 249
0 0 248
0 0 253
0 0 252
0 0 246
0 0 253
0 0 250
0 0 248
0 0 249
0 0 252
0 0 252
0 0 248
0 0 248
0 0 245
0 0 242
0 0 245
0 0 250
0 0 245
0 0 244
0 0 245
0 0 240
0 0 249
0 0 249
0 0 245
0 0 242
0 0 246
0 0 244
0 0 244
0 0 246
0 0 242
0 0 248
40 44 240
178 199 255
200 224 255
200 224 255
200 224 255
200 224 255
200 224 255
200 224 255
200 224 255
200 224 255
200 224 255
200 224 255
200 224 255
200 224 255
199 224 255
199 224 255
199 224 255
199 224 255
199 223 255
199 223 255
199 223 255
199 223 255
199 223 255
199 223 255
199 223 255
199 223 255
199 223 255
199 223 255
199 223 255
199 223 255
199 223 255
199 223 255
199 223 255
199 223 255
199 223 255
199 223 255
199 223 255
199 223 255
199 223 255
199 223 255
199 223 255
199 223 255
199 223 255
199 223 255
199 223 255
199 223 255
199 223 255
199 223 255
199 223 255
199 223 255
199 223 255
199 223 255
199 223 255
199 223 255
199 223 255
199 223 255
199 223 255
199 223 255
199 223 255
199 223 255
199 223 255
199 223 255
199 223 255
199 223 255
199 223 255
199 223 255
199 223 255
199 223 255
199 223 255
199 223 255
199 223 255
199 223 255
199 223 255
199 223 255
199 223 255
199 223 255
199 224 255
199 224 255
199 224 255
199 224 255
200 224 255
200 224 255
200 224 255
200 224 255
200 224 255
200 224 255
200 224 255
200 224 255
200 224 255
200 224 255
200 224 255
200 224 255
198 183 209
193 74 84
194 0 0
194 0 0
195 0 0
191 0 0
195 0 0
197 0 0
198 0 0
192 0 0
197 0 0
196 0 0
195 0 0
198 0 0
197 0 0
197 0 0
203 0 0
194 0 0
203 0 0
191 0 0
200 0 0
198 0 0
200 0 0
201 0 0
204 0 0
203 0 0
198 0 0
199 0 0
194 0 0
203 0 0
198 0 0
203 0 0
205 0 0
199 0 0
205 0 0
206 0 0
205 0 0
202 0 0
204 0 0
208 0 0
204 0 0
209 0 0
205 0 0
199 0 0
204 0 0
204 0 0
209 0 0
206 0 0
207 0 0
205 0 0
205 0 0
205 0 0
209 0 0
208 0 0
207 0 0
211 0 0
204 0 0
208 0 0
208 0 0
207 0 0
207 0 0
210 0 0
206 0 0
209 0 0
209 0 0
203 0 0
206 0 0
206 0 0
202 0 0
208 0 0
206 0 0
210 0 0
209 0 0
211 0 0
208 0 0
210 0 0
208 0 0
211 0 0
205 0 0
212 0 0
207 0 0
208 0 0
209 0 0
207 0 0
212 0 0
208 0 0
211 0 0
212 0 0
210 0 0
208 0 0
211 0 0
210 0 0
211 0 0
209 0 0
213 0 0
209 0 0
213 0 0
210 0 0
209 0 0
207 0 0
214 0 0
212 0 0
211 0 0
209 0 0
209 0 0
211 0 0
208 0 0
212 0 0
209 0 0
207 0 0
210 0 0
211 0 0
211 0 0
211 0 0
208 0 0
213 0 0
216 0 0
212 0 0
211 0 0
213 0 0
213 0 0
212 0 0
209 0 0
212 0 0
211 0 0
213 0 0
215 0 0
214 0 0
212 0 0
213 0 0
215 0 0
211 0 0
215 0 0
212 0 0
211 0 0
210 0 0
215 0 0
213 0 0
213 0 0
211 0 0
213 0 0
211 0 0
215 0 0
212 0 0
216 0 0
215 0 0
213 0 0
210 0 0
214 0 0
216 0 0
212 0 0
212 0 0
212 0 0
212 0 0
212 0 0
0 0 255
0 0 255
0 0 255
0 0 254
0 0 254
0 0 255
0 0 254
0 0 255
0 0 255
0 0 254
0 0 255
0 0 255
0 0 255
0 0 254
0 0 255
0 0 255
0 0 255
0 0 255
0 0 255
0 0 255
0 0 255
0 0 253
0 0 255
0 0 255
0 0 254
0 0 255
0 0 255
0 0 253
0 0 255
0 0 255
0 0 253
0 0 255
0 0 255
0 0 253
0 0 255
0 0 254
0 0 255
0 0 254
0 0 255
0 0 255
0 0 254
0 0 254
0 0 255
0 0 255
0 0 254
0 0 255
0 0 255
0 0 254
0 0 254
0 0 254
0 0 254
0 0 255
0 0 255
0 0 252
0 0 252
0 0 254
0 0 250
0 0 254
0 0 254
0 0 255
0 0 254
0 0 254
0 0 255
0 0 255
0 0 254
0 0 252
0 0 254
0 0 254
0 0 253
0 0 252
0 0 254
0 0 252
0 0 255
0 0 253
0 0 253
0 0 250
0 0 255
0 0 253
0 0 253
0 0 252
0 0 254
0 0 250
0 0 254
0 0 253
0 0 252
0 0 253
0 0 253
0 0 250
0 0 252
0 0 253
0 0 250
0 0 250
0 0 252
0 0 253
0 0 253
0 0 253
0 0 250
0 0 252
0 0 252
0 0 250
0 0 250
0 0 252
0 0 250
0 0 252
0 0 250
0 0 250
0 0 253
0 0 253
0 0 253
0 0 246
0 0 250
0 0 252
0 0 253
0 0 253
0 0 252
0 0 248
0 0 246
0 0 253
0 0 252
0 0 252
0 0 253
0 0 246
0 0 252
0 0 249
0 0 254
0 0 253
0 0 249
0 0 248
0 0 245
0 0 241
0 0 246
0 0 245
0 0 246
0 0 244
0 0 250
0 0 250
0 0 242
0 0 253
0 0 250
0 0 246
0 0 248
0 0 248
0 0 248
0 0 244
0 0 244
0 0 244
0 0 242
0 0 246
0 0 244
0 0 240
0 0 244
0 0 245
0 0 246
0 0 244
20 22 245
146 163 248
197 221 255
200 224 255
200 224 255
200 224 255
200 224 255
200 224 255
200 224 255
200 224 255
200 224 255
200 224 255
200 224 255
200 224 255
200 224 255
200 224 255
200 224 255
200 224 255
200 224 255
199 224 255
199 224 255
199 224 255
199 224 255
199 224 255
199 223 255
199 223 255
199 223 255
199 223 255
199 223 255
199 223 255
199 223 255
199 223 255
199 223 255
199 223 255
199 223 255
199 223 255
199 223 255
199 223 255
199 223 255
199 223 255
199 223 255
199 223 255
199 223 255
199 223 255
199 223 255
199 223 255
199 223 255
199 223 255
199 223 255
199 223 255
199 223 255
199 223 255
199 223 255
199 223 255
199 223 255
199 223 255
199 223 255
199 223 255
199 223 255
199 223 255
199 223 255
199 223 255
199 223 255
199 223 255
199 223 255
199 223 255
199 223 255
199 223 255
199 224 255
199 224 255
199 224 255
199 224 255
199 224 255
199 224 255
200 224 255
200 224 255
200 224 255
200 224 255
200 224 255
200 224 255
200 224 255
200 224 255
200 224 255
200 224 255
200 224 255
200 224 255
200 224 255
200 224 255
200 224 255
200 221 252
199 147 167
191 22 25
192 0 0
190 0 0
194 0 0
193 0 0
192 0 0
196 0 0
199 0 0
200 0 0
196 0 0
203 0 0
194 0 0
198 0 0
198 0 0
199 0 0
203 0 0
200 0 0
200 0 0
204 0 0
206 0 0
198 0 0
201 0 0
200 0 0
198 0 0
199 0 0
201 0 0
199 0 0
201 0 0
199 0 0
202 0 0
204 0 0
201 0 0
204 0 0
205 0 0
199 0 0
203 0 0
203 0 0
202 0 0
204 0 0
206 0 0
206 0 0
207 0 0
205 0 0
205 0 0
201 0 0
207 0 0
207 0 0
204 0 0
205 0 0
204 0 0
204 0 0
204 0 0
203 0 0
200 0 0
206 0 0
204 0 0
203 0 0
204 0 0
207 0 0
201 0 0
204 0 0
206 0 0
205 0 0
211 0 0
206 0 0
207 0 0
214 0 0
210 0 0
213 0 0
211 0 0
206 0 0
207 0 0
205 0 0
205 0 0
209 0 0
207 0 0
209 0 0
208 0 0
206 0 0
208 0 0
211 0 0
209 0 0
208 0 0
210 0 0
213 0 0
209 0 0
211 0 0
211 0 0
209 0 0
209 0 0
207 0 0
209 0 0
208 0 0
209 0 0
206 0 0
207 0 0
208 0 0
212 0 0
210 0 0
211 0 0
211 0 0
210 0 0
207 0 0
209 0 0
208 0 0
213 0 0
209 0 0
210 0 0
209 0 0
209 0 0
215 0 0
213 0 0
211 0 0
211 0 0
208 0 0
207 0 0
214 0 0
217 0 0
211 0 0
212 0 0
214 0 0
211 0 0
213 0 0
212 0 0
212 0 0
213 0 0
208 0 0
215 0 0
214 0 0
210 0 0
213 0 0
212 0 0
212 0 0
212 0 0
213 0 0
208 0 0
210 0 0
213 0 0
212 0 0
214 0 0
211 0 0
214 0 0
214 0 0
213 0 0
213 0 0
213 0 0
212 0 0
213 0 0
214 0 0
212 0 0
212 0 0
213 0 0
212 0 0
211 0 0
211 0 0
0 0 255
0 0 254
0 0 255
0 0 255
0 0 255
0 0 255
0 0 255
0 0 255
0 0 253
0 0 254
0 0 254
0 0 254
0 0 255
0 0 255
0 0 255
0 0 254
0 0 254
0 0 255
0 0 255
0 0 255
0 0 255
0 0 255
0 0 254
0 0 255
0 0 255
0 0 254
0 0 255
0 0 255
0 0 255
0 0 254
0 0 255
0 0 254
0 0 255
0 0 255
0 0 254
0 0 255
0 0 255
0 0 254
0 0 254
0 0 255
0 0 255
0 0 255
0 0 254
0 0 254
0 0 252
0 0 253
0 0 255
0 0 255
0 0 253
0 0 255
0 0 250
0 0 253
0 0 255
0 0 250
0 0 253
0 0 255
0 0 254
0 0 253
0 0 255
0 0 253
0 0 253
0 0 250
0 0 254
0 0 253
0 0 253
0 0 255
0 0 254
0 0 254
0 0 253
0 0 255
0 0 253
0 0 252
0 0 252
0 0 253
0 0 254
0 0 254
0 0 255
0 0 252
0 0 250
0 0 254
0 0 252
0 0 254
0 0 253
0 0 250
0 0 250
0 0 254
0 0 250
0 0 255
0 0 253
0 0 248
0 0 253
0 0 253
0 0 250
0 0 255
0 0 246
0 0 250
0 0 248
0 0 252
0 0 252
0 0 250
0 0 249
0 0 249
0 0 252
0 0 250
0 0 255
0 0 250
0 0 252
0 0 245
0 0 246
0 0 253
0 0 253
0 0 249
0 0 250
0 0 248
0 0 246
0 0 248
0 0 248
0 0 249
0 0 246
0 0 248
0 0 248
0 0 249
0 0 248
0 0 245
0 0 250
0 0 249
0 0 249
0 0 248
0 0 246
0 0 244
0 0 246
0 0 255
0 0 242
0 0 245
0 0 248
0 0 252
0 0 246
0 0 248
0 0 242
0 0 244
0 0 249
0 0 245
0 0 249
0 0 245
0 0 249
0 0 244
0 0 241
0 0 245
0 0 248
0 0 248
0 0 248
0 0 244
0 0 240
0 0 244
0 0 237
0 0 242
96 107 246
184 205 252
200 224 255
200 224 255
200 224 255
200 224 255
200 224 255
200 224 255
200 224 255
200 224 255
200 224 255
200 224 255
200 224 255
200 224 255
200 224 255
200 224 255
200 224 255
200 224 255
200 224 255
200 224 255
200 224 255
200 224 255
200 224 255
200 224 255
199 224 255
199 224 255
199 224 255
199 224 255
199 224 255
199 224 255
199 224 255
199 224 255
199 223 255
199 223 255
199 223 255
199 223 255
199 223 255
199 223 255
199 223 255
199 223 255
199 223 255
199 223 255
199 223 255
199 223 255
199 223 255
199 223 255
199 223 255
199 223 255
199 223 255
199 223 255
199 223 255
199 223 255
199 223 255
199 223 255
199 223 255
199 223 255
199 224 255
199 224 255
199 224 255
199 224 255
199 224 255
199 224 255
199 224 255
199 224 255
199 224 255
200 224 255
200 224 255
200 224 255
200 224 255
200 224 255
200 224 255
200 224 255
200 224 255
200 224 255
200 224 255
200 224 255
200 224 255
200 224 255
200 224 255
200 224 255
200 224 255
200 224 255
200 224 255
200 224 255
200 224 255
200 224 255
199 210 240
192 107 122
188 0 0
192 0 0
195 0 0
194 0 0
193 0 0
195 0 0
197 0 0
194 0 0
200 0 0
193 0 0
193 0 0
194 0 0
199 0 0
199 0 0
195 0 0
198 0 0
196 0 0
197 0 0
203 0 0
203 0 0
201 0 0
205 0 0
201 0 0
204 0 0
199 0 0
207 0 0
200 0 0
193 0 0
205 0 0
200 0 0
204 0 0
201 0 0
204 0 0
206 0 0
201 0 0
198 0 0
203 0 0
200 0 0
205 0 0
205 0 0
204 0 0
207 0 0
204 0 0
204 0 0
207 0 0
205 0 0
202 0 0
206 0 0
206 0 0
206 0 0
206 0 0
206 0 0
203 0 0
207 0 0
204 0 0
207 0 0
203 0 0
206 0 0
208 0 0
207 0 0
206 0 0
208 0 0
202 0 0
212 0 0
208 0 0
208 0 0
211 0 0
209 0 0
208 0 0
207 0 0
211 0 0
214 0 0
210 0 0
208 0 0
211 0 0
213 0 0
210 0 0
211 0 0
208 0 0
208 0 0
208 0 0
210 0 0
212 0 0
205 0 0
213 0 0
211 0 0
212 0 0
210 0 0
208 0 0
209 0 0
209 0 0
210 0 0
206 0 0
211 0 0
210 0 0
214 0 0
210 0 0
210 0 0
210 0 0
211 0 0
209 0 0
210 0 0
212 0 0
209 0 0
210 0 0
211 0 0
214 0 0
212 0 0
214 0 0
209 0 0
212 0 0
210 0 0
214 0 0
212 0 0
212 0 0
213 0 0
211 0 0
211 0 0
209 0 0
212 0 0
209 0 0
211 0 0
214 0 0
210 0 0
210 0 0
213 0 0
213 0 0
212 0 0
211 0 0
209 0 0
214 0 0
213 0 0
212 0 0
209 0 0
213 0 0
211 0 0
212 0 0
210 0 0
212 0 0
211 0 0
211 0 0
212 0 0
212 0 0
209 0 0
215 0 0
215 0 0
212 0 0
215 0 0
214 0 0
209 0 0
213 0 0
213 0 0
216 0 0
216 0 0
211 0 0
214 0 0
0 0 254
0 0 254
0 0 254
0 0 255
0 0 254
0 0 255
0 0 255
0 0 255
0 0 255
0 0 255
0 0 255
0 0 255
0 0 255
0 0 255
0 0 255
0 0 255
0 0 254
0 0 255
0 0 255
0 0 255
0 0 255
0 0 254
0 0 254
0 0 255
0 0 254
0 0 255
0 0 255
0 0 255
0 0 255
0 0 255
0 0 255
0 0 255
0 0 255
0 0 255
0 0 255
0 0 255
0 0 255
0 0 255
0 0 253
0 0 255
0 0 253
0 0 254
0 0 254
0 0 254
0 0 253
0 0 253
0 0 253
0 0 254
0 0 253
0 0 254
0 0 253
0 0 253
0 0 255
0 0 255
0 0 255
0 0 254
0 0 254
0 0 254
0 0 254
0 0 254
0 0 255
0 0 254
0 0 254
0 0 252
0 0 255
0 0 253
0 0 253
0 0 253
0 0 254
0 0 254
0 0 254
0 0 252
0 0 253
0 0 254
0 0 254
0 0 252
0 0 254
0 0 250
0 0 250
0 0 252
0 0 254
0 0 249
0 0 252
0 0 252
0 0 254
0 0 254
0 0 252
0 0 255
0 0 253
0 0 250
0 0 253
0 0 252
0 0 253
0 0 253
0 0 252
0 0 253
0 0 252
0 0 254
0 0 255
0 0 252
0 0 253
0 0 253
0 0 254
0 0 253
0 0 248
0 0 252
0 0 250
0 0 248
0 0 249
0 0 252
0 0 248
0 0 249
0 0 250
0 0 250
0 0 248
0 0 252
0 0 245
0 0 250
0 0 248
0 0 252
0 0 252
0 0 254
0 0 244
0 0 252
0 0 250
0 0 245
0 0 250
0 0 246
0 0 252
0 0 250
0 0 249
0 0 246
0 0 245
0 0 242
0 0 248
0 0 252
0 0 252
0 0 248
0 0 248
0 0 246
0 0 242
0 0 248
0 0 245
0 0 240
0 0 249
0 0 246
0 0 253
0 0 240
0 0 246
0 0 238
0 0 244
0 0 244
0 0 237
0 0 241
0 0 249
0 0 244
0 0 244
63 71 249
155 173 253
200 224 255
200 224 255
200 224 255
200 224 255
200 224 255
200 224 255
200 224 255
200 224 255
200 224 255
200 224 255
200 224 255
200 224 255
200 224 255
200 224 255
200 224 255
200 224 255
200 224 255
200 224 255
200 224 255
200 224 255
200 224 255
200 224 255
200 224 255
200 224 255
200 224 255
200 224 255
200 224 255
200 224 255
200 224 255
200 224 255
200 224 255
200 224 255
199 224 255
199 224 255
199 224 255
199 224 255
199 224 255
199 224 255
199 224 255
199 224 255
199 224 255
199 224 255
199 224 255
199 224 255
199 224 255
199 224 255
199 224 255
199 224 255
199 224 255
200 224 255
200 224 255
200 224 255
200 224 255
200 224 255
200 224 255
200 224 255
200 224 255
200 224 255
200 224 255
200 224 255
200 224 255
200 224 255
200 224 255
200 224 255
200 224 255
200 224 255
200 224 255
200 224 255
200 224 255
200 224 255
200 224 255
200 224 255
200 224 255
200 224 255
200 224 255
200 224 255
200 224 255
200 224 255
200 224 255
200 224 255
200 224 255
200 224 255
199 193 220
195 63 72
195 0 0
196 0 0
185 0 0
184 0 0
195 0 0
201 0 0
193 0 0
194 0 0
197 0 0
191 0 0
196 0 0
189 0 0
189 0 0
198 0 0
201 0 0
201 0 0
195 0 0
199 0 0
202 0 0
201 0 0
203 0 0
199 0 0
203 0 0
205 0 0
200 0 0
200 0 0
201 0 0
203 0 0
202 0 0
204 0 0
201 0 0
200 0 0
203 0 0
208 0 0
206 0 0
209 0 0
199 0 0
202 0 0
202 0 0
208 0 0
206 0 0
207 0 0
204 0 0
205 0 0
202 0 0
202 0 0
207 0 0
208 0 0
204 0 0
206 0 0
202 0 0
199 0 0
204 0 0
208 0 0
205 0 0
204 0 0
204 0 0
207 0 0
206 0 0
212 0 0
213 0 0
211 0 0
211 0 0
206 0 0
211 0 0
210 0 0
206 0 0
211 0 0
208 0 0
211 0 0
205 0 0
207 0 0
210 0 0
211 0 0
212 0 0
207 0 0
209 0 0
208 0 0
209 0 0
206 0 0
205 0 0
211 0 0
211 0 0
207 0 0
211 0 0
210 0 0
207 0 0
213 0 0
210 0 0
206 0 0
207 0 0
213 0 0
209 0 0
213 0 0
206 0 0
212 0 0
211 0 0
210 0 0
212 0 0
209 0 0
211 0 0
210 0 0
212 0 0
212 0 0
207 0 0
212 0 0
210 0 0
208 0 0
212 0 0
213 0 0
210 0 0
210 0 0
213 0 0
208 0 0
211 0 0
214 0 0
213 0 0
211 0 0
211 0 0
210 0 0
208 0 0
209 0 0
213 0 0
213 0 0
210 0 0
210 0 0
214 0 0
216 0 0
213 0 0
211 0 0
209 0 0
213 0 0
211 0 0
213 0 0
215 0 0
215 0 0
209 0 0
211 0 0
215 0 0
212 0 0
211 0 0
214 0 0
213 0 0
212 0 0
214 0 0
212 0 0
213 0 0
209 0 0
212 0 0
213 0 0
213 0 0
215 0 0
214 0 0
209 0 0
210 0 0
211 0 0
212 0 0
0 0 255
0 0 255
0 0 255
0 0 255
0 0 254
0 0 255
0 0 255
0 0 255
0 0 254
0 0 254
0 0 252
0 0 255
0 0 255
0 0 255
0 0 255
0 0 255
0 0 255
0 0 255
0 0 255
0 0 255
0 0 255
0 0 255
0 0 255
0 0 254
0 0 255
0 0 254
0 0 255
0 0 254
0 0 255
0 0 255
0 0 255
0 0 255
0 0 254
0 0 254
0 0 254
0 0 255
0 0 255
0 0 255
0 0 255
0 0 255
0 0 253
0 0 252
0 0 253
0 0 254
0 0 254
0 0 255
0 0 254
0 0 255
0 0 254
0 0 254
0 0 254
0 0 253
0 0 255
0 0 255
0 0 254
0 0 254
0 0 253
0 0 252
0 0 255
0 0 255
0 0 254
0 0 253
0 0 249
0 0 255
0 0 252
0 0 253
0 0 253
0 0 249
0 0 253
0 0 253
0 0 253
0 0 254
0 0 252
0 0 255
0 0 255
0 0 255
0 0 254
0 0 254
0 0 255
0 0 255
0 0 252
0 0 254
0 0 254
0 0 252
0 0 249
0 0 249
0 0 250
0 0 252
0 0 254
0 0 253
0 0 249
0 0 245
0 0 250
0 0 254
0 0 252
0 0 252
0 0 253
0 0 254
0 0 250
0 0 252
0 0 254
0 0 253
0 0 252
0 0 254
0 0 252
0 0 253
0 0 255
0 0 250
0 0 250
0 0 246
0 0 249
0 0 248
0 0 255
0 0 252
0 0 250
0 0 249
0 0 250
0 0 252
0 0 250
0 0 250
0 0 253
0 0 250
0 0 241
0 0 245
0 0 245
0 0 241
0 0 252
0 0 245
0 0 246
0 0 250
0 0 248
0 0 244
0 0 249
0 0 248
0 0 250
0 0 245
0 0 242
0 0 248
0 0 240
0 0 248
0 0 248
0 0 245
0 0 248
0 0 240
0 0 249
0 0 241
0 0 245
0 0 242
0 0 244
0 0 246
0 0 240
0 0 245
0 0 244
0 0 248
0 0 236
0 0 241
0 0 240
0 0 245
34 38 248
140 157 250
201 224 255
201 224 255
200 224 255
200 224 255
200 224 255
200 224 255
200 224 255
200 224 255
200 224 255
200 224 255
200 224 255
200 224 255
200 224 255
200 224 255
200 224 255
200 224 255
200 224 255
200 224 255
200 224 255
200 224 255
200 224 255
200 224 255
200 224 255
200 224 255
200 224 255
200 224 255
200 224 255
200 224 255
200 224 255
200 224 255
200 224 255
200 224 255
200 224 255
200 224 255
200 224 255
200 224 255
200 224 255
200 224 255
200 224 255
200 224 255
200 224 255
200 224 255
200 224 255
200 224 255
200 224 255
200 224 255
200 224 255
200 224 255
200 224 255
200 224 255
200 224 255
200 224 255
200 224 255
200 224 255
200 224 255
200 224 255
200 224 255
200 224 255
200 224 255
200 224 255
200 224 255
200 224 255
200 224 255
200 224 255
200 224 255
200 224 255
200 224 255
200 224 255
200 224 255
200 224 255
200 224 255
200 224 255
200 224 255
200 224 255
200 224 255
200 224 255
200 224 255
200 224 255
201 224 255
201 224 255
193 158 181
191 0 0
195 0 0
193 0 0
180 0 0
194 0 0
196 0 0
189 0 0
188 0 0
196 0 0
194 0 0
192 0 0
194 0 0
197 0 0
195 0 0
199 0 0
204 0 0
197 0 0
197 0 0
203 0 0
200 0 0
193 0 0
193 0 0
198 0 0
205 0 0
202 0 0
198 0 0
199 0 0
205 0 0
206 0 0
201 0 0
202 0 0
200 0 0
193 0 0
204 0 0
196 0 0
206 0 0
202 0 0
204 0 0
204 0 0
205 0 0
206 0 0
202 0 0
203 0 0
208 0 0
206 0 0
206 0 0
206 0 0
203 0 0
200 0 0
206 0 0
203 0 0
198 0 0
205 0 0
201 0 0
207 0 0
206 0 0
203 0 0
208 0 0
203 0 0
208 0 0
208 0 0
201 0 0
211 0 0
207 0 0
214 0 0
204 0 0
204 0 0
210 0 0
210 0 0
204 0 0
205 0 0
202 0 0
209 0 0
210 0 0
210 0 0
212 0 0
209 0 0
204 0 0
209 0 0
207 0 0
205 0 0
208 0 0
211 0 0
210 0 0
212 0 0
211 0 0
212 0 0
209 0 0
209 0 0
213 0 0
211 0 0
210 0 0
213 0 0
212 0 0
207 0 0
211 0 0
211 0 0
208 0 0
212 0 0
209 0 0
209 0 0
212 0 0
213 0 0
208 0 0
213 0 0
206 0 0
213 0 0
212 0 0
213 0 0
211 0 0
211 0 0
211 0 0
215 0 0
208 0 0
210 0 0
213 0 0
210 0 0
212 0 0
213 0 0
214 0 0
212 0 0
210 0 0
210 0 0
212 0 0
213 0 0
212 0 0
210 0 0
211 0 0
213 0 0
211 0 0
211 0 0
210 0 0
213 0 0
213 0 0
213 0 0
210 0 0
213 0 0
211 0 0
212 0 0
214 0 0
209 0 0
213 0 0
214 0 0
214 0 0
212 0 0
216 0 0
215 0 0
211 0 0
214 0 0
212 0 0
216 0 0
210 0 0
211 0 0
213 0 0
213 0 0
211 0 0
215 0 0
212 0 0
213 0 0
0 0 255
0 0 255
0 0 253
0 0 255
0 0 255
0 0 254
0 0 255
0 0 255
0 0 255
0 0 255
0 0 255
0 0 255
0 0 255
0 0 255
0 0 254
0 0 255
0 0 254
0 0 255
0 0 254
0 0 253
0 0 255
0 0 255
0 0 254
0 0 254
0 0 254
0 0 255
0 0 254
0 0 253
0 0 254
0 0 255
0 0 254
0 0 255
0 0 255
0 0 255
0 0 254
0 0 250
0 0 255
0 0 254
0 0 253
0 0 255
0 0 255
0 0 255
0 0 255
0 0 255
0 0 255
0 0 254
0 0 255
0 0 255
0 0 255
0 0 255
0 0 254
0 0 254
0 0 255
0 0 250
0 0 252
0 0 254
0 0 255
0 0 253
0 0 252
0 0 254
0 0 255
0 0 253
0 0 255
0 0 255
0 0 250
0 0 255
0 0 252
0 0 248
0 0 253
0 0 254
0 0 254
0 0 253
0 0 254
0 0 254
0 0 249
0 0 253
0 0 253
0 0 252
0 0 250
0 0 249
0 0 254
0 0 255
0 0 253
0 0 254
0 0 252
0 0 255
0 0 253
0 0 252
0 0 252
0 0 254
0 0 254
0 0 248
0 0 253
0 0 253
0 0 248
0 0 250
0 0 254
0 0 252
0 0 248
0 0 252
0 0 252
0 0 253
0 0 250
0 0 250
0 0 252
0 0 252
0 0 252
0 0 250
0 0 253
0 0 246
0 0 253
0 0 249
0 0 252
0 0 252
0 0 245
0 0 252
0 0 245
0 0 250
0 0 250
0 0 246
0 0 250
0 0 248
0 0 253
0 0 252
0 0 250
0 0 254
0 0 250
0 0 242
0 0 249
0 0 249
0 0 250
0 0 241
0 0 242
0 0 244
0 0 250
0 0 245
0 0 249
0 0 248
0 0 245
0 0 248
0 0 248
0 0 241
0 0 244
0 0 248
0 0 245
0 0 240
0 0 244
0 0 238
0 0 244
0 0 248
0 0 241
0 0 250
0 0 245
0 0 245
0 0 241
0 0 240
0 0 238
0 0 238
0 0 241
0 0 250
130 145 246
194 216 253
201 224 255
201 224 255
201 224 255
201 224 255
201 224 255
201 224 255
200 224 255
200 224 255
200 224 255
200 224 255
200 224 255
200 224 255
200 224 255
200 224 255
200 224 255
200 224 255
200 224 255
200 224 255
200 224 255
200 224 255
200 224 255
200 224 255
200 224 255
200 224 255
200 224 255
200 224 255
200 224 255
200 224 255
200 224 255
200 224 255
200 224 255
200 224 255
200 224 255
200 224 255
200 224 255
200 224 255
200 224 255
200 224 255
200 224 255
200 224 255
200 224 255
200 224 255
200 224 255
200 224 255
200 224 255
200 224 255
200 224 255
200 224 255
200 224 255
200 224 255
200 224 255
200 224 255
200 224 255
200 224 255
200 224 255
200 224 255
200 224 255
200 224 255
200 224 255
200 224 255
200 224 255
200 224 255
200 224 255
200 224 255
200 224 255
200 224 255
200 224 255
200 224 255
200 224 255
200 224 255
200 224 255
201 224 255
201 224 255
201 224 255
201 224 255
201 224 255
201 215 245
197 121 137
193 0 0
194 0 0
193 0 0
196 0 0
193 0 0
190 0 0
192 0 0
191 0 0
192 0 0
202 0 0
198 0 0
194 0 0
195 0 0
197 0 0
194 0 0
191 0 0
190 0 0
196 0 0
200 0 0
200 0 0
201 0 0
204 0 0
200 0 0
197 0 0
204 0 0
199 0 0
202 0 0
201 0 0
201 0 0
208 0 0
203 0 0
201 0 0
199 0 0
204 0 0
200 0 0
209 0 0
206 0 0
201 0 0
202 0 0
201 0 0
204 0 0
205 0 0
206 0 0
201 0 0
203 0 0
210 0 0
196 0 0
202 0 0
207 0 0
204 0 0
208 0 0
205 0 0
205 0 0
209 0 0
200 0 0
210 0 0
210 0 0
210 0 0
202 0 0
207 0 0
209 0 0
208 0 0
207 0 0
210 0 0
211 0 0
211 0 0
209 0 0
209 0 0
205 0 0
207 0 0
208 0 0
208 0 0
209 0 0
211 0 0
207 0 0
211 0 0
208 0 0
211 0 0
211 0 0
208 0 0
206 0 0
210 0 0
208 0 0
211 0 0
209 0 0
208 0 0
205 0 0
209 0 0
212 0 0
211 0 0
213 0 0
212 0 0
210 0 0
211 0 0
213 0 0
212 0 0
207 0 0
207 0 0
209 0 0
210 0 0
212 0 0
212 0 0
209 0 0
214 0 0
212 0 0
212 0 0
212 0 0
214 0 0
211 0 0
211 0 0
211 0 0
213 0 0
210 0 0
213 0 0
214 0 0
208 0 0
213 0 0
211 0 0
212 0 0
212 0 0
212 0 0
212 0 0
211 0 0
213 0 0
209 0 0
213 0 0
213 0 0
210 0 0
211 0 0
212 0 0
212 0 0
213 0 0
212 0 0
213 0 0
212 0 0
212 0 0
214 0 0
207 0 0
208 0 0
213 0 0
213 0 0
210 0 0
214 0 0
213 0 0
213 0 0
216 0 0
215 0 0
213 0 0
217 0 0
211 0 0
218 0 0
213 0 0
212 0 0
211 0 0
215 0 0
213 0 0
214 0 0
212 0 0
209 0 0
217 0 0
0 0 254
0 0 255
0 0 255
0 0 255
0 0 255
0 0 253
0 0 255
0 0 255
0 0 255
0 0 253
0 0 253
0 0 254
0 0 255
0 0 253
0 0 255
0 0 255
0 0 255
0 0 255
0 0 255
0 0 253
0 0 255
0 0 255
0 0 255
0 0 255
0 0 254
0 0 255
0 0 255
0 0 254
0 0 255
0 0 255
0 0 253
0 0 255
0 0 254
0 0 255
0 0 254
0 0 255
0 0 255
0 0 254
0 0 255
0 0 254
0 0 254
0 0 254
0 0 254
0 0 254
0 0 254
0 0 253
0 0 254
0 0 254
0 0 255
0 0 255
0 0 253
0 0 253
0 0 254
0 0 254
0 0 253
0 0 252
0 0 253
0 0 255
0 0 255
0 0 252
0 0 253
0 0 253
0 0 253
0 0 254
0 0 253
0 0 254
0 0 254
0 0 253
0 0 254
0 0 255
0 0 254
0 0 253
0 0 252
0 0 254
0 0 252
0 0 252
0 0 255
0 0 253
0 0 255
0 0 254
0 0 250
0 0 254
0 0 253
0 0 254
0 0 253
0 0 254
0 0 253
0 0 254
0 0 253
0 0 253
0 0 253
0 0 249
0 0 248
0 0 254
0 0 252
0 0 254
0 0 252
0 0 253
0 0 249
0 0 252
0 0 249
0 0 250
0 0 248
0 0 250
0 0 250
0 0 250
0 0 250
0 0 254
0 0 252
0 0 250
0 0 241
0 0 252
0 0 249
0 0 248
0 0 253
0 0 249
0 0 250
0 0 249
0 0 241
0 0 248
0 0 249
0 0 248
0 0 252
0 0 248
0 0 246
0 0 252
0 0 250
0 0 248
0 0 246
0 0 241
0 0 244
0 0 246
0 0 246
0 0 250
0 0 246
0 0 246
0 0 244
0 0 249
0 0 244
0 0 244
0 0 244
0 0 246
0 0 244
0 0 245
0 0 245
0 0 242
0 0 250
0 0 242
0 0 244
0 0 242
0 0 244
0 0 245
0 0 245
0 0 242
0 0 245
0 0 246
0 0 245
0 0 244
0 0 242
0 0 238
0 0 244
85 95 240
186 208 255
201 224 255
201 224 255
201 224 255
201 224 255
201 224 255
201 224 255
201 224 255
201 224 255
201 224 255
201 224 255
200 224 255
200 224 255
200 224 255
200 224 255
200 224 255
200 224 255
200 224 255
200 224 255
200 224 255
200 224 255
200 224 255
200 224 255
200 224 255
200 224 255
200 224 255
200 224 255
200 224 255
200 224 255
200 224 255
200 224 255
200 224 255
200 224 255
200 224 255
200 224 255
200 224 255
200 224 255
200 224 255
200 224 255
200 224 255
200 224 255
200 224 255
200 224 255
200 224 255
200 224 255
200 224 255
200 224 255
200 224 255
200 224 255
200 224 255
200 224 255
200 224 255
200 224 255
200 224 255
200 224 255
200 224 255
200 224 255
200 224 255
200 224 255
200 224 255
200 224 255
200 224 255
200 224 255
200 224 255
201 224 255
201 224 255
201 224 255
201 224 255
201 224 255
201 224 255
201 224 255
201 224 255
201 224 255
201 224 255
201 224 255
201 207 236
190 89 102
197 0 0
193 0 0
187 0 0
196 0 0
199 0 0
190 0 0
194 0 0
195 0 0
193 0 0
195 0 0
192 0 0
191 0 0
194 0 0
194 0 0
197 0 0
201 0 0
192 0 0
206 0 0
196 0 0
195 0 0
199 0 0
199 0 0
200 0 0
201 0 0
206 0 0
198 0 0
201 0 0
192 0 0
204 0 0
203 0 0
205 0 0
202 0 0
205 0 0
198 0 0
201 0 0
207 0 0
199 0 0
206 0 0
204 0 0
201 0 0
200 0 0
204 0 0
207 0 0
203 0 0
204 0 0
206 0 0
203 0 0
209 0 0
204 0 0
204 0 0
207 0 0
206 0 0
203 0 0
205 0 0
206 0 0
205 0 0
208 0 0
206 0 0
210 0 0
207 0 0
205 0 0
205 0 0
207 0 0
211 0 0
211 0 0
209 0 0
204 0 0
206 0 0
207 0 0
211 0 0
208 0 0
208 0 0
209 0 0
210 0 0
210 0 0
210 0 0
211 0 0
208 0 0
209 0 0
213 0 0
212 0 0
209 0 0
214 0 0
209 0 0
211 0 0
210 0 0
207 0 0
209 0 0
207 0 0
213 0 0
213 0 0
211 0 0
210 0 0
210 0 0
208 0 0
211 0 0
210 0 0
209 0 0
210 0 0
209 0 0
212 0 0
211 0 0
212 0 0
214 0 0
210 0 0
212 0 0
209 0 0
210 0 0
210 0 0
213 0 0
212 0 0
211 0 0
208 0 0
212 0 0
211 0 0
214 0 0
211 0 0
208 0 0
212 0 0
214 0 0
212 0 0
212 0 0
207 0 0
211 0 0
210 0 0
212 0 0
210 0 0
213 0 0
216 0 0
210 0 0
210 0 0
212 0 0
207 0 0
212 0 0
210 0 0
213 0 0
212 0 0
215 0 0
213 0 0
212 0 0
213 0 0
210 0 0
212 0 0
215 0 0
213 0 0
211 0 0
214 0 0
216 0 0
214 0 0
218 0 0
213 0 0
210 0 0
212 0 0
215 0 0
212 0 0
210 0 0
214 0 0
212 0 0
213 0 0
213 0 0
217 0 0
0 0 255
0 0 255
0 0 255
0 0 255
0 0 254
0 0 255
0 0 255
0 0 255
0 0 253
0 0 255
0 0 255
0 0 255
0 0 254
0 0 255
0 0 254
0 0 254
0 0 255
0 0 255
0 0 255
0 0 255
0 0 255
0 0 253
0 0 254
0 0 255
0 0 254
0 0 255
0 0 255
0 0 254
0 0 255
0 0 255
0 0 254
0 0 255
0 0 254
0 0 254
0 0 255
0 0 254
0 0 254
0 0 254
0 0 254
0 0 253
0 0 255
0 0 255
0 0 255
0 0 255
0 0 255
0 0 252
0 0 254
0 0 254
0 0 254
0 0 254
0 0 253
0 0 253
0 0 253
0 0 254
0 0 255
0 0 253
0 0 253
0 0 255
0 0 255
0 0 252
0 0 253
0 0 255
0 0 254
0 0 254
0 0 252
0 0 252
0 0 253
0 0 254
0 0 252
0 0 252
0 0 254
0 0 253
0 0 252
0 0 253
0 0 253
0 0 253
0 0 255
0 0 254
0 0 253
0 0 253
0 0 252
0 0 253
0 0 253
0 0 255
0 0 253
0 0 254
0 0 254
0 0 250
0 0 252
0 0 253
0 0 246
0 0 252
0 0 255
0 0 249
0 0 250
0 0 252
0 0 248
0 0 250
0 0 248
0 0 245
0 0 253
0 0 253
0 0 253
0 0 255
0 0 250
0 0 253
0 0 250
0 0 250
0 0 248
0 0 253
0 0 253
0 0 249
0 0 250
0 0 249
0 0 253
0 0 250
0 0 252
0 0 246
0 0 252
0 0 249
0 0 250
0 0 249
0 0 248
0 0 252
0 0 250
0 0 249
0 0 244
0 0 244
0 0 245
0 0 252
0 0 246
0 0 244
0 0 250
0 0 250
0 0 248
0 0 241
0 0 248
0 0 241
0 0 241
0 0 244
0 0 250
0 0 246
0 0 242
0 0 242
0 0 252
0 0 234
0 0 241
0 0 241
0 0 252
0 0 240
0 0 248
0 0 241
0 0 244
0 0 240
0 0 249
0 0 244
0 0 244
0 0 240
0 0 237
0 0 242
0 0 237
0 0 241
60 67 238
180 201 250
201 224 255
201 224 255
201 224 255
201 224 255
201 224 255
201 224 255
201 224 255
201 224 255
201 224 255
201 224 255
201 224 255
201 224 255
201 224 255
201 224 255
201 224 255
201 224 255
201 224 255
201 224 255
200 224 255
200 224 255
200 224 255
200 224 255
200 224 255
200 224 255
200 224 255
200 224 255
200 224 255
200 224 255
200 224 255
200 224 255
200 224 255
200 224 255
200 224 255
200 224 255
200 224 255
200 224 255
200 224 255
200 224 255
200 224 255
200 224 255
200 224 255
200 224 255
200 224 255
200 224 255
200 224 255
200 224 255
200 224 255
200 224 255
200 224 255
200 224 255
200 224 255
200 224 255
200 224 255
200 224 255
201 224 255
201 224 255
201 224 255
201 224 255
201 224 255
201 224 255
201 224 255
201 224 255
201 224 255
201 224 255
201 224 255
201 224 255
201 224 255
201 224 255
201 224 255
201 224 255
201 224 255
201 224 255
199 201 228
190 63 72
185 0 0
192 0 0
193 0 0
188 0 0
191 0 0
193 0 0
198 0 0
191 0 0
194 0 0
195 0 0
193 0 0
191 0 0
198 0 0
194 0 0
192 0 0
197 0 0
196 0 0
191 0 0
198 0 0
204 0 0
203 0 0
198 0 0
197 0 0
203 0 0
201 0 0
197 0 0
201 0 0
205 0 0
206 0 0
199 0 0
204 0 0
209 0 0
203 0 0
205 0 0
205 0 0
203 0 0
208 0 0
206 0 0
204 0 0
199 0 0
204 0 0
211 0 0
207 0 0
203 0 0
203 0 0
201 0 0
203 0 0
205 0 0
202 0 0
207 0 0
206 0 0
205 0 0
207 0 0
203 0 0
202 0 0
199 0 0
210 0 0
206 0 0
209 0 0
211 0 0
207 0 0
205 0 0
208 0 0
203 0 0
210 0 0
210 0 0
203 0 0
207 0 0
209 0 0
210 0 0
214 0 0
211 0 0
209 0 0
206 0 0
209 0 0
206 0 0
209 0 0
209 0 0
209 0 0
210 0 0
210 0 0
208 0 0
207 0 0
213 0 0
210 0 0
210 0 0
207 0 0
212 0 0
214 0 0
208 0 0
205 0 0
213 0 0
213 0 0
212 0 0
210 0 0
211 0 0
215 0 0
210 0 0
211 0 0
207 0 0
212 0 0
211 0 0
208 0 0
209 0 0
209 0 0
210 0 0
212 0 0
212 0 0
210 0 0
211 0 0
211 0 0
212 0 0
207 0 0
211 0 0
216 0 0
214 0 0
215 0 0
214 0 0
208 0 0
211 0 0
211 0 0
210 0 0
210 0 0
208 0 0
213 0 0
214 0 0
215 0 0
211 0 0
213 0 0
214 0 0
212 0 0
215 0 0
213 0 0
212 0 0
216 0 0
213 0 0
210 0 0
210 0 0
216 0 0
215 0 0
212 0 0
212 0 0
211 0 0
215 0 0
212 0 0
212 0 0
210 0 0
214 0 0
216 0 0
216 0 0
215 0 0
213 0 0
214 0 0
213 0 0
213 0 0
211 0 0
213 0 0
214 0 0
212 0 0
213 0 0
210 0 0
215 0 0
0 0 255
0 0 255
0 0 255
0 0 255
0 0 255
0 0 255
0 0 255
0 0 254
0 0 255
0 0 254
0 0 255
0 0 255
0 0 254
0 0 255
0 0 255
0 0 254
0 0 255
0 0 255
0 0 254
0 0 254
0 0 255
0 0 254
0 0 255
0 0 255
0 0 253
0 0 253
0 0 253
0 0 255
0 0 254
0 0 255
0 0 253
0 0 254
0 0 254
0 0 254
0 0 253
0 0 255
0 0 255
0 0 255
0 0 254
0 0 254
0 0 254
0 0 254
0 0 254
0 0 255
0 0 254
0 0 255
0 0 255
0 0 253
0 0 250
0 0 253
0 0 254
0 0 255
0 0 255
0 0 253
0 0 254
0 0 253
0 0 254
0 0 253
0 0 253
0 0 255
0 0 255
0 0 255
0 0 255
0 0 253
0 0 253
0 0 253
0 0 254
0 0 253
0 0 250
0 0 250
0 0 252
0 0 255
0 0 254
0 0 249
0 0 252
0 0 255
0 0 255
0 0 252
0 0 248
0 0 249
0 0 253
0 0 249
0 0 253
0 0 253
0 0 253
0 0 253
0 0 253
0 0 252
0 0 253
0 0 248
0 0 252
0 0 252
0 0 249
0 0 252
0 0 253
0 0 253
0 0 252
0 0 253
0 0 253
0 0 253
0 0 252
0 0 249
0 0 249
0 0 244
0 0 252
0 0 252
0 0 252
0 0 250
0 0 250
0 0 252
0 0 254
0 0 249
0 0 250
0 0 253
0 0 252
0 0 249
0 0 252
0 0 252
0 0 249
0 0 245
0 0 252
0 0 248
0 0 248
0 0 245
0 0 246
0 0 250
0 0 250
0 0 253
0 0 248
0 0 244
0 0 249
0 0 249
0 0 246
0 0 249
0 0 249
0 0 249
0 0 246
0 0 246
0 0 246
0 0 244
0 0 242
0 0 244
0 0 241
0 0 244
0 0 248
0 0 244
0 0 241
0 0 249
0 0 245
0 0 244
0 0 244
0 0 238
0 0 244
0 0 248
0 0 234
0 0 238
0 0 237
0 0 240
0 0 242
0 0 240
0 0 238
0 0 237
0 0 242
28 31 234
161 180 250
201 225 255
201 224 255
201 224 255
201 224 255
201 224 255
201 224 255
201 224 255
201 224 255
201 224 255
201 224 255
201 224 255
201 224 255
201 224 255
201 224 255
201 224 255
201 224 255
201 224 255
201 224 255
201 224 255
201 224 255
201 224 255
201 224 255
201 224 255
201 224 255
201 224 255
201 224 255
201 224 255
201 224 255
201 224 255
201 224 255
201 224 255
201 224 255
201 224 255
201 224 255
201 224 255
201 224 255
201 224 255
201 224 255
201 224 255
201 224 255
201 224 255
201 224 255
201 224 255
201 224 255
201 224 255
201 224 255
201 224 255
201 224 255
201 224 255
201 224 255
201 224 255
201 224 255
201 224 255
201 224 255
201 224 255
201 224 255
201 224 255
201 224 255
201 224 255
201 224 255
201 224 255
201 224 255
201 224 255
201 224 255
201 224 255
201 224 255
201 224 255
201 224 255
201 224 255
201 225 255
199 184 209
185 31 36
190 0 0
192 0 0
193 0 0
195 0 0
192 0 0
192 0 0
190 0 0
196 0 0
190 0 0
186 0 0
205 0 0
194 0 0
194 0 0
194 0 0
193 0 0
197 0 0
202 0 0
198 0 0
194 0 0
197 0 0
200 0 0
206 0 0
200 0 0
200 0 0
200 0 0
199 0 0
192 0 0
201 0 0
201 0 0
201 0 0
202 0 0
200 0 0
197 0 0
202 0 0
206 0 0
201 0 0
208 0 0
206 0 0
201 0 0
211 0 0
206 0 0
202 0 0
199 0 0
206 0 0
202 0 0
206 0 0
206 0 0
203 0 0
207 0 0
204 0 0
206 0 0
210 0 0
206 0 0
202 0 0
212 0 0
209 0 0
207 0 0
202 0 0
207 0 0
207 0 0
207 0 0
211 0 0
211 0 0
210 0 0
209 0 0
206 0 0
205 0 0
209 0 0
204 0 0
207 0 0
207 0 0
207 0 0
202 0 0
207 0 0
205 0 0
209 0 0
211 0 0
207 0 0
211 0 0
210 0 0
211 0 0
211 0 0
208 0 0
210 0 0
209 0 0
211 0 0
214 0 0
207 0 0
212 0 0
209 0 0
208 0 0
213 0 0
208 0 0
213 0 0
213 0 0
210 0 0
206 0 0
209 0 0
213 0 0
212 0 0
215 0 0
210 0 0
213 0 0
214 0 0
211 0 0
210 0 0
211 0 0
209 0 0
209 0 0
212 0 0
211 0 0
216 0 0
213 0 0
212 0 0
216 0 0
210 0 0
214 0 0
208 0 0
215 0 0
214 0 0
209 0 0
210 0 0
214 0 0
212 0 0
212 0 0
213 0 0
215 0 0
213 0 0
214 0 0
213 0 0
211 0 0
211 0 0
212 0 0
213 0 0
209 0 0
212 0 0
212 0 0
214 0 0
212 0 0
212 0 0
214 0 0
215 0 0
210 0 0
213 0 0
214 0 0
210 0 0
214 0 0
213 0 0
213 0 0
211 0 0
212 0 0
214 0 0
214 0 0
212 0 0
212 0 0
213 0 0
212 0 0
213 0 0
216 0 0
215 0 0
216 0 0
214 0 0
214 0 0
0 0 255
0 0 255
0 0 255
0 0 254
0 0 254
0 0 254
0 0 254
0 0 255
0 0 255
0 0 254
0 0 253
0 0 255
0 0 253
0 0 255
0 0 255
0 0 254
0 0 255
0 0 254
0 0 255
0 0 254
0 0 255
0 0 255
0 0 255
0 0 254
0 0 254
0 0 254
0 0 255
0 0 252
0 0 252
0 0 254
0 0 255
0 0 254
0 0 253
0 0 255
0 0 254
0 0 255
0 0 254
0 0 253
0 0 254
0 0 254
0 0 254
0 0 255
0 0 254
0 0 255
0 0 255
0 0 254
0 0 255
0 0 255
0 0 255
0 0 255
0 0 253
0 0 255
0 0 254
0 0 253
0 0 250
0 0 250
0 0 253
0 0 255
0 0 254
0 0 255
0 0 255
0 0 254
0 0 252
0 0 254
0 0 255
0 0 255
0 0 253
0 0 253
0 0 253
0 0 250
0 0 254
0 0 254
0 0 252
0 0 252
0 0 250
0 0 254
0 0 253
0 0 255
0 0 250
0 0 254
0 0 253
0 0 254
0 0 254
0 0 253
0 0 253
0 0 253
0 0 254
0 0 253
0 0 254
0 0 249
0 0 252
0 0 253
0 0 254
0 0 250
0 0 253
0 0 250
0 0 255
0 0 249
0 0 250
0 0 246
0 0 250
0 0 255
0 0 249
0 0 252
0 0 253
0 0 250
0 0 249
0 0 250
0 0 249
0 0 252
0 0 250
0 0 254
0 0 253
0 0 250
0 0 250
0 0 248
0 0 245
0 0 249
0 0 252
0 0 252
0 0 246
0 0 245
0 0 246
0 0 249
0 0 252
0 0 246
0 0 250
0 0 252
0 0 250
0 0 246
0 0 253
0 0 249
0 0 245
0 0 240
0 0 241
0 0 252
0 0 244
0 0 248
0 0 246
0 0 241
0 0 242
0 0 248
0 0 248
0 0 241
0 0 244
0 0 250
0 0 244
0 0 234
0 0 242
0 0 244
0 0 240
0 0 245
0 0 240
0 0 249
0 0 242
0 0 248
0 0 242
0 0 244
0 0 242
0 0 240
0 0 240
0 0 244
0 0 248
0 0 244
34 38 238
146 163 253
201 225 255
201 225 255
201 225 255
201 225 255
201 225 255
201 225 255
201 224 255
201 224 255
201 224 255
201 224 255
201 224 255
201 224 255
201 224 255
201 224 255
201 224 255
201 224 255
201 224 255
201 224 255
201 224 255
201 224 255
201 224 255
201 224 255
201 224 255
201 224 255
201 224 255
201 224 255
201 224 255
201 224 255
201 224 255
201 224 255
201 224 255
201 224 255
201 224 255
201 224 255
201 224 255
201 224 255
201 224 255
201 224 255
201 224 255
201 224 255
201 224 255
201 224 255
201 224 255
201 224 255
201 224 255
201 224 255
201 224 255
201 224 255
201 224 255
201 224 255
201 224 255
201 224 255
201 224 255
201 224 255
201 224 255
201 224 255
201 224 255
201 224 255
201 224 255
201 224 255
201 224 255
201 224 255
201 225 255
201 225 255
201 225 255
201 225 255
201 225 255
201 225 255
192 172 196
192 22 25
187 0 0
193 0 0
192 0 0
184 0 0
194 0 0
195 0 0
193 0 0
194 0 0
198 0 0
190 0 0
193 0 0
193 0 0
196 0 0
198 0 0
190 0 0
195 0 0
200 0 0
198 0 0
194 0 0
195 0 0
196 0 0
207 0 0
196 0 0
195 0 0
201 0 0
198 0 0
203 0 0
204 0 0
201 0 0
196 0 0
202 0 0
197 0 0
192 0 0
203 0 0
207 0 0
203 0 0
199 0 0
203 0 0
205 0 0
205 0 0
198 0 0
206 0 0
203 0 0
203 0 0
199 0 0
212 0 0
202 0 0
208 0 0
203 0 0
202 0 0
204 0 0
206 0 0
206 0 0
205 0 0
202 0 0
206 0 0
205 0 0
206 0 0
209 0 0
209 0 0
207 0 0
203 0 0
207 0 0
206 0 0
209 0 0
209 0 0
208 0 0
212 0 0
202 0 0
213 0 0
206 0 0
206 0 0
209 0 0
205 0 0
213 0 0
211 0 0
209 0 0
210 0 0
209 0 0
212 0 0
206 0 0
209 0 0
212 0 0
206 0 0
210 0 0
207 0 0
207 0 0
211 0 0
210 0 0
212 0 0
211 0 0
211 0 0
210 0 0
211 0 0
207 0 0
212 0 0
208 0 0
213 0 0
213 0 0
211 0 0
208 0 0
206 0 0
213 0 0
205 0 0
212 0 0
211 0 0
211 0 0
210 0 0
213 0 0
209 0 0
209 0 0
210 0 0
211 0 0
209 0 0
210 0 0
214 0 0
209 0 0
210 0 0
213 0 0
210 0 0
212 0 0
211 0 0
213 0 0
209 0 0
213 0 0
211 0 0
213 0 0
214 0 0
213 0 0
214 0 0
213 0 0
214 0 0
214 0 0
214 0 0
214 0 0
214 0 0
212 0 0
214 0 0
211 0 0
211 0 0
216 0 0
212 0 0
213 0 0
213 0 0
215 0 0
212 0 0
212 0 0
214 0 0
209 0 0
213 0 0
212 0 0
214 0 0
213 0 0
216 0 0
215 0 0
211 0 0
212 0 0
217 0 0
216 0 0
214 0 0
213 0 0
215 0 0
215 0 0
210 0 0
0 0 253
0 0 255
0 0 255
0 0 255
0 0 255
0 0 255
0 0 255
0 0 254
0 0 255
0 0 255
0 0 254
0 0 255
0 0 254
0 0 255
0 0 255
0 0 254
0 0 254
0 0 254
0 0 254
0 0 254
0 0 253
0 0 254
0 0 253
0 0 255
0 0 255
0 0 254
0 0 254
0 0 255
0 0 253
0 0 254
0 0 254
0 0 252
0 0 255
0 0 254
0 0 255
0 0 255
0 0 253
0 0 254
0 0 254
0 0 255
0 0 255
0 0 254
0 0 252
0 0 255
0 0 254
0 0 253
0 0 253
0 0 255
0 0 255
0 0 253
0 0 254
0 0 252
0 0 254
0 0 255
0 0 253
0 0 254
0 0 255
0 0 253
0 0 254
0 0 255
0 0 254
0 0 254
0 0 252
0 0 254
0 0 254
0 0 254
0 0 249
0 0 255
0 0 255
0 0 252
0 0 255
0 0 254
0 0 250
0 0 254
0 0 253
0 0 255
0 0 252
0 0 252
0 0 253
0 0 252
0 0 252
0 0 253
0 0 252
0 0 253
0 0 254
0 0 253
0 0 249
0 0 252
0 0 252
0 0 252
0 0 249
0 0 253
0 0 254
0 0 255
0 0 253
0 0 250
0 0 253
0 0 252
0 0 253
0 0 252
0 0 249
0 0 249
0 0 252
0 0 252
0 0 250
0 0 250
0 0 245
0 0 245
0 0 245
0 0 252
0 0 249
0 0 250
0 0 249
0 0 249
0 0 250
0 0 248
0 0 253
0 0 242
0 0 250
0 0 248
0 0 249
0 0 249
0 0 248
0 0 244
0 0 246
0 0 248
0 0 249
0 0 245
0 0 245
0 0 246
0 0 250
0 0 242
0 0 238
0 0 246
0 0 249
0 0 246
0 0 249
0 0 248
0 0 245
0 0 237
0 0 253
0 0 244
0 0 244
0 0 241
0 0 241
0 0 245
0 0 236
0 0 238
0 0 245
0 0 241
0 0 246
0 0 240
0 0 250
0 0 241
0 0 249
0 0 241
0 0 245
0 0 238
0 0 242
0 0 233
0 0 240
0 0 238
0 0 241
0 0 238
0 0 237
0 0 240
142 159 252
200 222 255
202 225 255
202 225 255
201 225 255
201 225 255
201 225 255
201 225 255
201 225 255
201 225 255
201 225 255
201 225 255
201 225 255
201 225 255
201 224 255
201 224 255
201 224 255
201 224 255
201 224 255
201 224 255
201 224 255
201 224 255
201 224 255
201 224 255
201 224 255
201 224 255
201 224 255
201 224 255
201 224 255
201 224 255
201 224 255
201 224 255
201 224 255
201 224 255
201 224 255
201 224 255
201 224 255
201 224 255
201 224 255
201 224 255
201 224 255
201 224 255
201 224 255
201 224 255
201 224 255
201 224 255
201 224 255
201 224 255
201 224 255
201 224 255
201 224 255
201 224 255
201 224 255
201 224 255
201 224 255
201 225 255
201 225 255
201 225 255
201 225 255
201 225 255
201 225 255
201 225 255
201 225 255
201 225 255
202 225 255
202 225 255
201 224 254
189 147 167
196 0 0
187 0 0
192 0 0
188 0 0
183 0 0
193 0 0
197 0 0
194 0 0
196 0 0
193 0 0
189 0 0
195 0 0
195 0 0
199 0 0
198 0 0
195 0 0
193 0 0
199 0 0
192 0 0
192 0 0
204 0 0
196 0 0
201 0 0
200 0 0
196 0 0
202 0 0
195 0 0
202 0 0
200 0 0
201 0 0
202 0 0
200 0 0
201 0 0
199 0 0
200 0 0
203 0 0
201 0 0
204 0 0
198 0 0
207 0 0
201 0 0
204 0 0
207 0 0
204 0 0
205 0 0
203 0 0
208 0 0
205 0 0
207 0 0
206 0 0
197 0 0
207 0 0
205 0 0
209 0 0
203 0 0
210 0 0
206 0 0
210 0 0
208 0 0
212 0 0
210 0 0
211 0 0
205 0 0
213 0 0
202 0 0
207 0 0
206 0 0
210 0 0
208 0 0
206 0 0
209 0 0
208 0 0
205 0 0
205 0 0
210 0 0
212 0 0
207 0 0
207 0 0
210 0 0
212 0 0
208 0 0
204 0 0
210 0 0
210 0 0
208 0 0
206 0 0
211 0 0
211 0 0
212 0 0
208 0 0
212 0 0
211 0 0
209 0 0
216 0 0
208 0 0
210 0 0
210 0 0
210 0 0
213 0 0
209 0 0
214 0 0
211 0 0
211 0 0
208 0 0
213 0 0
211 0 0
211 0 0
209 0 0
211 0 0
214 0 0
211 0 0
213 0 0
215 0 0
212 0 0
211 0 0
214 0 0
210 0 0
210 0 0
211 0 0
212 0 0
216 0 0
211 0 0
213 0 0
215 0 0
213 0 0
212 0 0
215 0 0
208 0 0
214 0 0
215 0 0
212 0 0
211 0 0
213 0 0
214 0 0
217 0 0
215 0 0
214 0 0
217 0 0
214 0 0
209 0 0
211 0 0
214 0 0
213 0 0
213 0 0
211 0 0
215 0 0
212 0 0
213 0 0
211 0 0
213 0 0
218 0 0
214 0 0
211 0 0
213 0 0
214 0 0
214 0 0
213 0 0
217 0 0
217 0 0
214 0 0
215 0 0
209 0 0
214 0 0
213 0 0
214 0 0
214 0 0
0 0 255
0 0 255
0 0 255
0 0 255
0 0 255
0 0 255
0 0 255
0 0 255
0 0 253
0 0 255
0 0 254
0 0 253
0 0 255
0 0 255
0 0 255
0 0 255
0 0 255
0 0 254
0 0 254
0 0 254
0 0 255
0 0 255
0 0 255
0 0 255
0 0 255
0 0 254
0 0 255
0 0 255
0 0 255
0 0 255
0 0 255
0 0 253
0 0 252
0 0 254
0 0 254
0 0 255
0 0 255
0 0 255
0 0 254
0 0 255
0 0 254
0 0 254
0 0 253
0 0 254
0 0 255
0 0 254
0 0 252
0 0 253
0 0 255
0 0 253
0 0 255
0 0 254
0 0 255
0 0 254
0 0 254
0 0 254
0 0 254
0 0 255
0 0 254
0 0 255
0 0 254
0 0 253
0 0 255
0 0 253
0 0 254
0 0 253
0 0 253
0 0 254
0 0 253
0 0 255
0 0 254
0 0 255
0 0 253
0 0 253
0 0 254
0 0 255
0 0 254
0 0 253
0 0 250
0 0 250
0 0 253
0 0 252
0 0 253
0 0 254
0 0 254
0 0 254
0 0 253
0 0 253
0 0 248
0 0 252
0 0 250
0 0 253
0 0 250
0 0 254
0 0 254
0 0 253
0 0 254
0 0 248
0 0 252
0 0 249
0 0 252
0 0 250
0 0 253
0 0 250
0 0 248
0 0 250
0 0 249
0 0 249
0 0 252
0 0 252
0 0 249
0 0 245
0 0 254
0 0 248
0 0 246
0 0 249
0 0 244
0 0 249
0 0 249
0 0 250
0 0 245
0 0 246
0 0 246
0 0 254
0 0 250
0 0 252
0 0 250
0 0 252
0 0 246
0 0 245
0 0 244
0 0 249
0 0 245
0 0 250
0 0 250
0 0 242
0 0 241
0 0 244
0 0 238
0 0 245
0 0 245
0 0 240
0 0 245
0 0 248
0 0 249
0 0 241
0 0 240
0 0 240
0 0 242
0 0 242
0 0 244
0 0 233
0 0 240
0 0 244
0 0 241
0 0 244
0 0 227
0 0 240
0 0 240
0 0 244
0 0 237
0 0 240
0 0 237
0 0 244
0 0 242
0 0 241
0 0 227
116 129 237
201 224 255
202 225 255
202 225 255
202 225 255
202 225 255
202 225 255
202 225 255
202 225 255
202 225 255
201 225 255
201 225 255
201 225 255
201 225 255
201 225 255
201 225 255
201 225 255
201 225 255
201 225 255
201 225 255
201 225 255
201 225 255
201 225 255
201 225 255
201 225 255
201 225 255
201 225 255
201 225 255
201 224 255
201 225 255
201 224 255
201 224 255
201 224 255
201 224 255
201 224 255
201 224 255
201 224 255
201 224 255
201 224 255
201 225 255
201 224 255
201 225 255
201 225 255
201 225 255
201 225 255
201 225 255
201 225 255
201 225 255
201 225 255
201 225 255
201 225 255
201 225 255
201 225 255
201 225 255
201 225 255
201 225 255
202 225 255
202 225 255
202 225 255
202 225 255
202 225 255
202 225 255
202 225 255
202 225 255
202 220 250
188 121 137
187 0 0
189 0 0
189 0 0
188 0 0
184 0 0
194 0 0
195 0 0
188 0 0
199 0 0
192 0 0
194 0 0
191 0 0
195 0 0
192 0 0
194 0 0
191 0 0
194 0 0
198 0 0
194 0 0
196 0 0
203 0 0
193 0 0
202 0 0
201 0 0
200 0 0
197 0 0
199 0 0
203 0 0
190 0 0
199 0 0
202 0 0
202 0 0
198 0 0
205 0 0
201 0 0
202 0 0
203 0 0
202 0 0
203 0 0
200 0 0
200 0 0
204 0 0
204 0 0
208 0 0
207 0 0
203 0 0
204 0 0
203 0 0
204 0 0
200 0 0
205 0 0
210 0 0
207 0 0
207 0 0
200 0 0
206 0 0
207 0 0
208 0 0
209 0 0
210 0 0
200 0 0
207 0 0
208 0 0
210 0 0
209 0 0
211 0 0
202 0 0
207 0 0
203 0 0
208 0 0
208 0 0
208 0 0
207 0 0
204 0 0
212 0 0
213 0 0
205 0 0
206 0 0
209 0 0
208 0 0
204 0 0
210 0 0
210 0 0
208 0 0
207 0 0
208 0 0
214 0 0
212 0 0
208 0 0
207 0 0
213 0 0
213 0 0
209 0 0
210 0 0
211 0 0
212 0 0
212 0 0
211 0 0
210 0 0
215 0 0
209 0 0
210 0 0
209 0 0
212 0 0
212 0 0
212 0 0
215 0 0
212 0 0
207 0 0
214 0 0
215 0 0
214 0 0
212 0 0
213 0 0
208 0 0
213 0 0
209 0 0
210 0 0
210 0 0
212 0 0
211 0 0
213 0 0
208 0 0
213 0 0
213 0 0
213 0 0
214 0 0
208 0 0
213 0 0
213 0 0
210 0 0
213 0 0
211 0 0
214 0 0
214 0 0
214 0 0
211 0 0
211 0 0
210 0 0
210 0 0
215 0 0
216 0 0
215 0 0
214 0 0
216 0 0
212 0 0
214 0 0
213 0 0
211 0 0
212 0 0
211 0 0
214 0 0
215 0 0
214 0 0
213 0 0
213 0 0
214 0 0
215 0 0
215 0 0
215 0 0
213 0 0
213 0 0
216 0 0
213 0 0
214 0 0
215 0 0
215 0 0
0 0 255
0 0 255
0 0 255
0 0 255
0 0 255
0 0 255
0 0 255
0 0 255
0 0 255
0 0 255
0 0 255
0 0 255
0 0 255
0 0 255
0 0 255
0 0 255
0 0 255
0 0 255
0 0 255
0 0 255
0 0 255
0 0 255
0 0 255
0 0 255
0 0 254
0 0 255
0 0 254
0 0 254
0 0 255
0 0 255
0 0 255
0 0 254
0 0 254
0 0 255
0 0 253
0 0 255
0 0 254
0 0 255
0 0 254
0 0 255
0 0 254
0 0 255
0 0 255
0 0 255
0 0 254
0 0 254
0 0 254
0 0 253
0 0 254
0 0 255
0 0 255
0 0 250
0 0 254
0 0 253
0 0 255
0 0 253
0 0 255
0 0 254
0 0 253
0 0 253
0 0 255
0 0 254
0 0 254
0 0 255
0 0 255
0 0 249
0 0 253
0 0 253
0 0 254
0 0 252
0 0 254
0 0 254
0 0 254
0 0 254
0 0 250
0 0 255
0 0 254
0 0 249
0 0 254
0 0 249
0 0 252
0 0 252
0 0 250
0 0 252
0 0 252
0 0 253
0 0 252
0 0 253
0 0 252
0 0 248
0 0 255
0 0 255
0 0 254
0 0 249
0 0 253
0 0 245
0 0 250
0 0 253
0 0 253
0 0 250
0 0 254
0 0 253
0 0 252
0 0 249
0 0 250
0 0 253
0 0 253
0 0 245
0 0 248
0 0 245
0 0 248
0 0 248
0 0 252
0 0 250
0 0 250
0 0 248
0 0 248
0 0 250
0 0 248
0 0 248
0 0 246
0 0 250
0 0 245
0 0 242
0 0 253
0 0 245
0 0 249
0 0 246
0 0 246
0 0 250
0 0 249
0 0 250
0 0 245
0 0 241
0 0 246
0 0 238
0 0 238
0 0 246
0 0 249
0 0 246
0 0 244
0 0 246
0 0 246
0 0 244
0 0 238
0 0 242
0 0 249
0 0 240
0 0 245
0 0 245
0 0 245
0 0 238
0 0 242
0 0 241
0 0 241
0 0 234
0 0 238
0 0 240
0 0 241
0 0 240
0 0 240
0 0 237
0 0 242
0 0 241
0 0 240
0 0 236
0 0 236
0 0 237
101 112 238
201 224 255
202 225 255
202 225 255
202 225 255
202 225 255
202 225 255
202 225 255
202 225 255
202 225 255
202 225 255
202 225 255
202 225 255
202 225 255
202 225 255
202 225 255
202 225 255
202 225 255
202 225 255
201 225 255
201 225 255
201 225 255
201 225 255
201 225 255
201 225 255
201 225 255
201 225 255
201 225 255
201 225 255
201 225 255
201 225 255
201 225 255
201 225 255
201 225 255
201 225 255
201 225 255
201 225 255
201 225 255
201 225 255
201 225 255
201 225 255
201 225 255
201 225 255
201 225 255
202 225 255
202 225 255
202 225 255
202 225 255
202 225 255
202 225 255
202 225 255
202 225 255
202 225 255
202 225 255
202 225 255
202 225 255
202 225 255
202 225 255
202 225 255
202 225 255
202 225 255
202 225 255
202 221 252
196 140 159
185 0 0
181 0 0
193 0 0
196 0 0
193 0 0
184 0 0
185 0 0
190 0 0
184 0 0
198 0 0
194 0 0
190 0 0
192 0 0
185 0 0
198 0 0
187 0 0
198 0 0
194 0 0
195 0 0
199 0 0
198 0 0
201 0 0
190 0 0
198 0 0
199 0 0
195 0 0
197 0 0
203 0 0
197 0 0
200 0 0
207 0 0
206 0 0
203 0 0
201 0 0
201 0 0
205 0 0
202 0 0
200 0 0
203 0 0
206 0 0
205 0 0
202 0 0
206 0 0
205 0 0
206 0 0
208 0 0
209 0 0
203 0 0
203 0 0
203 0 0
204 0 0
203 0 0
208 0 0
203 0 0
206 0 0
204 0 0
210 0 0
207 0 0
210 0 0
210 0 0
205 0 0
207 0 0
207 0 0
210 0 0
208 0 0
206 0 0
212 0 0
204 0 0
203 0 0
207 0 0
212 0 0
207 0 0
209 0 0
209 0 0
205 0 0
209 0 0
213 0 0
208 0 0
209 0 0
210 0 0
214 0 0
209 0 0
209 0 0
212 0 0
210 0 0
208 0 0
213 0 0
209 0 0
211 0 0
210 0 0
209 0 0
208 0 0
210 0 0
209 0 0
212 0 0
214 0 0
207 0 0
214 0 0
212 0 0
215 0 0
210 0 0
212 0 0
211 0 0
208 0 0
210 0 0
208 0 0
210 0 0
210 0 0
212 0 0
213 0 0
214 0 0
212 0 0
214 0 0
213 0 0
209 0 0
210 0 0
212 0 0
210 0 0
215 0 0
210 0 0
213 0 0
214 0 0
215 0 0
211 0 0
209 0 0
213 0 0
214 0 0
215 0 0
214 0 0
212 0 0
216 0 0
214 0 0
213 0 0
210 0 0
213 0 0
215 0 0
211 0 0
213 0 0
215 0 0
215 0 0
213 0 0
213 0 0
213 0 0
213 0 0
216 0 0
215 0 0
213 0 0
217 0 0
214 0 0
215 0 0
212 0 0
211 0 0
213 0 0
210 0 0
214 0 0
213 0 0
214 0 0
214 0 0
214 0 0
215 0 0
214 0 0
216 0 0
213 0 0
213 0 0
215 0 0
219 0 0
212 0 0
218 0 0
0 0 254
0 0 255
0 0 255
0 0 255
0 0 255
0 0 255
0 0 255
0 0 255
0 0 255
0 0 254
0 0 255
0 0 254
0 0 255
0 0 255
0 0 255
0 0 255
0 0 254
0 0 254
0 0 255
0 0 255
0 0 252
0 0 255
0 0 255
0 0 255
0 0 254
0 0 255
0 0 252
0 0 255
0 0 254
0 0 254
0 0 254
0 0 255
0 0 255
0 0 255
0 0 255
0 0 255
0 0 254
0 0 254
0 0 255
0 0 253
0 0 254
0 0 252
0 0 255
0 0 255
0 0 255
0 0 253
0 0 255
0 0 255
0 0 254
0 0 255
0 0 255
0 0 254
0 0 254
0 0 253
0 0 255
0 0 255
0 0 254
0 0 253
0 0 252
0 0 254
0 0 254
0 0 255
0 0 254
0 0 249
0 0 254
0 0 250
0 0 254
0 0 254
0 0 253
0 0 255
0 0 254
0 0 252
0 0 254
0 0 253
0 0 252
0 0 250
0 0 252
0 0 253
0 0 250
0 0 250
0 0 250
0 0 250
0 0 252
0 0 249
0 0 252
0 0 248
0 0 252
0 0 253
0 0 248
0 0 252
0 0 255
0 0 254
0 0 253
0 0 254
0 0 252
0 0 250
0 0 253
0 0 249
0 0 249
0 0 246
0 0 248
0 0 250
0 0 250
0 0 255
0 0 254
0 0 254
0 0 253
0 0 252
0 0 252
0 0 245
0 0 249
0 0 253
0 0 249
0 0 244
0 0 252
0 0 252
0 0 254
0 0 253
0 0 249
0 0 246
0 0 240
0 0 246
0 0 250
0 0 252
0 0 242
0 0 244
0 0 249
0 0 250
0 0 240
0 0 238
0 0 242
0 0 246
0 0 248
0 0 245
0 0 248
0 0 246
0 0 249
0 0 242
0 0 242
0 0 240
0 0 244
0 0 242
0 0 245
0 0 242
0 0 244
0 0 237
0 0 242
0 0 238
0 0 237
0 0 238
0 0 237
0 0 242
0 0 241
0 0 241
0 0 242
0 0 246
0 0 245
0 0 237
0 0 240
0 0 234
0 0 241
0 0 241
0 0 240
0 0 234
0 0 237
0 0 227
0 0 237
0 0 234
0 0 234
103 114 240
201 224 254
202 225 255
202 225 255
202 225 255
202 225 255
202 225 255
202 225 255
202 225 255
202 225 255
202 225 255
202 225 255
202 225 255
202 225 255
202 225 255
202 225 255
202 225 255
202 225 255
202 225 255
202 225 255
202 225 255
202 225 255
202 225 255
202 225 255
202 225 255
202 225 255
202 225 255
202 225 255
202 225 255
202 225 255
202 225 255
202 225 255
202 225 255
202 225 255
202 225 255
202 225 255
202 225 255
202 225 255
202 225 255
202 225 255
202 225 255
202 225 255
202 225 255
202 225 255
202 225 255
202 225 255
202 225 255
202 225 255
202 225 255
202 225 255
202 225 255
202 225 255
202 225 255
202 225 255
202 225 255
202 225 255
202 225 255
202 225 255
202 225 255
202 225 255
202 223 253
195 127 144
182 0 0
189 0 0
184 0 0
184 0 0
186 0 0
188 0 0
188 0 0
196 0 0
190 0 0
192 0 0
183 0 0
187 0 0
188 0 0
189 0 0
197 0 0
189 0 0
199 0 0
198 0 0
197 0 0
193 0 0
201 0 0
199 0 0
205 0 0
191 0 0
196 0 0
199 0 0
198 0 0
202 0 0
201 0 0
205 0 0
203 0 0
197 0 0
203 0 0
200 0 0
202 0 0
201 0 0
204 0 0
207 0 0
204 0 0
201 0 0
207 0 0
206 0 0
203 0 0
208 0 0
207 0 0
208 0 0
213 0 0
203 0 0
207 0 0
203 0 0
203 0 0
206 0 0
207 0 0
206 0 0
209 0 0
206 0 0
208 0 0
207 0 0
203 0 0
208 0 0
208 0 0
214 0 0
206 0 0
204 0 0
207 0 0
210 0 0
202 0 0
206 0 0
210 0 0
205 0 0
209 0 0
211 0 0
209 0 0
211 0 0
211 0 0
210 0 0
209 0 0
204 0 0
212 0 0
206 0 0
213 0 0
203 0 0
212 0 0
213 0 0
215 0 0
214 0 0
210 0 0
205 0 0
208 0 0
213 0 0
212 0 0
208 0 0
213 0 0
213 0 0
206 0 0
214 0 0
211 0 0
215 0 0
207 0 0
211 0 0
213 0 0
210 0 0
212 0 0
210 0 0
214 0 0
206 0 0
211 0 0
213 0 0
213 0 0
211 0 0
211 0 0
212 0 0
209 0 0
214 0 0
211 0 0
212 0 0
209 0 0
212 0 0
209 0 0
213 0 0
212 0 0
213 0 0
213 0 0
211 0 0
214 0 0
217 0 0
215 0 0
211 0 0
214 0 0
214 0 0
215 0 0
216 0 0
210 0 0
214 0 0
214 0 0
214 0 0
209 0 0
210 0 0
214 0 0
210 0 0
213 0 0
209 0 0
213 0 0
214 0 0
212 0 0
215 0 0
214 0 0
209 0 0
214 0 0
212 0 0
210 0 0
216 0 0
211 0 0
214 0 0
214 0 0
213 0 0
213 0 0
215 0 0
213 0 0
212 0 0
214 0 0
216 0 0
214 0 0
210 0 0
217 0 0
216 0 0
216 0 0
213 0 0
218 0 0
0 0 254
0 0 255
0 0 255
0 0 255
0 0 254
0 0 254
0 0 255
0 0 254
0 0 255
0 0 255
0 0 255
0 0 255
0 0 254
0 0 255
0 0 254
0 0 255
0 0 255
0 0 254
0 0 255
0 0 255
0 0 254
0 0 254
0 0 255
0 0 255
0 0 255
0 0 255
0 0 255
0 0 254
0 0 255
0 0 252
0 0 255
0 0 253
0 0 255
0 0 255
0 0 254
0 0 255
0 0 254
0 0 254
0 0 255
0 0 253
0 0 254
0 0 254
0 0 255
0 0 255
0 0 254
0 0 254
0 0 255
0 0 254
0 0 255
0 0 249
0 0 254
0 0 254
0 0 254
0 0 255
0 0 253
0 0 255
0 0 255
0 0 254
0 0 253
0 0 253
0 0 255
0 0 250
0 0 253
0 0 254
0 0 253
0 0 252
0 0 252
0 0 254
0 0 255
0 0 253
0 0 250
0 0 252
0 0 254
0 0 254
0 0 252
0 0 253
0 0 252
0 0 253
0 0 252
0 0 252
0 0 250
0 0 253
0 0 250
0 0 255
0 0 248
0 0 252
0 0 252
0 0 253
0 0 253
0 0 245
0 0 253
0 0 252
0 0 253
0 0 248
0 0 250
0 0 253
0 0 250
0 0 250
0 0 250
0 0 250
0 0 249
0 0 248
0 0 249
0 0 252
0 0 248
0 0 249
0 0 254
0 0 248
0 0 248
0 0 252
0 0 252
0 0 245
0 0 252
0 0 252
0 0 246
0 0 246
0 0 246
0 0 245
0 0 245
0 0 248
0 0 249
0 0 244
0 0 241
0 0 245
0 0 244
0 0 246
0 0 246
0 0 242
0 0 250
0 0 241
0 0 240
0 0 245
0 0 244
0 0 238
0 0 248
0 0 244
0 0 250
0 0 241
0 0 248
0 0 245
0 0 241
0 0 244
0 0 244
0 0 248
0 0 242
0 0 250
0 0 244
0 0 242
0 0 238
0 0 238
0 0 242
0 0 245
0 0 241
0 0 237
0 0 242
0 0 238
0 0 244
0 0 237
0 0 236
0 0 227
0 0 237
0 0 236
0 0 238
0 0 238
0 0 238
0 0 228
0 0 236
0 0 227
0 0 234
0 0 234
116 129 241
198 221 255
202 225 255
202 225 255
202 225 255
202 225 255
202 225 255
202 225 255
202 225 255
202 225 255
202 225 255
202 225 255
202 225 255
202 225 255
202 225 255
202 225 255
202 225 255
202 225 255
202 225 255
202 225 255
202 225 255
202 225 255
202 225 255
202 225 255
202 225 255
202 225 255
202 225 255
202 225 255
202 225 255
202 225 255
202 225 255
202 225 255
202 225 255
202 225 255
202 225 255
202 225 255
202 225 255
202 225 255
202 225 255
202 225 255
202 225 255
202 225 255
202 225 255
202 225 255
202 225 255
202 225 255
202 225 255
202 225 255
202 225 255
202 225 255
202 225 255
202 225 255
202 225 255
202 225 255
202 225 255
202 225 255
202 225 255
202 225 255
200 223 253
189 123 140
183 0 0
187 0 0
188 0 0
187 0 0
190 0 0
180 0 0
185 0 0
193 0 0
184 0 0
196 0 0
193 0 0
192 0 0
199 0 0
197 0 0
189 0 0
196 0 0
192 0 0
199 0 0
199 0 0
198 0 0
195 0 0
194 0 0
199 0 0
195 0 0
201 0 0
198 0 0
199 0 0
201 0 0
201 0 0
201 0 0
196 0 0
202 0 0
197 0 0
193 0 0
199 0 0
207 0 0
203 0 0
201 0 0
202 0 0
206 0 0
198 0 0
198 0 0
205 0 0
198 0 0
212 0 0
204 0 0
204 0 0
206 0 0
202 0 0
205 0 0
214 0 0
206 0 0
196 0 0
203 0 0
204 0 0
204 0 0
200 0 0
204 0 0
206 0 0
208 0 0
204 0 0
208 0 0
204 0 0
208 0 0
207 0 0
210 0 0
205 0 0
215 0 0
204 0 0
207 0 0
210 0 0
207 0 0
211 0 0
202 0 0
209 0 0
210 0 0
210 0 0
211 0 0
208 0 0
206 0 0
211 0 0
212 0 0
208 0 0
209 0 0
212 0 0
211 0 0
210 0 0
210 0 0
212 0 0
201 0 0
212 0 0
211 0 0
211 0 0
210 0 0
209 0 0
211 0 0
214 0 0
213 0 0
210 0 0
208 0 0
211 0 0
208 0 0
213 0 0
210 0 0
213 0 0
211 0 0
211 0 0
208 0 0
209 0 0
212 0 0
208 0 0
211 0 0
211 0 0
209 0 0
210 0 0
214 0 0
216 0 0
214 0 0
214 0 0
212 0 0
214 0 0
208 0 0
215 0 0
212 0 0
210 0 0
212 0 0
211 0 0
210 0 0
211 0 0
215 0 0
213 0 0
214 0 0
214 0 0
210 0 0
210 0 0
214 0 0
213 0 0
211 0 0
210 0 0
214 0 0
214 0 0
214 0 0
215 0 0
214 0 0
219 0 0
215 0 0
214 0 0
211 0 0
212 0 0
213 0 0
212 0 0
214 0 0
214 0 0
215 0 0
211 0 0
215 0 0
214 0 0
212 0 0
217 0 0
217 0 0
212 0 0
217 0 0
210 0 0
216 0 0
211 0 0
215 0 0
209 0 0
216 0 0
213 0 0
212 0 0
0 0 255
0 0 255
0 0 253
0 0 255
0 0 254
0 0 254
0 0 253
0 0 255
0 0 255
0 0 255
0 0 255
0 0 255
0 0 255
0 0 254
0 0 255
0 0 255
0 0 255
0 0 255
0 0 254
0 0 254
0 0 254
0 0 255
0 0 255
0 0 254
0 0 255
0 0 254
0 0 254
0 0 255
0 0 255
0 0 255
0 0 255
0 0 254
0 0 255
0 0 255
0 0 254
0 0 255
0 0 254
0 0 255
0 0 255
0 0 254
0 0 254
0 0 253
0 0 254
0 0 255
0 0 253
0 0 252
0 0 252
0 0 255
0 0 254
0 0 255
0 0 254
0 0 254
0 0 252
0 0 253
0 0 255
0 0 250
0 0 252
0 0 254
0 0 252
0 0 255
0 0 250
0 0 253
0 0 255
0 0 254
0 0 252
0 0 254
0 0 254
0 0 253
0 0 254
0 0 253
0 0 252
0 0 255
0 0 254
0 0 252
0 0 250
0 0 249
0 0 250
0 0 253
0 0 249
0 0 252
0 0 252
0 0 252
0 0 254
0 0 253
0 0 254
0 0 252
0 0 255
0 0 252
0 0 253
0 0 245
0 0 252
0 0 246
0 0 252
0 0 248
0 0 249
0 0 250
0 0 248
0 0 249
0 0 248
0 0 250
0 0 253
0 0 249
0 0 249
0 0 250
0 0 250
0 0 245
0 0 244
0 0 249
0 0 253
0 0 250
0 0 249
0 0 244
0 0 252
0 0 252
0 0 246
0 0 248
0 0 254
0 0 250
0 0 248
0 0 246
0 0 240
0 0 250
0 0 249
0 0 244
0 0 245
0 0 254
0 0 249
0 0 249
0 0 250
0 0 253
0 0 248
0 0 246
0 0 238
0 0 245
0 0 249
0 0 245
0 0 238
0 0 248
0 0 240
0 0 241
0 0 248
0 0 246
0 0 246
0 0 244
0 0 246
0 0 234
0 0 240
0 0 244
0 0 238
0 0 237
0 0 231
0 0 241
0 0 238
0 0 245
0 0 227
0 0 241
0 0 240
0 0 237
0 0 233
0 0 237
0 0 234
0 0 236
0 0 236
0 0 236
0 0 240
0 0 241
0 0 238
0 0 234
0 0 220
0 0 236
0 0 240
101 112 228
197 220 254
203 225 255
202 225 255
202 225 255
202 225 255
202 225 255
202 225 255
202 225 255
202 225 255
202 225 255
202 225 255
202 225 255
202 225 255
202 225 255
202 225 255
202 225 255
202 225 255
202 225 255
202 225 255
202 225 255
202 225 255
202 225 255
202 225 255
202 225 255
202 225 255
202 225 255
202 225 255
202 225 255
202 225 255
202 225 255
202 225 255
202 225 255
202 225 255
202 225 255
202 225 255
202 225 255
202 225 255
202 225 255
202 225 255
202 225 255
202 225 255
202 225 255
202 225 255
202 225 255
202 225 255
202 225 255
202 225 255
202 225 255
202 225 255
202 225 255
202 225 255
202 225 255
202 225 255
202 225 255
203 225 255
201 222 252
181 95 108
180 0 0
182 0 0
183 0 0
188 0 0
186 0 0
183 0 0
197 0 0
191 0 0
195 0 0
188 0 0
197 0 0
187 0 0
190 0 0
189 0 0
191 0 0
191 0 0
191 0 0
195 0 0
196 0 0
187 0 0
195 0 0
195 0 0
199 0 0
195 0 0
202 0 0
198 0 0
202 0 0
202 0 0
198 0 0
194 0 0
201 0 0
207 0 0
202 0 0
199 0 0
202 0 0
200 0 0
202 0 0
200 0 0
201 0 0
202 0 0
207 0 0
201 0 0
195 0 0
205 0 0
203 0 0
205 0 0
205 0 0
202 0 0
210 0 0
205 0 0
208 0 0
208 0 0
202 0 0
207 0 0
201 0 0
210 0 0
210 0 0
204 0 0
204 0 0
202 0 0
206 0 0
213 0 0
205 0 0
210 0 0
207 0 0
211 0 0
203 0 0
210 0 0
208 0 0
212 0 0
209 0 0
206 0 0
207 0 0
207 0 0
205 0 0
207 0 0
206 0 0
209 0 0
213 0 0
205 0 0
210 0 0
206 0 0
210 0 0
206 0 0
209 0 0
208 0 0
208 0 0
211 0 0
208 0 0
208 0 0
208 0 0
211 0 0
212 0 0
210 0 0
209 0 0
213 0 0
211 0 0
214 0 0
213 0 0
212 0 0
211 0 0
216 0 0
208 0 0
211 0 0
213 0 0
210 0 0
213 0 0
212 0 0
210 0 0
214 0 0
209 0 0
212 0 0
208 0 0
210 0 0
213 0 0
210 0 0
215 0 0
209 0 0
213 0 0
206 0 0
214 0 0
213 0 0
216 0 0
211 0 0
214 0 0
215 0 0
215 0 0
212 0 0
215 0 0
213 0 0
215 0 0
212 0 0
215 0 0
216 0 0
214 0 0
212 0 0
217 0 0
213 0 0
211 0 0
214 0 0
213 0 0
215 0 0
214 0 0
217 0 0
213 0 0
214 0 0
213 0 0
211 0 0
215 0 0
212 0 0
215 0 0
213 0 0
213 0 0
213 0 0
216 0 0
212 0 0
213 0 0
212 0 0
215 0 0
216 0 0
214 0 0
214 0 0
213 0 0
211 0 0
217 0 0
213 0 0
216 0 0
214 0 0
215 0 0
212 0 0
211 0 0
0 0 255
0 0 255
0 0 255
0 0 255
0 0 255
0 0 254
0 0 255
0 0 255
0 0 255
0 0 254
0 0 255
0 0 255
0 0 255
0 0 254
0 0 255
0 0 255
0 0 255
0 0 253
0 0 253
0 0 254
0 0 255
0 0 255
0 0 253
0 0 255
0 0 255
0 0 252
0 0 255
0 0 255
0 0 255
0 0 252
0 0 255
0 0 255
0 0 252
0 0 255
0 0 254
0 0 254
0 0 255
0 0 255
0 0 255
0 0 255
0 0 252
0 0 253
0 0 254
0 0 253
0 0 254
0 0 254
0 0 254
0 0 255
0 0 255
0 0 253
0 0 254
0 0 252
0 0 254
0 0 253
0 0 254
0 0 254
0 0 253
0 0 253
0 0 254
0 0 254
0 0 250
0 0 253
0 0 253
0 0 253
0 0 254
0 0 255
0 0 253
0 0 254
0 0 252
0 0 255
0 0 254
0 0 255
0 0 255
0 0 252
0 0 254
0 0 254
0 0 254
0 0 254
0 0 248
0 0 253
0 0 253
0 0 249
0 0 254
0 0 250
0 0 253
0 0 254
0 0 255
0 0 249
0 0 253
0 0 252
0 0 254
0 0 253
0 0 252
0 0 252
0 0 249
0 0 250
0 0 253
0 0 254
0 0 249
0 0 248
0 0 252
0 0 250
0 0 246
0 0 252
0 0 253
0 0 252
0 0 249
0 0 246
0 0 246
0 0 249
0 0 249
0 0 249
0 0 250
0 0 254
0 0 249
0 0 244
0 0 244
0 0 246
0 0 248
0 0 249
0 0 253
0 0 245
0 0 252
0 0 242
0 0 249
0 0 252
0 0 241
0 0 244
0 0 244
0 0 246
0 0 242
0 0 249
0 0 249
0 0 248
0 0 248
0 0 245
0 0 242
0 0 249
0 0 246
0 0 244
0 0 245
0 0 246
0 0 248
0 0 245
0 0 244
0 0 237
0 0 245
0 0 240
0 0 242
0 0 242
0 0 238
0 0 242
0 0 238
0 0 248
0 0 240
0 0 236
0 0 248
0 0 238
0 0 240
0 0 238
0 0 240
0 0 234
0 0 227
0 0 238
0 0 231
0 0 236
0 0 240
0 0 238
0 0 233
0 0 234
0 0 245
0 0 227
99 110 244
201 223 255
203 225 255
203 225 255
203 225 255
203 225 255
203 225 255
203 225 255
203 225 255
203 225 255
203 225 255
203 225 255
202 225 255
202 225 255
202 225 255
202 225 255
202 225 255
202 225 255
202 225 255
202 225 255
202 225 255
202 225 255
202 225 255
202 225 255
202 225 255
202 225 255
202 225 255
202 225 255
202 225 255
202 225 255
202 225 255
202 225 255
202 225 255
202 225 255
202 225 255
202 225 255
202 225 255
202 225 255
202 225 255
202 225 255
202 225 255
202 225 255
202 225 255
202 225 255
203 225 255
203 225 255
203 225 255
203 225 255
203 225 255
203 225 255
203 225 255
203 225 255
203 225 255
203 225 255
202 223 253
180 125 142
184 0 0
189 0 0
188 0 0
182 0 0
184 0 0
185 0 0
191 0 0
189 0 0
188 0 0
187 0 0
191 0 0
190 0 0
189 0 0
199 0 0
188 0 0
189 0 0
187 0 0
195 0 0
192 0 0
189 0 0
190 0 0
190 0 0
199 0 0
200 0 0
195 0 0
196 0 0
194 0 0
198 0 0
202 0 0
195 0 0
202 0 0
200 0 0
199 0 0
208 0 0
205 0 0
203 0 0
200 0 0
200 0 0
198 0 0
203 0 0
199 0 0
206 0 0
201 0 0
206 0 0
210 0 0
202 0 0
202 0 0
205 0 0
208 0 0
204 0 0
205 0 0
210 0 0
202 0 0
204 0 0
200 0 0
206 0 0
202 0 0
205 0 0
211 0 0
204 0 0
205 0 0
207 0 0
203 0 0
205 0 0
206 0 0
206 0 0
212 0 0
213 0 0
205 0 0
208 0 0
203 0 0
210 0 0
207 0 0
209 0 0
207 0 0
205 0 0
208 0 0
212 0 0
209 0 0
209 0 0
207 0 0
207 0 0
209 0 0
211 0 0
210 0 0
208 0 0
210 0 0
214 0 0
209 0 0
209 0 0
210 0 0
210 0 0
211 0 0
215 0 0
211 0 0
210 0 0
215 0 0
208 0 0
208 0 0
211 0 0
208 0 0
212 0 0
204 0 0
208 0 0
204 0 0
213 0 0
209 0 0
211 0 0
215 0 0
212 0 0
213 0 0
204 0 0
211 0 0
210 0 0
214 0 0
216 0 0
214 0 0
213 0 0
214 0 0
212 0 0
214 0 0
213 0 0
212 0 0
211 0 0
218 0 0
211 0 0
213 0 0
212 0 0
215 0 0
215 0 0
216 0 0
213 0 0
212 0 0
217 0 0
212 0 0
212 0 0
211 0 0
216 0 0
212 0 0
212 0 0
215 0 0
216 0 0
212 0 0
214 0 0
215 0 0
212 0 0
212 0 0
212 0 0
215 0 0
216 0 0
212 0 0
215 0 0
213 0 0
217 0 0
212 0 0
215 0 0
211 0 0
216 0 0
215 0 0
215 0 0
215 0 0
213 0 0
211 0 0
214 0 0
213 0 0
214 0 0
214 0 0
215 0 0
217 0 0
214 0 0
210 0 0
213 0 0
0 0 255
0 0 255
0 0 254
0 0 255
0 0 254
0 0 255
0 0 255
0 0 254
0 0 254
0 0 255
0 0 254
0 0 255
0 0 255
0 0 255
0 0 255
0 0 255
0 0 255
0 0 255
0 0 255
0 0 254
0 0 255
0 0 255
0 0 255
0 0 255
0 0 254
0 0 255
0 0 255
0 0 255
0 0 255
0 0 255
0 0 254
0 0 255
0 0 255
0 0 255
0 0 254
0 0 254
0 0 255
0 0 255
0 0 253
0 0 253
0 0 255
0 0 255
0 0 253
0 0 254
0 0 254
0 0 255
0 0 253
0 0 253
0 0 253
0 0 253
0 0 249
0 0 252
0 0 254
0 0 255
0 0 253
0 0 255
0 0 252
0 0 254
0 0 254
0 0 253
0 0 250
0 0 254
0 0 252
0 0 252
0 0 254
0 0 250
0 0 255
0 0 254
0 0 253
0 0 255
0 0 252
0 0 253
0 0 253
0 0 254
0 0 253
0 0 254
0 0 253
0 0 252
0 0 255
0 0 253
0 0 254
0 0 253
0 0 254
0 0 252
0 0 253
0 0 254
0 0 249
0 0 250
0 0 253
0 0 250
0 0 250
0 0 254
0 0 249
0 0 249
0 0 250
0 0 248
0 0 246
0 0 252
0 0 250
0 0 250
0 0 254
0 0 252
0 0 250
0 0 253
0 0 253
0 0 250
0 0 245
0 0 252
0 0 250
0 0 248
0 0 248
0 0 250
0 0 248
0 0 250
0 0 250
0 0 253
0 0 246
0 0 242
0 0 249
0 0 249
0 0 248
0 0 252
0 0 246
0 0 249
0 0 249
0 0 245
0 0 249
0 0 252
0 0 242
0 0 248
0 0 238
0 0 248
0 0 238
0 0 248
0 0 240
0 0 246
0 0 241
0 0 249
0 0 245
0 0 240
0 0 245
0 0 244
0 0 244
0 0 242
0 0 242
0 0 236
0 0 244
0 0 246
0 0 240
0 0 242
0 0 238
0 0 245
0 0 241
0 0 240
0 0 240
0 0 237
0 0 245
0 0 237
0 0 240
0 0 236
0 0 237
0 0 236
0 0 238
0 0 227
0 0 233
0 0 231
0 0 234
0 0 237
0 0 231
0 0 226
0 0 218
0 0 236
0 0 237
134 149 244
200 222 255
203 225 255
203 225 255
203 225 255
203 225 255
203 225 255
203 225 255
203 225 255
203 225 255
203 225 255
203 225 255
203 225 255
203 225 255
203 225 255
203 225 255
203 225 255
203 225 255
203 225 255
203 225 255
203 225 255
203 225 255
203 225 255
203 225 255
203 225 255
203 225 255
203 225 255
203 225 255
203 225 255
203 225 255
203 225 255
203 225 255
203 225 255
203 225 255
203 225 255
203 225 255
203 225 255
203 225 255
203 225 255
203 225 255
203 225 255
203 225 255
203 225 255
203 225 255
203 225 255
203 225 255
203 225 255
203 225 255
203 225 255
203 225 255
203 225 255
203 225 255
201 222 252
194 129 147
188 0 0
177 0 0
186 0 0
186 0 0
185 0 0
185 0 0
177 0 0
187 0 0
185 0 0
186 0 0
187 0 0
192 0 0
191 0 0
191 0 0
195 0 0
193 0 0
195 0 0
197 0 0
197 0 0
202 0 0
192 0 0
195 0 0
200 0 0
188 0 0
197 0 0
198 0 0
194 0 0
193 0 0
193 0 0
207 0 0
206 0 0
196 0 0
206 0 0
197 0 0
202 0 0
196 0 0
198 0 0
206 0 0
207 0 0
201 0 0
203 0 0
201 0 0
199 0 0
197 0 0
202 0 0
202 0 0
206 0 0
201 0 0
208 0 0
210 0 0
203 0 0
203 0 0
205 0 0
212 0 0
206 0 0
205 0 0
206 0 0
204 0 0
210 0 0
206 0 0
209 0 0
199 0 0
204 0 0
201 0 0
202 0 0
207 0 0
207 0 0
206 0 0
203 0 0
207 0 0
209 0 0
208 0 0
209 0 0
211 0 0
207 0 0
208 0 0
212 0 0
207 0 0
207 0 0
212 0 0
207 0 0
217 0 0
215 0 0
209 0 0
208 0 0
208 0 0
208 0 0
212 0 0
211 0 0
208 0 0
209 0 0
210 0 0
213 0 0
209 0 0
210 0 0
211 0 0
212 0 0
204 0 0
212 0 0
209 0 0
213 0 0
208 0 0
206 0 0
210 0 0
214 0 0
208 0 0
211 0 0
212 0 0
212 0 0
217 0 0
213 0 0
211 0 0
210 0 0
212 0 0
212 0 0
210 0 0
207 0 0
217 0 0
214 0 0
212 0 0
217 0 0
211 0 0
211 0 0
212 0 0
212 0 0
213 0 0
215 0 0
215 0 0
212 0 0
210 0 0
215 0 0
215 0 0
215 0 0
212 0 0
214 0 0
213 0 0
214 0 0
215 0 0
216 0 0
214 0 0
218 0 0
216 0 0
215 0 0
211 0 0
215 0 0
213 0 0
217 0 0
212 0 0
213 0 0
214 0 0
213 0 0
214 0 0
217 0 0
216 0 0
214 0 0
215 0 0
218 0 0
210 0 0
215 0 0
214 0 0
217 0 0
212 0 0
217 0 0
214 0 0
215 0 0
213 0 0
217 0 0
213 0 0
212 0 0
213 0 0
213 0 0
218 0 0
213 0 0
0 0 255
0 0 255
0 0 254
0 0 254
0 0 255
0 0 255
0 0 255
0 0 255
0 0 255
0 0 254
0 0 255
0 0 255
0 0 255
0 0 255
0 0 255
0 0 254
0 0 255
0 0 253
0 0 253
0 0 255
0 0 254
0 0 255
0 0 255
0 0 255
0 0 254
0 0 255
0 0 253
0 0 255
0 0 254
0 0 255
0 0 255
0 0 253
0 0 255
0 0 253
0 0 254
0 0 253
0 0 253
0 0 252
0 0 255
0 0 254
0 0 253
0 0 253
0 0 254
0 0 253
0 0 250
0 0 255
0 0 254
0 0 254
0 0 252
0 0 255
0 0 255
0 0 255
0 0 254
0 0 254
0 0 252
0 0 254
0 0 253
0 0 253
0 0 255
0 0 253
0 0 252
0 0 254
0 0 254
0 0 252
0 0 252
0 0 255
0 0 253
0 0 252
0 0 250
0 0 254
0 0 255
0 0 252
0 0 252
0 0 254
0 0 253
0 0 253
0 0 253
0 0 250
0 0 254
0 0 252
0 0 253
0 0 249
0 0 246
0 0 253
0 0 253
0 0 252
0 0 248
0 0 250
0 0 253
0 0 248
0 0 252
0 0 252
0 0 244
0 0 252
0 0 250
0 0 250
0 0 249
0 0 254
0 0 249
0 0 252
0 0 252
0 0 254
0 0 249
0 0 250
0 0 252
0 0 252
0 0 248
0 0 253
0 0 246
0 0 250
0 0 246
0 0 248
0 0 249
0 0 248
0 0 246
0 0 250
0 0 244
0 0 249
0 0 237
0 0 253
0 0 250
0 0 242
0 0 248
0 0 244
0 0 250
0 0 246
0 0 248
0 0 245
0 0 249
0 0 248
0 0 249
0 0 250
0 0 245
0 0 249
0 0 244
0 0 249
0 0 252
0 0 249
0 0 248
0 0 240
0 0 242
0 0 245
0 0 246
0 0 241
0 0 242
0 0 244
0 0 242
0 0 245
0 0 234
0 0 244
0 0 244
0 0 238
0 0 238
0 0 246
0 0 241
0 0 238
0 0 240
0 0 231
0 0 236
0 0 234
0 0 241
0 0 240
0 0 236
0 0 227
0 0 233
0 0 234
0 0 231
0 0 231
0 0 221
0 0 231
0 0 227
0 0 220
0 0 230
0 0 234
136 151 248
203 226 255
203 226 255
203 226 255
203 226 255
203 226 255
203 225 255
203 225 255
203 225 255
203 225 255
203 225 255
203 225 255
203 225 255
203 225 255
203 225 255
203 225 255
203 225 255
203 225 255
203 225 255
203 225 255
203 225 255
203 225 255
203 225 255
203 225 255
203 225 255
203 225 255
203 225 255
203 225 255
203 225 255
203 225 255
203 225 255
203 225 255
203 225 255
203 225 255
203 225 255
203 225 255
203 225 255
203 225 255
203 225 255
203 225 255
203 225 255
203 225 255
203 225 255
203 225 255
203 225 255
203 225 255
203 226 255
203 226 255
203 226 255
203 226 255
203 226 255
194 169 191
183 0 0
181 0 0
178 0 0
181 0 0
187 0 0
188 0 0
186 0 0
186 0 0
189 0 0
190 0 0
188 0 0
190 0 0
191 0 0
190 0 0
195 0 0
195 0 0
188 0 0
196 0 0
199 0 0
196 0 0
193 0 0
194 0 0
201 0 0
197 0 0
196 0 0
200 0 0
199 0 0
200 0 0
201 0 0
197 0 0
200 0 0
196 0 0
201 0 0
202 0 0
195 0 0
206 0 0
209 0 0
196 0 0
203 0 0
206 0 0
199 0 0
202 0 0
210 0 0
199 0 0
203 0 0
202 0 0
205 0 0
205 0 0
209 0 0
206 0 0
201 0 0
206 0 0
209 0 0
209 0 0
204 0 0
203 0 0
207 0 0
206 0 0
209 0 0
207 0 0
206 0 0
208 0 0
208 0 0
205 0 0
203 0 0
209 0 0
210 0 0
208 0 0
210 0 0
203 0 0
214 0 0
206 0 0
207 0 0
202 0 0
210 0 0
210 0 0
205 0 0
211 0 0
210 0 0
208 0 0
210 0 0
213 0 0
209 0 0
209 0 0
212 0 0
209 0 0
213 0 0
214 0 0
212 0 0
207 0 0
207 0 0
211 0 0
207 0 0
208 0 0
217 0 0
213 0 0
207 0 0
211 0 0
213 0 0
211 0 0
209 0 0
214 0 0
213 0 0
210 0 0
209 0 0
212 0 0
209 0 0
211 0 0
212 0 0
213 0 0
212 0 0
215 0 0
212 0 0
215 0 0
211 0 0
210 0 0
211 0 0
214 0 0
210 0 0
213 0 0
211 0 0
214 0 0
214 0 0
211 0 0
215 0 0
213 0 0
211 0 0
214 0 0
213 0 0
211 0 0
209 0 0
214 0 0
213 0 0
215 0 0
212 0 0
209 0 0
213 0 0
212 0 0
215 0 0
212 0 0
211 0 0
217 0 0
215 0 0
216 0 0
212 0 0
214 0 0
214 0 0
214 0 0
215 0 0
214 0 0
212 0 0
215 0 0
215 0 0
216 0 0
217 0 0
215 0 0
212 0 0
215 0 0
212 0 0
213 0 0
213 0 0
215 0 0
213 0 0
216 0 0
215 0 0
215 0 0
215 0 0
215 0 0
216 0 0
213 0 0
216 0 0
215 0 0
213 0 0
215 0 0
0 0 255
0 0 255
0 0 255
0 0 255
0 0 255
0 0 255
0 0 255
0 0 255
0 0 254
0 0 255
0 0 254
0 0 255
0 0 255
0 0 254
0 0 254
0 0 254
0 0 255
0 0 255
0 0 255
0 0 253
0 0 254
0 0 255
0 0 254
0 0 255
0 0 255
0 0 255
0 0 254
0 0 255
0 0 254
0 0 255
0 0 255
0 0 253
0 0 255
0 0 255
0 0 254
0 0 255
0 0 254
0 0 253
0 0 255
0 0 253
0 0 254
0 0 254
0 0 254
0 0 254
0 0 255
0 0 252
0 0 255
0 0 254
0 0 255
0 0 255
0 0 255
0 0 250
0 0 254
0 0 252
0 0 255
0 0 253
0 0 253
0 0 250
0 0 253
0 0 252
0 0 255
0 0 254
0 0 255
0 0 252
0 0 253
0 0 254
0 0 253
0 0 253
0 0 250
0 0 254
0 0 252
0 0 252
0 0 253
0 0 250
0 0 255
0 0 254
0 0 255
0 0 254
0 0 253
0 0 248
0 0 254
0 0 254
0 0 253
0 0 245
0 0 254
0 0 249
0 0 250
0 0 250
0 0 250
0 0 248
0 0 252
0 0 252
0 0 250
0 0 254
0 0 252
0 0 254
0 0 250
0 0 252
0 0 252
0 0 249
0 0 253
0 0 252
0 0 249
0 0 252
0 0 252
0 0 252
0 0 249
0 0 241
0 0 248
0 0 246
0 0 249
0 0 246
0 0 252
0 0 248
0 0 245
0 0 250
0 0 246
0 0 246
0 0 248
0 0 248
0 0 252
0 0 242
0 0 245
0 0 240
0 0 246
0 0 246
0 0 250
0 0 242
0 0 250
0 0 248
0 0 245
0 0 248
0 0 249
0 0 245
0 0 241
0 0 244
0 0 252
0 0 245
0 0 246
0 0 244
0 0 241
0 0 245
0 0 241
0 0 241
0 0 246
0 0 242
0 0 240
0 0 248
0 0 244
0 0 237
0 0 237
0 0 245
0 0 236
0 0 245
0 0 238
0 0 236
0 0 236
0 0 237
0 0 245
0 0 233
0 0 246
0 0 234
0 0 238
0 0 230
0 0 234
0 0 231
0 0 236
0 0 228
0 0 238
0 0 230
0 0 236
0 0 221
0 0 231
0 0 236
0 0 227
153 170 245
203 226 255
203 226 255
203 226 255
203 226 255
203 226 255
203 226 255
203 226 255
203 226 255
203 226 255
203 226 255
203 226 255
203 226 255
203 226 255
203 226 255
203 226 255
203 226 255
203 226 255
203 226 255
203 226 255
203 226 255
203 226 255
203 226 255
203 226 255
203 226 255
203 226 255
203 226 255
203 226 255
203 226 255
203 226 255
203 226 255
203 226 255
203 226 255
203 226 255
203 226 255
203 226 255
203 226 255
203 226 255
203 226 255
203 226 255
203 226 255
203 226 255
203 226 255
203 226 255
203 226 255
203 226 255
203 226 255
203 226 255
203 226 255
195 155 175
178 0 0
184 0 0
188 0 0
180 0 0
175 0 0
182 0 0
189 0 0
189 0 0
188 0 0
179 0 0
196 0 0
191 0 0
194 0 0
198 0 0
189 0 0
187 0 0
194 0 0
192 0 0
195 0 0
192 0 0
193 0 0
198 0 0
196 0 0
199 0 0
187 0 0
200 0 0
199 0 0
189 0 0
199 0 0
203 0 0
198 0 0
200 0 0
203 0 0
192 0 0
200 0 0
203 0 0
207 0 0
204 0 0
203 0 0
205 0 0
202 0 0
200 0 0
196 0 0
204 0 0
203 0 0
202 0 0
205 0 0
203 0 0
205 0 0
211 0 0
199 0 0
202 0 0
208 0 0
210 0 0
207 0 0
208 0 0
202 0 0
206 0 0
209 0 0
212 0 0
205 0 0
206 0 0
207 0 0
205 0 0
205 0 0
208 0 0
213 0 0
205 0 0
205 0 0
207 0 0
211 0 0
213 0 0
209 0 0
209 0 0
212 0 0
209 0 0
208 0 0
209 0 0
206 0 0
205 0 0
206 0 0
211 0 0
213 0 0
211 0 0
208 0 0
212 0 0
207 0 0
211 0 0
211 0 0
213 0 0
207 0 0
214 0 0
206 0 0
211 0 0
210 0 0
210 0 0
208 0 0
212 0 0
211 0 0
212 0 0
212 0 0
212 0 0
212 0 0
213 0 0
214 0 0
209 0 0
210 0 0
211 0 0
210 0 0
212 0 0
212 0 0
213 0 0
214 0 0
215 0 0
212 0 0
213 0 0
213 0 0
212 0 0
215 0 0
218 0 0
212 0 0
213 0 0
214 0 0
214 0 0
213 0 0
209 0 0
214 0 0
212 0 0
212 0 0
211 0 0
213 0 0
215 0 0
215 0 0
217 0 0
216 0 0
216 0 0
213 0 0
220 0 0
216 0 0
212 0 0
212 0 0
219 0 0
216 0 0
212 0 0
215 0 0
214 0 0
214 0 0
214 0 0
215 0 0
214 0 0
215 0 0
211 0 0
213 0 0
215 0 0
217 0 0
214 0 0
213 0 0
213 0 0
212 0 0
210 0 0
211 0 0
214 0 0
214 0 0
217 0 0
214 0 0
215 0 0
213 0 0
216 0 0
215 0 0
214 0 0
215 0 0
213 0 0
213 0 0
214 0 0
212 0 0
0 0 254
0 0 255
0 0 255
0 0 255
0 0 255
0 0 255
0 0 250
0 0 255
0 0 255
0 0 255
0 0 255
0 0 255
0 0 255
0 0 255
0 0 254
0 0 255
0 0 254
0 0 254
0 0 255
0 0 255
0 0 255
0 0 254
0 0 253
0 0 253
0 0 254
0 0 255
0 0 255
0 0 254
0 0 255
0 0 255
0 0 255
0 0 255
0 0 254
0 0 252
0 0 255
0 0 255
0 0 254
0 0 255
0 0 255
0 0 255
0 0 255
0 0 254
0 0 255
0 0 254
0 0 252
0 0 254
0 0 253
0 0 252
0 0 253
0 0 252
0 0 254
0 0 254
0 0 255
0 0 255
0 0 255
0 0 254
0 0 253
0 0 253
0 0 253
0 0 254
0 0 254
0 0 255
0 0 252
0 0 255
0 0 253
0 0 252
0 0 254
0 0 255
0 0 255
0 0 253
0 0 252
0 0 254
0 0 253
0 0 249
0 0 248
0 0 252
0 0 249
0 0 252
0 0 252
0 0 253
0 0 250
0 0 254
0 0 252
0 0 254
0 0 253
0 0 255
0 0 252
0 0 254
0 0 250
0 0 245
0 0 253
0 0 250
0 0 254
0 0 250
0 0 253
0 0 248
0 0 250
0 0 254
0 0 250
0 0 253
0 0 254
0 0 253
0 0 250
0 0 253
0 0 245
0 0 248
0 0 253
0 0 249
0 0 244
0 0 252
0 0 250
0 0 250
0 0 246
0 0 246
0 0 252
0 0 250
0 0 245
0 0 248
0 0 252
0 0 252
0 0 248
0 0 246
0 0 250
0 0 246
0 0 253
0 0 245
0 0 242
0 0 246
0 0 240
0 0 245
0 0 244
0 0 250
0 0 244
0 0 244
0 0 244
0 0 242
0 0 245
0 0 244
0 0 250
0 0 249
0 0 244
0 0 249
0 0 241
0 0 244
0 0 246
0 0 246
0 0 245
0 0 240
0 0 240
0 0 237
0 0 237
0 0 245
0 0 238
0 0 244
0 0 234
0 0 237
0 0 240
0 0 227
0 0 234
0 0 233
0 0 241
0 0 230
0 0 244
0 0 240
0 0 234
0 0 228
0 0 230
0 0 237
0 0 233
0 0 233
0 0 230
0 0 223
0 0 227
0 0 238
0 0 218
0 0 217
155 172 241
204 226 255
204 226 255
204 226 255
204 226 255
204 226 255
203 226 255
203 226 255
203 226 255
203 226 255
203 226 255
203 226 255
203 226 255
203 226 255
203 226 255
203 226 255
203 226 255
203 226 255
203 226 255
203 226 255
203 226 255
203 226 255
203 226 255
203 226 255
203 226 255
203 226 255
203 226 255
203 226 255
203 226 255
203 226 255
203 226 255
203 226 255
203 226 255
203 226 255
203 226 255
203 226 255
203 226 255
203 226 255
203 226 255
203 226 255
203 226 255
203 226 255
204 226 255
204 226 255
204 226 255
204 226 255
204 226 255
195 183 207
188 0 0
175 0 0
177 0 0
173 0 0
186 0 0
177 0 0
180 0 0
191 0 0
181 0 0
175 0 0
192 0 0
188 0 0
194 0 0
191 0 0
190 0 0
184 0 0
194 0 0
187 0 0
187 0 0
191 0 0
193 0 0
196 0 0
201 0 0
197 0 0
199 0 0
194 0 0
192 0 0
193 0 0
196 0 0
197 0 0
201 0 0
204 0 0
201 0 0
194 0 0
199 0 0
197 0 0
198 0 0
204 0 0
205 0 0
206 0 0
202 0 0
203 0 0
205 0 0
208 0 0
198 0 0
198 0 0
207 0 0
209 0 0
205 0 0
205 0 0
204 0 0
203 0 0
203 0 0
210 0 0
207 0 0
201 0 0
202 0 0
206 0 0
205 0 0
207 0 0
207 0 0
211 0 0
202 0 0
204 0 0
210 0 0
206 0 0
205 0 0
206 0 0
209 0 0
208 0 0
207 0 0
207 0 0
201 0 0
211 0 0
206 0 0
208 0 0
210 0 0
210 0 0
212 0 0
214 0 0
211 0 0
210 0 0
211 0 0
208 0 0
213 0 0
209 0 0
210 0 0
211 0 0
209 0 0
209 0 0
213 0 0
210 0 0
209 0 0
209 0 0
209 0 0
206 0 0
208 0 0
211 0 0
208 0 0
212 0 0
213 0 0
213 0 0
211 0 0
212 0 0
209 0 0
213 0 0
214 0 0
210 0 0
210 0 0
214 0 0
210 0 0
213 0 0
211 0 0
215 0 0
214 0 0
208 0 0
211 0 0
211 0 0
209 0 0
213 0 0
213 0 0
216 0 0
215 0 0
212 0 0
211 0 0
216 0 0
213 0 0
213 0 0
215 0 0
216 0 0
211 0 0
213 0 0
208 0 0
217 0 0
212 0 0
211 0 0
216 0 0
213 0 0
217 0 0
211 0 0
209 0 0
215 0 0
216 0 0
217 0 0
218 0 0
214 0 0
215 0 0
216 0 0
215 0 0
212 0 0
214 0 0
215 0 0
213 0 0
217 0 0
212 0 0
212 0 0
212 0 0
216 0 0
215 0 0
214 0 0
212 0 0
214 0 0
215 0 0
215 0 0
211 0 0
215 0 0
214 0 0
215 0 0
213 0 0
218 0 0
212 0 0
217 0 0
217 0 0
218 0 0
213 0 0
215 0 0
0 0 255
0 0 255
0 0 255
0 0 255
0 0 253
0 0 255
0 0 255
0 0 254
0 0 255
0 0 254
0 0 255
0 0 255
0 0 255
0 0 255
0 0 255
0 0 255
0 0 255
0 0 255
0 0 254
0 0 254
0 0 254
0 0 255
0 0 254
0 0 255
0 0 255
0 0 255
0 0 255
0 0 253
0 0 254
0 0 255
0 0 253
0 0 254
0 0 254
0 0 253
0 0 254
0 0 255
0 0 254
0 0 254
0 0 254
0 0 255
0 0 253
0 0 255
0 0 253
0 0 254
0 0 255
0 0 254
0 0 255
0 0 254
0 0 255
0 0 255
0 0 254
0 0 255
0 0 254
0 0 252
0 0 255
0 0 254
0 0 254
0 0 255
0 0 254
0 0 253
0 0 255
0 0 254
0 0 253
0 0 254
0 0 255
0 0 253
0 0 255
0 0 255
0 0 254
0 0 252
0 0 254
0 0 253
0 0 254
0 0 253
0 0 253
0 0 252
0 0 254
0 0 254
0 0 253
0 0 250
0 0 249
0 0 253
0 0 252
0 0 254
0 0 253
0 0 255
0 0 252
0 0 253
0 0 253
0 0 245
0 0 250
0 0 252
0 0 250
0 0 253
0 0 252
0 0 252
0 0 250
0 0 252
0 0 249
0 0 253
0 0 249
0 0 253
0 0 246
0 0 244
0 0 248
0 0 253
0 0 252
0 0 249
0 0 252
0 0 250
0 0 245
0 0 253
0 0 252
0 0 249
0 0 250
0 0 252
0 0 252
0 0 245
0 0 249
0 0 248
0 0 248
0 0 249
0 0 248
0 0 250
0 0 246
0 0 246
0 0 249
0 0 246
0 0 242
0 0 250
0 0 250
0 0 254
0 0 241
0 0 248
0 0 241
0 0 245
0 0 249
0 0 241
0 0 248
0 0 248
0 0 246
0 0 246
0 0 248
0 0 246
0 0 249
0 0 245
0 0 242
0 0 246
0 0 241
0 0 233
0 0 233
0 0 241
0 0 230
0 0 241
0 0 236
0 0 237
0 0 240
0 0 234
0 0 226
0 0 236
0 0 233
0 0 236
0 0 228
0 0 234
0 0 228
0 0 230
0 0 228
0 0 227
0 0 242
0 0 231
0 0 228
0 0 230
0 0 215
0 0 224
0 0 228
0 0 228
40 45 221
174 193 248
204 226 255
204 226 255
204 226 255
204 226 255
204 226 255
204 226 255
204 226 255
204 226 255
204 226 255
204 226 255
204 226 255
204 226 255
204 226 255
204 226 255
204 226 255
204 226 255
204 226 255
204 226 255
204 226 255
204 226 255
204 226 255
204 226 255
204 226 255
204 226 255
204 226 255
204 226 255
204 226 255
204 226 255
204 226 255
204 226 255
204 226 255
204 226 255
204 226 255
204 226 255
204 226 255
204 226 255
204 226 255
204 226 255
204 226 255
204 226 255
204 226 255
204 226 255
204 226 255
204 226 255
199 198 224
175 32 36
176 0 0
189 0 0
178 0 0
183 0 0
175 0 0
186 0 0
191 0 0
190 0 0
197 0 0
182 0 0
183 0 0
189 0 0
187 0 0
190 0 0
187 0 0
194 0 0
190 0 0
184 0 0
191 0 0
192 0 0
189 0 0
191 0 0
197 0 0
201 0 0
192 0 0
205 0 0
193 0 0
186 0 0
201 0 0
193 0 0
200 0 0
192 0 0
199 0 0
202 0 0
202 0 0
200 0 0
202 0 0
201 0 0
209 0 0
196 0 0
204 0 0
198 0 0
207 0 0
205 0 0
204 0 0
199 0 0
206 0 0
202 0 0
207 0 0
199 0 0
207 0 0
211 0 0
201 0 0
201 0 0
203 0 0
200 0 0
208 0 0
209 0 0
202 0 0
207 0 0
200 0 0
203 0 0
204 0 0
208 0 0
207 0 0
210 0 0
211 0 0
208 0 0
208 0 0
210 0 0
208 0 0
204 0 0
212 0 0
208 0 0
209 0 0
212 0 0
203 0 0
209 0 0
202 0 0
213 0 0
209 0 0
213 0 0
215 0 0
212 0 0
211 0 0
210 0 0
209 0 0
213 0 0
213 0 0
211 0 0
215 0 0
207 0 0
211 0 0
211 0 0
210 0 0
215 0 0
212 0 0
211 0 0
213 0 0
209 0 0
213 0 0
211 0 0
214 0 0
212 0 0
216 0 0
216 0 0
211 0 0
214 0 0
213 0 0
210 0 0
216 0 0
213 0 0
216 0 0
207 0 0
212 0 0
209 0 0
211 0 0
212 0 0
212 0 0
208 0 0
214 0 0
212 0 0
212 0 0
214 0 0
215 0 0
214 0 0
214 0 0
210 0 0
215 0 0
213 0 0
213 0 0
213 0 0
216 0 0
214 0 0
214 0 0
215 0 0
217 0 0
214 0 0
212 0 0
211 0 0
217 0 0
214 0 0
213 0 0
212 0 0
216 0 0
218 0 0
218 0 0
213 0 0
212 0 0
212 0 0
212 0 0
216 0 0
216 0 0
217 0 0
214 0 0
214 0 0
220 0 0
214 0 0
216 0 0
216 0 0
215 0 0
214 0 0
216 0 0
208 0 0
212 0 0
217 0 0
214 0 0
213 0 0
217 0 0
216 0 0
217 0 0
218 0 0
215 0 0
214 0 0
217 0 0
215 0 0
0 0 255
0 0 255
0 0 255
0 0 255
0 0 255
0 0 255
0 0 255
0 0 255
0 0 254
0 0 255
0 0 255
0 0 254
0 0 255
0 0 255
0 0 255
0 0 253
0 0 255
0 0 255
0 0 255
0 0 255
0 0 255
0 0 252
0 0 255
0 0 255
0 0 254
0 0 255
0 0 255
0 0 255
0 0 254
0 0 255
0 0 254
0 0 254
0 0 254
0 0 252
0 0 254
0 0 254
0 0 255
0 0 254
0 0 253
0 0 254
0 0 255
0 0 253
0 0 253
0 0 255
0 0 253
0 0 253
0 0 254
0 0 255
0 0 254
0 0 254
0 0 254
0 0 255
0 0 254
0 0 254
0 0 253
0 0 253
0 0 255
0 0 253
0 0 253
0 0 254
0 0 254
0 0 249
0 0 253
0 0 252
0 0 249
0 0 248
0 0 255
0 0 255
0 0 252
0 0 254
0 0 253
0 0 254
0 0 245
0 0 255
0 0 250
0 0 250
0 0 254
0 0 254
0 0 252
0 0 252
0 0 254
0 0 255
0 0 254
0 0 250
0 0 249
0 0 250
0 0 254
0 0 250
0 0 252
0 0 252
0 0 249
0 0 250
0 0 249
0 0 252
0 0 253
0 0 250
0 0 252
0 0 253
0 0 252
0 0 254
0 0 253
0 0 254
0 0 249
0 0 245
0 0 250
0 0 252
0 0 253
0 0 249
0 0 245
0 0 253
0 0 246
0 0 242
0 0 253
0 0 241
0 0 250
0 0 245
0 0 241
0 0 250
0 0 246
0 0 249
0 0 245
0 0 248
0 0 246
0 0 249
0 0 248
0 0 241
0 0 242
0 0 245
0 0 242
0 0 248
0 0 246
0 0 245
0 0 246
0 0 244
0 0 248
0 0 245
0 0 248
0 0 241
0 0 246
0 0 240
0 0 245
0 0 249
0 0 242
0 0 248
0 0 244
0 0 248
0 0 244
0 0 245
0 0 242
0 0 231
0 0 241
0 0 240
0 0 240
0 0 244
0 0 237
0 0 234
0 0 238
0 0 238
0 0 244
0 0 238
0 0 240
0 0 231
0 0 227
0 0 237
0 0 233
0 0 234
0 0 242
0 0 227
0 0 238
0 0 221
0 0 224
0 0 238
0 0 220
0 0 224
0 0 226
0 0 231
0 0 228
35 39 211
185 205 246
204 226 255
204 226 255
204 226 255
204 226 255
204 226 255
204 226 255
204 226 255
204 226 255
204 226 255
204 226 255
204 226 255
204 226 255
204 226 255
204 226 255
204 226 255
204 226 255
204 226 255
204 226 255
204 226 255
204 226 255
204 226 255
204 226 255
204 226 255
204 226 255
204 226 255
204 226 255
204 226 255
204 226 255
204 226 255
204 226 255
204 226 255
204 226 255
204 226 255
204 226 255
204 226 255
204 226 255
204 226 255
204 226 255
204 226 255
204 226 255
204 226 255
204 226 255
197 203 230
181 78 88
173 0 0
181 0 0
180 0 0
181 0 0
178 0 0
187 0 0
178 0 0
185 0 0
196 0 0
168 0 0
187 0 0
187 0 0
192 0 0
195 0 0
188 0 0
195 0 0
192 0 0
187 0 0
195 0 0
188 0 0
193 0 0
193 0 0
199 0 0
196 0 0
194 0 0
200 0 0
198 0 0
198 0 0
200 0 0
203 0 0
198 0 0
197 0 0
197 0 0
196 0 0
197 0 0
202 0 0
203 0 0
204 0 0
201 0 0
200 0 0
197 0 0
207 0 0
202 0 0
202 0 0
207 0 0
209 0 0
205 0 0
205 0 0
201 0 0
204 0 0
199 0 0
208 0 0
207 0 0
212 0 0
209 0 0
204 0 0
205 0 0
209 0 0
208 0 0
203 0 0
210 0 0
213 0 0
209 0 0
211 0 0
202 0 0
206 0 0
208 0 0
204 0 0
206 0 0
208 0 0
207 0 0
209 0 0
212 0 0
209 0 0
206 0 0
206 0 0
207 0 0
208 0 0
205 0 0
209 0 0
211 0 0
208 0 0
204 0 0
209 0 0
213 0 0
208 0 0
209 0 0
210 0 0
212 0 0
213 0 0
214 0 0
212 0 0
208 0 0
213 0 0
207 0 0
216 0 0
209 0 0
210 0 0
209 0 0
214 0 0
212 0 0
215 0 0
212 0 0
212 0 0
211 0 0
204 0 0
214 0 0
209 0 0
213 0 0
214 0 0
213 0 0
217 0 0
213 0 0
213 0 0
208 0 0
212 0 0
213 0 0
214 0 0
214 0 0
212 0 0
214 0 0
213 0 0
214 0 0
216 0 0
214 0 0
215 0 0
214 0 0
211 0 0
212 0 0
212 0 0
217 0 0
214 0 0
213 0 0
217 0 0
211 0 0
212 0 0
213 0 0
214 0 0
212 0 0
215 0 0
215 0 0
213 0 0
215 0 0
213 0 0
216 0 0
214 0 0
210 0 0
211 0 0
215 0 0
218 0 0
215 0 0
217 0 0
213 0 0
212 0 0
213 0 0
213 0 0
210 0 0
218 0 0
217 0 0
215 0 0
215 0 0
217 0 0
212 0 0
214 0 0
215 0 0
213 0 0
215 0 0
217 0 0
219 0 0
216 0 0
213 0 0
213 0 0
217 0 0
213 0 0
216 0 0
217 0 0
215 0 0
0 0 255
0 0 255
0 0 254
0 0 254
0 0 255
0 0 254
0 0 253
0 0 255
0 0 255
0 0 254
0 0 253
0 0 253
0 0 255
0 0 254
0 0 255
0 0 254
0 0 253
0 0 254
0 0 254
0 0 255
0 0 255
0 0 254
0 0 255
0 0 255
0 0 255
0 0 255
0 0 253
0 0 253
0 0 255
0 0 255
0 0 252
0 0 254
0 0 255
0 0 255
0 0 254
0 0 255
0 0 255
0 0 253
0 0 254
0 0 253
0 0 254
0 0 254
0 0 255
0 0 254
0 0 255
0 0 254
0 0 255
0 0 255
0 0 254
0 0 254
0 0 254
0 0 253
0 0 254
0 0 253
0 0 253
0 0 252
0 0 255
0 0 252
0 0 254
0 0 253
0 0 253
0 0 253
0 0 253
0 0 252
0 0 249
0 0 253
0 0 253
0 0 253
0 0 254
0 0 254
0 0 252
0 0 253
0 0 253
0 0 250
0 0 254
0 0 249
0 0 255
0 0 252
0 0 253
0 0 253
0 0 249
0 0 253
0 0 253
0 0 254
0 0 252
0 0 249
0 0 250
0 0 252
0 0 254
0 0 253
0 0 254
0 0 246
0 0 249
0 0 250
0 0 254
0 0 250
0 0 253
0 0 250
0 0 249
0 0 250
0 0 254
0 0 250
0 0 249
0 0 253
0 0 249
0 0 252
0 0 249
0 0 248
0 0 252
0 0 252
0 0 248
0 0 248
0 0 250
0 0 248
0 0 252
0 0 250
0 0 248
0 0 242
0 0 245
0 0 246
0 0 245
0 0 245
0 0 250
0 0 244
0 0 244
0 0 246
0 0 241
0 0 249
0 0 248
0 0 238
0 0 244
0 0 246
0 0 242
0 0 246
0 0 250
0 0 244
0 0 245
0 0 244
0 0 244
0 0 228
0 0 252
0 0 244
0 0 245
0 0 238
0 0 240
0 0 234
0 0 246
0 0 237
0 0 238
0 0 236
0 0 237
0 0 242
0 0 240
0 0 238
0 0 230
0 0 241
0 0 240
0 0 240
0 0 237
0 0 233
0 0 230
0 0 224
0 0 236
0 0 226
0 0 230
0 0 227
0 0 224
0 0 234
0 0 228
0 0 233
0 0 227
0 0 233
0 0 220
0 0 226
0 0 236
0 0 217
0 0 227
0 0 223
96 106 231
194 215 254
204 226 255
204 226 255
204 226 255
204 226 255
204 226 255
204 226 255
204 226 255
204 226 255
204 226 255
204 226 255
204 226 255
204 226 255
204 226 255
204 226 255
204 226 255
204 226 255
204 226 255
204 226 255
204 226 255
204 226 255
204 226 255
204 226 255
204 226 255
204 226 255
204 226 255
204 226 255
204 226 255
204 226 255
204 226 255
204 226 255
204 226 255
204 226 255
204 226 255
204 226 255
204 226 255
204 226 255
204 226 255
204 226 255
204 226 255
204 226 255
201 216 244
183 93 105
175 0 0
167 0 0
177 0 0
179 0 0
180 0 0
171 0 0
179 0 0
183 0 0
183 0 0
186 0 0
183 0 0
189 0 0
189 0 0
186 0 0
186 0 0
183 0 0
188 0 0
192 0 0
194 0 0
194 0 0
184 0 0
196 0 0
195 0 0
189 0 0
197 0 0
195 0 0
195 0 0
195 0 0
198 0 0
191 0 0
197 0 0
196 0 0
200 0 0
202 0 0
199 0 0
198 0 0
205 0 0
204 0 0
199 0 0
204 0 0
202 0 0
206 0 0
205 0 0
205 0 0
205 0 0
204 0 0
203 0 0
203 0 0
206 0 0
202 0 0
203 0 0
209 0 0
204 0 0
211 0 0
208 0 0
210 0 0
207 0 0
199 0 0
206 0 0
211 0 0
208 0 0
213 0 0
207 0 0
206 0 0
209 0 0
207 0 0
208 0 0
210 0 0
210 0 0
209 0 0
211 0 0
210 0 0
208 0 0
206 0 0
210 0 0
209 0 0
214 0 0
214 0 0
203 0 0
210 0 0
211 0 0
211 0 0
209 0 0
212 0 0
207 0 0
204 0 0
211 0 0
210 0 0
209 0 0
214 0 0
209 0 0
212 0 0
210 0 0
216 0 0
209 0 0
204 0 0
208 0 0
215 0 0
209 0 0
214 0 0
212 0 0
202 0 0
209 0 0
211 0 0
211 0 0
209 0 0
210 0 0
209 0 0
215 0 0
208 0 0
213 0 0
213 0 0
212 0 0
212 0 0
210 0 0
211 0 0
206 0 0
210 0 0
214 0 0
211 0 0
213 0 0
210 0 0
210 0 0
211 0 0
214 0 0
213 0 0
213 0 0
213 0 0
214 0 0
209 0 0
213 0 0
215 0 0
215 0 0
210 0 0
218 0 0
214 0 0
213 0 0
212 0 0
215 0 0
211 0 0
213 0 0
213 0 0
211 0 0
214 0 0
215 0 0
215 0 0
214 0 0
213 0 0
214 0 0
218 0 0
210 0 0
212 0 0
215 0 0
218 0 0
216 0 0
220 0 0
213 0 0
215 0 0
215 0 0
213 0 0
215 0 0
216 0 0
218 0 0
213 0 0
215 0 0
214 0 0
214 0 0
213 0 0
214 0 0
215 0 0
216 0 0
214 0 0
217 0 0
218 0 0
213 0 0
216 0 0
216 0 0
215 0 0
0 0 254
0 0 255
0 0 255
0 0 255
0 0 254
0 0 255
0 0 255
0 0 255
0 0 255
0 0 255
0 0 255
0 0 255
0 0 255
0 0 255
0 0 254
0 0 254
0 0 255
0 0 254
0 0 254
0 0 255
0 0 254
0 0 254
0 0 255
0 0 253
0 0 254
0 0 255
0 0 255
0 0 255
0 0 255
0 0 253
0 0 254
0 0 253
0 0 255
0 0 253
0 0 255
0 0 255
0 0 254
0 0 255
0 0 253
0 0 254
0 0 255
0 0 254
0 0 255
0 0 254
0 0 253
0 0 253
0 0 255
0 0 253
0 0 255
0 0 252
0 0 253
0 0 253
0 0 255
0 0 255
0 0 254
0 0 254
0 0 255
0 0 254
0 0 252
0 0 253
0 0 253
0 0 254
0 0 250
0 0 254
0 0 254
0 0 253
0 0 255
0 0 254
0 0 252
0 0 249
0 0 249
0 0 254
0 0 254
0 0 253
0 0 253
0 0 250
0 0 253
0 0 252
0 0 250
0 0 248
0 0 249
0 0 252
0 0 253
0 0 250
0 0 252
0 0 255
0 0 253
0 0 250
0 0 249
0 0 250
0 0 248
0 0 254
0 0 250
0 0 254
0 0 246
0 0 249
0 0 253
0 0 245
0 0 252
0 0 252
0 0 253
0 0 248
0 0 246
0 0 246
0 0 252
0 0 248
0 0 246
0 0 246
0 0 250
0 0 250
0 0 246
0 0 248
0 0 250
0 0 246
0 0 248
0 0 245
0 0 246
0 0 246
0 0 245
0 0 246
0 0 248
0 0 244
0 0 246
0 0 254
0 0 248
0 0 248
0 0 242
0 0 246
0 0 246
0 0 245
0 0 244
0 0 244
0 0 237
0 0 244
0 0 244
0 0 245
0 0 245
0 0 236
0 0 246
0 0 242
0 0 246
0 0 242
0 0 240
0 0 241
0 0 245
0 0 250
0 0 238
0 0 248
0 0 246
0 0 244
0 0 231
0 0 237
0 0 236
0 0 234
0 0 238
0 0 236
0 0 233
0 0 242
0 0 250
0 0 233
0 0 226
0 0 234
0 0 234
0 0 238
0 0 234
0 0 230
0 0 233
0 0 231
0 0 234
0 0 220
0 0 233
0 0 223
0 0 226
0 0 227
0 0 220
0 0 218
0 0 214
0 0 218
0 0 211
117 130 230
205 226 255
205 226 255
205 226 255
204 226 255
204 226 255
204 226 255
204 226 255
204 226 255
204 226 255
204 226 255
204 226 255
204 226 255
204 226 255
204 226 255
204 226 255
204 226 255
204 226 255
204 226 255
204 226 255
204 226 255
204 226 255
204 226 255
204 226 255
204 226 255
204 226 255
204 226 255
204 226 255
204 226 255
204 226 255
204 226 255
204 226 255
204 226 255
204 226 255
204 226 255
204 226 255
204 226 255
204 226 255
204 226 255
205 226 255
205 226 255
193 141 159
172 0 0
173 0 0
177 0 0
181 0 0
177 0 0
180 0 0
175 0 0
186 0 0
191 0 0
181 0 0
185 0 0
192 0 0
179 0 0
184 0 0
198 0 0
181 0 0
191 0 0
193 0 0
187 0 0
188 0 0
191 0 0
194 0 0
196 0 0
191 0 0
191 0 0
201 0 0
196 0 0
205 0 0
199 0 0
198 0 0
199 0 0
200 0 0
200 0 0
204 0 0
199 0 0
197 0 0
199 0 0
202 0 0
199 0 0
204 0 0
208 0 0
202 0 0
202 0 0
202 0 0
197 0 0
206 0 0
201 0 0
195 0 0
199 0 0
204 0 0
206 0 0
205 0 0
200 0 0
203 0 0
210 0 0
208 0 0
205 0 0
202 0 0
206 0 0
203 0 0
207 0 0
201 0 0
206 0 0
210 0 0
206 0 0
207 0 0
213 0 0
212 0 0
206 0 0
208 0 0
204 0 0
208 0 0
210 0 0
210 0 0
208 0 0
205 0 0
216 0 0
210 0 0
212 0 0
210 0 0
213 0 0
213 0 0
212 0 0
212 0 0
206 0 0
211 0 0
209 0 0
211 0 0
210 0 0
209 0 0
214 0 0
210 0 0
210 0 0
213 0 0
209 0 0
213 0 0
213 0 0
211 0 0
212 0 0
210 0 0
209 0 0
211 0 0
212 0 0
211 0 0
215 0 0
215 0 0
216 0 0
214 0 0
211 0 0
211 0 0
210 0 0
210 0 0
211 0 0
215 0 0
214 0 0
214 0 0
208 0 0
214 0 0
212 0 0
216 0 0
211 0 0
217 0 0
216 0 0
210 0 0
212 0 0
210 0 0
216 0 0
209 0 0
215 0 0
208 0 0
212 0 0
216 0 0
214 0 0
212 0 0
214 0 0
215 0 0
213 0 0
213 0 0
210 0 0
217 0 0
215 0 0
210 0 0
212 0 0
211 0 0
217 0 0
216 0 0
214 0 0
212 0 0
216 0 0
213 0 0
215 0 0
212 0 0
212 0 0
213 0 0
217 0 0
212 0 0
218 0 0
214 0 0
209 0 0
213 0 0
217 0 0
217 0 0
214 0 0
214 0 0
217 0 0
218 0 0
215 0 0
218 0 0
215 0 0
213 0 0
215 0 0
217 0 0
215 0 0
215 0 0
216 0 0
218 0 0
220 0 0
214 0 0
214 0 0
0 0 255
0 0 254
0 0 255
0 0 255
0 0 255
0 0 254
0 0 255
0 0 255
0 0 255
0 0 255
0 0 255
0 0 254
0 0 255
0 0 253
0 0 255
0 0 254
0 0 255
0 0 253
0 0 255
0 0 255
0 0 254
0 0 254
0 0 255
0 0 255
0 0 254
0 0 255
0 0 252
0 0 253
0 0 254
0 0 255
0 0 255
0 0 254
0 0 255
0 0 254
0 0 253
0 0 254
0 0 255
0 0 255
0 0 254
0 0 255
0 0 255
0 0 253
0 0 255
0 0 254
0 0 253
0 0 254
0 0 255
0 0 255
0 0 254
0 0 254
0 0 250
0 0 254
0 0 253
0 0 250
0 0 254
0 0 252
0 0 252
0 0 255
0 0 253
0 0 255
0 0 253
0 0 254
0 0 254
0 0 253
0 0 253
0 0 254
0 0 253
0 0 253
0 0 254
0 0 253
0 0 252
0 0 249
0 0 253
0 0 252
0 0 253
0 0 252
0 0 252
0 0 250
0 0 253
0 0 249
0 0 253
0 0 253
0 0 253
0 0 252
0 0 250
0 0 252
0 0 254
0 0 252
0 0 250
0 0 249
0 0 252
0 0 252
0 0 253
0 0 248
0 0 249
0 0 246
0 0 254
0 0 252
0 0 253
0 0 250
0 0 252
0 0 252
0 0 246
0 0 250
0 0 250
0 0 250
0 0 246
0 0 244
0 0 249
0 0 250
0 0 245
0 0 249
0 0 250
0 0 244
0 0 242
0 0 253
0 0 248
0 0 249
0 0 249
0 0 249
0 0 242
0 0 249
0 0 238
0 0 246
0 0 242
0 0 250
0 0 248
0 0 252
0 0 244
0 0 240
0 0 241
0 0 244
0 0 244
0 0 242
0 0 238
0 0 248
0 0 245
0 0 242
0 0 246
0 0 238
0 0 241
0 0 244
0 0 242
0 0 241
0 0 242
0 0 242
0 0 242
0 0 246
0 0 242
0 0 236
0 0 237
0 0 236
0 0 244
0 0 230
0 0 237
0 0 236
0 0 242
0 0 233
0 0 233
0 0 230
0 0 234
0 0 236
0 0 231
0 0 221
0 0 234
0 0 230
0 0 227
0 0 227
0 0 230
0 0 234
0 0 240
0 0 215
0 0 231
0 0 221
0 0 228
0 0 218
0 0 221
0 0 230
0 0 217
0 0 218
149 165 242
205 226 255
205 226 255
205 226 255
205 226 255
205 226 255
205 226 255
205 226 255
205 226 255
205 226 255
205 226 255
205 226 255
205 226 255
205 226 255
205 226 255
205 226 255
205 226 255
205 226 255
205 226 255
205 226 255
205 226 255
205 226 255
205 226 255
205 226 255
205 226 255
205 226 255
205 226 255
205 226 255
205 226 255
205 226 255
205 226 255
205 226 255
205 226 255
205 226 255
205 226 255
205 226 255
205 226 255
205 226 255
205 226 255
189 158 179
174 0 0
170 0 0
179 0 0
185 0 0
180 0 0
181 0 0
178 0 0
184 0 0
181 0 0
174 0 0
182 0 0
180 0 0
184 0 0
190 0 0
189 0 0
184 0 0
192 0 0
191 0 0
192 0 0
199 0 0
192 0 0
185 0 0
195 0 0
200 0 0
199 0 0
201 0 0
198 0 0
197 0 0
188 0 0
190 0 0
201 0 0
201 0 0
195 0 0
191 0 0
205 0 0
201 0 0
203 0 0
201 0 0
198 0 0
205 0 0
199 0 0
206 0 0
201 0 0
205 0 0
201 0 0
198 0 0
200 0 0
208 0 0
202 0 0
203 0 0
208 0 0
204 0 0
207 0 0
209 0 0
208 0 0
202 0 0
206 0 0
205 0 0
206 0 0
204 0 0
206 0 0
208 0 0
212 0 0
206 0 0
211 0 0
206 0 0
207 0 0
210 0 0
207 0 0
207 0 0
212 0 0
208 0 0
206 0 0
205 0 0
206 0 0
209 0 0
204 0 0
208 0 0
207 0 0
210 0 0
214 0 0
205 0 0
215 0 0
210 0 0
209 0 0
210 0 0
213 0 0
207 0 0
211 0 0
208 0 0
212 0 0
208 0 0
212 0 0
209 0 0
210 0 0
210 0 0
215 0 0
214 0 0
209 0 0
213 0 0
214 0 0
212 0 0
212 0 0
215 0 0
212 0 0
213 0 0
207 0 0
212 0 0
208 0 0
210 0 0
214 0 0
213 0 0
213 0 0
215 0 0
212 0 0
211 0 0
209 0 0
212 0 0
212 0 0
214 0 0
214 0 0
215 0 0
211 0 0
214 0 0
207 0 0
211 0 0
212 0 0
212 0 0
210 0 0
215 0 0
218 0 0
218 0 0
214 0 0
217 0 0
213 0 0
214 0 0
213 0 0
214 0 0
216 0 0
216 0 0
215 0 0
217 0 0
217 0 0
214 0 0
215 0 0
217 0 0
217 0 0
215 0 0
214 0 0
213 0 0
214 0 0
216 0 0
212 0 0
217 0 0
216 0 0
215 0 0
212 0 0
214 0 0
217 0 0
216 0 0
214 0 0
216 0 0
217 0 0
214 0 0
221 0 0
214 0 0
213 0 0
217 0 0
215 0 0
216 0 0
213 0 0
215 0 0
214 0 0
216 0 0
214 0 0
214 0 0
213 0 0
220 0 0
216 0 0
215 0 0
0 0 254
0 0 255
0 0 254
0 0 254
0 0 255
0 0 255
0 0 255
0 0 255
0 0 252
0 0 255
0 0 255
0 0 255
0 0 255
0 0 255
0 0 255
0 0 255
0 0 254
0 0 255
0 0 254
0 0 255
0 0 255
0 0 253
0 0 255
0 0 255
0 0 254
0 0 255
0 0 255
0 0 254
0 0 254
0 0 253
0 0 254
0 0 255
0 0 253
0 0 254
0 0 253
0 0 255
0 0 254
0 0 255
0 0 254
0 0 253
0 0 254
0 0 255
0 0 254
0 0 253
0 0 254
0 0 254
0 0 254
0 0 253
0 0 253
0 0 253
0 0 254
0 0 254
0 0 253
0 0 255
0 0 252
0 0 254
0 0 253
0 0 252
0 0 252
0 0 252
0 0 252
0 0 252
0 0 249
0 0 250
0 0 254
0 0 254
0 0 253
0 0 253
0 0 255
0 0 253
0 0 254
0 0 255
0 0 250
0 0 254
0 0 254
0 0 255
0 0 252
0 0 253
0 0 252
0 0 252
0 0 249
0 0 255
0 0 250
0 0 250
0 0 249
0 0 253
0 0 253
0 0 253
0 0 253
0 0 250
0 0 249
0 0 248
0 0 254
0 0 245
0 0 252
0 0 252
0 0 248
0 0 248
0 0 248
0 0 249
0 0 249
0 0 249
0 0 250
0 0 250
0 0 248
0 0 252
0 0 246
0 0 250
0 0 249
0 0 253
0 0 249
0 0 249
0 0 248
0 0 253
0 0 248
0 0 249
0 0 250
0 0 248
0 0 253
0 0 248
0 0 248
0 0 244
0 0 245
0 0 252
0 0 248
0 0 248
0 0 248
0 0 246
0 0 246
0 0 245
0 0 244
0 0 249
0 0 241
0 0 244
0 0 248
0 0 244
0 0 234
0 0 249
0 0 237
0 0 245
0 0 244
0 0 245
0 0 234
0 0 246
0 0 241
0 0 238
0 0 244
0 0 248
0 0 238
0 0 240
0 0 236
0 0 240
0 0 233
0 0 240
0 0 245
0 0 230
0 0 250
0 0 237
0 0 228
0 0 237
0 0 230
0 0 228
0 0 237
0 0 233
0 0 224
0 0 231
0 0 240
0 0 233
0 0 218
0 0 230
0 0 231
0 0 223
0 0 231
0 0 227
0 0 236
0 0 220
0 0 223
0 0 215
0 0 211
0 0 221
0 0 224
182 201 253
205 227 255
205 227 255
205 227 255
205 227 255
205 227 255
205 227 255
205 227 255
205 227 255
205 226 255
205 226 255
205 226 255
205 226 255
205 226 255
205 226 255
205 226 255
205 226 255
205 226 255
205 226 255
205 226 255
205 226 255
205 226 255
205 226 255
205 226 255
205 226 255
205 226 255
205 226 255
205 226 255
205 226 255
205 227 255
205 227 255
205 227 255
205 227 255
205 227 255
205 227 255
205 227 255
205 227 255
199 194 218
167 22 25
171 0 0
178 0 0
178 0 0
172 0 0
174 0 0
191 0 0
185 0 0
186 0 0
182 0 0
174 0 0
185 0 0
186 0 0
188 0 0
190 0 0
194 0 0
191 0 0
193 0 0
192 0 0
191 0 0
188 0 0
194 0 0
198 0 0
193 0 0
195 0 0
201 0 0
196 0 0
198 0 0
194 0 0
195 0 0
200 0 0
196 0 0
193 0 0
197 0 0
195 0 0
197 0 0
195 0 0
199 0 0
199 0 0
197 0 0
200 0 0
198 0 0
206 0 0
203 0 0
212 0 0
196 0 0
198 0 0
200 0 0
197 0 0
199 0 0
213 0 0
203 0 0
206 0 0
203 0 0
205 0 0
204 0 0
201 0 0
207 0 0
200 0 0
204 0 0
204 0 0
204 0 0
206 0 0
202 0 0
209 0 0
209 0 0
211 0 0
207 0 0
209 0 0
206 0 0
210 0 0
212 0 0
212 0 0
205 0 0
212 0 0
212 0 0
208 0 0
205 0 0
206 0 0
205 0 0
212 0 0
208 0 0
210 0 0
209 0 0
212 0 0
209 0 0
206 0 0
211 0 0
207 0 0
211 0 0
211 0 0
213 0 0
214 0 0
211 0 0
208 0 0
212 0 0
215 0 0
213 0 0
214 0 0
215 0 0
212 0 0
212 0 0
212 0 0
213 0 0
211 0 0
211 0 0
213 0 0
212 0 0
215 0 0
210 0 0
216 0 0
216 0 0
213 0 0
206 0 0
213 0 0
214 0 0
214 0 0
213 0 0
214 0 0
215 0 0
215 0 0
212 0 0
213 0 0
215 0 0
216 0 0
217 0 0
215 0 0
212 0 0
211 0 0
213 0 0
216 0 0
211 0 0
214 0 0
213 0 0
212 0 0
214 0 0
214 0 0
212 0 0
214 0 0
212 0 0
213 0 0
217 0 0
209 0 0
217 0 0
217 0 0
213 0 0
212 0 0
216 0 0
214 0 0
215 0 0
213 0 0
218 0 0
214 0 0
213 0 0
214 0 0
217 0 0
215 0 0
216 0 0
214 0 0
215 0 0
215 0 0
213 0 0
213 0 0
220 0 0
216 0 0
217 0 0
215 0 0
217 0 0
212 0 0
216 0 0
219 0 0
219 0 0
212 0 0
215 0 0
217 0 0
218 0 0
215 0 0
219 0 0
217 0 0
216 0 0
213 0 0
0 0 254
0 0 255
0 0 254
0 0 255
0 0 255
0 0 255
0 0 255
0 0 255
0 0 254
0 0 254
0 0 255
0 0 255
0 0 255
0 0 255
0 0 255
0 0 254
0 0 255
0 0 255
0 0 254
0 0 255
0 0 254
0 0 255
0 0 255
0 0 254
0 0 255
0 0 254
0 0 254
0 0 252
0 0 255
0 0 250
0 0 255
0 0 255
0 0 253
0 0 254
0 0 255
0 0 253
0 0 255
0 0 254
0 0 255
0 0 254
0 0 252
0 0 255
0 0 255
0 0 254
0 0 255
0 0 253
0 0 255
0 0 253
0 0 254
0 0 254
0 0 252
0 0 253
0 0 253
0 0 254
0 0 253
0 0 253
0 0 254
0 0 255
0 0 255
0 0 254
0 0 253
0 0 255
0 0 248
0 0 253
0 0 250
0 0 250
0 0 253
0 0 254
0 0 254
0 0 253
0 0 249
0 0 253
0 0 252
0 0 253
0 0 253
0 0 255
0 0 253
0 0 253
0 0 249
0 0 252
0 0 253
0 0 252
0 0 254
0 0 252
0 0 250
0 0 252
0 0 253
0 0 249
0 0 249
0 0 250
0 0 255
0 0 249
0 0 248
0 0 250
0 0 252
0 0 253
0 0 252
0 0 254
0 0 252
0 0 249
0 0 248
0 0 248
0 0 248
0 0 252
0 0 248
0 0 248
0 0 249
0 0 246
0 0 252
0 0 250
0 0 252
0 0 249
0 0 249
0 0 252
0 0 245
0 0 250
0 0 245
0 0 248
0 0 245
0 0 253
0 0 245
0 0 248
0 0 249
0 0 249
0 0 245
0 0 244
0 0 252
0 0 246
0 0 240
0 0 248
0 0 245
0 0 246
0 0 241
0 0 241
0 0 244
0 0 242
0 0 249
0 0 241
0 0 241
0 0 248
0 0 241
0 0 238
0 0 244
0 0 242
0 0 245
0 0 244
0 0 246
0 0 238
0 0 240
0 0 245
0 0 244
0 0 238
0 0 240
0 0 227
0 0 237
0 0 236
0 0 228
0 0 240
0 0 237
0 0 233
0 0 234
0 0 231
0 0 226
0 0 237
0 0 234
0 0 236
0 0 227
0 0 227
0 0 224
0 0 234
0 0 227
0 0 228
0 0 231
0 0 218
0 0 227
0 0 228
0 0 218
0 0 207
0 0 217
0 0 215
0 0 221
50 55 230
199 220 252
205 227 255
205 227 255
205 227 255
205 227 255
205 227 255
205 227 255
205 227 255
205 227 255
205 227 255
205 227 255
205 227 255
205 227 255
205 227 255
205 227 255
205 227 255
205 227 255
205 227 255
205 227 255
205 227 255
205 227 255
205 227 255
205 227 255
205 227 255
205 227 255
205 227 255
205 227 255
205 227 255
205 227 255
205 227 255
205 227 255
205 227 255
205 227 255
205 227 255
205 227 255
204 223 252
168 75 84
183 0 0
164 0 0
173 0 0
169 0 0
174 0 0
177 0 0
188 0 0
176 0 0
185 0 0
180 0 0
193 0 0
186 0 0
178 0 0
176 0 0
189 0 0
189 0 0
191 0 0
187 0 0
192 0 0
195 0 0
192 0 0
196 0 0
188 0 0
194 0 0
189 0 0
188 0 0
197 0 0
196 0 0
200 0 0
197 0 0
195 0 0
194 0 0
198 0 0
197 0 0
195 0 0
195 0 0
202 0 0
199 0 0
200 0 0
199 0 0
197 0 0
202 0 0
200 0 0
206 0 0
197 0 0
209 0 0
201 0 0
204 0 0
202 0 0
202 0 0
207 0 0
204 0 0
208 0 0
203 0 0
209 0 0
204 0 0
201 0 0
207 0 0
209 0 0
209 0 0
210 0 0
204 0 0
210 0 0
202 0 0
209 0 0
208 0 0
208 0 0
208 0 0
207 0 0
204 0 0
209 0 0
205 0 0
211 0 0
211 0 0
209 0 0
210 0 0
208 0 0
208 0 0
208 0 0
206 0 0
205 0 0
208 0 0
214 0 0
210 0 0
212 0 0
212 0 0
209 0 0
213 0 0
215 0 0
210 0 0
214 0 0
209 0 0
208 0 0
216 0 0
209 0 0
216 0 0
212 0 0
210 0 0
210 0 0
214 0 0
210 0 0
213 0 0
208 0 0
207 0 0
210 0 0
212 0 0
211 0 0
211 0 0
213 0 0
210 0 0
212 0 0
212 0 0
214 0 0
211 0 0
216 0 0
216 0 0
212 0 0
211 0 0
214 0 0
217 0 0
217 0 0
214 0 0
215 0 0
216 0 0
212 0 0
212 0 0
213 0 0
212 0 0
216 0 0
211 0 0
212 0 0
212 0 0
212 0 0
216 0 0
215 0 0
218 0 0
216 0 0
212 0 0
216 0 0
212 0 0
216 0 0
211 0 0
213 0 0
217 0 0
215 0 0
210 0 0
213 0 0
216 0 0
216 0 0
214 0 0
209 0 0
217 0 0
220 0 0
213 0 0
216 0 0
216 0 0
214 0 0
216 0 0
216 0 0
214 0 0
214 0 0
214 0 0
214 0 0
214 0 0
215 0 0
210 0 0
215 0 0
215 0 0
215 0 0
216 0 0
212 0 0
214 0 0
216 0 0
212 0 0
216 0 0
217 0 0
215 0 0
213 0 0
220 0 0
218 0 0
216 0 0
0 0 255
0 0 254
0 0 254
0 0 255
0 0 254
0 0 255
0 0 255
0 0 254
0 0 255
0 0 255
0 0 254
0 0 254
0 0 254
0 0 255
0 0 255
0 0 255
0 0 255
0 0 255
0 0 255
0 0 254
0 0 255
0 0 255
0 0 255
0 0 255
0 0 255
0 0 253
0 0 254
0 0 255
0 0 255
0 0 255
0 0 254
0 0 254
0 0 253
0 0 255
0 0 254
0 0 254
0 0 253
0 0 254
0 0 254
0 0 252
0 0 253
0 0 254
0 0 254
0 0 252
0 0 255
0 0 253
0 0 254
0 0 252
0 0 252
0 0 253
0 0 253
0 0 254
0 0 253
0 0 255
0 0 255
0 0 253
0 0 252
0 0 255
0 0 254
0 0 253
0 0 255
0 0 254
0 0 252
0 0 253
0 0 253
0 0 252
0 0 255
0 0 252
0 0 254
0 0 253
0 0 253
0 0 252
0 0 254
0 0 252
0 0 252
0 0 254
0 0 252
0 0 250
0 0 253
0 0 252
0 0 250
0 0 254
0 0 254
0 0 254
0 0 250
0 0 253
0 0 252
0 0 244
0 0 250
0 0 250
0 0 250
0 0 248
0 0 253
0 0 253
0 0 250
0 0 253
0 0 250
0 0 246
0 0 248
0 0 246
0 0 250
0 0 254
0 0 250
0 0 254
0 0 252
0 0 253
0 0 249
0 0 248
0 0 252
0 0 248
0 0 244
0 0 253
0 0 245
0 0 248
0 0 250
0 0 244
0 0 249
0 0 252
0 0 240
0 0 248
0 0 248
0 0 248
0 0 245
0 0 249
0 0 242
0 0 248
0 0 241
0 0 248
0 0 242
0 0 246
0 0 249
0 0 248
0 0 249
0 0 248
0 0 240
0 0 242
0 0 234
0 0 242
0 0 245
0 0 244
0 0 246
0 0 246
0 0 241
0 0 238
0 0 238
0 0 241
0 0 238
0 0 240
0 0 238
0 0 236
0 0 234
0 0 237
0 0 238
0 0 234
0 0 241
0 0 241
0 0 238
0 0 230
0 0 233
0 0 226
0 0 241
0 0 231
0 0 238
0 0 230
0 0 230
0 0 234
0 0 220
0 0 227
0 0 228
0 0 217
0 0 228
0 0 218
0 0 224
0 0 233
0 0 218
0 0 227
0 0 223
0 0 231
0 0 211
0 0 220
0 0 215
0 0 217
112 124 236
206 227 255
206 227 255
205 227 255
205 227 255
205 227 255
205 227 255
205 227 255
205 227 255
205 227 255
205 227 255
205 227 255
205 227 255
205 227 255
205 227 255
205 227 255
205 227 255
205 227 255
205 227 255
205 227 255
205 227 255
205 227 255
205 227 255
205 227 255
205 227 255
205 227 255
205 227 255
205 227 255
205 227 255
205 227 255
205 227 255
205 227 255
206 227 255
206 227 255
206 227 255
168 115 130
159 0 0
162 0 0
175 0 0
169 0 0
185 0 0
176 0 0
183 0 0
180 0 0
178 0 0
183 0 0
183 0 0
180 0 0
191 0 0
190 0 0
188 0 0
178 0 0
190 0 0
192 0 0
194 0 0
189 0 0
183 0 0
184 0 0
197 0 0
200 0 0
195 0 0
199 0 0
194 0 0
192 0 0
192 0 0
197 0 0
206 0 0
195 0 0
197 0 0
198 0 0
207 0 0
197 0 0
199 0 0
198 0 0
199 0 0
203 0 0
202 0 0
206 0 0
202 0 0
192 0 0
199 0 0
204 0 0
202 0 0
199 0 0
205 0 0
203 0 0
206 0 0
202 0 0
206 0 0
209 0 0
200 0 0
205 0 0
203 0 0
205 0 0
198 0 0
201 0 0
207 0 0
209 0 0
204 0 0
209 0 0
201 0 0
207 0 0
205 0 0
207 0 0
208 0 0
206 0 0
209 0 0
209 0 0
210 0 0
204 0 0
216 0 0
210 0 0
210 0 0
207 0 0
210 0 0
205 0 0
208 0 0
205 0 0
209 0 0
215 0 0
207 0 0
211 0 0
212 0 0
207 0 0
207 0 0
208 0 0
213 0 0
212 0 0
211 0 0
217 0 0
205 0 0
210 0 0
208 0 0
209 0 0
210 0 0
214 0 0
212 0 0
211 0 0
213 0 0
211 0 0
210 0 0
209 0 0
212 0 0
214 0 0
209 0 0
210 0 0
211 0 0
213 0 0
212 0 0
208 0 0
212 0 0
214 0 0
209 0 0
214 0 0
214 0 0
217 0 0
209 0 0
216 0 0
211 0 0
214 0 0
215 0 0
218 0 0
211 0 0
215 0 0
212 0 0
216 0 0
212 0 0
212 0 0
214 0 0
216 0 0
211 0 0
212 0 0
209 0 0
216 0 0
214 0 0
213 0 0
216 0 0
208 0 0
215 0 0
213 0 0
215 0 0
215 0 0
210 0 0
216 0 0
214 0 0
213 0 0
216 0 0
215 0 0
217 0 0
219 0 0
214 0 0
216 0 0
220 0 0
214 0 0
214 0 0
216 0 0
221 0 0
219 0 0
217 0 0
214 0 0
216 0 0
216 0 0
217 0 0
215 0 0
215 0 0
220 0 0
216 0 0
220 0 0
213 0 0
213 0 0
212 0 0
219 0 0
217 0 0
213 0 0
215 0 0
213 0 0
213 0 0
213 0 0
0 0 254
0 0 255
0 0 255
0 0 255
0 0 255
0 0 254
0 0 255
0 0 255
0 0 255
0 0 255
0 0 255
0 0 254
0 0 254
0 0 255
0 0 254
0 0 255
0 0 255
0 0 252
0 0 255
0 0 255
0 0 253
0 0 254
0 0 255
0 0 255
0 0 254
0 0 254
0 0 255
0 0 254
0 0 254
0 0 253
0 0 253
0 0 254
0 0 255
0 0 255
0 0 254
0 0 255
0 0 254
0 0 253
0 0 255
0 0 253
0 0 252
0 0 254
0 0 254
0 0 253
0 0 254
0 0 253
0 0 254
0 0 255
0 0 254
0 0 253
0 0 255
0 0 253
0 0 253
0 0 255
0 0 255
0 0 252
0 0 255
0 0 252
0 0 252
0 0 250
0 0 255
0 0 253
0 0 254
0 0 254
0 0 254
0 0 254
0 0 250
0 0 255
0 0 254
0 0 254
0 0 253
0 0 253
0 0 254
0 0 255
0 0 254
0 0 254
0 0 254
0 0 248
0 0 252
0 0 253
0 0 250
0 0 254
0 0 250
0 0 252
0 0 254
0 0 253
0 0 255
0 0 253
0 0 250
0 0 253
0 0 253
0 0 248
0 0 250
0 0 245
0 0 246
0 0 249
0 0 254
0 0 250
0 0 253
0 0 252
0 0 248
0 0 246
0 0 255
0 0 252
0 0 254
0 0 241
0 0 249
0 0 249
0 0 245
0 0 252
0 0 250
0 0 248
0 0 238
0 0 252
0 0 254
0 0 250
0 0 250
0 0 245
0 0 248
0 0 248
0 0 248
0 0 249
0 0 250
0 0 241
0 0 249
0 0 242
0 0 244
0 0 249
0 0 244
0 0 246
0 0 244
0 0 248
0 0 240
0 0 244
0 0 246
0 0 244
0 0 240
0 0 242
0 0 245
0 0 245
0 0 238
0 0 238
0 0 248
0 0 242
0 0 244
0 0 237
0 0 249
0 0 238
0 0 242
0 0 234
0 0 241
0 0 238
0 0 240
0 0 227
0 0 226
0 0 241
0 0 234
0 0 240
0 0 226
0 0 240
0 0 230
0 0 227
0 0 233
0 0 240
0 0 233
0 0 237
0 0 242
0 0 237
0 0 221
0 0 218
0 0 233
0 0 223
0 0 226
0 0 234
0 0 226
0 0 226
0 0 227
0 0 215
0 0 227
0 0 220
0 0 220
0 0 223
0 0 206
152 168 242
206 227 255
206 227 255
206 227 255
206 227 255
206 227 255
206 227 255
206 227 255
206 227 255
206 227 255
206 227 255
206 227 255
206 227 255
206 227 255
206 227 255
206 227 255
206 227 255
206 227 255
206 227 255
206 227 255
206 227 255
206 227 255
206 227 255
206 227 255
206 227 255
206 227 255
206 227 255
206 227 255
206 227 255
206 227 255
206 227 255
206 227 255
206 227 255
191 174 196
168 0 0
167 0 0
176 0 0
174 0 0
173 0 0
176 0 0
168 0 0
173 0 0
179 0 0
178 0 0
174 0 0
190 0 0
182 0 0
192 0 0
186 0 0
193 0 0
184 0 0
188 0 0
190 0 0
194 0 0
188 0 0
193 0 0
185 0 0
186 0 0
195 0 0
200 0 0
184 0 0
196 0 0
191 0 0
199 0 0
194 0 0
198 0 0
201 0 0
197 0 0
203 0 0
203 0 0
200 0 0
197 0 0
197 0 0
204 0 0
204 0 0
199 0 0
203 0 0
201 0 0
208 0 0
201 0 0
199 0 0
205 0 0
199 0 0
205 0 0
204 0 0
206 0 0
205 0 0
204 0 0
210 0 0
207 0 0
202 0 0
200 0 0
202 0 0
210 0 0
197 0 0
209 0 0
205 0 0
202 0 0
210 0 0
211 0 0
203 0 0
208 0 0
209 0 0
205 0 0
206 0 0
210 0 0
209 0 0
209 0 0
208 0 0
208 0 0
209 0 0
197 0 0
209 0 0
214 0 0
210 0 0
213 0 0
208 0 0
213 0 0
208 0 0
216 0 0
207 0 0
210 0 0
205 0 0
210 0 0
210 0 0
213 0 0
209 0 0
212 0 0
217 0 0
208 0 0
207 0 0
213 0 0
212 0 0
207 0 0
209 0 0
215 0 0
211 0 0
205 0 0
215 0 0
215 0 0
216 0 0
214 0 0
211 0 0
213 0 0
209 0 0
216 0 0
210 0 0
213 0 0
214 0 0
211 0 0
211 0 0
214 0 0
210 0 0
214 0 0
218 0 0
214 0 0
215 0 0
208 0 0
213 0 0
217 0 0
212 0 0
210 0 0
213 0 0
218 0 0
216 0 0
213 0 0
214 0 0
213 0 0
216 0 0
210 0 0
209 0 0
211 0 0
214 0 0
216 0 0
217 0 0
217 0 0
213 0 0
218 0 0
217 0 0
218 0 0
216 0 0
214 0 0
213 0 0
216 0 0
213 0 0
218 0 0
211 0 0
217 0 0
215 0 0
215 0 0
219 0 0
215 0 0
217 0 0
217 0 0
216 0 0
218 0 0
216 0 0
214 0 0
212 0 0
215 0 0
215 0 0
212 0 0
213 0 0
217 0 0
211 0 0
213 0 0
213 0 0
216 0 0
213 0 0
214 0 0
218 0 0
219 0 0
218 0 0
215 0 0
217 0 0
216 0 0
215 0 0
0 0 255
0 0 255
0 0 255
0 0 255
0 0 255
0 0 254
0 0 255
0 0 254
0 0 254
0 0 254
0 0 254
0 0 254
0 0 254
0 0 254
0 0 253
0 0 254
0 0 255
0 0 255
0 0 254
0 0 255
0 0 255
0 0 254
0 0 254
0 0 255
0 0 255
0 0 254
0 0 255
0 0 253
0 0 253
0 0 254
0 0 254
0 0 255
0 0 253
0 0 253
0 0 254
0 0 253
0 0 254
0 0 253
0 0 254
0 0 254
0 0 254
0 0 254
0 0 255
0 0 255
0 0 253
0 0 254
0 0 254
0 0 255
0 0 253
0 0 255
0 0 254
0 0 254
0 0 253
0 0 253
0 0 254
0 0 252
0 0 253
0 0 254
0 0 254
0 0 253
0 0 252
0 0 253
0 0 253
0 0 250
0 0 253
0 0 250
0 0 253
0 0 255
0 0 253
0 0 254
0 0 254
0 0 253
0 0 254
0 0 253
0 0 250
0 0 253
0 0 254
0 0 250
0 0 250
0 0 249
0 0 250
0 0 252
0 0 252
0 0 253
0 0 254
0 0 250
0 0 252
0 0 254
0 0 252
0 0 253
0 0 253
0 0 254
0 0 254
0 0 253
0 0 249
0 0 250
0 0 252
0 0 248
0 0 246
0 0 253
0 0 252
0 0 250
0 0 249
0 0 246
0 0 252
0 0 246
0 0 245
0 0 246
0 0 245
0 0 250
0 0 246
0 0 249
0 0 249
0 0 248
0 0 249
0 0 249
0 0 250
0 0 244
0 0 249
0 0 246
0 0 245
0 0 249
0 0 244
0 0 248
0 0 245
0 0 250
0 0 248
0 0 241
0 0 246
0 0 244
0 0 252
0 0 242
0 0 245
0 0 245
0 0 242
0 0 249
0 0 248
0 0 248
0 0 246
0 0 244
0 0 240
0 0 242
0 0 244
0 0 234
0 0 238
0 0 238
0 0 238
0 0 240
0 0 238
0 0 238
0 0 240
0 0 246
0 0 238
0 0 241
0 0 230
0 0 236
0 0 238
0 0 240
0 0 238
0 0 237
0 0 224
0 0 228
0 0 230
0 0 234
0 0 230
0 0 228
0 0 231
0 0 228
0 0 233
0 0 223
0 0 228
0 0 227
0 0 231
0 0 234
0 0 227
0 0 221
0 0 224
0 0 223
0 0 215
0 0 215
0 0 214
0 0 218
0 0 221
41 45 212
187 206 245
206 227 255
206 227 255
206 227 255
206 227 255
206 227 255
206 227 255
206 227 255
206 227 255
206 227 255
206 227 255
206 227 255
206 227 255
206 227 255
206 227 255
206 227 255
206 227 255
206 227 255
206 227 255
206 227 255
206 227 255
206 227 255
206 227 255
206 227 255
206 227 255
206 227 255
206 227 255
206 227 255
206 227 255
206 227 255
206 227 255
199 204 230
170 50 57
165 0 0
165 0 0
179 0 0
168 0 0
179 0 0
186 0 0
182 0 0
175 0 0
187 0 0
186 0 0
177 0 0
184 0 0
175 0 0
193 0 0
179 0 0
191 0 0
188 0 0
193 0 0
187 0 0
194 0 0
180 0 0
194 0 0
194 0 0
198 0 0
195 0 0
184 0 0
191 0 0
193 0 0
201 0 0
192 0 0
191 0 0
191 0 0
199 0 0
197 0 0
192 0 0
198 0 0
200 0 0
200 0 0
199 0 0
201 0 0
199 0 0
199 0 0
200 0 0
204 0 0
207 0 0
197 0 0
207 0 0
200 0 0
197 0 0
202 0 0
205 0 0
204 0 0
204 0 0
205 0 0
203 0 0
201 0 0
210 0 0
211 0 0
206 0 0
205 0 0
206 0 0
208 0 0
201 0 0
207 0 0
207 0 0
206 0 0
205 0 0
215 0 0
209 0 0
216 0 0
205 0 0
213 0 0
216 0 0
204 0 0
206 0 0
213 0 0
206 0 0
209 0 0
207 0 0
213 0 0
208 0 0
212 0 0
214 0 0
213 0 0
208 0 0
212 0 0
209 0 0
211 0 0
206 0 0
211 0 0
212 0 0
212 0 0
214 0 0
212 0 0
212 0 0
208 0 0
212 0 0
208 0 0
210 0 0
211 0 0
216 0 0
203 0 0
213 0 0
215 0 0
211 0 0
209 0 0
212 0 0
213 0 0
214 0 0
215 0 0
210 0 0
213 0 0
209 0 0
215 0 0
212 0 0
213 0 0
211 0 0
211 0 0
212 0 0
210 0 0
213 0 0
212 0 0
209 0 0
214 0 0
209 0 0
211 0 0
212 0 0
216 0 0
212 0 0
214 0 0
214 0 0
217 0 0
209 0 0
214 0 0
215 0 0
213 0 0
215 0 0
212 0 0
214 0 0
215 0 0
214 0 0
219 0 0
219 0 0
212 0 0
213 0 0
215 0 0
216 0 0
219 0 0
213 0 0
213 0 0
212 0 0
217 0 0
213 0 0
218 0 0
218 0 0
218 0 0
215 0 0
214 0 0
215 0 0
217 0 0
212 0 0
215 0 0
214 0 0
215 0 0
217 0 0
217 0 0
216 0 0
217 0 0
217 0 0
218 0 0
219 0 0
218 0 0
217 0 0
216 0 0
217 0 0
217 0 0
217 0 0
213 0 0
218 0 0
218 0 0
218 0 0
215 0 0
215 0 0
0 0 253
0 0 255
0 0 254
0 0 252
0 0 253
0 0 255
0 0 254
0 0 254
0 0 254
0 0 254
0 0 255
0 0 255
0 0 255
0 0 255
0 0 255
0 0 254
0 0 255
0 0 253
0 0 254
0 0 255
0 0 254
0 0 253
0 0 255
0 0 255
0 0 253
0 0 255
0 0 253
0 0 254
0 0 254
0 0 255
0 0 255
0 0 254
0 0 255
0 0 254
0 0 253
0 0 254
0 0 254
0 0 253
0 0 255
0 0 254
0 0 254
0 0 255
0 0 253
0 0 255
0 0 254
0 0 252
0 0 252
0 0 255
0 0 253
0 0 253
0 0 253
0 0 253
0 0 254
0 0 254
0 0 253
0 0 253
0 0 253
0 0 255
0 0 252
0 0 254
0 0 253
0 0 254
0 0 254
0 0 245
0 0 255
0 0 252
0 0 252
0 0 254
0 0 252
0 0 252
0 0 255
0 0 253
0 0 253
0 0 254
0 0 253
0 0 254
0 0 253
0 0 249
0 0 255
0 0 252
0 0 253
0 0 253
0 0 250
0 0 250
0 0 246
0 0 252
0 0 253
0 0 250
0 0 254
0 0 252
0 0 253
0 0 249
0 0 250
0 0 252
0 0 249
0 0 249
0 0 253
0 0 248
0 0 249
0 0 250
0 0 245
0 0 252
0 0 250
0 0 253
0 0 249
0 0 250
0 0 248
0 0 248
0 0 248
0 0 246
0 0 248
0 0 250
0 0 246
0 0 248
0 0 248
0 0 249
0 0 246
0 0 248
0 0 252
0 0 246
0 0 248
0 0 248
0 0 250
0 0 252
0 0 240
0 0 249
0 0 249
0 0 246
0 0 242
0 0 248
0 0 248
0 0 245
0 0 246
0 0 245
0 0 245
0 0 249
0 0 242
0 0 246
0 0 241
0 0 245
0 0 238
0 0 249
0 0 238
0 0 246
0 0 250
0 0 238
0 0 236
0 0 240
0 0 240
0 0 237
0 0 228
0 0 231
0 0 234
0 0 226
0 0 240
0 0 233
0 0 238
0 0 236
0 0 237
0 0 230
0 0 240
0 0 231
0 0 228
0 0 233
0 0 224
0 0 237
0 0 227
0 0 233
0 0 228
0 0 226
0 0 230
0 0 221
0 0 218
0 0 226
0 0 234
0 0 227
0 0 204
0 0 223
0 0 207
0 0 211
0 0 209
0 0 206
0 0 204
0 0 209
99 109 228
204 225 254
206 227 255
206 227 255
206 227 255
206 227 255
206 227 255
206 227 255
206 227 255
206 227 255
206 227 255
206 227 255
206 227 255
206 227 255
206 227 255
206 227 255
206 227 255
206 227 255
206 227 255
206 227 255
206 227 255
206 227 255
206 227 255
206 227 255
206 227 255
206 227 255
206 227 255
206 227 255
206 227 255
206 227 255
206 227 255
188 113 128
163 0 0
170 0 0
159 0 0
172 0 0
173 0 0
174 0 0
184 0 0
165 0 0
178 0 0
174 0 0
173 0 0
186 0 0
185 0 0
183 0 0
178 0 0
185 0 0
173 0 0
182 0 0
195 0 0
190 0 0
187 0 0
180 0 0
191 0 0
194 0 0
189 0 0
189 0 0
194 0 0
196 0 0
200 0 0
195 0 0
201 0 0
191 0 0
197 0 0
200 0 0
197 0 0
200 0 0
202 0 0
203 0 0
204 0 0
200 0 0
203 0 0
205 0 0
197 0 0
197 0 0
199 0 0
200 0 0
201 0 0
206 0 0
204 0 0
202 0 0
209 0 0
209 0 0
200 0 0
199 0 0
203 0 0
202 0 0
210 0 0
211 0 0
206 0 0
206 0 0
213 0 0
210 0 0
201 0 0
200 0 0
205 0 0
208 0 0
203 0 0
211 0 0
207 0 0
208 0 0
210 0 0
209 0 0
208 0 0
212 0 0
205 0 0
209 0 0
210 0 0
212 0 0
209 0 0
211 0 0
207 0 0
211 0 0
203 0 0
212 0 0
211 0 0
208 0 0
210 0 0
213 0 0
213 0 0
212 0 0
212 0 0
214 0 0
210 0 0
212 0 0
208 0 0
210 0 0
212 0 0
212 0 0
213 0 0
211 0 0
215 0 0
214 0 0
213 0 0
215 0 0
213 0 0
215 0 0
212 0 0
211 0 0
212 0 0
208 0 0
210 0 0
215 0 0
216 0 0
215 0 0
214 0 0
215 0 0
214 0 0
213 0 0
211 0 0
209 0 0
216 0 0
216 0 0
215 0 0
217 0 0
212 0 0
213 0 0
208 0 0
216 0 0
212 0 0
216 0 0
215 0 0
216 0 0
215 0 0
210 0 0
215 0 0
215 0 0
216 0 0
215 0 0
214 0 0
209 0 0
218 0 0
214 0 0
211 0 0
211 0 0
215 0 0
215 0 0
214 0 0
216 0 0
216 0 0
215 0 0
218 0 0
218 0 0
212 0 0
216 0 0
214 0 0
218 0 0
218 0 0
212 0 0
216 0 0
219 0 0
219 0 0
216 0 0
214 0 0
217 0 0
215 0 0
219 0 0
219 0 0
214 0 0
216 0 0
216 0 0
216 0 0
214 0 0
215 0 0
214 0 0
214 0 0
219 0 0
216 0 0
217 0 0
213 0 0
217 0 0
219 0 0
219 0 0
215 0 0
213 0 0
0 0 255
0 0 255
0 0 255
0 0 255
0 0 255
0 0 255
0 0 255
0 0 255
0 0 255
0 0 255
0 0 255
0 0 254
0 0 255
0 0 255
0 0 254
0 0 255
0 0 255
0 0 253
0 0 255
0 0 255
0 0 255
0 0 255
0 0 254
0 0 254
0 0 254
0 0 254
0 0 255
0 0 254
0 0 253
0 0 254
0 0 255
0 0 255
0 0 254
0 0 255
0 0 255
0 0 253
0 0 253
0 0 253
0 0 254
0 0 255
0 0 253
0 0 255
0 0 252
0 0 254
0 0 253
0 0 254
0 0 255
0 0 255
0 0 254
0 0 254
0 0 254
0 0 252
0 0 254
0 0 254
0 0 250
0 0 254
0 0 254
0 0 254
0 0 253
0 0 252
0 0 253
0 0 248
0 0 254
0 0 253
0 0 253
0 0 255
0 0 249
0 0 254
0 0 249
0 0 252
0 0 254
0 0 248
0 0 254
0 0 250
0 0 253
0 0 253
0 0 253
0 0 252
0 0 254
0 0 254
0 0 252
0 0 250
0 0 249
0 0 255
0 0 252
0 0 249
0 0 253
0 0 252
0 0 254
0 0 252
0 0 248
0 0 253
0 0 250
0 0 253
0 0 250
0 0 252
0 0 246
0 0 246
0 0 250
0 0 253
0 0 248
0 0 248
0 0 252
0 0 252
0 0 249
0 0 248
0 0 244
0 0 246
0 0 249
0 0 252
0 0 249
0 0 253
0 0 252
0 0 250
0 0 246
0 0 244
0 0 249
0 0 245
0 0 248
0 0 250
0 0 244
0 0 245
0 0 245
0 0 241
0 0 242
0 0 249
0 0 245
0 0 249
0 0 246
0 0 244
0 0 250
0 0 242
0 0 242
0 0 242
0 0 236
0 0 245
0 0 245
0 0 241
0 0 242
0 0 233
0 0 234
0 0 240
0 0 245
0 0 242
0 0 241
0 0 238
0 0 244
0 0 242
0 0 242
0 0 238
0 0 242
0 0 234
0 0 237
0 0 237
0 0 236
0 0 238
0 0 234
0 0 230
0 0 234
0 0 244
0 0 238
0 0 221
0 0 228
0 0 227
0 0 227
0 0 236
0 0 234
0 0 226
0 0 218
0 0 226
0 0 226
0 0 223
0 0 211
0 0 218
0 0 227
0 0 223
0 0 218
0 0 207
0 0 217
0 0 227
0 0 214
0 0 220
0 0 212
0 0 223
0 0 206
154 170 228
207 227 255
207 227 255
207 227 255
207 227 255
207 227 255
207 227 255
207 227 255
206 227 255
206 227 255
206 227 255
206 227 255
206 227 255
206 227 255
206 227 255
206 227 255
206 227 255
206 227 255
206 227 255
206 227 255
206 227 255
206 227 255
206 227 255
206 227 255
207 227 255
207 227 255
207 227 255
207 227 255
207 227 255
187 162 182
168 0 0
152 0 0
176 0 0
170 0 0
167 0 0
167 0 0
178 0 0
179 0 0
187 0 0
175 0 0
179 0 0
172 0 0
183 0 0
185 0 0
194 0 0
176 0 0
192 0 0
184 0 0
183 0 0
191 0 0
184 0 0
186 0 0
187 0 0
193 0 0
200 0 0
188 0 0
181 0 0
185 0 0
194 0 0
200 0 0
193 0 0
200 0 0
199 0 0
198 0 0
199 0 0
194 0 0
200 0 0
197 0 0
203 0 0
205 0 0
205 0 0
204 0 0
199 0 0
197 0 0
203 0 0
196 0 0
205 0 0
197 0 0
209 0 0
202 0 0
199 0 0
201 0 0
204 0 0
204 0 0
206 0 0
204 0 0
202 0 0
198 0 0
206 0 0
207 0 0
208 0 0
207 0 0
202 0 0
208 0 0
208 0 0
206 0 0
209 0 0
206 0 0
209 0 0
211 0 0
209 0 0
204 0 0
209 0 0
208 0 0
205 0 0
208 0 0
206 0 0
211 0 0
205 0 0
205 0 0
206 0 0
203 0 0
213 0 0
218 0 0
208 0 0
210 0 0
205 0 0
209 0 0
211 0 0
212 0 0
211 0 0
210 0 0
212 0 0
212 0 0
218 0 0
209 0 0
210 0 0
211 0 0
214 0 0
213 0 0
210 0 0
212 0 0
212 0 0
219 0 0
215 0 0
211 0 0
216 0 0
216 0 0
212 0 0
213 0 0
209 0 0
214 0 0
214 0 0
212 0 0
210 0 0
211 0 0
218 0 0
211 0 0
214 0 0
216 0 0
216 0 0
215 0 0
218 0 0
217 0 0
213 0 0
214 0 0
217 0 0
212 0 0
213 0 0
214 0 0
214 0 0
216 0 0
216 0 0
214 0 0
217 0 0
216 0 0
214 0 0
214 0 0
219 0 0
215 0 0
217 0 0
214 0 0
215 0 0
213 0 0
216 0 0
218 0 0
213 0 0
212 0 0
219 0 0
217 0 0
217 0 0
216 0 0
216 0 0
218 0 0
214 0 0
215 0 0
215 0 0
215 0 0
217 0 0
213 0 0
217 0 0
217 0 0
216 0 0
215 0 0
216 0 0
216 0 0
213 0 0
217 0 0
217 0 0
217 0 0
220 0 0
213 0 0
215 0 0
214 0 0
218 0 0
217 0 0
213 0 0
217 0 0
215 0 0
215 0 0
214 0 0
214 0 0
218 0 0
216 0 0
218 0 0
0 0 254
0 0 255
0 0 255
0 0 255
0 0 255
0 0 255
0 0 255
0 0 255
0 0 255
0 0 255
0 0 255
0 0 255
0 0 255
0 0 255
0 0 254
0 0 253
0 0 255
0 0 255
0 0 254
0 0 254
0 0 254
0 0 255
0 0 253
0 0 255
0 0 255
0 0 254
0 0 255
0 0 254
0 0 255
0 0 252
0 0 255
0 0 255
0 0 255
0 0 254
0 0 255
0 0 254
0 0 255
0 0 254
0 0 255
0 0 255
0 0 254
0 0 254
0 0 254
0 0 252
0 0 254
0 0 255
0 0 254
0 0 254
0 0 254
0 0 252
0 0 252
0 0 254
0 0 253
0 0 255
0 0 253
0 0 254
0 0 254
0 0 255
0 0 253
0 0 254
0 0 254
0 0 254
0 0 253
0 0 254
0 0 252
0 0 250
0 0 252
0 0 254
0 0 254
0 0 250
0 0 254
0 0 255
0 0 250
0 0 254
0 0 248
0 0 255
0 0 250
0 0 248
0 0 253
0 0 253
0 0 253
0 0 249
0 0 255
0 0 245
0 0 252
0 0 252
0 0 249
0 0 249
0 0 253
0 0 250
0 0 249
0 0 248
0 0 254
0 0 254
0 0 255
0 0 250
0 0 253
0 0 246
0 0 250
0 0 250
0 0 253
0 0 252
0 0 250
0 0 250
0 0 255
0 0 248
0 0 252
0 0 246
0 0 254
0 0 250
0 0 246
0 0 250
0 0 249
0 0 248
0 0 248
0 0 250
0 0 248
0 0 245
0 0 244
0 0 242
0 0 250
0 0 246
0 0 242
0 0 244
0 0 248
0 0 246
0 0 246
0 0 246
0 0 244
0 0 246
0 0 241
0 0 249
0 0 246
0 0 249
0 0 234
0 0 242
0 0 244
0 0 244
0 0 242
0 0 244
0 0 245
0 0 236
0 0 237
0 0 242
0 0 244
0 0 245
0 0 241
0 0 245
0 0 237
0 0 231
0 0 238
0 0 236
0 0 242
0 0 227
0 0 238
0 0 237
0 0 231
0 0 237
0 0 240
0 0 231
0 0 227
0 0 240
0 0 231
0 0 233
0 0 227
0 0 224
0 0 234
0 0 237
0 0 220
0 0 230
0 0 227
0 0 230
0 0 223
0 0 230
0 0 217
0 0 224
0 0 218
0 0 224
0 0 221
0 0 207
0 0 209
0 0 194
0 0 215
0 0 209
0 0 209
35 39 199
187 206 249
207 228 255
207 228 255
207 228 255
207 228 255
207 228 255
207 228 255
207 228 255
207 228 255
207 228 255
207 228 255
207 228 255
207 228 255
207 227 255
207 228 255
207 228 255
207 228 255
207 228 255
207 228 255
207 228 255
207 228 255
207 228 255
207 228 255
207 228 255
207 228 255
207 228 255
207 228 255
203 212 238
160 32 36
172 0 0
160 0 0
178 0 0
161 0 0
168 0 0
178 0 0
181 0 0
164 0 0
181 0 0
178 0 0
176 0 0
169 0 0
191 0 0
187 0 0
181 0 0
186 0 0
184 0 0
185 0 0
180 0 0
195 0 0
185 0 0
180 0 0
193 0 0
194 0 0
190 0 0
192 0 0
187 0 0
196 0 0
196 0 0
195 0 0
198 0 0
192 0 0
196 0 0
200 0 0
201 0 0
200 0 0
205 0 0
200 0 0
196 0 0
199 0 0
197 0 0
197 0 0
194 0 0
208 0 0
198 0 0
204 0 0
196 0 0
198 0 0
204 0 0
206 0 0
201 0 0
202 0 0
200 0 0
208 0 0
203 0 0
203 0 0
210 0 0
205 0 0
199 0 0
201 0 0
209 0 0
206 0 0
209 0 0
204 0 0
205 0 0
208 0 0
206 0 0
205 0 0
205 0 0
209 0 0
208 0 0
204 0 0
206 0 0
213 0 0
207 0 0
206 0 0
208 0 0
213 0 0
215 0 0
212 0 0
210 0 0
210 0 0
211 0 0
209 0 0
213 0 0
212 0 0
208 0 0
212 0 0
213 0 0
208 0 0
208 0 0
212 0 0
209 0 0
208 0 0
214 0 0
211 0 0
211 0 0
216 0 0
209 0 0
212 0 0
214 0 0
213 0 0
206 0 0
215 0 0
213 0 0
214 0 0
213 0 0
215 0 0
215 0 0
217 0 0
212 0 0
215 0 0
211 0 0
214 0 0
210 0 0
216 0 0
213 0 0
208 0 0
215 0 0
212 0 0
214 0 0
215 0 0
213 0 0
213 0 0
211 0 0
213 0 0
214 0 0
210 0 0
214 0 0
214 0 0
216 0 0
216 0 0
217 0 0
215 0 0
217 0 0
215 0 0
213 0 0
212 0 0
217 0 0
215 0 0
212 0 0
216 0 0
217 0 0
212 0 0
219 0 0
213 0 0
211 0 0
215 0 0
217 0 0
218 0 0
216 0 0
211 0 0
217 0 0
214 0 0
213 0 0
214 0 0
216 0 0
217 0 0
215 0 0
216 0 0
217 0 0
214 0 0
217 0 0
221 0 0
212 0 0
217 0 0
217 0 0
217 0 0
215 0 0
217 0 0
214 0 0
217 0 0
215 0 0
213 0 0
215 0 0
218 0 0
215 0 0
218 0 0
216 0 0
215 0 0
218 0 0
216 0 0
215 0 0
216 0 0
217 0 0
0 0 254
0 0 255
0 0 255
0 0 254
0 0 255
0 0 254
0 0 255
0 0 255
0 0 255
0 0 253
0 0 255
0 0 255
0 0 255
0 0 255
0 0 255
0 0 255
0 0 254
0 0 255
0 0 253
0 0 254
0 0 254
0 0 253
0 0 254
0 0 255
0 0 253
0 0 255
0 0 255
0 0 255
0 0 254
0 0 255
0 0 254
0 0 250
0 0 255
0 0 253
0 0 255
0 0 254
0 0 255
0 0 253
0 0 255
0 0 253
0 0 254
0 0 252
0 0 253
0 0 255
0 0 253
0 0 253
0 0 255
0 0 250
0 0 253
0 0 254
0 0 252
0 0 252
0 0 252
0 0 254
0 0 254
0 0 254
0 0 255
0 0 252
0 0 253
0 0 255
0 0 253
0 0 255
0 0 254
0 0 253
0 0 252
0 0 254
0 0 252
0 0 254
0 0 253
0 0 249
0 0 254
0 0 252
0 0 250
0 0 253
0 0 254
0 0 253
0 0 253
0 0 253
0 0 252
0 0 248
0 0 255
0 0 254
0 0 253
0 0 250
0 0 252
0 0 249
0 0 254
0 0 254
0 0 248
0 0 253
0 0 253
0 0 253
0 0 253
0 0 253
0 0 250
0 0 249
0 0 250
0 0 248
0 0 250
0 0 250
0 0 248
0 0 249
0 0 253
0 0 249
0 0 249
0 0 253
0 0 249
0 0 248
0 0 253
0 0 242
0 0 246
0 0 250
0 0 250
0 0 249
0 0 246
0 0 253
0 0 249
0 0 244
0 0 249
0 0 252
0 0 248
0 0 248
0 0 249
0 0 245
0 0 244
0 0 249
0 0 240
0 0 244
0 0 241
0 0 246
0 0 249
0 0 240
0 0 245
0 0 252
0 0 248
0 0 244
0 0 242
0 0 240
0 0 236
0 0 245
0 0 241
0 0 241
0 0 238
0 0 248
0 0 233
0 0 240
0 0 238
0 0 241
0 0 238
0 0 238
0 0 240
0 0 233
0 0 242
0 0 240
0 0 230
0 0 228
0 0 238
0 0 233
0 0 236
0 0 228
0 0 233
0 0 227
0 0 237
0 0 236
0 0 236
0 0 227
0 0 224
0 0 224
0 0 227
0 0 230
0 0 221
0 0 227
0 0 214
0 0 220
0 0 238
0 0 212
0 0 217
0 0 217
0 0 204
0 0 211
0 0 206
0 0 204
0 0 211
0 0 207
0 0 194
0 0 198
113 124 215
207 228 255
207 228 255
207 228 255
207 228 255
207 228 255
207 228 255
207 228 255
207 228 255
207 228 255
207 228 255
207 228 255
207 228 255
207 228 255
207 228 255
207 228 255
207 228 255
207 228 255
207 228 255
207 228 255
207 228 255
207 228 255
207 228 255
207 228 255
207 228 255
207 228 255
207 228 255
165 82 92
169 0 0
167 0 0
159 0 0
158 0 0
173 0 0
175 0 0
175 0 0
168 0 0
180 0 0
167 0 0
180 0 0
179 0 0
181 0 0
177 0 0
187 0 0
183 0 0
182 0 0
184 0 0
192 0 0
190 0 0
198 0 0
180 0 0
191 0 0
188 0 0
192 0 0
192 0 0
190 0 0
190 0 0
191 0 0
191 0 0
198 0 0
193 0 0
197 0 0
200 0 0
199 0 0
202 0 0
198 0 0
199 0 0
190 0 0
193 0 0
203 0 0
199 0 0
197 0 0
200 0 0
196 0 0
198 0 0
197 0 0
204 0 0
201 0 0
206 0 0
204 0 0
202 0 0
202 0 0
206 0 0
205 0 0
201 0 0
203 0 0
204 0 0
206 0 0
211 0 0
205 0 0
208 0 0
201 0 0
211 0 0
204 0 0
207 0 0
207 0 0
211 0 0
198 0 0
207 0 0
203 0 0
205 0 0
210 0 0
207 0 0
211 0 0
211 0 0
203 0 0
211 0 0
205 0 0
211 0 0
209 0 0
211 0 0
209 0 0
217 0 0
212 0 0
209 0 0
213 0 0
210 0 0
214 0 0
209 0 0
211 0 0
210 0 0
209 0 0
212 0 0
209 0 0
213 0 0
211 0 0
209 0 0
215 0 0
210 0 0
213 0 0
216 0 0
214 0 0
215 0 0
215 0 0
206 0 0
210 0 0
213 0 0
217 0 0
212 0 0
214 0 0
213 0 0
216 0 0
215 0 0
215 0 0
215 0 0
206 0 0
217 0 0
213 0 0
216 0 0
212 0 0
216 0 0
214 0 0
213 0 0
218 0 0
218 0 0
216 0 0
218 0 0
214 0 0
213 0 0
215 0 0
213 0 0
213 0 0
216 0 0
212 0 0
217 0 0
219 0 0
212 0 0
215 0 0
212 0 0
216 0 0
215 0 0
215 0 0
214 0 0
215 0 0
214 0 0
215 0 0
217 0 0
214 0 0
215 0 0
212 0 0
216 0 0
217 0 0
217 0 0
218 0 0
221 0 0
210 0 0
215 0 0
211 0 0
216 0 0
214 0 0
216 0 0
217 0 0
216 0 0
216 0 0
218 0 0
217 0 0
217 0 0
216 0 0
213 0 0
218 0 0
218 0 0
218 0 0
217 0 0
219 0 0
216 0 0
220 0 0
211 0 0
215 0 0
218 0 0
217 0 0
216 0 0
217 0 0
215 0 0
216 0 0
219 0 0
0 0 255
0 0 254
0 0 254
0 0 255
0 0 255
0 0 255
0 0 255
0 0 254
0 0 254
0 0 255
0 0 255
0 0 255
0 0 252
0 0 255
0 0 255
0 0 255
0 0 255
0 0 255
0 0 255
0 0 254
0 0 255
0 0 255
0 0 254
0 0 255
0 0 254
0 0 255
0 0 253
0 0 254
0 0 255
0 0 254
0 0 255
0 0 255
0 0 254
0 0 254
0 0 254
0 0 253
0 0 254
0 0 254
0 0 254
0 0 254
0 0 253
0 0 254
0 0 255
0 0 252
0 0 254
0 0 252
0 0 254
0 0 254
0 0 250
0 0 255
0 0 255
0 0 252
0 0 250
0 0 253
0 0 254
0 0 253
0 0 252
0 0 255
0 0 252
0 0 255
0 0 253
0 0 254
0 0 253
0 0 254
0 0 252
0 0 254
0 0 253
0 0 255
0 0 250
0 0 254
0 0 253
0 0 250
0 0 255
0 0 248
0 0 252
0 0 245
0 0 253
0 0 250
0 0 254
0 0 253
0 0 252
0 0 254
0 0 252
0 0 253
0 0 250
0 0 249
0 0 253
0 0 248
0 0 249
0 0 252
0 0 250
0 0 255
0 0 250
0 0 250
0 0 253
0 0 252
0 0 250
0 0 252
0 0 245
0 0 253
0 0 250
0 0 249
0 0 245
0 0 249
0 0 250
0 0 249
0 0 253
0 0 249
0 0 248
0 0 249
0 0 253
0 0 248
0 0 245
0 0 248
0 0 244
0 0 250
0 0 248
0 0 242
0 0 245
0 0 252
0 0 245
0 0 242
0 0 245
0 0 249
0 0 246
0 0 242
0 0 246
0 0 252
0 0 238
0 0 241
0 0 242
0 0 246
0 0 244
0 0 245
0 0 241
0 0 249
0 0 240
0 0 248
0 0 242
0 0 238
0 0 234
0 0 231
0 0 244
0 0 234
0 0 248
0 0 242
0 0 234
0 0 242
0 0 231
0 0 234
0 0 236
0 0 238
0 0 242
0 0 234
0 0 230
0 0 227
0 0 236
0 0 224
0 0 236
0 0 233
0 0 237
0 0 227
0 0 236
0 0 231
0 0 226
0 0 236
0 0 227
0 0 238
0 0 214
0 0 226
0 0 223
0 0 223
0 0 220
0 0 227
0 0 220
0 0 231
0 0 218
0 0 221
0 0 221
0 0 212
0 0 224
0 0 209
0 0 206
0 0 207
0 0 217
0 0 211
0 0 199
158 173 238
207 228 255
207 228 255
207 228 255
207 228 255
207 228 255
207 228 255
207 228 255
207 228 255
207 228 255
207 228 255
207 228 255
207 228 255
207 228 255
207 228 255
207 228 255
207 228 255
207 228 255
207 228 255
207 228 255
207 228 255
207 228 255
207 228 255
207 228 255
207 228 255
195 195 218
158 0 0
161 0 0
158 0 0
166 0 0
164 0 0
169 0 0
160 0 0
178 0 0
168 0 0
167 0 0
181 0 0
179 0 0
180 0 0
185 0 0
185 0 0
184 0 0
179 0 0
180 0 0
186 0 0
183 0 0
186 0 0
183 0 0
190 0 0
186 0 0
192 0 0
190 0 0
191 0 0
197 0 0
195 0 0
189 0 0
194 0 0
195 0 0
197 0 0
193 0 0
187 0 0
204 0 0
195 0 0
199 0 0
198 0 0
202 0 0
206 0 0
206 0 0
199 0 0
199 0 0
203 0 0
204 0 0
201 0 0
199 0 0
203 0 0
208 0 0
209 0 0
200 0 0
201 0 0
202 0 0
209 0 0
197 0 0
208 0 0
210 0 0
213 0 0
211 0 0
208 0 0
203 0 0
206 0 0
201 0 0
210 0 0
205 0 0
199 0 0
214 0 0
210 0 0
206 0 0
206 0 0
208 0 0
205 0 0
208 0 0
211 0 0
209 0 0
208 0 0
207 0 0
213 0 0
203 0 0
216 0 0
214 0 0
209 0 0
213 0 0
205 0 0
210 0 0
201 0 0
209 0 0
215 0 0
213 0 0
210 0 0
210 0 0
209 0 0
210 0 0
208 0 0
215 0 0
216 0 0
211 0 0
213 0 0
215 0 0
215 0 0
213 0 0
209 0 0
209 0 0
207 0 0
213 0 0
209 0 0
214 0 0
208 0 0
215 0 0
214 0 0
209 0 0
213 0 0
210 0 0
214 0 0
212 0 0
209 0 0
213 0 0
214 0 0
213 0 0
213 0 0
209 0 0
213 0 0
213 0 0
214 0 0
213 0 0
212 0 0
213 0 0
213 0 0
212 0 0
217 0 0
217 0 0
216 0 0
215 0 0
210 0 0
219 0 0
213 0 0
218 0 0
215 0 0
217 0 0
214 0 0
219 0 0
217 0 0
213 0 0
213 0 0
218 0 0
219 0 0
214 0 0
217 0 0
215 0 0
217 0 0
216 0 0
217 0 0
219 0 0
213 0 0
219 0 0
215 0 0
213 0 0
218 0 0
215 0 0
216 0 0
217 0 0
218 0 0
217 0 0
216 0 0
211 0 0
214 0 0
214 0 0
214 0 0
216 0 0
216 0 0
219 0 0
218 0 0
218 0 0
218 0 0
216 0 0
216 0 0
218 0 0
215 0 0
219 0 0
223 0 0
215 0 0
218 0 0
215 0 0
216 0 0
217 0 0
213 0 0
0 0 254
0 0 254
0 0 255
0 0 255
0 0 255
0 0 255
0 0 255
0 0 253
0 0 255
0 0 254
0 0 255
0 0 255
0 0 255
0 0 254
0 0 255
0 0 253
0 0 255
0 0 255
0 0 253
0 0 255
0 0 255
0 0 252
0 0 254
0 0 255
0 0 254
0 0 255
0 0 253
0 0 255
0 0 254
0 0 254
0 0 253
0 0 254
0 0 254
0 0 254
0 0 255
0 0 254
0 0 254
0 0 252
0 0 252
0 0 254
0 0 254
0 0 254
0 0 255
0 0 253
0 0 254
0 0 252
0 0 253
0 0 255
0 0 254
0 0 253
0 0 254
0 0 253
0 0 252
0 0 254
0 0 254
0 0 254
0 0 254
0 0 253
0 0 254
0 0 252
0 0 253
0 0 253
0 0 253
0 0 255
0 0 255
0 0 254
0 0 253
0 0 252
0 0 252
0 0 252
0 0 252
0 0 255
0 0 254
0 0 252
0 0 249
0 0 254
0 0 250
0 0 253
0 0 254
0 0 255
0 0 252
0 0 254
0 0 252
0 0 252
0 0 248
0 0 250
0 0 246
0 0 252
0 0 248
0 0 253
0 0 253
0 0 252
0 0 252
0 0 246
0 0 252
0 0 249
0 0 248
0 0 250
0 0 254
0 0 244
0 0 250
0 0 250
0 0 250
0 0 249
0 0 250
0 0 254
0 0 249
0 0 252
0 0 253
0 0 249
0 0 249
0 0 248
0 0 245
0 0 246
0 0 246
0 0 245
0 0 249
0 0 245
0 0 249
0 0 241
0 0 249
0 0 244
0 0 254
0 0 249
0 0 242
0 0 244
0 0 245
0 0 240
0 0 240
0 0 238
0 0 244
0 0 242
0 0 237
0 0 245
0 0 242
0 0 244
0 0 242
0 0 246
0 0 245
0 0 240
0 0 241
0 0 248
0 0 248
0 0 237
0 0 236
0 0 237
0 0 234
0 0 240
0 0 228
0 0 244
0 0 236
0 0 244
0 0 234
0 0 231
0 0 241
0 0 227
0 0 234
0 0 241
0 0 227
0 0 230
0 0 228
0 0 231
0 0 234
0 0 236
0 0 230
0 0 224
0 0 230
0 0 226
0 0 224
0 0 221
0 0 221
0 0 226
0 0 230
0 0 215
0 0 226
0 0 234
0 0 218
0 0 215
0 0 220
0 0 217
0 0 206
0 0 209
0 0 215
0 0 198
0 0 212
0 0 207
0 0 204
58 64 198
201 221 253
208 228 255
208 228 255
208 228 255
208 228 255
208 228 255
208 228 255
208 228 255
208 228 255
208 228 255
208 228 255
208 228 255
208 228 255
208 228 255
208 228 255
208 228 255
208 228 255
208 228 255
208 228 255
208 228 255
208 228 255
208 228 255
208 228 255
204 225 252
167 94 105
144 0 0
159 0 0
159 0 0
167 0 0
165 0 0
167 0 0
172 0 0
174 0 0
178 0 0
177 0 0
178 0 0
179 0 0
177 0 0
184 0 0
182 0 0
175 0 0
190 0 0
185 0 0
184 0 0
187 0 0
191 0 0
189 0 0
182 0 0
184 0 0
190 0 0
190 0 0
194 0 0
185 0 0
189 0 0
204 0 0
197 0 0
192 0 0
199 0 0
197 0 0
195 0 0
196 0 0
193 0 0
192 0 0
201 0 0
198 0 0
200 0 0
196 0 0
202 0 0
193 0 0
204 0 0
197 0 0
200 0 0
208 0 0
196 0 0
195 0 0
195 0 0
200 0 0
201 0 0
200 0 0
208 0 0
203 0 0
202 0 0
204 0 0
202 0 0
208 0 0
203 0 0
201 0 0
205 0 0
211 0 0
210 0 0
207 0 0
209 0 0
203 0 0
216 0 0
205 0 0
201 0 0
207 0 0
204 0 0
211 0 0
208 0 0
205 0 0
210 0 0
207 0 0
207 0 0
203 0 0
210 0 0
206 0 0
208 0 0
209 0 0
210 0 0
208 0 0
209 0 0
212 0 0
216 0 0
205 0 0
212 0 0
209 0 0
214 0 0
217 0 0
212 0 0
216 0 0
213 0 0
212 0 0
210 0 0
209 0 0
215 0 0
212 0 0
213 0 0
211 0 0
211 0 0
214 0 0
215 0 0
213 0 0
210 0 0
217 0 0
212 0 0
213 0 0
212 0 0
212 0 0
215 0 0
216 0 0
217 0 0
214 0 0
211 0 0
213 0 0
215 0 0
213 0 0
212 0 0
213 0 0
212 0 0
216 0 0
212 0 0
211 0 0
213 0 0
215 0 0
210 0 0
215 0 0
216 0 0
216 0 0
215 0 0
214 0 0
212 0 0
218 0 0
216 0 0
218 0 0
217 0 0
214 0 0
216 0 0
215 0 0
209 0 0
214 0 0
212 0 0
218 0 0
214 0 0
212 0 0
216 0 0
211 0 0
215 0 0
215 0 0
216 0 0
217 0 0
217 0 0
218 0 0
217 0 0
213 0 0
218 0 0
218 0 0
219 0 0
215 0 0
217 0 0
219 0 0
212 0 0
218 0 0
212 0 0
213 0 0
215 0 0
218 0 0
214 0 0
216 0 0
215 0 0
218 0 0
218 0 0
216 0 0
220 0 0
216 0 0
214 0 0
220 0 0
215 0 0
216 0 0
215 0 0
216 0 0
218 0 0
0 0 255
0 0 255
0 0 254
0 0 255
0 0 255
0 0 254
0 0 255
0 0 255
0 0 254
0 0 255
0 0 254
0 0 255
0 0 255
0 0 255
0 0 254
0 0 254
0 0 255
0 0 255
0 0 254
0 0 255
0 0 255
0 0 253
0 0 254
0 0 254
0 0 253
0 0 255
0 0 254
0 0 254
0 0 255
0 0 255
0 0 255
0 0 255
0 0 255
0 0 255
0 0 255
0 0 254
0 0 254
0 0 252
0 0 255
0 0 255
0 0 255
0 0 254
0 0 252
0 0 253
0 0 253
0 0 255
0 0 253
0 0 252
0 0 255
0 0 254
0 0 254
0 0 254
0 0 254
0 0 255
0 0 255
0 0 253
0 0 252
0 0 255
0 0 252
0 0 255
0 0 252
0 0 254
0 0 252
0 0 253
0 0 254
0 0 255
0 0 254
0 0 252
0 0 249
0 0 254
0 0 252
0 0 252
0 0 252
0 0 252
0 0 250
0 0 249
0 0 252
0 0 254
0 0 250
0 0 248
0 0 252
0 0 253
0 0 253
0 0 250
0 0 252
0 0 250
0 0 253
0 0 253
0 0 252
0 0 253
0 0 250
0 0 253
0 0 255
0 0 252
0 0 250
0 0 242
0 0 252
0 0 250
0 0 249
0 0 250
0 0 244
0 0 249
0 0 245
0 0 248
0 0 250
0 0 253
0 0 248
0 0 250
0 0 249
0 0 246
0 0 254
0 0 248
0 0 246
0 0 248
0 0 242
0 0 244
0 0 246
0 0 252
0 0 249
0 0 248
0 0 244
0 0 248
0 0 248
0 0 242
0 0 238
0 0 242
0 0 238
0 0 246
0 0 249
0 0 248
0 0 242
0 0 234
0 0 250
0 0 249
0 0 244
0 0 248
0 0 237
0 0 242
0 0 238
0 0 242
0 0 248
0 0 248
0 0 241
0 0 238
0 0 240
0 0 245
0 0 234
0 0 245
0 0 238
0 0 237
0 0 242
0 0 231
0 0 233
0 0 231
0 0 234
0 0 236
0 0 228
0 0 233
0 0 236
0 0 236
0 0 240
0 0 241
0 0 233
0 0 228
0 0 230
0 0 221
0 0 233
0 0 228
0 0 223
0 0 221
0 0 218
0 0 224
0 0 230
0 0 226
0 0 223
0 0 228
0 0 212
0 0 207
0 0 217
0 0 223
0 0 221
0 0 194
0 0 212
0 0 206
0 0 214
0 0 212
0 0 207
0 0 215
138 151 230
208 228 255
208 228 255
208 228 255
208 228 255
208 228 255
208 228 255
208 228 255
208 228 255
208 228 255
208 228 255
208 228 255
208 228 255
208 228 255
208 228 255
208 228 255
208 228 255
208 228 255
208 228 255
208 228 255
208 228 255
208 228 255
208 228 255
176 158 177
136 0 0
165 0 0
152 0 0
166 0 0
161 0 0
168 0 0
171 0 0
172 0 0
170 0 0
170 0 0
177 0 0
172 0 0
182 0 0
184 0 0
174 0 0
186 0 0
180 0 0
185 0 0
194 0 0
186 0 0
192 0 0
186 0 0
194 0 0
189 0 0
191 0 0
191 0 0
189 0 0
187 0 0
186 0 0
202 0 0
196 0 0
196 0 0
189 0 0
195 0 0
197 0 0
199 0 0
200 0 0
192 0 0
192 0 0
193 0 0
197 0 0
203 0 0
192 0 0
202 0 0
202 0 0
198 0 0
201 0 0
203 0 0
207 0 0
203 0 0
200 0 0
206 0 0
210 0 0
208 0 0
207 0 0
203 0 0
206 0 0
203 0 0
209 0 0
210 0 0
200 0 0
204 0 0
207 0 0
207 0 0
208 0 0
205 0 0
214 0 0
208 0 0
208 0 0
208 0 0
210 0 0
206 0 0
207 0 0
204 0 0
210 0 0
209 0 0
207 0 0
204 0 0
210 0 0
208 0 0
209 0 0
211 0 0
205 0 0
210 0 0
211 0 0
204 0 0
211 0 0
209 0 0
210 0 0
210 0 0
214 0 0
209 0 0
211 0 0
210 0 0
216 0 0
210 0 0
212 0 0
206 0 0
212 0 0
211 0 0
212 0 0
208 0 0
213 0 0
214 0 0
212 0 0
212 0 0
210 0 0
213 0 0
208 0 0
213 0 0
212 0 0
216 0 0
210 0 0
210 0 0
214 0 0
213 0 0
212 0 0
211 0 0
216 0 0
214 0 0
214 0 0
215 0 0
214 0 0
214 0 0
215 0 0
213 0 0
214 0 0
217 0 0
219 0 0
215 0 0
216 0 0
214 0 0
213 0 0
215 0 0
215 0 0
216 0 0
214 0 0
217 0 0
219 0 0
218 0 0
218 0 0
216 0 0
217 0 0
213 0 0
211 0 0
219 0 0
219 0 0
222 0 0
214 0 0
216 0 0
212 0 0
213 0 0
218 0 0
218 0 0
216 0 0
215 0 0
217 0 0
217 0 0
217 0 0
217 0 0
217 0 0
210 0 0
217 0 0
213 0 0
215 0 0
216 0 0
217 0 0
216 0 0
216 0 0
216 0 0
217 0 0
216 0 0
210 0 0
219 0 0
216 0 0
216 0 0
217 0 0
218 0 0
218 0 0
217 0 0
218 0 0
216 0 0
217 0 0
216 0 0
216 0 0
217 0 0
217 0 0
214 0 0
0 0 255
0 0 255
0 0 255
0 0 255
0 0 255
0 0 255
0 0 255
0 0 255
0 0 255
0 0 255
0 0 255
0 0 255
0 0 255
0 0 254
0 0 255
0 0 254
0 0 254
0 0 254
0 0 255
0 0 255
0 0 254
0 0 255
0 0 254
0 0 255
0 0 255
0 0 255
0 0 252
0 0 254
0 0 254
0 0 254
0 0 255
0 0 254
0 0 255
0 0 253
0 0 254
0 0 255
0 0 252
0 0 253
0 0 254
0 0 255
0 0 253
0 0 255
0 0 250
0 0 255
0 0 254
0 0 254
0 0 254
0 0 253
0 0 253
0 0 254
0 0 255
0 0 254
0 0 253
0 0 254
0 0 254
0 0 252
0 0 253
0 0 254
0 0 254
0 0 252
0 0 254
0 0 255
0 0 252
0 0 252
0 0 253
0 0 252
0 0 250
0 0 252
0 0 253
0 0 252
0 0 252
0 0 254
0 0 249
0 0 254
0 0 254
0 0 253
0 0 250
0 0 252
0 0 252
0 0 250
0 0 253
0 0 253
0 0 252
0 0 249
0 0 252
0 0 254
0 0 249
0 0 254
0 0 250
0 0 252
0 0 253
0 0 253
0 0 253
0 0 249
0 0 253
0 0 253
0 0 252
0 0 252
0 0 254
0 0 252
0 0 250
0 0 245
0 0 252
0 0 253
0 0 246
0 0 248
0 0 250
0 0 248
0 0 249
0 0 245
0 0 253
0 0 245
0 0 253
0 0 250
0 0 246
0 0 249
0 0 250
0 0 246
0 0 241
0 0 250
0 0 242
0 0 244
0 0 249
0 0 245
0 0 252
0 0 245
0 0 245
0 0 244
0 0 250
0 0 244
0 0 245
0 0 240
0 0 242
0 0 249
0 0 240
0 0 244
0 0 248
0 0 234
0 0 245
0 0 244
0 0 241
0 0 234
0 0 244
0 0 238
0 0 238
0 0 241
0 0 240
0 0 236
0 0 241
0 0 238
0 0 240
0 0 238
0 0 231
0 0 233
0 0 240
0 0 233
0 0 234
0 0 237
0 0 228
0 0 228
0 0 228
0 0 231
0 0 226
0 0 237
0 0 224
0 0 230
0 0 226
0 0 227
0 0 230
0 0 226
0 0 227
0 0 221
0 0 211
0 0 226
0 0 224
0 0 214
0 0 223
0 0 211
0 0 211
0 0 201
0 0 214
0 0 209
0 0 204
0 0 203
0 0 211
0 0 206
0 0 206
0 0 204
36 39 189
201 220 254
208 228 255
208 228 255
208 228 255
208 228 255
208 228 255
208 228 255
208 228 255
208 228 255
208 228 255
208 228 255
208 228 255
208 228 255
208 228 255
208 228 255
208 228 255
208 228 255
208 228 255
208 228 255
208 228 255
208 228 255
203 217 242
157 51 57
148 0 0
165 0 0
158 0 0
161 0 0
173 0 0
166 0 0
176 0 0
179 0 0
172 0 0
174 0 0
176 0 0
183 0 0
184 0 0
170 0 0
182 0 0
165 0 0
174 0 0
187 0 0
185 0 0
182 0 0
179 0 0
196 0 0
182 0 0
191 0 0
191 0 0
195 0 0
197 0 0
191 0 0
196 0 0
193 0 0
190 0 0
196 0 0
192 0 0
195 0 0
197 0 0
206 0 0
198 0 0
199 0 0
204 0 0
204 0 0
201 0 0
191 0 0
200 0 0
206 0 0
200 0 0
198 0 0
205 0 0
204 0 0
200 0 0
195 0 0
198 0 0
209 0 0
199 0 0
202 0 0
204 0 0
201 0 0
212 0 0
202 0 0
202 0 0
211 0 0
204 0 0
201 0 0
206 0 0
210 0 0
206 0 0
205 0 0
206 0 0
202 0 0
208 0 0
208 0 0
205 0 0
211 0 0
213 0 0
210 0 0
210 0 0
212 0 0
211 0 0
208 0 0
214 0 0
203 0 0
205 0 0
213 0 0
211 0 0
215 0 0
212 0 0
214 0 0
207 0 0
211 0 0
215 0 0
208 0 0
210 0 0
214 0 0
208 0 0
207 0 0
215 0 0
212 0 0
214 0 0
215 0 0
208 0 0
214 0 0
216 0 0
216 0 0
214 0 0
208 0 0
214 0 0
212 0 0
215 0 0
212 0 0
213 0 0
215 0 0
217 0 0
209 0 0
215 0 0
211 0 0
212 0 0
212 0 0
219 0 0
215 0 0
216 0 0
214 0 0
214 0 0
213 0 0
214 0 0
213 0 0
217 0 0
213 0 0
213 0 0
218 0 0
216 0 0
216 0 0
213 0 0
216 0 0
214 0 0
218 0 0
216 0 0
212 0 0
216 0 0
212 0 0
214 0 0
212 0 0
215 0 0
215 0 0
219 0 0
216 0 0
218 0 0
213 0 0
217 0 0
217 0 0
212 0 0
216 0 0
217 0 0
216 0 0
216 0 0
215 0 0
218 0 0
215 0 0
218 0 0
214 0 0
215 0 0
219 0 0
214 0 0
214 0 0
217 0 0
217 0 0
215 0 0
215 0 0
216 0 0
216 0 0
216 0 0
215 0 0
216 0 0
218 0 0
217 0 0
214 0 0
216 0 0
218 0 0
214 0 0
215 0 0
216 0 0
214 0 0
216 0 0
215 0 0
219 0 0
219 0 0
216 0 0
216 0 0
213 0 0
217 0 0
0 0 255
0 0 255
0 0 255
0 0 255
0 0 253
0 0 255
0 0 255
0 0 253
0 0 254
0 0 255
0 0 254
0 0 255
0 0 255
0 0 255
0 0 254
0 0 255
0 0 253
0 0 254
0 0 255
0 0 254
0 0 254
0 0 253
0 0 252
0 0 254
0 0 254
0 0 253
0 0 255
0 0 253
0 0 252
0 0 254
0 0 254
0 0 254
0 0 255
0 0 254
0 0 254
0 0 255
0 0 253
0 0 254
0 0 254
0 0 248
0 0 254
0 0 254
0 0 254
0 0 255
0 0 253
0 0 255
0 0 254
0 0 252
0 0 254
0 0 254
0 0 255
0 0 254
0 0 254
0 0 254
0 0 253
0 0 254
0 0 250
0 0 253
0 0 254
0 0 254
0 0 253
0 0 253
0 0 252
0 0 254
0 0 253
0 0 245
0 0 255
0 0 253
0 0 250
0 0 253
0 0 250
0 0 253
0 0 254
0 0 249
0 0 253
0 0 250
0 0 250
0 0 253
0 0 253
0 0 254
0 0 253
0 0 250
0 0 254
0 0 250
0 0 250
0 0 248
0 0 248
0 0 249
0 0 249
0 0 248
0 0 254
0 0 252
0 0 252
0 0 248
0 0 245
0 0 250
0 0 250
0 0 254
0 0 250
0 0 249
0 0 249
0 0 253
0 0 252
0 0 250
0 0 244
0 0 249
0 0 244
0 0 248
0 0 249
0 0 245
0 0 250
0 0 246
0 0 252
0 0 249
0 0 246
0 0 241
0 0 241
0 0 240
0 0 252
0 0 246
0 0 242
0 0 248
0 0 250
0 0 249
0 0 245
0 0 245
0 0 248
0 0 245
0 0 246
0 0 237
0 0 245
0 0 246
0 0 245
0 0 245
0 0 248
0 0 238
0 0 245
0 0 236
0 0 240
0 0 240
0 0 240
0 0 240
0 0 241
0 0 245
0 0 242
0 0 238
0 0 241
0 0 245
0 0 236
0 0 233
0 0 237
0 0 237
0 0 240
0 0 241
0 0 236
0 0 237
0 0 238
0 0 242
0 0 234
0 0 234
0 0 237
0 0 223
0 0 227
0 0 227
0 0 228
0 0 226
0 0 220
0 0 223
0 0 224
0 0 220
0 0 221
0 0 228
0 0 220
0 0 228
0 0 227
0 0 228
0 0 223
0 0 221
0 0 217
0 0 223
0 0 218
0 0 212
0 0 196
0 0 203
0 0 207
0 0 204
0 0 191
0 0 198
0 0 189
127 139 214
208 228 255
208 228 255
208 228 255
208 228 255
208 228 255
208 228 255
208 228 255
208 228 255
208 228 255
208 228 255
208 228 255
208 228 255
208 228 255
208 228 255
208 228 255
208 228 255
208 228 255
208 228 255
208 228 255
208 228 255
172 146 163
148 0 0
161 0 0
165 0 0
158 0 0
170 0 0
164 0 0
153 0 0
167 0 0
163 0 0
177 0 0
162 0 0
175 0 0
175 0 0
184 0 0
170 0 0
188 0 0
179 0 0
182 0 0
189 0 0
190 0 0
179 0 0
179 0 0
186 0 0
194 0 0
193 0 0
191 0 0
204 0 0
191 0 0
197 0 0
196 0 0
194 0 0
196 0 0
193 0 0
192 0 0
194 0 0
201 0 0
197 0 0
199 0 0
203 0 0
202 0 0
200 0 0
199 0 0
207 0 0
204 0 0
200 0 0
200 0 0
196 0 0
209 0 0
207 0 0
207 0 0
203 0 0
202 0 0
201 0 0
204 0 0
207 0 0
203 0 0
202 0 0
204 0 0
203 0 0
207 0 0
205 0 0
206 0 0
208 0 0
202 0 0
209 0 0
207 0 0
208 0 0
206 0 0
207 0 0
212 0 0
207 0 0
216 0 0
218 0 0
204 0 0
211 0 0
209 0 0
211 0 0
215 0 0
211 0 0
214 0 0
202 0 0
207 0 0
209 0 0
208 0 0
208 0 0
210 0 0
213 0 0
215 0 0
212 0 0
213 0 0
216 0 0
210 0 0
204 0 0
215 0 0
210 0 0
215 0 0
208 0 0
212 0 0
210 0 0
213 0 0
219 0 0
209 0 0
213 0 0
210 0 0
211 0 0
216 0 0
209 0 0
216 0 0
212 0 0
212 0 0
211 0 0
214 0 0
212 0 0
212 0 0
212 0 0
214 0 0
213 0 0
220 0 0
212 0 0
212 0 0
216 0 0
217 0 0
212 0 0
216 0 0
215 0 0
217 0 0
211 0 0
214 0 0
216 0 0
216 0 0
213 0 0
215 0 0
216 0 0
216 0 0
216 0 0
219 0 0
218 0 0
217 0 0
218 0 0
213 0 0
217 0 0
210 0 0
218 0 0
214 0 0
214 0 0
215 0 0
214 0 0
211 0 0
216 0 0
214 0 0
214 0 0
216 0 0
217 0 0
215 0 0
215 0 0
215 0 0
216 0 0
218 0 0
216 0 0
216 0 0
215 0 0
219 0 0
219 0 0
217 0 0
214 0 0
215 0 0
216 0 0
215 0 0
215 0 0
213 0 0
212 0 0
212 0 0
214 0 0
212 0 0
212 0 0
215 0 0
218 0 0
218 0 0
217 0 0
218 0 0
213 0 0
220 0 0
219 0 0
216 0 0
217 0 0
216 0 0
219 0 0
218 0 0
215 0 0
0 0 255
0 0 255
0 0 253
0 0 255
0 0 255
0 0 255
0 0 254
0 0 254
0 0 255
0 0 255
0 0 255
0 0 255
0 0 254
0 0 253
0 0 255
0 0 253
0 0 254
0 0 255
0 0 255
0 0 255
0 0 253
0 0 255
0 0 255
0 0 254
0 0 254
0 0 255
0 0 253
0 0 253
0 0 253
0 0 252
0 0 255
0 0 255
0 0 253
0 0 253
0 0 255
0 0 254
0 0 255
0 0 254
0 0 255
0 0 254
0 0 254
0 0 253
0 0 255
0 0 253
0 0 253
0 0 254
0 0 253
0 0 254
0 0 254
0 0 253
0 0 253
0 0 255
0 0 253
0 0 255
0 0 252
0 0 252
0 0 254
0 0 253
0 0 254
0 0 254
0 0 254
0 0 254
0 0 252
0 0 252
0 0 254
0 0 250
0 0 254
0 0 248
0 0 254
0 0 253
0 0 252
0 0 250
0 0 248
0 0 252
0 0 253
0 0 252
0 0 252
0 0 250
0 0 250
0 0 252
0 0 252
0 0 255
0 0 250
0 0 254
0 0 254
0 0 248
0 0 249
0 0 246
0 0 246
0 0 253
0 0 254
0 0 252
0 0 253
0 0 254
0 0 249
0 0 248
0 0 248
0 0 250
0 0 248
0 0 249
0 0 248
0 0 248
0 0 253
0 0 242
0 0 246
0 0 250
0 0 246
0 0 245
0 0 248
0 0 249
0 0 253
0 0 250
0 0 250
0 0 240
0 0 242
0 0 246
0 0 246
0 0 252
0 0 240
0 0 249
0 0 249
0 0 242
0 0 245
0 0 238
0 0 242
0 0 245
0 0 240
0 0 246
0 0 245
0 0 241
0 0 248
0 0 242
0 0 248
0 0 241
0 0 249
0 0 238
0 0 241
0 0 244
0 0 240
0 0 241
0 0 248
0 0 237
0 0 237
0 0 245
0 0 236
0 0 231
0 0 237
0 0 238
0 0 241
0 0 236
0 0 230
0 0 242
0 0 240
0 0 230
0 0 238
0 0 240
0 0 245
0 0 231
0 0 240
0 0 233
0 0 231
0 0 233
0 0 236
0 0 231
0 0 233
0 0 230
0 0 226
0 0 230
0 0 227
0 0 231
0 0 226
0 0 227
0 0 226
0 0 217
0 0 226
0 0 220
0 0 214
0 0 223
0 0 206
0 0 204
0 0 226
0 0 211
0 0 207
0 0 211
0 0 211
0 0 189
0 0 203
0 0 198
0 0 175
36 39 201
195 213 246
209 229 255
209 229 255
209 229 255
209 229 255
209 229 255
209 229 255
209 229 255
209 229 255
209 229 255
209 229 255
209 229 255
209 229 255
209 229 255
209 229 255
209 229 255
209 229 255
209 229 255
209 229 255
201 213 238
148 22 25
144 0 0
164 0 0
158 0 0
154 0 0
162 0 0
162 0 0
185 0 0
167 0 0
173 0 0
171 0 0
158 0 0
186 0 0
180 0 0
176 0 0
186 0 0
175 0 0
184 0 0
186 0 0
176 0 0
191 0 0
184 0 0
194 0 0
191 0 0
191 0 0
199 0 0
183 0 0
191 0 0
197 0 0
198 0 0
198 0 0
190 0 0
200 0 0
198 0 0
190 0 0
196 0 0
204 0 0
198 0 0
199 0 0
200 0 0
199 0 0
196 0 0
200 0 0
197 0 0
203 0 0
207 0 0
204 0 0
201 0 0
206 0 0
206 0 0
201 0 0
202 0 0
212 0 0
206 0 0
203 0 0
207 0 0
202 0 0
207 0 0
203 0 0
205 0 0
209 0 0
207 0 0
208 0 0
204 0 0
209 0 0
210 0 0
212 0 0
208 0 0
206 0 0
208 0 0
213 0 0
209 0 0
212 0 0
210 0 0
205 0 0
210 0 0
208 0 0
209 0 0
209 0 0
211 0 0
206 0 0
206 0 0
213 0 0
210 0 0
213 0 0
210 0 0
211 0 0
209 0 0
211 0 0
207 0 0
208 0 0
213 0 0
213 0 0
208 0 0
213 0 0
205 0 0
213 0 0
212 0 0
210 0 0
208 0 0
213 0 0
213 0 0
207 0 0
216 0 0
214 0 0
213 0 0
214 0 0
215 0 0
217 0 0
214 0 0
215 0 0
209 0 0
211 0 0
215 0 0
215 0 0
212 0 0
212 0 0
212 0 0
215 0 0
213 0 0
216 0 0
214 0 0
211 0 0
217 0 0
215 0 0
213 0 0
211 0 0
214 0 0
210 0 0
216 0 0
219 0 0
215 0 0
210 0 0
213 0 0
216 0 0
216 0 0
216 0 0
215 0 0
214 0 0
219 0 0
214 0 0
215 0 0
217 0 0
212 0 0
218 0 0
216 0 0
218 0 0
215 0 0
214 0 0
218 0 0
218 0 0
218 0 0
215 0 0
217 0 0
218 0 0
216 0 0
221 0 0
217 0 0
219 0 0
218 0 0
217 0 0
217 0 0
215 0 0
214 0 0
215 0 0
218 0 0
217 0 0
217 0 0
219 0 0
221 0 0
222 0 0
216 0 0
220 0 0
218 0 0
215 0 0
220 0 0
216 0 0
218 0 0
218 0 0
213 0 0
219 0 0
218 0 0
216 0 0
221 0 0
216 0 0
216 0 0
215 0 0
219 0 0
215 0 0
220 0 0
0 0 253
0 0 255
0 0 255
0 0 254
0 0 255
0 0 255
0 0 255
0 0 255
0 0 254
0 0 255
0 0 255
0 0 255
0 0 255
0 0 255
0 0 254
0 0 254
0 0 255
0 0 255
0 0 254
0 0 255
0 0 253
0 0 254
0 0 255
0 0 255
0 0 253
0 0 255
0 0 254
0 0 255
0 0 253
0 0 254
0 0 255
0 0 254
0 0 253
0 0 255
0 0 254
0 0 254
0 0 253
0 0 252
0 0 249
0 0 254
0 0 255
0 0 254
0 0 253
0 0 254
0 0 253
0 0 254
0 0 255
0 0 254
0 0 254
0 0 250
0 0 255
0 0 252
0 0 254
0 0 255
0 0 254
0 0 252
0 0 255
0 0 254
0 0 250
0 0 252
0 0 255
0 0 253
0 0 252
0 0 252
0 0 253
0 0 254
0 0 254
0 0 253
0 0 253
0 0 255
0 0 253
0 0 248
0 0 254
0 0 250
0 0 253
0 0 254
0 0 249
0 0 253
0 0 252
0 0 250
0 0 250
0 0 252
0 0 253
0 0 254
0 0 250
0 0 252
0 0 252
0 0 249
0 0 248
0 0 253
0 0 246
0 0 249
0 0 245
0 0 252
0 0 248
0 0 253
0 0 253
0 0 249
0 0 249
0 0 246
0 0 253
0 0 248
0 0 248
0 0 246
0 0 245
0 0 253
0 0 245
0 0 252
0 0 248
0 0 248
0 0 249
0 0 250
0 0 245
0 0 248
0 0 246
0 0 242
0 0 245
0 0 246
0 0 250
0 0 246
0 0 248
0 0 246
0 0 250
0 0 242
0 0 245
0 0 248
0 0 245
0 0 250
0 0 245
0 0 249
0 0 248
0 0 242
0 0 248
0 0 246
0 0 242
0 0 240
0 0 246
0 0 246
0 0 233
0 0 246
0 0 246
0 0 240
0 0 241
0 0 242
0 0 245
0 0 240
0 0 246
0 0 244
0 0 236
0 0 242
0 0 242
0 0 238
0 0 230
0 0 240
0 0 236
0 0 241
0 0 240
0 0 236
0 0 233
0 0 234
0 0 230
0 0 231
0 0 215
0 0 237
0 0 233
0 0 237
0 0 227
0 0 226
0 0 223
0 0 218
0 0 220
0 0 212
0 0 215
0 0 221
0 0 221
0 0 226
0 0 206
0 0 212
0 0 230
0 0 211
0 0 217
0 0 207
0 0 199
0 0 201
0 0 194
0 0 203
0 0 175
0 0 189
0 0 181
0 0 181
125 137 214
209 229 255
209 229 255
209 229 255
209 229 255
209 229 255
209 229 255
209 229 255
209 229 255
209 229 255
209 229 255
209 229 255
209 229 255
209 229 255
209 229 255
209 229 255
209 229 255
209 229 255
209 229 255
177 150 167
151 0 0
161 0 0
146 0 0
168 0 0
160 0 0
155 0 0
168 0 0
157 0 0
175 0 0
171 0 0
172 0 0
173 0 0
179 0 0
179 0 0
177 0 0
188 0 0
188 0 0
182 0 0
181 0 0
180 0 0
194 0 0
184 0 0
187 0 0
185 0 0
191 0 0
188 0 0
194 0 0
186 0 0
192 0 0
192 0 0
202 0 0
196 0 0
198 0 0
190 0 0
203 0 0
191 0 0
202 0 0
197 0 0
193 0 0
195 0 0
206 0 0
201 0 0
205 0 0
202 0 0
197 0 0
211 0 0
195 0 0
204 0 0
206 0 0
203 0 0
209 0 0
203 0 0
209 0 0
211 0 0
201 0 0
207 0 0
199 0 0
209 0 0
204 0 0
207 0 0
209 0 0
205 0 0
210 0 0
204 0 0
200 0 0
207 0 0
201 0 0
206 0 0
205 0 0
211 0 0
213 0 0
204 0 0
213 0 0
208 0 0
209 0 0
206 0 0
205 0 0
210 0 0
212 0 0
209 0 0
209 0 0
205 0 0
212 0 0
216 0 0
207 0 0
217 0 0
213 0 0
211 0 0
209 0 0
213 0 0
214 0 0
209 0 0
213 0 0
206 0 0
214 0 0
215 0 0
208 0 0
215 0 0
216 0 0
211 0 0
214 0 0
211 0 0
211 0 0
207 0 0
213 0 0
214 0 0
216 0 0
215 0 0
213 0 0
213 0 0
213 0 0
214 0 0
215 0 0
208 0 0
214 0 0
219 0 0
214 0 0
215 0 0
212 0 0
212 0 0
214 0 0
215 0 0
213 0 0
213 0 0
218 0 0
216 0 0
214 0 0
214 0 0
215 0 0
214 0 0
221 0 0
216 0 0
213 0 0
214 0 0
219 0 0
217 0 0
217 0 0
216 0 0
215 0 0
217 0 0
213 0 0
218 0 0
215 0 0
215 0 0
217 0 0
214 0 0
214 0 0
216 0 0
221 0 0
210 0 0
218 0 0
214 0 0
215 0 0
215 0 0
216 0 0
212 0 0
218 0 0
214 0 0
219 0 0
216 0 0
217 0 0
218 0 0
216 0 0
217 0 0
215 0 0
216 0 0
215 0 0
218 0 0
216 0 0
215 0 0
220 0 0
217 0 0
219 0 0
218 0 0
217 0 0
214 0 0
215 0 0
215 0 0
218 0 0
218 0 0
219 0 0
214 0 0
218 0 0
217 0 0
218 0 0
217 0 0
215 0 0
214 0 0
216 0 0
217 0 0
0 0 255
0 0 255
0 0 255
0 0 254
0 0 255
0 0 255
0 0 254
0 0 253
0 0 255
0 0 255
0 0 253
0 0 254
0 0 255
0 0 255
0 0 254
0 0 255
0 0 255
0 0 254
0 0 255
0 0 255
0 0 255
0 0 250
0 0 254
0 0 255
0 0 255
0 0 254
0 0 254
0 0 255
0 0 252
0 0 254
0 0 254
0 0 253
0 0 254
0 0 255
0 0 253
0 0 254
0 0 254
0 0 255
0 0 255
0 0 254
0 0 254
0 0 255
0 0 253
0 0 253
0 0 253
0 0 250
0 0 252
0 0 252
0 0 254
0 0 252
0 0 254
0 0 253
0 0 255
0 0 253
0 0 249
0 0 254
0 0 254
0 0 253
0 0 250
0 0 253
0 0 255
0 0 252
0 0 250
0 0 253
0 0 252
0 0 252
0 0 253
0 0 254
0 0 254
0 0 252
0 0 249
0 0 252
0 0 253
0 0 249
0 0 252
0 0 255
0 0 253
0 0 252
0 0 253
0 0 254
0 0 248
0 0 253
0 0 253
0 0 254
0 0 253
0 0 248
0 0 254
0 0 255
0 0 249
0 0 253
0 0 254
0 0 254
0 0 250
0 0 252
0 0 252
0 0 249
0 0 248
0 0 253
0 0 248
0 0 249
0 0 245
0 0 249
0 0 249
0 0 252
0 0 250
0 0 253
0 0 250
0 0 248
0 0 248
0 0 246
0 0 246
0 0 249
0 0 244
0 0 245
0 0 250
0 0 246
0 0 246
0 0 252
0 0 250
0 0 244
0 0 245
0 0 250
0 0 245
0 0 241
0 0 245
0 0 248
0 0 246
0 0 246
0 0 241
0 0 242
0 0 245
0 0 245
0 0 242
0 0 242
0 0 250
0 0 248
0 0 245
0 0 240
0 0 245
0 0 237
0 0 236
0 0 238
0 0 238
0 0 241
0 0 245
0 0 240
0 0 242
0 0 238
0 0 242
0 0 242
0 0 233
0 0 233
0 0 233
0 0 236
0 0 242
0 0 230
0 0 237
0 0 237
0 0 231
0 0 224
0 0 231
0 0 227
0 0 234
0 0 228
0 0 228
0 0 228
0 0 215
0 0 231
0 0 233
0 0 212
0 0 211
0 0 223
0 0 223
0 0 218
0 0 226
0 0 221
0 0 204
0 0 218
0 0 224
0 0 207
0 0 209
0 0 179
0 0 206
0 0 194
0 0 191
0 0 203
0 0 201
0 0 199
0 0 179
0 0 177
20 22 193
194 212 249
209 229 255
209 229 255
209 229 255
209 229 255
209 229 255
209 229 255
209 229 255
209 229 255
209 229 255
209 229 255
209 229 255
209 229 255
209 229 255
209 229 255
209 229 255
209 229 255
200 207 231
147 22 25
146 0 0
157 0 0
159 0 0
151 0 0
157 0 0
165 0 0
164 0 0
165 0 0
165 0 0
172 0 0
178 0 0
173 0 0
186 0 0
169 0 0
184 0 0
165 0 0
187 0 0
176 0 0
188 0 0
193 0 0
171 0 0
180 0 0
186 0 0
191 0 0
191 0 0
189 0 0
193 0 0
195 0 0
187 0 0
197 0 0
188 0 0
191 0 0
200 0 0
191 0 0
195 0 0
196 0 0
200 0 0
197 0 0
195 0 0
185 0 0
203 0 0
190 0 0
203 0 0
199 0 0
196 0 0
206 0 0
202 0 0
203 0 0
207 0 0
201 0 0
194 0 0
208 0 0
197 0 0
204 0 0
202 0 0
206 0 0
208 0 0
200 0 0
205 0 0
207 0 0
202 0 0
205 0 0
211 0 0
203 0 0
206 0 0
213 0 0
199 0 0
207 0 0
206 0 0
207 0 0
209 0 0
209 0 0
210 0 0
206 0 0
207 0 0
214 0 0
212 0 0
208 0 0
208 0 0
200 0 0
212 0 0
215 0 0
213 0 0
205 0 0
208 0 0
206 0 0
212 0 0
210 0 0
212 0 0
214 0 0
206 0 0
208 0 0
212 0 0
214 0 0
206 0 0
213 0 0
215 0 0
212 0 0
215 0 0
215 0 0
211 0 0
210 0 0
211 0 0
212 0 0
215 0 0
218 0 0
214 0 0
211 0 0
218 0 0
205 0 0
214 0 0
209 0 0
213 0 0
213 0 0
215 0 0
214 0 0
214 0 0
212 0 0
214 0 0
216 0 0
209 0 0
214 0 0
211 0 0
217 0 0
216 0 0
215 0 0
214 0 0
212 0 0
221 0 0
218 0 0
213 0 0
212 0 0
215 0 0
213 0 0
219 0 0
216 0 0
217 0 0
216 0 0
216 0 0
215 0 0
214 0 0
215 0 0
214 0 0
212 0 0
215 0 0
218 0 0
215 0 0
215 0 0
219 0 0
208 0 0
214 0 0
217 0 0
215 0 0
217 0 0
217 0 0
219 0 0
217 0 0
218 0 0
214 0 0
213 0 0
217 0 0
218 0 0
218 0 0
217 0 0
219 0 0
216 0 0
217 0 0
216 0 0
220 0 0
218 0 0
212 0 0
215 0 0
218 0 0
218 0 0
215 0 0
220 0 0
217 0 0
213 0 0
215 0 0
214 0 0
216 0 0
219 0 0
219 0 0
219 0 0
218 0 0
218 0 0
216 0 0
215 0 0
218 0 0
215 0 0
0 0 255
0 0 255
0 0 255
0 0 255
0 0 255
0 0 254
0 0 255
0 0 254
0 0 255
0 0 254
0 0 255
0 0 254
0 0 254
0 0 254
0 0 254
0 0 255
0 0 254
0 0 254
0 0 255
0 0 254
0 0 255
0 0 255
0 0 253
0 0 255
0 0 255
0 0 255
0 0 255
0 0 253
0 0 255
0 0 255
0 0 255
0 0 255
0 0 255
0 0 250
0 0 255
0 0 255
0 0 253
0 0 255
0 0 254
0 0 254
0 0 254
0 0 254
0 0 255
0 0 254
0 0 250
0 0 255
0 0 254
0 0 253
0 0 253
0 0 254
0 0 252
0 0 248
0 0 249
0 0 250
0 0 252
0 0 253
0 0 255
0 0 252
0 0 254
0 0 250
0 0 250
0 0 253
0 0 254
0 0 250
0 0 248
0 0 249
0 0 250
0 0 253
0 0 253
0 0 254
0 0 255
0 0 252
0 0 249
0 0 252
0 0 252
0 0 253
0 0 254
0 0 250
0 0 250
0 0 254
0 0 253
0 0 252
0 0 249
0 0 250
0 0 249
0 0 252
0 0 249
0 0 249
0 0 248
0 0 250
0 0 249
0 0 254
0 0 253
0 0 252
0 0 246
0 0 249
0 0 250
0 0 252
0 0 252
0 0 253
0 0 246
0 0 248
0 0 252
0 0 249
0 0 252
0 0 244
0 0 244
0 0 249
0 0 253
0 0 250
0 0 249
0 0 249
0 0 249
0 0 252
0 0 248
0 0 245
0 0 245
0 0 245
0 0 242
0 0 244
0 0 248
0 0 248
0 0 250
0 0 241
0 0 245
0 0 246
0 0 252
0 0 244
0 0 244
0 0 245
0 0 245
0 0 244
0 0 238
0 0 244
0 0 245
0 0 252
0 0 241
0 0 245
0 0 237
0 0 240
0 0 238
0 0 238
0 0 233
0 0 242
0 0 245
0 0 241
0 0 233
0 0 240
0 0 248
0 0 241
0 0 240
0 0 238
0 0 236
0 0 236
0 0 227
0 0 236
0 0 245
0 0 231
0 0 237
0 0 237
0 0 227
0 0 237
0 0 223
0 0 237
0 0 231
0 0 220
0 0 228
0 0 230
0 0 228
0 0 215
0 0 224
0 0 220
0 0 223
0 0 223
0 0 224
0 0 203
0 0 218
0 0 217
0 0 215
0 0 221
0 0 198
0 0 211
0 0 194
0 0 204
0 0 199
0 0 194
0 0 193
0 0 186
0 0 196
0 0 171
0 0 171
145 159 214
210 229 255
210 229 255
210 229 255
210 229 255
210 229 255
210 229 255
210 229 255
210 229 255
210 229 255
210 229 255
210 229 255
210 229 255
210 229 255
210 229 255
210 229 255
210 229 255
163 123 137
155 0 0
154 0 0
159 0 0
156 0 0
146 0 0
168 0 0
154 0 0
159 0 0
176 0 0
169 0 0
169 0 0
170 0 0
175 0 0
165 0 0
189 0 0
181 0 0
177 0 0
181 0 0
185 0 0
182 0 0
188 0 0
192 0 0
186 0 0
187 0 0
196 0 0
186 0 0
200 0 0
191 0 0
187 0 0
183 0 0
193 0 0
195 0 0
185 0 0
191 0 0
201 0 0
192 0 0
200 0 0
206 0 0
208 0 0
199 0 0
190 0 0
202 0 0
201 0 0
194 0 0
196 0 0
201 0 0
198 0 0
195 0 0
204 0 0
202 0 0
203 0 0
205 0 0
205 0 0
197 0 0
208 0 0
206 0 0
207 0 0
198 0 0
202 0 0
211 0 0
205 0 0
204 0 0
209 0 0
205 0 0
212 0 0
202 0 0
206 0 0
212 0 0
204 0 0
212 0 0
213 0 0
205 0 0
204 0 0
206 0 0
211 0 0
207 0 0
211 0 0
210 0 0
207 0 0
209 0 0
215 0 0
211 0 0
214 0 0
210 0 0
210 0 0
213 0 0
212 0 0
210 0 0
213 0 0
211 0 0
212 0 0
217 0 0
214 0 0
208 0 0
207 0 0
214 0 0
216 0 0
208 0 0
214 0 0
213 0 0
214 0 0
212 0 0
212 0 0
215 0 0
214 0 0
210 0 0
214 0 0
215 0 0
211 0 0
213 0 0
215 0 0
215 0 0
212 0 0
214 0 0
213 0 0
212 0 0
211 0 0
215 0 0
212 0 0
208 0 0
218 0 0
214 0 0
214 0 0
212 0 0
213 0 0
213 0 0
215 0 0
213 0 0
213 0 0
213 0 0
214 0 0
216 0 0
213 0 0
215 0 0
216 0 0
216 0 0
217 0 0
214 0 0
220 0 0
214 0 0
216 0 0
216 0 0
214 0 0
221 0 0
214 0 0
215 0 0
216 0 0
214 0 0
217 0 0
217 0 0
216 0 0
214 0 0
216 0 0
215 0 0
213 0 0
215 0 0
216 0 0
217 0 0
217 0 0
218 0 0
221 0 0
215 0 0
215 0 0
218 0 0
216 0 0
218 0 0
213 0 0
216 0 0
216 0 0
215 0 0
215 0 0
218 0 0
220 0 0
216 0 0
212 0 0
218 0 0
218 0 0
221 0 0
220 0 0
216 0 0
217 0 0
218 0 0
219 0 0
215 0 0
217 0 0
215 0 0
215 0 0
216 0 0
216 0 0
221 0 0
218 0 0
0 0 254
0 0 255
0 0 254
0 0 254
0 0 255
0 0 255
0 0 254
0 0 255
0 0 255
0 0 254
0 0 255
0 0 255
0 0 254
0 0 255
0 0 255
0 0 255
0 0 255
0 0 254
0 0 254
0 0 255
0 0 255
0 0 255
0 0 254
0 0 253
0 0 255
0 0 254
0 0 255
0 0 254
0 0 254
0 0 255
0 0 253
0 0 253
0 0 255
0 0 254
0 0 255
0 0 255
0 0 255
0 0 252
0 0 254
0 0 254
0 0 253
0 0 254
0 0 255
0 0 253
0 0 250
0 0 253
0 0 255
0 0 254
0 0 253
0 0 254
0 0 254
0 0 255
0 0 253
0 0 253
0 0 252
0 0 250
0 0 252
0 0 255
0 0 252
0 0 253
0 0 252
0 0 253
0 0 253
0 0 252
0 0 253
0 0 254
0 0 255
0 0 254
0 0 252
0 0 253
0 0 253
0 0 253
0 0 249
0 0 249
0 0 253
0 0 254
0 0 252
0 0 254
0 0 254
0 0 252
0 0 254
0 0 253
0 0 252
0 0 250
0 0 253
0 0 250
0 0 253
0 0 250
0 0 250
0 0 252
0 0 249
0 0 248
0 0 253
0 0 249
0 0 252
0 0 245
0 0 248
0 0 253
0 0 246
0 0 249
0 0 252
0 0 254
0 0 252
0 0 246
0 0 249
0 0 252
0 0 252
0 0 240
0 0 248
0 0 250
0 0 252
0 0 241
0 0 252
0 0 249
0 0 252
0 0 248
0 0 252
0 0 248
0 0 246
0 0 253
0 0 244
0 0 241
0 0 246
0 0 248
0 0 244
0 0 242
0 0 249
0 0 249
0 0 252
0 0 240
0 0 244
0 0 242
0 0 244
0 0 244
0 0 234
0 0 246
0 0 246
0 0 233
0 0 237
0 0 237
0 0 245
0 0 241
0 0 240
0 0 245
0 0 241
0 0 240
0 0 237
0 0 242
0 0 240
0 0 241
0 0 242
0 0 233
0 0 238
0 0 234
0 0 244
0 0 237
0 0 221
0 0 234
0 0 226
0 0 234
0 0 220
0 0 240
0 0 228
0 0 227
0 0 223
0 0 221
0 0 233
0 0 231
0 0 220
0 0 230
0 0 220
0 0 223
0 0 233
0 0 214
0 0 218
0 0 212
0 0 212
0 0 221
0 0 198
0 0 207
0 0 198
0 0 212
0 0 207
0 0 189
0 0 193
0 0 221
0 0 193
0 0 179
0 0 196
0 0 193
0 0 186
21 22 198
194 211 249
210 229 255
210 229 255
210 229 255
210 229 255
210 229 255
210 229 255
210 229 255
210 229 255
210 229 255
210 229 255
210 229 255
210 229 255
210 229 255
210 229 255
199 211 236
135 22 25
140 0 0
148 0 0
145 0 0
153 0 0
163 0 0
162 0 0
171 0 0
172 0 0
174 0 0
167 0 0
168 0 0
166 0 0
181 0 0
181 0 0
171 0 0
179 0 0
175 0 0
193 0 0
179 0 0
192 0 0
184 0 0
186 0 0
189 0 0
188 0 0
195 0 0
188 0 0
194 0 0
190 0 0
190 0 0
192 0 0
193 0 0
198 0 0
194 0 0
185 0 0
191 0 0
195 0 0
196 0 0
198 0 0
195 0 0
201 0 0
199 0 0
198 0 0
199 0 0
194 0 0
195 0 0
206 0 0
199 0 0
204 0 0
198 0 0
207 0 0
199 0 0
205 0 0
199 0 0
206 0 0
205 0 0
209 0 0
206 0 0
196 0 0
205 0 0
205 0 0
204 0 0
211 0 0
210 0 0
207 0 0
207 0 0
212 0 0
208 0 0
208 0 0
208 0 0
205 0 0
209 0 0
207 0 0
209 0 0
211 0 0
208 0 0
204 0 0
210 0 0
205 0 0
212 0 0
212 0 0
211 0 0
207 0 0
211 0 0
209 0 0
210 0 0
213 0 0
212 0 0
211 0 0
217 0 0
215 0 0
217 0 0
207 0 0
210 0 0
211 0 0
206 0 0
212 0 0
217 0 0
212 0 0
215 0 0
218 0 0
215 0 0
215 0 0
212 0 0
216 0 0
211 0 0
217 0 0
207 0 0
214 0 0
213 0 0
211 0 0
213 0 0
211 0 0
217 0 0
211 0 0
212 0 0
209 0 0
214 0 0
212 0 0
210 0 0
215 0 0
211 0 0
217 0 0
214 0 0
218 0 0
217 0 0
217 0 0
212 0 0
215 0 0
212 0 0
219 0 0
215 0 0
218 0 0
218 0 0
218 0 0
214 0 0
217 0 0
215 0 0
215 0 0
214 0 0
216 0 0
218 0 0
215 0 0
214 0 0
215 0 0
217 0 0
215 0 0
215 0 0
217 0 0
213 0 0
212 0 0
217 0 0
223 0 0
215 0 0
212 0 0
214 0 0
215 0 0
216 0 0
215 0 0
214 0 0
217 0 0
217 0 0
214 0 0
215 0 0
218 0 0
220 0 0
217 0 0
218 0 0
219 0 0
216 0 0
217 0 0
214 0 0
215 0 0
214 0 0
220 0 0
218 0 0
212 0 0
215 0 0
217 0 0
217 0 0
218 0 0
216 0 0
223 0 0
214 0 0
220 0 0
218 0 0
221 0 0
218 0 0
215 0 0
216 0 0
219 0 0
218 0 0
0 0 254
0 0 253
0 0 255
0 0 255
0 0 255
0 0 254
0 0 255
0 0 255
0 0 255
0 0 255
0 0 254
0 0 254
0 0 252
0 0 254
0 0 255
0 0 254
0 0 254
0 0 254
0 0 255
0 0 254
0 0 253
0 0 255
0 0 255
0 0 254
0 0 254
0 0 255
0 0 255
0 0 255
0 0 254
0 0 255
0 0 254
0 0 252
0 0 255
0 0 255
0 0 254
0 0 255
0 0 253
0 0 254
0 0 252
0 0 253
0 0 255
0 0 253
0 0 252
0 0 253
0 0 250
0 0 253
0 0 254
0 0 255
0 0 253
0 0 253
0 0 254
0 0 253
0 0 253
0 0 253
0 0 252
0 0 253
0 0 255
0 0 249
0 0 249
0 0 253
0 0 254
0 0 254
0 0 252
0 0 252
0 0 250
0 0 252
0 0 254
0 0 250
0 0 253
0 0 250
0 0 252
0 0 253
0 0 248
0 0 253
0 0 254
0 0 252
0 0 248
0 0 252
0 0 250
0 0 253
0 0 253
0 0 249
0 0 246
0 0 250
0 0 248
0 0 250
0 0 250
0 0 250
0 0 249
0 0 249
0 0 253
0 0 246
0 0 252
0 0 250
0 0 252
0 0 250
0 0 250
0 0 248
0 0 254
0 0 253
0 0 252
0 0 252
0 0 248
0 0 250
0 0 249
0 0 244
0 0 244
0 0 250
0 0 252
0 0 248
0 0 250
0 0 250
0 0 248
0 0 248
0 0 252
0 0 249
0 0 249
0 0 246
0 0 244
0 0 246
0 0 244
0 0 250
0 0 242
0 0 250
0 0 246
0 0 248
0 0 244
0 0 246
0 0 244
0 0 244
0 0 245
0 0 245
0 0 242
0 0 244
0 0 245
0 0 246
0 0 240
0 0 248
0 0 238
0 0 242
0 0 250
0 0 241
0 0 244
0 0 244
0 0 244
0 0 242
0 0 240
0 0 236
0 0 233
0 0 242
0 0 242
0 0 230
0 0 233
0 0 233
0 0 240
0 0 224
0 0 227
0 0 231
0 0 231
0 0 236
0 0 230
0 0 236
0 0 233
0 0 228
0 0 241
0 0 217
0 0 237
0 0 231
0 0 230
0 0 226
0 0 228
0 0 226
0 0 220
0 0 218
0 0 218
0 0 224
0 0 215
0 0 212
0 0 212
0 0 201
0 0 214
0 0 196
0 0 214
0 0 207
0 0 191
0 0 179
0 0 191
0 0 179
0 0 161
0 0 184
0 0 188
0 0 188
144 157 221
210 229 255
210 229 255
210 229 255
210 229 255
210 229 255
210 229 255
210 229 255
210 229 255
210 229 255
210 229 255
210 229 255
210 229 255
210 229 255
210 229 255
178 155 173
137 0 0
140 0 0
157 0 0
145 0 0
131 0 0
158 0 0
160 0 0
156 0 0
172 0 0
155 0 0
179 0 0
177 0 0
177 0 0
173 0 0
163 0 0
174 0 0
183 0 0
185 0 0
196 0 0
179 0 0
177 0 0
191 0 0
185 0 0
195 0 0
181 0 0
185 0 0
186 0 0
192 0 0
192 0 0
186 0 0
194 0 0
206 0 0
191 0 0
180 0 0
201 0 0
193 0 0
206 0 0
196 0 0
197 0 0
198 0 0
207 0 0
206 0 0
206 0 0
197 0 0
196 0 0
201 0 0
206 0 0
200 0 0
203 0 0
200 0 0
198 0 0
202 0 0
202 0 0
204 0 0
207 0 0
204 0 0
206 0 0
204 0 0
203 0 0
207 0 0
201 0 0
208 0 0
200 0 0
207 0 0
203 0 0
212 0 0
208 0 0
207 0 0
208 0 0
206 0 0
204 0 0
207 0 0
210 0 0
211 0 0
214 0 0
209 0 0
216 0 0
215 0 0
212 0 0
210 0 0
210 0 0
210 0 0
214 0 0
214 0 0
202 0 0
209 0 0
208 0 0
211 0 0
209 0 0
210 0 0
216 0 0
214 0 0
215 0 0
208 0 0
214 0 0
204 0 0
213 0 0
213 0 0
214 0 0
206 0 0
215 0 0
215 0 0
214 0 0
213 0 0
212 0 0
210 0 0
214 0 0
214 0 0
207 0 0
213 0 0
213 0 0
213 0 0
219 0 0
212 0 0
213 0 0
213 0 0
211 0 0
217 0 0
208 0 0
212 0 0
214 0 0
211 0 0
217 0 0
216 0 0
216 0 0
218 0 0
213 0 0
213 0 0
214 0 0
217 0 0
215 0 0
215 0 0
218 0 0
213 0 0
213 0 0
214 0 0
219 0 0
216 0 0
215 0 0
216 0 0
212 0 0
208 0 0
215 0 0
217 0 0
215 0 0
215 0 0
216 0 0
216 0 0
216 0 0
213 0 0
216 0 0
216 0 0
218 0 0
215 0 0
218 0 0
214 0 0
214 0 0
216 0 0
217 0 0
216 0 0
215 0 0
218 0 0
219 0 0
218 0 0
214 0 0
217 0 0
219 0 0
217 0 0
215 0 0
213 0 0
217 0 0
217 0 0
219 0 0
219 0 0
218 0 0
218 0 0
217 0 0
217 0 0
213 0 0
218 0 0
215 0 0
214 0 0
222 0 0
216 0 0
215 0 0
221 0 0
218 0 0
217 0 0
217 0 0
218 0 0
217 0 0
216 0 0
0 0 255
0 0 254
0 0 255
0 0 253
0 0 255
0 0 255
0 0 255
0 0 255
0 0 255
0 0 254
0 0 253
0 0 253
0 0 254
0 0 254
0 0 253
0 0 253
0 0 255
0 0 255
0 0 254
0 0 255
0 0 254
0 0 255
0 0 255
0 0 255
0 0 253
0 0 255
0 0 255
0 0 255
0 0 255
0 0 253
0 0 254
0 0 255
0 0 255
0 0 254
0 0 252
0 0 250
0 0 254
0 0 255
0 0 254
0 0 255
0 0 255
0 0 254
0 0 254
0 0 254
0 0 255
0 0 255
0 0 255
0 0 255
0 0 254
0 0 253
0 0 253
0 0 255
0 0 252
0 0 252
0 0 250
0 0 252
0 0 250
0 0 250
0 0 253
0 0 249
0 0 253
0 0 254
0 0 252
0 0 253
0 0 252
0 0 254
0 0 254
0 0 253
0 0 253
0 0 254
0 0 255
0 0 248
0 0 253
0 0 252
0 0 249
0 0 250
0 0 252
0 0 250
0 0 250
0 0 253
0 0 248
0 0 252
0 0 253
0 0 252
0 0 254
0 0 250
0 0 242
0 0 252
0 0 250
0 0 249
0 0 249
0 0 248
0 0 249
0 0 253
0 0 254
0 0 252
0 0 252
0 0 253
0 0 248
0 0 252
0 0 252
0 0 249
0 0 252
0 0 245
0 0 252
0 0 253
0 0 245
0 0 244
0 0 246
0 0 252
0 0 250
0 0 245
0 0 248
0 0 246
0 0 248
0 0 252
0 0 244
0 0 248
0 0 245
0 0 238
0 0 248
0 0 250
0 0 249
0 0 249
0 0 242
0 0 248
0 0 241
0 0 244
0 0 237
0 0 246
0 0 241
0 0 248
0 0 250
0 0 245
0 0 240
0 0 244
0 0 248
0 0 249
0 0 244
0 0 237
0 0 242
0 0 245
0 0 237
0 0 238
0 0 234
0 0 245
0 0 245
0 0 241
0 0 240
0 0 234
0 0 245
0 0 238
0 0 246
0 0 240
0 0 233
0 0 220
0 0 236
0 0 230
0 0 221
0 0 236
0 0 234
0 0 231
0 0 228
0 0 231
0 0 234
0 0 230
0 0 231
0 0 217
0 0 212
0 0 221
0 0 221
0 0 223
0 0 218
0 0 220
0 0 207
0 0 228
0 0 215
0 0 217
0 0 215
0 0 198
0 0 212
0 0 203
0 0 204
0 0 196
0 0 209
0 0 188
0 0 184
0 0 165
0 0 191
0 0 184
0 0 191
0 0 186
42 46 186
204 223 252
211 230 255
211 230 255
211 230 255
211 230 255
211 230 255
211 230 255
211 230 255
211 230 255
211 230 255
211 230 255
211 230 255
211 230 255
207 223 248
138 51 57
140 0 0
150 0 0
133 0 0
149 0 0
153 0 0
158 0 0
170 0 0
171 0 0
162 0 0
158 0 0
164 0 0
179 0 0
166 0 0
176 0 0
166 0 0
182 0 0
182 0 0
189 0 0
186 0 0
189 0 0
179 0 0
192 0 0
193 0 0
175 0 0
181 0 0
188 0 0
188 0 0
197 0 0
191 0 0
201 0 0
190 0 0
193 0 0
195 0 0
202 0 0
198 0 0
195 0 0
200 0 0
199 0 0
196 0 0
190 0 0
203 0 0
197 0 0
199 0 0
204 0 0
204 0 0
205 0 0
206 0 0
201 0 0
205 0 0
195 0 0
206 0 0
205 0 0
208 0 0
211 0 0
206 0 0
196 0 0
197 0 0
202 0 0
203 0 0
212 0 0
205 0 0
206 0 0
200 0 0
206 0 0
203 0 0
206 0 0
213 0 0
207 0 0
202 0 0
206 0 0
205 0 0
209 0 0
208 0 0
217 0 0
209 0 0
208 0 0
205 0 0
206 0 0
204 0 0
208 0 0
216 0 0
210 0 0
213 0 0
212 0 0
207 0 0
214 0 0
213 0 0
214 0 0
210 0 0
206 0 0
213 0 0
211 0 0
215 0 0
210 0 0
211 0 0
210 0 0
212 0 0
209 0 0
209 0 0
216 0 0
213 0 0
213 0 0
212 0 0
209 0 0
210 0 0
215 0 0
212 0 0
218 0 0
210 0 0
214 0 0
211 0 0
208 0 0
214 0 0
214 0 0
214 0 0
218 0 0
211 0 0
216 0 0
217 0 0
212 0 0
211 0 0
216 0 0
218 0 0
213 0 0
215 0 0
215 0 0
217 0 0
214 0 0
217 0 0
215 0 0
217 0 0
219 0 0
216 0 0
211 0 0
216 0 0
219 0 0
215 0 0
215 0 0
219 0 0
216 0 0
215 0 0
217 0 0
216 0 0
212 0 0
216 0 0
214 0 0
220 0 0
215 0 0
213 0 0
214 0 0
216 0 0
220 0 0
215 0 0
217 0 0
217 0 0
218 0 0
217 0 0
215 0 0
221 0 0
218 0 0
220 0 0
216 0 0
214 0 0
218 0 0
214 0 0
222 0 0
219 0 0
214 0 0
217 0 0
219 0 0
217 0 0
213 0 0
217 0 0
214 0 0
217 0 0
219 0 0
215 0 0
218 0 0
215 0 0
218 0 0
219 0 0
218 0 0
218 0 0
217 0 0
216 0 0
220 0 0
217 0 0
223 0 0
219 0 0
218 0 0
212 0 0
217 0 0
0 0 255
0 0 254
0 0 255
0 0 254
0 0 254
0 0 254
0 0 254
0 0 253
0 0 254
0 0 254
0 0 255
0 0 255
0 0 253
0 0 255
0 0 255
0 0 255
0 0 255
0 0 254
0 0 255
0 0 252
0 0 255
0 0 254
0 0 255
0 0 255
0 0 254
0 0 255
0 0 255
0 0 255
0 0 253
0 0 254
0 0 254
0 0 255
0 0 253
0 0 255
0 0 255
0 0 253
0 0 255
0 0 255
0 0 254
0 0 255
0 0 254
0 0 253
0 0 255
0 0 253
0 0 253
0 0 255
0 0 254
0 0 253
0 0 255
0 0 252
0 0 254
0 0 253
0 0 254
0 0 252
0 0 254
0 0 252
0 0 254
0 0 252
0 0 254
0 0 253
0 0 253
0 0 253
0 0 253
0 0 253
0 0 253
0 0 253
0 0 252
0 0 252
0 0 250
0 0 250
0 0 253
0 0 253
0 0 253
0 0 249
0 0 249
0 0 252
0 0 249
0 0 253
0 0 250
0 0 253
0 0 253
0 0 250
0 0 252
0 0 255
0 0 250
0 0 253
0 0 250
0 0 253
0 0 245
0 0 250
0 0 252
0 0 253
0 0 253
0 0 250
0 0 250
0 0 249
0 0 254
0 0 252
0 0 253
0 0 249
0 0 254
0 0 246
0 0 250
0 0 248
0 0 248
0 0 249
0 0 244
0 0 253
0 0 248
0 0 253
0 0 244
0 0 250
0 0 249
0 0 246
0 0 250
0 0 252
0 0 248
0 0 252
0 0 250
0 0 249
0 0 245
0 0 249
0 0 242
0 0 246
0 0 248
0 0 245
0 0 245
0 0 248
0 0 245
0 0 236
0 0 249
0 0 237
0 0 248
0 0 245
0 0 240
0 0 246
0 0 253
0 0 246
0 0 245
0 0 241
0 0 246
0 0 238
0 0 245
0 0 234
0 0 241
0 0 236
0 0 240
0 0 236
0 0 237
0 0 240
0 0 236
0 0 237
0 0 236
0 0 240
0 0 236
0 0 236
0 0 240
0 0 226
0 0 236
0 0 238
0 0 228
0 0 234
0 0 221
0 0 228
0 0 236
0 0 234
0 0 224
0 0 228
0 0 217
0 0 221
0 0 236
0 0 218
0 0 226
0 0 214
0 0 209
0 0 212
0 0 214
0 0 199
0 0 204
0 0 211
0 0 188
0 0 206
0 0 194
0 0 201
0 0 220
0 0 186
0 0 194
0 0 196
0 0 181
0 0 193
0 0 169
0 0 171
0 0 165
158 172 218
211 230 255
211 230 255
211 230 255
211 230 255
211 230 255
211 230 255
211 230 255
211 230 255
211 230 255
211 230 255
211 230 255
211 230 255
176 167 186
131 0 0
131 0 0
153 0 0
144 0 0
151 0 0
151 0 0
153 0 0
158 0 0
155 0 0
166 0 0
169 0 0
164 0 0
164 0 0
168 0 0
175 0 0
186 0 0
167 0 0
178 0 0
176 0 0
185 0 0
188 0 0
173 0 0
192 0 0
190 0 0
177 0 0
192 0 0
185 0 0
200 0 0
193 0 0
194 0 0
197 0 0
188 0 0
195 0 0
193 0 0
193 0 0
195 0 0
197 0 0
203 0 0
189 0 0
201 0 0
200 0 0
201 0 0
192 0 0
204 0 0
193 0 0
204 0 0
203 0 0
200 0 0
195 0 0
203 0 0
203 0 0
201 0 0
203 0 0
199 0 0
200 0 0
202 0 0
203 0 0
207 0 0
206 0 0
201 0 0
207 0 0
216 0 0
207 0 0
206 0 0
204 0 0
212 0 0
201 0 0
205 0 0
204 0 0
206 0 0
209 0 0
212 0 0
204 0 0
210 0 0
214 0 0
207 0 0
207 0 0
201 0 0
216 0 0
207 0 0
209 0 0
204 0 0
210 0 0
209 0 0
214 0 0
210 0 0
220 0 0
210 0 0
212 0 0
214 0 0
212 0 0
210 0 0
214 0 0
213 0 0
206 0 0
208 0 0
212 0 0
214 0 0
213 0 0
212 0 0
212 0 0
214 0 0
211 0 0
216 0 0
212 0 0
217 0 0
216 0 0
209 0 0
214 0 0
214 0 0
215 0 0
212 0 0
215 0 0
211 0 0
211 0 0
212 0 0
210 0 0
215 0 0
214 0 0
214 0 0
208 0 0
212 0 0
213 0 0
211 0 0
213 0 0
219 0 0
212 0 0
217 0 0
212 0 0
216 0 0
214 0 0
212 0 0
214 0 0
218 0 0
218 0 0
218 0 0
214 0 0
213 0 0
216 0 0
215 0 0
212 0 0
216 0 0
217 0 0
217 0 0
215 0 0
212 0 0
215 0 0
216 0 0
218 0 0
216 0 0
219 0 0
217 0 0
216 0 0
221 0 0
218 0 0
219 0 0
216 0 0
217 0 0
218 0 0
217 0 0
221 0 0
221 0 0
219 0 0
218 0 0
217 0 0
218 0 0
219 0 0
217 0 0
213 0 0
219 0 0
216 0 0
217 0 0
222 0 0
216 0 0
215 0 0
219 0 0
219 0 0
216 0 0
216 0 0
220 0 0
215 0 0
219 0 0
218 0 0
217 0 0
216 0 0
215 0 0
218 0 0
214 0 0
223 0 0
215 0 0
215 0 0
216 0 0
216 0 0
0 0 255
0 0 255
0 0 254
0 0 253
0 0 255
0 0 255
0 0 255
0 0 255
0 0 253
0 0 255
0 0 254
0 0 255
0 0 254
0 0 255
0 0 254
0 0 255
0 0 253
0 0 254
0 0 253
0 0 254
0 0 254
0 0 255
0 0 254
0 0 255
0 0 250
0 0 255
0 0 255
0 0 254
0 0 254
0 0 255
0 0 255
0 0 255
0 0 254
0 0 255
0 0 254
0 0 255
0 0 254
0 0 254
0 0 253
0 0 255
0 0 253
0 0 253
0 0 253
0 0 255
0 0 253
0 0 255
0 0 252
0 0 253
0 0 255
0 0 254
0 0 254
0 0 255
0 0 254
0 0 255
0 0 254
0 0 254
0 0 253
0 0 255
0 0 254
0 0 254
0 0 253
0 0 250
0 0 249
0 0 253
0 0 254
0 0 253
0 0 254
0 0 254
0 0 255
0 0 250
0 0 252
0 0 253
0 0 252
0 0 253
0 0 254
0 0 254
0 0 255
0 0 252
0 0 252
0 0 254
0 0 250
0 0 253
0 0 249
0 0 252
0 0 250
0 0 253
0 0 250
0 0 250
0 0 253
0 0 248
0 0 248
0 0 252
0 0 254
0 0 252
0 0 246
0 0 250
0 0 250
0 0 246
0 0 245
0 0 252
0 0 254
0 0 249
0 0 249
0 0 249
0 0 252
0 0 249
0 0 250
0 0 249
0 0 250
0 0 248
0 0 241
0 0 245
0 0 240
0 0 250
0 0 249
0 0 248
0 0 246
0 0 246
0 0 244
0 0 244
0 0 244
0 0 252
0 0 245
0 0 249
0 0 245
0 0 246
0 0 248
0 0 246
0 0 246
0 0 248
0 0 244
0 0 252
0 0 245
0 0 244
0 0 245
0 0 244
0 0 248
0 0 246
0 0 245
0 0 240
0 0 244
0 0 246
0 0 241
0 0 246
0 0 236
0 0 240
0 0 241
0 0 240
0 0 241
0 0 241
0 0 231
0 0 236
0 0 231
0 0 237
0 0 236
0 0 227
0 0 240
0 0 240
0 0 227
0 0 241
0 0 237
0 0 226
0 0 238
0 0 221
0 0 224
0 0 240
0 0 228
0 0 231
0 0 223
0 0 221
0 0 218
0 0 226
0 0 204
0 0 220
0 0 207
0 0 227
0 0 211
0 0 212
0 0 223
0 0 223
0 0 199
0 0 215
0 0 209
0 0 206
0 0 211
0 0 186
0 0 189
0 0 186
0 0 173
0 0 175
0 0 184
0 0 169
0 0 149
84 92 171
210 229 255
211 230 255
211 230 255
211 230 255
211 230 255
211 230 255
211 230 255
211 230 255
211 230 255
211 230 255
211 230 255
211 230 255
162 103 114
139 0 0
137 0 0
146 0 0
147 0 0
149 0 0
145 0 0
142 0 0
162 0 0
162 0 0
159 0 0
158 0 0
175 0 0
177 0 0
169 0 0
174 0 0
184 0 0
177 0 0
183 0 0
184 0 0
177 0 0
188 0 0
187 0 0
182 0 0
192 0 0
186 0 0
185 0 0
196 0 0
187 0 0
191 0 0
194 0 0
187 0 0
197 0 0
200 0 0
198 0 0
193 0 0
195 0 0
207 0 0
200 0 0
195 0 0
193 0 0
199 0 0
198 0 0
192 0 0
202 0 0
200 0 0
199 0 0
206 0 0
205 0 0
200 0 0
196 0 0
204 0 0
198 0 0
192 0 0
203 0 0
204 0 0
201 0 0
210 0 0
203 0 0
213 0 0
212 0 0
208 0 0
213 0 0
211 0 0
206 0 0
210 0 0
208 0 0
207 0 0
209 0 0
208 0 0
205 0 0
210 0 0
206 0 0
209 0 0
203 0 0
209 0 0
213 0 0
209 0 0
210 0 0
209 0 0
208 0 0
213 0 0
211 0 0
204 0 0
212 0 0
209 0 0
209 0 0
210 0 0
213 0 0
212 0 0
211 0 0
213 0 0
211 0 0
209 0 0
212 0 0
215 0 0
218 0 0
213 0 0
214 0 0
204 0 0
214 0 0
214 0 0
211 0 0
214 0 0
210 0 0
211 0 0
214 0 0
212 0 0
210 0 0
216 0 0
216 0 0
216 0 0
210 0 0
215 0 0
216 0 0
213 0 0
213 0 0
211 0 0
209 0 0
215 0 0
216 0 0
213 0 0
216 0 0
218 0 0
216 0 0
210 0 0
214 0 0
211 0 0
218 0 0
211 0 0
218 0 0
210 0 0
219 0 0
212 0 0
219 0 0
217 0 0
215 0 0
211 0 0
216 0 0
215 0 0
216 0 0
217 0 0
217 0 0
216 0 0
216 0 0
217 0 0
216 0 0
218 0 0
218 0 0
216 0 0
219 0 0
220 0 0
219 0 0
219 0 0
218 0 0
217 0 0
216 0 0
214 0 0
219 0 0
215 0 0
221 0 0
216 0 0
218 0 0
218 0 0
217 0 0
217 0 0
216 0 0
216 0 0
219 0 0
220 0 0
219 0 0
219 0 0
217 0 0
218 0 0
214 0 0
218 0 0
216 0 0
215 0 0
219 0 0
216 0 0
219 0 0
218 0 0
219 0 0
217 0 0
219 0 0
217 0 0
218 0 0
218 0 0
216 0 0
218 0 0
221 0 0
217 0 0
217 0 0
215 0 0
0 0 255
0 0 255
0 0 255
0 0 255
0 0 255
0 0 255
0 0 255
0 0 254
0 0 255
0 0 255
0 0 255
0 0 255
0 0 254
0 0 253
0 0 255
0 0 255
0 0 254
0 0 254
0 0 253
0 0 254
0 0 255
0 0 253
0 0 255
0 0 254
0 0 255
0 0 254
0 0 255
0 0 255
0 0 254
0 0 254
0 0 252
0 0 255
0 0 255
0 0 254
0 0 254
0 0 254
0 0 253
0 0 255
0 0 255
0 0 254
0 0 255
0 0 254
0 0 255
0 0 254
0 0 255
0 0 255
0 0 255
0 0 252
0 0 253
0 0 253
0 0 255
0 0 250
0 0 255
0 0 253
0 0 254
0 0 254
0 0 253
0 0 253
0 0 252
0 0 248
0 0 253
0 0 254
0 0 252
0 0 253
0 0 250
0 0 253
0 0 253
0 0 252
0 0 250
0 0 253
0 0 253
0 0 253
0 0 250
0 0 254
0 0 249
0 0 249
0 0 249
0 0 254
0 0 250
0 0 245
0 0 253
0 0 249
0 0 253
0 0 249
0 0 246
0 0 249
0 0 254
0 0 249
0 0 254
0 0 250
0 0 249
0 0 253
0 0 249
0 0 253
0 0 254
0 0 252
0 0 250
0 0 253
0 0 250
0 0 250
0 0 250
0 0 248
0 0 249
0 0 252
0 0 250
0 0 252
0 0 245
0 0 252
0 0 252
0 0 250
0 0 250
0 0 244
0 0 248
0 0 248
0 0 245
0 0 248
0 0 250
0 0 244
0 0 250
0 0 246
0 0 253
0 0 246
0 0 245
0 0 244
0 0 250
0 0 245
0 0 250
0 0 246
0 0 252
0 0 244
0 0 245
0 0 245
0 0 242
0 0 246
0 0 245
0 0 237
0 0 245
0 0 238
0 0 236
0 0 240
0 0 240
0 0 238
0 0 234
0 0 244
0 0 241
0 0 245
0 0 236
0 0 245
0 0 242
0 0 234
0 0 234
0 0 234
0 0 237
0 0 230
0 0 233
0 0 228
0 0 236
0 0 231
0 0 231
0 0 245
0 0 227
0 0 233
0 0 233
0 0 228
0 0 220
0 0 228
0 0 215
0 0 221
0 0 228
0 0 223
0 0 234
0 0 217
0 0 218
0 0 221
0 0 215
0 0 217
0 0 220
0 0 207
0 0 217
0 0 223
0 0 207
0 0 191
0 0 209
0 0 201
0 0 199
0 0 209
0 0 196
0 0 186
0 0 182
0 0 171
0 0 179
0 0 179
0 0 153
0 0 171
187 203 237
211 230 255
211 230 255
211 230 255
211 230 255
211 230 255
211 230 255
211 230 255
211 230 255
211 230 255
211 230 255
192 197 218
126 0 0
142 0 0
145 0 0
135 0 0
153 0 0
146 0 0
155 0 0
159 0 0
161 0 0
162 0 0
161 0 0
173 0 0
171 0 0
171 0 0
165 0 0
184 0 0
174 0 0
166 0 0
183 0 0
183 0 0
183 0 0
179 0 0
193 0 0
199 0 0
194 0 0
182 0 0
183 0 0
186 0 0
193 0 0
196 0 0
199 0 0
200 0 0
189 0 0
184 0 0
191 0 0
197 0 0
194 0 0
195 0 0
203 0 0
204 0 0
202 0 0
201 0 0
210 0 0
192 0 0
197 0 0
202 0 0
201 0 0
199 0 0
205 0 0
203 0 0
207 0 0
197 0 0
199 0 0
206 0 0
207 0 0
205 0 0
198 0 0
202 0 0
202 0 0
205 0 0
204 0 0
209 0 0
207 0 0
205 0 0
202 0 0
207 0 0
205 0 0
205 0 0
208 0 0
210 0 0
204 0 0
212 0 0
214 0 0
211 0 0
212 0 0
205 0 0
208 0 0
213 0 0
217 0 0
211 0 0
206 0 0
210 0 0
207 0 0
211 0 0
203 0 0
204 0 0
208 0 0
213 0 0
206 0 0
214 0 0
213 0 0
210 0 0
215 0 0
209 0 0
217 0 0
214 0 0
214 0 0
209 0 0
212 0 0
212 0 0
213 0 0
214 0 0
211 0 0
215 0 0
210 0 0
211 0 0
214 0 0
210 0 0
209 0 0
212 0 0
218 0 0
214 0 0
212 0 0
213 0 0
214 0 0
205 0 0
213 0 0
216 0 0
214 0 0
215 0 0
217 0 0
215 0 0
215 0 0
222 0 0
216 0 0
212 0 0
217 0 0
212 0 0
217 0 0
213 0 0
218 0 0
217 0 0
217 0 0
216 0 0
218 0 0
215 0 0
215 0 0
213 0 0
217 0 0
213 0 0
217 0 0
220 0 0
214 0 0
220 0 0
214 0 0
217 0 0
218 0 0
216 0 0
218 0 0
220 0 0
215 0 0
217 0 0
221 0 0
220 0 0
221 0 0
219 0 0
216 0 0
217 0 0
218 0 0
218 0 0
217 0 0
221 0 0
219 0 0
215 0 0
217 0 0
217 0 0
217 0 0
219 0 0
215 0 0
215 0 0
214 0 0
217 0 0
215 0 0
221 0 0
216 0 0
217 0 0
216 0 0
216 0 0
216 0 0
217 0 0
217 0 0
219 0 0
218 0 0
218 0 0
217 0 0
218 0 0
218 0 0
217 0 0
216 0 0
218 0 0
219 0 0
216 0 0
219 0 0
214 0 0
0 0 254
0 0 255
0 0 255
0 0 255
0 0 254
0 0 255
0 0 255
0 0 255
0 0 255
0 0 254
0 0 253
0 0 255
0 0 255
0 0 254
0 0 254
0 0 255
0 0 255
0 0 255
0 0 255
0 0 254
0 0 255
0 0 250
0 0 255
0 0 255
0 0 252
0 0 253
0 0 254
0 0 252
0 0 255
0 0 253
0 0 255
0 0 255
0 0 255
0 0 255
0 0 255
0 0 254
0 0 255
0 0 255
0 0 252
0 0 253
0 0 254
0 0 252
0 0 255
0 0 255
0 0 254
0 0 252
0 0 252
0 0 255
0 0 254
0 0 252
0 0 254
0 0 254
0 0 254
0 0 253
0 0 255
0 0 253
0 0 254
0 0 254
0 0 254
0 0 249
0 0 253
0 0 249
0 0 253
0 0 253
0 0 254
0 0 252
0 0 252
0 0 252
0 0 252
0 0 252
0 0 253
0 0 252
0 0 253
0 0 248
0 0 253
0 0 253
0 0 253
0 0 253
0 0 255
0 0 254
0 0 253
0 0 252
0 0 249
0 0 250
0 0 248
0 0 249
0 0 252
0 0 250
0 0 249
0 0 254
0 0 249
0 0 252
0 0 249
0 0 249
0 0 250
0 0 248
0 0 249
0 0 250
0 0 252
0 0 252
0 0 252
0 0 245
0 0 248
0 0 250
0 0 248
0 0 245
0 0 253
0 0 252
0 0 254
0 0 248
0 0 250
0 0 242
0 0 250
0 0 248
0 0 249
0 0 248
0 0 248
0 0 244
0 0 246
0 0 250
0 0 248
0 0 245
0 0 242
0 0 250
0 0 242
0 0 245
0 0 246
0 0 242
0 0 244
0 0 249
0 0 241
0 0 238
0 0 241
0 0 248
0 0 252
0 0 238
0 0 244
0 0 238
0 0 240
0 0 240
0 0 238
0 0 241
0 0 245
0 0 241
0 0 228
0 0 236
0 0 241
0 0 242
0 0 238
0 0 231
0 0 244
0 0 234
0 0 231
0 0 240
0 0 236
0 0 238
0 0 233
0 0 236
0 0 228
0 0 223
0 0 230
0 0 226
0 0 231
0 0 223
0 0 223
0 0 230
0 0 215
0 0 227
0 0 223
0 0 226
0 0 224
0 0 217
0 0 224
0 0 224
0 0 215
0 0 220
0 0 226
0 0 206
0 0 198
0 0 204
0 0 207
0 0 223
0 0 191
0 0 184
0 0 199
0 0 173
0 0 189
0 0 184
0 0 184
0 0 184
0 0 182
0 0 157
0 0 173
0 0 171
137 149 220
212 230 255
212 230 255
212 230 255
212 230 255
212 230 255
212 230 255
212 230 255
212 230 255
212 230 255
212 230 255
156 130 144
118 0 0
135 0 0
143 0 0
131 0 0
142 0 0
159 0 0
154 0 0
163 0 0
165 0 0
173 0 0
164 0 0
162 0 0
166 0 0
174 0 0
173 0 0
174 0 0
181 0 0
172 0 0
174 0 0
181 0 0
186 0 0
187 0 0
186 0 0
193 0 0
183 0 0
193 0 0
181 0 0
198 0 0
198 0 0
181 0 0
190 0 0
202 0 0
196 0 0
193 0 0
193 0 0
201 0 0
193 0 0
191 0 0
202 0 0
207 0 0
193 0 0
200 0 0
195 0 0
205 0 0
204 0 0
201 0 0
195 0 0
204 0 0
201 0 0
202 0 0
210 0 0
202 0 0
209 0 0
208 0 0
205 0 0
207 0 0
201 0 0
201 0 0
202 0 0
203 0 0
207 0 0
207 0 0
207 0 0
207 0 0
210 0 0
208 0 0
207 0 0
203 0 0
208 0 0
207 0 0
209 0 0
210 0 0
209 0 0
211 0 0
214 0 0
204 0 0
209 0 0
204 0 0
204 0 0
211 0 0
210 0 0
218 0 0
212 0 0
216 0 0
212 0 0
215 0 0
209 0 0
212 0 0
208 0 0
208 0 0
208 0 0
215 0 0
210 0 0
212 0 0
210 0 0
212 0 0
213 0 0
211 0 0
219 0 0
213 0 0
217 0 0
212 0 0
214 0 0
215 0 0
212 0 0
216 0 0
202 0 0
212 0 0
212 0 0
215 0 0
215 0 0
213 0 0
213 0 0
212 0 0
216 0 0
216 0 0
218 0 0
217 0 0
217 0 0
215 0 0
219 0 0
214 0 0
217 0 0
217 0 0
214 0 0
212 0 0
213 0 0
215 0 0
214 0 0
213 0 0
215 0 0
219 0 0
213 0 0
216 0 0
217 0 0
220 0 0
218 0 0
217 0 0
215 0 0
215 0 0
217 0 0
216 0 0
219 0 0
214 0 0
215 0 0
220 0 0
219 0 0
216 0 0
220 0 0
217 0 0
219 0 0
214 0 0
212 0 0
217 0 0
215 0 0
212 0 0
218 0 0
211 0 0
217 0 0
215 0 0
215 0 0
217 0 0
212 0 0
218 0 0
216 0 0
217 0 0
213 0 0
222 0 0
215 0 0
219 0 0
220 0 0
221 0 0
220 0 0
219 0 0
216 0 0
217 0 0
220 0 0
216 0 0
215 0 0
214 0 0
216 0 0
220 0 0
215 0 0
220 0 0
220 0 0
213 0 0
222 0 0
219 0 0
218 0 0
219 0 0
216 0 0
212 0 0
221 0 0
216 0 0
0 0 255
0 0 255
0 0 255
0 0 255
0 0 254
0 0 254
0 0 254
0 0 255
0 0 255
0 0 255
0 0 255
0 0 253
0 0 255
0 0 254
0 0 255
0 0 255
0 0 255
0 0 254
0 0 255
0 0 255
0 0 255
0 0 253
0 0 254
0 0 253
0 0 254
0 0 252
0 0 252
0 0 254
0 0 255
0 0 255
0 0 255
0 0 255
0 0 253
0 0 255
0 0 252
0 0 253
0 0 255
0 0 254
0 0 254
0 0 253
0 0 254
0 0 253
0 0 254
0 0 253
0 0 255
0 0 254
0 0 254
0 0 254
0 0 250
0 0 254
0 0 255
0 0 252
0 0 254
0 0 250
0 0 254
0 0 252
0 0 254
0 0 254
0 0 253
0 0 255
0 0 254
0 0 253
0 0 253
0 0 254
0 0 252
0 0 254
0 0 249
0 0 252
0 0 255
0 0 252
0 0 250
0 0 254
0 0 254
0 0 248
0 0 248
0 0 249
0 0 254
0 0 253
0 0 252
0 0 255
0 0 254
0 0 248
0 0 250
0 0 250
0 0 253
0 0 250
0 0 253
0 0 253
0 0 246
0 0 253
0 0 250
0 0 249
0 0 253
0 0 253
0 0 249
0 0 250
0 0 249
0 0 252
0 0 248
0 0 252
0 0 252
0 0 249
0 0 252
0 0 249
0 0 253
0 0 249
0 0 246
0 0 249
0 0 249
0 0 244
0 0 248
0 0 249
0 0 245
0 0 248
0 0 244
0 0 245
0 0 249
0 0 238
0 0 248
0 0 244
0 0 249
0 0 246
0 0 245
0 0 244
0 0 245
0 0 249
0 0 244
0 0 240
0 0 248
0 0 238
0 0 237
0 0 242
0 0 249
0 0 242
0 0 245
0 0 242
0 0 241
0 0 242
0 0 238
0 0 241
0 0 238
0 0 238
0 0 246
0 0 230
0 0 236
0 0 245
0 0 237
0 0 233
0 0 245
0 0 236
0 0 242
0 0 228
0 0 234
0 0 231
0 0 240
0 0 234
0 0 242
0 0 236
0 0 230
0 0 230
0 0 227
0 0 231
0 0 240
0 0 228
0 0 231
0 0 226
0 0 228
0 0 228
0 0 231
0 0 217
0 0 227
0 0 220
0 0 221
0 0 217
0 0 224
0 0 204
0 0 211
0 0 201
0 0 207
0 0 199
0 0 201
0 0 209
0 0 199
0 0 198
0 0 206
0 0 198
0 0 194
0 0 188
0 0 189
0 0 181
0 0 175
0 0 167
0 0 157
0 0 159
0 0 149
207 225 254
212 230 255
212 230 255
212 230 255
212 230 255
212 230 255
212 230 255
212 230 255
212 230 255
210 226 250
132 69 76
138 0 0
127 0 0
134 0 0
137 0 0
151 0 0
159 0 0
162 0 0
150 0 0
157 0 0
161 0 0
171 0 0
166 0 0
172 0 0
182 0 0
173 0 0
167 0 0
177 0 0
181 0 0
187 0 0
174 0 0
192 0 0
188 0 0
188 0 0
186 0 0
194 0 0
191 0 0
192 0 0
195 0 0
188 0 0
193 0 0
200 0 0
196 0 0
193 0 0
204 0 0
190 0 0
193 0 0
198 0 0
194 0 0
198 0 0
195 0 0
198 0 0
197 0 0
199 0 0
206 0 0
197 0 0
204 0 0
205 0 0
199 0 0
195 0 0
200 0 0
199 0 0
206 0 0
204 0 0
205 0 0
211 0 0
202 0 0
205 0 0
217 0 0
201 0 0
206 0 0
200 0 0
209 0 0
207 0 0
204 0 0
207 0 0
206 0 0
212 0 0
213 0 0
201 0 0
209 0 0
209 0 0
205 0 0
209 0 0
213 0 0
213 0 0
204 0 0
209 0 0
211 0 0
210 0 0
212 0 0
211 0 0
206 0 0
207 0 0
209 0 0
214 0 0
211 0 0
212 0 0
214 0 0
215 0 0
215 0 0
212 0 0
211 0 0
213 0 0
218 0 0
213 0 0
212 0 0
214 0 0
212 0 0
217 0 0
211 0 0
207 0 0
214 0 0
213 0 0
218 0 0
212 0 0
216 0 0
211 0 0
212 0 0
216 0 0
216 0 0
215 0 0
213 0 0
214 0 0
212 0 0
213 0 0
214 0 0
217 0 0
213 0 0
218 0 0
216 0 0
217 0 0
213 0 0
218 0 0
210 0 0
219 0 0
216 0 0
215 0 0
211 0 0
214 0 0
214 0 0
218 0 0
216 0 0
215 0 0
213 0 0
218 0 0
216 0 0
216 0 0
214 0 0
216 0 0
218 0 0
219 0 0
217 0 0
218 0 0
215 0 0
213 0 0
222 0 0
217 0 0
216 0 0
215 0 0
214 0 0
213 0 0
218 0 0
215 0 0
221 0 0
218 0 0
214 0 0
219 0 0
218 0 0
216 0 0
214 0 0
215 0 0
220 0 0
214 0 0
218 0 0
215 0 0
218 0 0
213 0 0
213 0 0
215 0 0
218 0 0
222 0 0
219 0 0
215 0 0
216 0 0
218 0 0
217 0 0
220 0 0
218 0 0
214 0 0
214 0 0
219 0 0
217 0 0
219 0 0
219 0 0
217 0 0
218 0 0
216 0 0
215 0 0
218 0 0
217 0 0
214 0 0
219 0 0
215 0 0
217 0 0
0 0 254
0 0 255
0 0 255
0 0 255
0 0 255
0 0 255
0 0 255
0 0 255
0 0 253
0 0 255
0 0 254
0 0 255
0 0 255
0 0 254
0 0 255
0 0 255
0 0 255
0 0 255
0 0 254
0 0 255
0 0 254
0 0 255
0 0 255
0 0 254
0 0 253
0 0 255
0 0 254
0 0 254
0 0 253
0 0 254
0 0 253
0 0 253
0 0 253
0 0 253
0 0 255
0 0 252
0 0 253
0 0 255
0 0 254
0 0 254
0 0 253
0 0 254
0 0 252
0 0 250
0 0 252
0 0 254
0 0 255
0 0 252
0 0 253
0 0 255
0 0 253
0 0 250
0 0 253
0 0 252
0 0 253
0 0 250
0 0 253
0 0 253
0 0 253
0 0 253
0 0 252
0 0 250
0 0 254
0 0 252
0 0 250
0 0 253
0 0 254
0 0 253
0 0 255
0 0 253
0 0 253
0 0 253
0 0 253
0 0 253
0 0 250
0 0 253
0 0 254
0 0 252
0 0 246
0 0 252
0 0 253
0 0 248
0 0 250
0 0 250
0 0 250
0 0 249
0 0 241
0 0 254
0 0 254
0 0 250
0 0 253
0 0 250
0 0 250
0 0 250
0 0 253
0 0 249
0 0 249
0 0 248
0 0 252
0 0 249
0 0 252
0 0 245
0 0 250
0 0 249
0 0 248
0 0 246
0 0 252
0 0 248
0 0 248
0 0 248
0 0 248
0 0 244
0 0 245
0 0 248
0 0 245
0 0 246
0 0 250
0 0 246
0 0 241
0 0 250
0 0 240
0 0 233
0 0 245
0 0 245
0 0 252
0 0 244
0 0 245
0 0 246
0 0 245
0 0 242
0 0 241
0 0 241
0 0 238
0 0 245
0 0 242
0 0 242
0 0 246
0 0 242
0 0 234
0 0 241
0 0 233
0 0 237
0 0 230
0 0 240
0 0 245
0 0 240
0 0 242
0 0 241
0 0 238
0 0 245
0 0 238
0 0 236
0 0 242
0 0 233
0 0 228
0 0 234
0 0 220
0 0 231
0 0 230
0 0 241
0 0 233
0 0 228
0 0 223
0 0 228
0 0 230
0 0 233
0 0 226
0 0 228
0 0 226
0 0 230
0 0 214
0 0 215
0 0 227
0 0 227
0 0 211
0 0 207
0 0 220
0 0 199
0 0 226
0 0 215
0 0 201
0 0 209
0 0 182
0 0 188
0 0 203
0 0 199
0 0 186
0 0 189
0 0 186
0 0 191
0 0 175
0 0 175
0 0 165
0 0 161
0 0 142
171 186 226
212 231 255
212 231 255
212 231 255
212 231 255
212 231 255
212 231 255
212 231 255
212 231 255
185 189 209
134 0 0
126 0 0
132 0 0
149 0 0
149 0 0
155 0 0
142 0 0
140 0 0
160 0 0
155 0 0
173 0 0
171 0 0
175 0 0
175 0 0
178 0 0
176 0 0
180 0 0
178 0 0
176 0 0
175 0 0
177 0 0
187 0 0
187 0 0
188 0 0
192 0 0
191 0 0
194 0 0
190 0 0
195 0 0
190 0 0
195 0 0
187 0 0
191 0 0
194 0 0
199 0 0
196 0 0
191 0 0
196 0 0
199 0 0
195 0 0
197 0 0
194 0 0
192 0 0
201 0 0
195 0 0
203 0 0
208 0 0
211 0 0
200 0 0
195 0 0
206 0 0
204 0 0
203 0 0
200 0 0
201 0 0
213 0 0
203 0 0
203 0 0
205 0 0
208 0 0
205 0 0
207 0 0
208 0 0
206 0 0
208 0 0
204 0 0
210 0 0
207 0 0
203 0 0
211 0 0
204 0 0
200 0 0
210 0 0
207 0 0
209 0 0
208 0 0
214 0 0
207 0 0
211 0 0
214 0 0
213 0 0
209 0 0
210 0 0
206 0 0
210 0 0
206 0 0
207 0 0
215 0 0
213 0 0
210 0 0
214 0 0
215 0 0
210 0 0
208 0 0
212 0 0
211 0 0
214 0 0
213 0 0
217 0 0
213 0 0
211 0 0
216 0 0
213 0 0
216 0 0
215 0 0
214 0 0
217 0 0
213 0 0
213 0 0
212 0 0
216 0 0
217 0 0
216 0 0
212 0 0
213 0 0
214 0 0
217 0 0
216 0 0
211 0 0
215 0 0
211 0 0
210 0 0
211 0 0
221 0 0
218 0 0
219 0 0
215 0 0
211 0 0
217 0 0
212 0 0
214 0 0
216 0 0
209 0 0
216 0 0
217 0 0
219 0 0
219 0 0
213 0 0
212 0 0
215 0 0
214 0 0
217 0 0
215 0 0
216 0 0
217 0 0
215 0 0
215 0 0
215 0 0
216 0 0
218 0 0
217 0 0
221 0 0
220 0 0
215 0 0
218 0 0
219 0 0
218 0 0
212 0 0
214 0 0
215 0 0
216 0 0
219 0 0
217 0 0
215 0 0
217 0 0
220 0 0
218 0 0
214 0 0
219 0 0
216 0 0
215 0 0
216 0 0
217 0 0
221 0 0
219 0 0
217 0 0
222 0 0
217 0 0
219 0 0
218 0 0
218 0 0
216 0 0
216 0 0
218 0 0
218 0 0
218 0 0
216 0 0
217 0 0
216 0 0
217 0 0
215 0 0
217 0 0
223 0 0
215 0 0
217 0 0
0 0 255
0 0 255
0 0 255
0 0 255
0 0 252
0 0 254
0 0 255
0 0 253
0 0 255
0 0 255
0 0 255
0 0 254
0 0 254
0 0 255
0 0 255
0 0 255
0 0 254
0 0 255
0 0 255
0 0 254
0 0 254
0 0 254
0 0 255
0 0 255
0 0 254
0 0 255
0 0 254
0 0 250
0 0 255
0 0 254
0 0 254
0 0 253
0 0 254
0 0 254
0 0 252
0 0 253
0 0 255
0 0 255
0 0 255
0 0 253
0 0 255
0 0 253
0 0 255
0 0 254
0 0 255
0 0 250
0 0 254
0 0 255
0 0 252
0 0 254
0 0 250
0 0 252
0 0 253
0 0 253
0 0 254
0 0 252
0 0 253
0 0 253
0 0 249
0 0 254
0 0 255
0 0 252
0 0 252
0 0 255
0 0 253
0 0 252
0 0 253
0 0 252
0 0 249
0 0 253
0 0 253
0 0 253
0 0 250
0 0 250
0 0 254
0 0 255
0 0 253
0 0 254
0 0 255
0 0 253
0 0 250
0 0 254
0 0 250
0 0 254
0 0 252
0 0 249
0 0 249
0 0 255
0 0 254
0 0 252
0 0 249
0 0 252
0 0 252
0 0 248
0 0 253
0 0 252
0 0 248
0 0 249
0 0 254
0 0 249
0 0 252
0 0 253
0 0 249
0 0 249
0 0 248
0 0 249
0 0 250
0 0 246
0 0 242
0 0 246
0 0 252
0 0 248
0 0 252
0 0 244
0 0 249
0 0 252
0 0 250
0 0 245
0 0 240
0 0 252
0 0 248
0 0 246
0 0 244
0 0 242
0 0 245
0 0 246
0 0 245
0 0 244
0 0 242
0 0 246
0 0 245
0 0 245
0 0 238
0 0 245
0 0 241
0 0 245
0 0 237
0 0 242
0 0 237
0 0 248
0 0 240
0 0 241
0 0 236
0 0 236
0 0 241
0 0 245
0 0 234
0 0 234
0 0 234
0 0 244
0 0 238
0 0 230
0 0 238
0 0 236
0 0 231
0 0 236
0 0 231
0 0 236
0 0 223
0 0 234
0 0 237
0 0 237
0 0 226
0 0 224
0 0 238
0 0 227
0 0 227
0 0 230
0 0 230
0 0 221
0 0 224
0 0 214
0 0 226
0 0 226
0 0 221
0 0 212
0 0 223
0 0 209
0 0 211
0 0 204
0 0 211
0 0 203
0 0 198
0 0 191
0 0 203
0 0 188
0 0 191
0 0 188
0 0 184
0 0 177
0 0 167
0 0 175
0 0 169
0 0 165
0 0 155
114 124 177
213 231 255
213 231 255
213 231 255
213 231 255
213 231 255
213 231 255
213 231 255
213 231 255
145 117 130
103 0 0
123 0 0
135 0 0
132 0 0
151 0 0
158 0 0
155 0 0
149 0 0
158 0 0
155 0 0
164 0 0
166 0 0
177 0 0
176 0 0
166 0 0
170 0 0
187 0 0
168 0 0
164 0 0
179 0 0
180 0 0
181 0 0
177 0 0
192 0 0
189 0 0
190 0 0
190 0 0
197 0 0
195 0 0
180 0 0
185 0 0
197 0 0
190 0 0
198 0 0
195 0 0
202 0 0
195 0 0
197 0 0
186 0 0
191 0 0
204 0 0
190 0 0
201 0 0
193 0 0
203 0 0
205 0 0
200 0 0
202 0 0
198 0 0
204 0 0
206 0 0
202 0 0
202 0 0
201 0 0
208 0 0
210 0 0
206 0 0
208 0 0
203 0 0
208 0 0
210 0 0
210 0 0
210 0 0
201 0 0
207 0 0
209 0 0
206 0 0
201 0 0
211 0 0
208 0 0
207 0 0
210 0 0
209 0 0
214 0 0
205 0 0
207 0 0
219 0 0
208 0 0
215 0 0
211 0 0
210 0 0
207 0 0
215 0 0
199 0 0
211 0 0
205 0 0
213 0 0
208 0 0
210 0 0
217 0 0
213 0 0
209 0 0
214 0 0
211 0 0
211 0 0
212 0 0
215 0 0
210 0 0
218 0 0
218 0 0
210 0 0
210 0 0
208 0 0
216 0 0
215 0 0
212 0 0
209 0 0
209 0 0
216 0 0
217 0 0
211 0 0
211 0 0
215 0 0
217 0 0
213 0 0
217 0 0
213 0 0
218 0 0
216 0 0
217 0 0
210 0 0
218 0 0
213 0 0
213 0 0
216 0 0
215 0 0
212 0 0
215 0 0
218 0 0
217 0 0
212 0 0
214 0 0
218 0 0
218 0 0
216 0 0
211 0 0
216 0 0
216 0 0
220 0 0
213 0 0
219 0 0
221 0 0
218 0 0
212 0 0
217 0 0
215 0 0
215 0 0
217 0 0
214 0 0
217 0 0
217 0 0
219 0 0
216 0 0
218 0 0
213 0 0
217 0 0
215 0 0
216 0 0
214 0 0
213 0 0
221 0 0
215 0 0
215 0 0
215 0 0
215 0 0
220 0 0
214 0 0
216 0 0
219 0 0
219 0 0
214 0 0
213 0 0
219 0 0
216 0 0
216 0 0
214 0 0
219 0 0
218 0 0
217 0 0
217 0 0
220 0 0
218 0 0
214 0 0
221 0 0
217 0 0
220 0 0
219 0 0
219 0 0
219 0 0
219 0 0
217 0 0
216 0 0
212 0 0
219 0 0
218 0 0
0 0 255
0 0 255
0 0 255
0 0 255
0 0 255
0 0 255
0 0 255
0 0 255
0 0 255
0 0 255
0 0 254
0 0 255
0 0 255
0 0 255
0 0 255
0 0 255
0 0 254
0 0 255
0 0 254
0 0 254
0 0 254
0 0 255
0 0 255
0 0 255
0 0 255
0 0 254
0 0 254
0 0 255
0 0 253
0 0 253
0 0 255
0 0 254
0 0 252
0 0 254
0 0 253
0 0 253
0 0 255
0 0 254
0 0 255
0 0 254
0 0 254
0 0 252
0 0 253
0 0 253
0 0 253
0 0 252
0 0 253
0 0 255
0 0 250
0 0 253
0 0 255
0 0 253
0 0 254
0 0 255
0 0 253
0 0 254
0 0 254
0 0 250
0 0 253
0 0 253
0 0 252
0 0 252
0 0 253
0 0 252
0 0 254
0 0 252
0 0 252
0 0 255
0 0 253
0 0 253
0 0 253
0 0 252
0 0 253
0 0 252
0 0 254
0 0 249
0 0 248
0 0 250
0 0 253
0 0 252
0 0 249
0 0 254
0 0 252
0 0 252
0 0 252
0 0 245
0 0 255
0 0 252
0 0 252
0 0 253
0 0 252
0 0 252
0 0 252
0 0 249
0 0 249
0 0 254
0 0 252
0 0 252
0 0 250
0 0 250
0 0 250
0 0 246
0 0 252
0 0 253
0 0 248
0 0 248
0 0 244
0 0 249
0 0 250
0 0 246
0 0 248
0 0 248
0 0 249
0 0 246
0 0 238
0 0 248
0 0 241
0 0 244
0 0 244
0 0 244
0 0 252
0 0 245
0 0 248
0 0 249
0 0 242
0 0 241
0 0 245
0 0 240
0 0 241
0 0 246
0 0 246
0 0 244
0 0 237
0 0 242
0 0 242
0 0 242
0 0 244
0 0 242
0 0 238
0 0 246
0 0 244
0 0 238
0 0 242
0 0 228
0 0 240
0 0 245
0 0 240
0 0 234
0 0 242
0 0 230
0 0 240
0 0 248
0 0 242
0 0 227
0 0 236
0 0 230
0 0 233
0 0 245
0 0 233
0 0 230
0 0 227
0 0 228
0 0 230
0 0 230
0 0 238
0 0 233
0 0 227
0 0 224
0 0 218
0 0 227
0 0 206
0 0 228
0 0 227
0 0 217
0 0 230
0 0 218
0 0 218
0 0 207
0 0 199
0 0 212
0 0 221
0 0 209
0 0 212
0 0 212
0 0 199
0 0 188
0 0 194
0 0 186
0 0 188
0 0 193
0 0 186
0 0 167
0 0 161
0 0 159
0 0 157
47 51 153
210 227 253
213 231 255
213 231 255
213 231 255
213 231 255
213 231 255
213 231 255
212 230 254
120 51 57
124 0 0
112 0 0
138 0 0
126 0 0
149 0 0
148 0 0
137 0 0
177 0 0
164 0 0
165 0 0
158 0 0
169 0 0
172 0 0
169 0 0
170 0 0
174 0 0
164 0 0
185 0 0
181 0 0
179 0 0
186 0 0
180 0 0
180 0 0
180 0 0
181 0 0
192 0 0
180 0 0
188 0 0
177 0 0
200 0 0
191 0 0
185 0 0
197 0 0
203 0 0
196 0 0
199 0 0
195 0 0
195 0 0
205 0 0
196 0 0
197 0 0
205 0 0
201 0 0
204 0 0
205 0 0
203 0 0
203 0 0
197 0 0
197 0 0
200 0 0
199 0 0
204 0 0
206 0 0
202 0 0
205 0 0
197 0 0
205 0 0
202 0 0
207 0 0
206 0 0
208 0 0
205 0 0
209 0 0
211 0 0
211 0 0
209 0 0
210 0 0
209 0 0
208 0 0
209 0 0
213 0 0
213 0 0
210 0 0
208 0 0
209 0 0
212 0 0
216 0 0
210 0 0
211 0 0
211 0 0
210 0 0
208 0 0
208 0 0
213 0 0
211 0 0
211 0 0
211 0 0
203 0 0
215 0 0
212 0 0
212 0 0
213 0 0
206 0 0
214 0 0
215 0 0
208 0 0
214 0 0
213 0 0
209 0 0
213 0 0
215 0 0
212 0 0
215 0 0
210 0 0
219 0 0
214 0 0
216 0 0
220 0 0
216 0 0
215 0 0
211 0 0
212 0 0
214 0 0
217 0 0
216 0 0
217 0 0
216 0 0
215 0 0
216 0 0
211 0 0
216 0 0
216 0 0
214 0 0
215 0 0
213 0 0
214 0 0
221 0 0
213 0 0
215 0 0
212 0 0
218 0 0
219 0 0
215 0 0
214 0 0
217 0 0
218 0 0
213 0 0
214 0 0
218 0 0
215 0 0
219 0 0
216 0 0
216 0 0
218 0 0
218 0 0
220 0 0
219 0 0
218 0 0
217 0 0
218 0 0
215 0 0
218 0 0
214 0 0
217 0 0
218 0 0
216 0 0
220 0 0
218 0 0
216 0 0
215 0 0
217 0 0
217 0 0
219 0 0
217 0 0
216 0 0
217 0 0
215 0 0
216 0 0
220 0 0
219 0 0
218 0 0
214 0 0
220 0 0
218 0 0
214 0 0
220 0 0
216 0 0
217 0 0
220 0 0
223 0 0
219 0 0
219 0 0
218 0 0
218 0 0
218 0 0
217 0 0
216 0 0
217 0 0
216 0 0
218 0 0
219 0 0
216 0 0
219 0 0
217 0 0
219 0 0
0 0 253
0 0 255
0 0 255
0 0 255
0 0 255
0 0 254
0 0 255
0 0 255
0 0 255
0 0 255
0 0 255
0 0 254
0 0 255
0 0 255
0 0 249
0 0 253
0 0 255
0 0 255
0 0 255
0 0 255
0 0 253
0 0 254
0 0 255
0 0 254
0 0 254
0 0 252
0 0 253
0 0 253
0 0 255
0 0 254
0 0 254
0 0 253
0 0 255
0 0 252
0 0 254
0 0 255
0 0 253
0 0 253
0 0 253
0 0 254
0 0 253
0 0 254
0 0 253
0 0 253
0 0 255
0 0 254
0 0 255
0 0 252
0 0 255
0 0 249
0 0 253
0 0 255
0 0 255
0 0 253
0 0 252
0 0 254
0 0 255
0 0 250
0 0 253
0 0 254
0 0 252
0 0 252
0 0 255
0 0 248
0 0 250
0 0 254
0 0 249
0 0 254
0 0 253
0 0 254
0 0 250
0 0 254
0 0 250
0 0 250
0 0 252
0 0 249
0 0 249
0 0 254
0 0 254
0 0 249
0 0 254
0 0 250
0 0 252
0 0 253
0 0 250
0 0 252
0 0 253
0 0 249
0 0 253
0 0 250
0 0 246
0 0 253
0 0 248
0 0 253
0 0 252
0 0 242
0 0 246
0 0 254
0 0 250
0 0 248
0 0 253
0 0 248
0 0 250
0 0 249
0 0 252
0 0 250
0 0 249
0 0 241
0 0 252
0 0 244
0 0 246
0 0 242
0 0 248
0 0 250
0 0 249
0 0 246
0 0 241
0 0 250
0 0 249
0 0 245
0 0 241
0 0 244
0 0 253
0 0 252
0 0 246
0 0 245
0 0 245
0 0 246
0 0 236
0 0 244
0 0 244
0 0 250
0 0 242
0 0 237
0 0 242
0 0 241
0 0 238
0 0 238
0 0 246
0 0 237
0 0 245
0 0 236
0 0 244
0 0 231
0 0 245
0 0 233
0 0 234
0 0 234
0 0 244
0 0 242
0 0 234
0 0 234
0 0 234
0 0 231
0 0 240
0 0 227
0 0 237
0 0 231
0 0 230
0 0 221
0 0 233
0 0 223
0 0 237
0 0 234
0 0 218
0 0 231
0 0 234
0 0 217
0 0 230
0 0 231
0 0 220
0 0 214
0 0 228
0 0 215
0 0 218
0 0 217
0 0 207
0 0 223
0 0 212
0 0 217
0 0 206
0 0 206
0 0 212
0 0 206
0 0 203
0 0 191
0 0 201
0 0 179
0 0 175
0 0 181
0 0 171
0 0 193
0 0 181
0 0 161
0 0 157
0 0 137
171 185 224
213 231 255
213 231 255
213 231 255
213 231 255
213 231 255
213 231 255
190 192 212
126 0 0
125 0 0
127 0 0
116 0 0
129 0 0
141 0 0
138 0 0
145 0 0
160 0 0
166 0 0
160 0 0
173 0 0
181 0 0
164 0 0
170 0 0
163 0 0
170 0 0
176 0 0
177 0 0
187 0 0
183 0 0
186 0 0
183 0 0
168 0 0
190 0 0
193 0 0
180 0 0
178 0 0
191 0 0
195 0 0
190 0 0
192 0 0
198 0 0
188 0 0
196 0 0
200 0 0
191 0 0
205 0 0
188 0 0
202 0 0
198 0 0
196 0 0
201 0 0
204 0 0
207 0 0
196 0 0
201 0 0
199 0 0
200 0 0
209 0 0
201 0 0
206 0 0
210 0 0
206 0 0
207 0 0
204 0 0
206 0 0
198 0 0
206 0 0
214 0 0
202 0 0
204 0 0
208 0 0
204 0 0
210 0 0
211 0 0
205 0 0
204 0 0
208 0 0
201 0 0
207 0 0
211 0 0
204 0 0
209 0 0
214 0 0
213 0 0
208 0 0
212 0 0
213 0 0
209 0 0
215 0 0
212 0 0
216 0 0
204 0 0
213 0 0
216 0 0
205 0 0
206 0 0
212 0 0
208 0 0
211 0 0
208 0 0
207 0 0
214 0 0
203 0 0
215 0 0
215 0 0
215 0 0
214 0 0
217 0 0
217 0 0
210 0 0
211 0 0
215 0 0
212 0 0
215 0 0
215 0 0
212 0 0
215 0 0
216 0 0
216 0 0
207 0 0
210 0 0
218 0 0
213 0 0
212 0 0
218 0 0
217 0 0
213 0 0
211 0 0
206 0 0
216 0 0
219 0 0
216 0 0
218 0 0
219 0 0
217 0 0
216 0 0
219 0 0
216 0 0
215 0 0
217 0 0
217 0 0
220 0 0
217 0 0
217 0 0
215 0 0
216 0 0
218 0 0
215 0 0
214 0 0
216 0 0
218 0 0
218 0 0
221 0 0
215 0 0
219 0 0
217 0 0
214 0 0
219 0 0
218 0 0
216 0 0
218 0 0
218 0 0
216 0 0
221 0 0
215 0 0
220 0 0
216 0 0
221 0 0
218 0 0
219 0 0
219 0 0
215 0 0
217 0 0
216 0 0
223 0 0
213 0 0
219 0 0
222 0 0
214 0 0
219 0 0
217 0 0
216 0 0
217 0 0
219 0 0
216 0 0
218 0 0
214 0 0
219 0 0
220 0 0
222 0 0
219 0 0
220 0 0
220 0 0
223 0 0
216 0 0
217 0 0
220 0 0
219 0 0
220 0 0
219 0 0
217 0 0
218 0 0
218 0 0
217 0 0
0 0 255
0 0 255
0 0 255
0 0 255
0 0 254
0 0 255
0 0 253
0 0 254
0 0 254
0 0 255
0 0 255
0 0 253
0 0 255
0 0 253
0 0 255
0 0 255
0 0 253
0 0 255
0 0 254
0 0 255
0 0 253
0 0 253
0 0 255
0 0 255
0 0 254
0 0 255
0 0 255
0 0 254
0 0 255
0 0 254
0 0 255
0 0 255
0 0 253
0 0 254
0 0 255
0 0 253
0 0 254
0 0 253
0 0 255
0 0 253
0 0 255
0 0 252
0 0 254
0 0 255
0 0 254
0 0 254
0 0 255
0 0 255
0 0 250
0 0 253
0 0 250
0 0 254
0 0 248
0 0 253
0 0 253
0 0 253
0 0 252
0 0 254
0 0 254
0 0 253
0 0 255
0 0 254
0 0 253
0 0 246
0 0 248
0 0 252
0 0 252
0 0 249
0 0 248
0 0 250
0 0 249
0 0 249
0 0 250
0 0 249
0 0 254
0 0 250
0 0 252
0 0 253
0 0 254
0 0 253
0 0 248
0 0 255
0 0 248
0 0 249
0 0 249
0 0 249
0 0 250
0 0 250
0 0 249
0 0 246
0 0 253
0 0 249
0 0 252
0 0 250
0 0 250
0 0 253
0 0 253
0 0 250
0 0 253
0 0 248
0 0 252
0 0 249
0 0 250
0 0 252
0 0 248
0 0 246
0 0 242
0 0 252
0 0 246
0 0 248
0 0 246
0 0 250
0 0 237
0 0 249
0 0 249
0 0 245
0 0 244
0 0 246
0 0 245
0 0 249
0 0 242
0 0 248
0 0 246
0 0 242
0 0 240
0 0 254
0 0 248
0 0 246
0 0 240
0 0 242
0 0 245
0 0 249
0 0 234
0 0 246
0 0 238
0 0 248
0 0 246
0 0 242
0 0 240
0 0 236
0 0 245
0 0 234
0 0 237
0 0 238
0 0 234
0 0 241
0 0 234
0 0 245
0 0 244
0 0 231
0 0 233
0 0 231
0 0 238
0 0 238
0 0 233
0 0 237
0 0 237
0 0 224
0 0 236
0 0 231
0 0 230
0 0 234
0 0 236
0 0 223
0 0 223
0 0 237
0 0 224
0 0 214
0 0 217
0 0 223
0 0 228
0 0 211
0 0 218
0 0 209
0 0 206
0 0 218
0 0 209
0 0 215
0 0 206
0 0 203
0 0 188
0 0 212
0 0 194
0 0 191
0 0 184
0 0 181
0 0 201
0 0 173
0 0 191
0 0 186
0 0 189
0 0 159
0 0 163
0 0 179
0 0 142
0 0 137
124 135 184
214 231 255
214 231 255
214 231 255
214 231 255
214 231 255
214 231 255
153 131 144
130 0 0
119 0 0
128 0 0
123 0 0
151 0 0
143 0 0
135 0 0
157 0 0
140 0 0
162 0 0
162 0 0
143 0 0
155 0 0
161 0 0
173 0 0
174 0 0
170 0 0
182 0 0
178 0 0
163 0 0
176 0 0
169 0 0
197 0 0
177 0 0
196 0 0
192 0 0
186 0 0
192 0 0
196 0 0
192 0 0
197 0 0
200 0 0
200 0 0
199 0 0
196 0 0
193 0 0
190 0 0
190 0 0
204 0 0
197 0 0
196 0 0
192 0 0
210 0 0
204 0 0
193 0 0
205 0 0
211 0 0
202 0 0
198 0 0
202 0 0
205 0 0
206 0 0
204 0 0
207 0 0
202 0 0
203 0 0
205 0 0
206 0 0
203 0 0
210 0 0
207 0 0
210 0 0
201 0 0
210 0 0
208 0 0
205 0 0
206 0 0
206 0 0
212 0 0
205 0 0
210 0 0
208 0 0
209 0 0
211 0 0
210 0 0
212 0 0
211 0 0
212 0 0
213 0 0
216 0 0
213 0 0
217 0 0
212 0 0
213 0 0
214 0 0
215 0 0
212 0 0
214 0 0
212 0 0
217 0 0
208 0 0
214 0 0
215 0 0
207 0 0
210 0 0
212 0 0
211 0 0
211 0 0
213 0 0
212 0 0
216 0 0
217 0 0
212 0 0
213 0 0
217 0 0
209 0 0
212 0 0
214 0 0
211 0 0
216 0 0
215 0 0
214 0 0
218 0 0
217 0 0
218 0 0
219 0 0
214 0 0
219 0 0
214 0 0
217 0 0
212 0 0
214 0 0
214 0 0
218 0 0
215 0 0
218 0 0
216 0 0
214 0 0
214 0 0
217 0 0
215 0 0
219 0 0
221 0 0
219 0 0
221 0 0
223 0 0
216 0 0
215 0 0
215 0 0
217 0 0
213 0 0
216 0 0
214 0 0
218 0 0
218 0 0
221 0 0
218 0 0
216 0 0
209 0 0
214 0 0
220 0 0
214 0 0
218 0 0
218 0 0
215 0 0
217 0 0
217 0 0
219 0 0
215 0 0
218 0 0
219 0 0
219 0 0
213 0 0
212 0 0
219 0 0
219 0 0
221 0 0
217 0 0
218 0 0
216 0 0
218 0 0
217 0 0
220 0 0
223 0 0
214 0 0
217 0 0
218 0 0
221 0 0
217 0 0
219 0 0
216 0 0
216 0 0
219 0 0
220 0 0
218 0 0
218 0 0
219 0 0
218 0 0
214 0 0
216 0 0
219 0 0
221 0 0
218 0 0
224 0 0
217 0 0
217 0 0
0 0 254
0 0 255
0 0 254
0 0 254
0 0 255
0 0 255
0 0 255
0 0 254
0 0 255
0 0 254
0 0 254
0 0 255
0 0 255
0 0 254
0 0 253
0 0 254
0 0 254
0 0 254
0 0 254
0 0 255
0 0 255
0 0 255
0 0 254
0 0 254
0 0 255
0 0 254
0 0 254
0 0 254
0 0 253
0 0 255
0 0 254
0 0 255
0 0 255
0 0 255
0 0 255
0 0 253
0 0 254
0 0 254
0 0 253
0 0 254
0 0 254
0 0 253
0 0 253
0 0 255
0 0 254
0 0 254
0 0 253
0 0 253
0 0 254
0 0 255
0 0 253
0 0 255
0 0 253
0 0 254
0 0 253
0 0 252
0 0 252
0 0 252
0 0 253
0 0 253
0 0 250
0 0 255
0 0 250
0 0 253
0 0 252
0 0 250
0 0 255
0 0 253
0 0 255
0 0 253
0 0 253
0 0 254
0 0 255
0 0 254
0 0 249
0 0 249
0 0 252
0 0 248
0 0 254
0 0 252
0 0 252
0 0 253
0 0 252
0 0 248
0 0 246
0 0 249
0 0 249
0 0 252
0 0 252
0 0 248
0 0 245
0 0 249
0 0 254
0 0 250
0 0 253
0 0 249
0 0 252
0 0 252
0 0 253
0 0 248
0 0 249
0 0 250
0 0 252
0 0 249
0 0 245
0 0 248
0 0 250
0 0 249
0 0 249
0 0 249
0 0 244
0 0 246
0 0 252
0 0 245
0 0 248
0 0 244
0 0 248
0 0 250
0 0 246
0 0 244
0 0 238
0 0 241
0 0 246
0 0 252
0 0 228
0 0 245
0 0 241
0 0 242
0 0 242
0 0 242
0 0 246
0 0 238
0 0 240
0 0 248
0 0 241
0 0 242
0 0 245
0 0 246
0 0 245
0 0 249
0 0 241
0 0 238
0 0 238
0 0 242
0 0 238
0 0 236
0 0 238
0 0 246
0 0 233
0 0 236
0 0 237
0 0 238
0 0 238
0 0 237
0 0 237
0 0 240
0 0 230
0 0 240
0 0 233
0 0 224
0 0 234
0 0 218
0 0 233
0 0 227
0 0 221
0 0 214
0 0 228
0 0 231
0 0 231
0 0 226
0 0 228
0 0 218
0 0 218
0 0 218
0 0 212
0 0 207
0 0 212
0 0 220
0 0 218
0 0 217
0 0 198
0 0 204
0 0 212
0 0 186
0 0 203
0 0 189
0 0 188
0 0 188
0 0 194
0 0 169
0 0 177
0 0 169
0 0 171
0 0 179
0 0 165
0 0 140
67 73 142
214 231 255
214 231 255
214 231 255
214 231 255
214 231 255
214 230 254
112 76 84
120 0 0
108 0 0
135 0 0
149 0 0
137 0 0
141 0 0
142 0 0
151 0 0
147 0 0
160 0 0
169 0 0
169 0 0
178 0 0
166 0 0
170 0 0
177 0 0
171 0 0
187 0 0
179 0 0
175 0 0
190 0 0
175 0 0
192 0 0
186 0 0
187 0 0
183 0 0
187 0 0
196 0 0
197 0 0
197 0 0
183 0 0
192 0 0
185 0 0
201 0 0
194 0 0
205 0 0
194 0 0
194 0 0
199 0 0
208 0 0
196 0 0
194 0 0
209 0 0
205 0 0
194 0 0
199 0 0
187 0 0
204 0 0
204 0 0
201 0 0
207 0 0
195 0 0
206 0 0
209 0 0
208 0 0
205 0 0
205 0 0
197 0 0
204 0 0
208 0 0
204 0 0
199 0 0
209 0 0
211 0 0
212 0 0
207 0 0
203 0 0
209 0 0
208 0 0
201 0 0
207 0 0
209 0 0
207 0 0
212 0 0
212 0 0
212 0 0
203 0 0
208 0 0
212 0 0
204 0 0
207 0 0
217 0 0
211 0 0
211 0 0
209 0 0
216 0 0
215 0 0
213 0 0
211 0 0
213 0 0
212 0 0
217 0 0
212 0 0
214 0 0
212 0 0
211 0 0
215 0 0
213 0 0
204 0 0
216 0 0
213 0 0
218 0 0
215 0 0
216 0 0
215 0 0
219 0 0
216 0 0
211 0 0
212 0 0
214 0 0
217 0 0
213 0 0
217 0 0
215 0 0
210 0 0
215 0 0
208 0 0
216 0 0
213 0 0
213 0 0
218 0 0
217 0 0
217 0 0
215 0 0
209 0 0
218 0 0
215 0 0
219 0 0
215 0 0
217 0 0
219 0 0
215 0 0
209 0 0
218 0 0
218 0 0
214 0 0
219 0 0
211 0 0
219 0 0
213 0 0
216 0 0
219 0 0
214 0 0
213 0 0
221 0 0
214 0 0
214 0 0
219 0 0
217 0 0
217 0 0
216 0 0
215 0 0
219 0 0
218 0 0
221 0 0
216 0 0
217 0 0
220 0 0
217 0 0
219 0 0
218 0 0
216 0 0
215 0 0
216 0 0
217 0 0
222 0 0
223 0 0
220 0 0
218 0 0
219 0 0
217 0 0
215 0 0
220 0 0
214 0 0
217 0 0
216 0 0
214 0 0
220 0 0
214 0 0
217 0 0
221 0 0
219 0 0
216 0 0
219 0 0
218 0 0
219 0 0
220 0 0
221 0 0
220 0 0
218 0 0
220 0 0
219 0 0
217 0 0
220 0 0
220 0 0
216 0 0
0 0 255
0 0 255
0 0 255
0 0 255
0 0 254
0 0 255
0 0 252
0 0 255
0 0 255
0 0 254
0 0 255
0 0 255
0 0 253
0 0 254
0 0 255
0 0 255
0 0 253
0 0 255
0 0 254
0 0 254
0 0 255
0 0 254
0 0 253
0 0 255
0 0 255
0 0 255
0 0 255
0 0 255
0 0 254
0 0 253
0 0 255
0 0 254
0 0 255
0 0 254
0 0 254
0 0 254
0 0 253
0 0 253
0 0 255
0 0 252
0 0 253
0 0 253
0 0 252
0 0 255
0 0 255
0 0 252
0 0 253
0 0 253
0 0 254
0 0 254
0 0 254
0 0 254
0 0 254
0 0 250
0 0 255
0 0 250
0 0 252
0 0 254
0 0 253
0 0 254
0 0 253
0 0 255
0 0 253
0 0 252
0 0 253
0 0 254
0 0 254
0 0 252
0 0 254
0 0 253
0 0 253
0 0 254
0 0 254
0 0 249
0 0 253
0 0 253
0 0 250
0 0 253
0 0 253
0 0 252
0 0 255
0 0 253
0 0 250
0 0 254
0 0 249
0 0 253
0 0 250
0 0 248
0 0 253
0 0 250
0 0 254
0 0 255
0 0 249
0 0 248
0 0 253
0 0 250
0 0 253
0 0 250
0 0 249
0 0 250
0 0 252
0 0 248
0 0 245
0 0 250
0 0 250
0 0 249
0 0 248
0 0 250
0 0 248
0 0 250
0 0 244
0 0 244
0 0 246
0 0 253
0 0 248
0 0 245
0 0 245
0 0 252
0 0 249
0 0 248
0 0 250
0 0 250
0 0 241
0 0 245
0 0 245
0 0 242
0 0 248
0 0 249
0 0 249
0 0 250
0 0 245
0 0 241
0 0 241
0 0 245
0 0 245
0 0 237
0 0 246
0 0 245
0 0 244
0 0 236
0 0 242
0 0 240
0 0 237
0 0 234
0 0 233
0 0 237
0 0 240
0 0 241
0 0 227
0 0 230
0 0 231
0 0 245
0 0 240
0 0 237
0 0 238
0 0 236
0 0 231
0 0 234
0 0 237
0 0 238
0 0 233
0 0 228
0 0 237
0 0 227
0 0 240
0 0 220
0 0 234
0 0 226
0 0 228
0 0 217
0 0 209
0 0 228
0 0 212
0 0 218
0 0 211
0 0 217
0 0 214
0 0 215
0 0 218
0 0 203
0 0 209
0 0 209
0 0 204
0 0 211
0 0 212
0 0 204
0 0 182
0 0 167
0 0 177
0 0 182
0 0 171
0 0 151
0 0 173
0 0 167
0 0 155
0 0 140
0 0 111
196 212 240
214 232 255
214 232 255
214 232 255
214 232 255
193 207 228
105 0 0
111 0 0
118 0 0
133 0 0
139 0 0
136 0 0
139 0 0
144 0 0
152 0 0
167 0 0
159 0 0
165 0 0
172 0 0
173 0 0
166 0 0
167 0 0
171 0 0
180 0 0
169 0 0
183 0 0
185 0 0
179 0 0
179 0 0
179 0 0
182 0 0
182 0 0
179 0 0
182 0 0
192 0 0
191 0 0
189 0 0
191 0 0
186 0 0
195 0 0
199 0 0
203 0 0
195 0 0
194 0 0
192 0 0
205 0 0
198 0 0
195 0 0
194 0 0
207 0 0
202 0 0
208 0 0
206 0 0
197 0 0
208 0 0
209 0 0
199 0 0
197 0 0
201 0 0
211 0 0
199 0 0
208 0 0
206 0 0
203 0 0
209 0 0
206 0 0
208 0 0
206 0 0
205 0 0
205 0 0
203 0 0
214 0 0
206 0 0
209 0 0
210 0 0
209 0 0
208 0 0
212 0 0
211 0 0
216 0 0
215 0 0
206 0 0
214 0 0
207 0 0
212 0 0
212 0 0
209 0 0
213 0 0
210 0 0
218 0 0
215 0 0
217 0 0
213 0 0
214 0 0
212 0 0
218 0 0
217 0 0
209 0 0
218 0 0
218 0 0
214 0 0
207 0 0
209 0 0
214 0 0
218 0 0
213 0 0
213 0 0
213 0 0
203 0 0
214 0 0
216 0 0
214 0 0
214 0 0
213 0 0
219 0 0
217 0 0
216 0 0
218 0 0
216 0 0
214 0 0
217 0 0
215 0 0
211 0 0
215 0 0
217 0 0
211 0 0
216 0 0
216 0 0
216 0 0
215 0 0
217 0 0
219 0 0
217 0 0
218 0 0
217 0 0
221 0 0
216 0 0
215 0 0
214 0 0
214 0 0
217 0 0
214 0 0
219 0 0
220 0 0
215 0 0
214 0 0
214 0 0
217 0 0
214 0 0
212 0 0
218 0 0
214 0 0
218 0 0
213 0 0
219 0 0
216 0 0
222 0 0
215 0 0
217 0 0
216 0 0
220 0 0
222 0 0
219 0 0
217 0 0
219 0 0
221 0 0
217 0 0
218 0 0
216 0 0
221 0 0
219 0 0
217 0 0
219 0 0
218 0 0
219 0 0
223 0 0
216 0 0
219 0 0
217 0 0
217 0 0
217 0 0
218 0 0
218 0 0
218 0 0
218 0 0
219 0 0
220 0 0
215 0 0
219 0 0
218 0 0
213 0 0
220 0 0
215 0 0
215 0 0
221 0 0
218 0 0
219 0 0
214 0 0
220 0 0
220 0 0
219 0 0
218 0 0
216 0 0
0 0 255
0 0 255
0 0 255
0 0 254
0 0 255
0 0 253
0 0 254
0 0 255
0 0 254
0 0 253
0 0 255
0 0 254
0 0 255
0 0 254
0 0 254
0 0 255
0 0 255
0 0 254
0 0 255
0 0 255
0 0 253
0 0 254
0 0 255
0 0 255
0 0 254
0 0 254
0 0 254
0 0 252
0 0 255
0 0 250
0 0 254
0 0 255
0 0 254
0 0 255
0 0 254
0 0 253
0 0 252
0 0 250
0 0 253
0 0 249
0 0 255
0 0 255
0 0 252
0 0 253
0 0 252
0 0 254
0 0 253
0 0 254
0 0 255
0 0 252
0 0 252
0 0 255
0 0 255
0 0 254
0 0 252
0 0 253
0 0 253
0 0 252
0 0 252
0 0 254
0 0 254
0 0 254
0 0 253
0 0 248
0 0 252
0 0 253
0 0 249
0 0 254
0 0 254
0 0 253
0 0 254
0 0 253
0 0 253
0 0 254
0 0 250
0 0 252
0 0 254
0 0 254
0 0 252
0 0 254
0 0 248
0 0 252
0 0 250
0 0 253
0 0 250
0 0 253
0 0 253
0 0 250
0 0 249
0 0 252
0 0 252
0 0 252
0 0 248
0 0 246
0 0 254
0 0 252
0 0 249
0 0 253
0 0 249
0 0 245
0 0 249
0 0 246
0 0 246
0 0 250
0 0 249
0 0 250
0 0 246
0 0 246
0 0 252
0 0 241
0 0 249
0 0 248
0 0 248
0 0 252
0 0 245
0 0 246
0 0 253
0 0 246
0 0 252
0 0 241
0 0 250
0 0 248
0 0 242
0 0 244
0 0 246
0 0 245
0 0 236
0 0 238
0 0 242
0 0 240
0 0 242
0 0 241
0 0 241
0 0 240
0 0 244
0 0 238
0 0 238
0 0 238
0 0 241
0 0 245
0 0 244
0 0 238
0 0 234
0 0 234
0 0 238
0 0 242
0 0 237
0 0 236
0 0 240
0 0 238
0 0 234
0 0 236
0 0 233
0 0 241
0 0 231
0 0 228
0 0 231
0 0 228
0 0 227
0 0 237
0 0 228
0 0 227
0 0 231
0 0 233
0 0 236
0 0 217
0 0 217
0 0 221
0 0 226
0 0 227
0 0 223
0 0 215
0 0 220
0 0 212
0 0 215
0 0 211
0 0 212
0 0 211
0 0 215
0 0 207
0 0 207
0 0 207
0 0 198
0 0 211
0 0 206
0 0 189
0 0 193
0 0 182
0 0 188
0 0 167
0 0 173
0 0 165
0 0 167
0 0 149
0 0 140
0 0 151
0 0 125
165 178 207
215 232 255
215 232 255
215 232 255
215 232 255
178 169 186
97 0 0
122 0 0
130 0 0
128 0 0
131 0 0
138 0 0
145 0 0
163 0 0
154 0 0
156 0 0
159 0 0
159 0 0
157 0 0
170 0 0
175 0 0
167 0 0
177 0 0
170 0 0
186 0 0
173 0 0
176 0 0
179 0 0
181 0 0
177 0 0
184 0 0
179 0 0
196 0 0
187 0 0
201 0 0
178 0 0
193 0 0
199 0 0
193 0 0
183 0 0
191 0 0
200 0 0
200 0 0
194 0 0
194 0 0
192 0 0
188 0 0
192 0 0
205 0 0
203 0 0
203 0 0
193 0 0
204 0 0
203 0 0
203 0 0
188 0 0
208 0 0
200 0 0
200 0 0
206 0 0
208 0 0
202 0 0
197 0 0
216 0 0
204 0 0
206 0 0
202 0 0
207 0 0
214 0 0
209 0 0
207 0 0
203 0 0
208 0 0
208 0 0
216 0 0
200 0 0
213 0 0
203 0 0
211 0 0
207 0 0
211 0 0
211 0 0
213 0 0
205 0 0
203 0 0
212 0 0
215 0 0
213 0 0
209 0 0
212 0 0
210 0 0
212 0 0
209 0 0
216 0 0
215 0 0
210 0 0
215 0 0
214 0 0
210 0 0
213 0 0
216 0 0
215 0 0
215 0 0
213 0 0
212 0 0
214 0 0
215 0 0
213 0 0
211 0 0
218 0 0
215 0 0
218 0 0
214 0 0
220 0 0
207 0 0
209 0 0
214 0 0
215 0 0
216 0 0
214 0 0
217 0 0
219 0 0
217 0 0
212 0 0
212 0 0
213 0 0
216 0 0
216 0 0
220 0 0
217 0 0
220 0 0
217 0 0
213 0 0
213 0 0
218 0 0
217 0 0
213 0 0
211 0 0
217 0 0
215 0 0
217 0 0
215 0 0
213 0 0
216 0 0
221 0 0
220 0 0
214 0 0
211 0 0
215 0 0
218 0 0
220 0 0
220 0 0
217 0 0
215 0 0
217 0 0
219 0 0
214 0 0
221 0 0
217 0 0
219 0 0
221 0 0
219 0 0
218 0 0
219 0 0
220 0 0
215 0 0
214 0 0
218 0 0
218 0 0
219 0 0
221 0 0
219 0 0
214 0 0
215 0 0
218 0 0
219 0 0
220 0 0
220 0 0
219 0 0
219 0 0
220 0 0
218 0 0
220 0 0
218 0 0
217 0 0
214 0 0
220 0 0
220 0 0
217 0 0
219 0 0
217 0 0
221 0 0
222 0 0
215 0 0
220 0 0
222 0 0
218 0 0
220 0 0
220 0 0
216 0 0
218 0 0
218 0 0
218 0 0
0 0 255
0 0 254
0 0 255
0 0 255
0 0 255
0 0 254
0 0 255
0 0 254
0 0 254
0 0 255
0 0 255
0 0 255
0 0 254
0 0 254
0 0 255
0 0 252
0 0 254
0 0 255
0 0 254
0 0 255
0 0 254
0 0 254
0 0 254
0 0 255
0 0 255
0 0 255
0 0 255
0 0 255
0 0 252
0 0 255
0 0 254
0 0 255
0 0 252
0 0 253
0 0 255
0 0 255
0 0 252
0 0 254
0 0 253
0 0 253
0 0 254
0 0 254
0 0 253
0 0 253
0 0 250
0 0 255
0 0 255
0 0 255
0 0 250
0 0 255
0 0 252
0 0 254
0 0 252
0 0 254
0 0 252
0 0 254
0 0 250
0 0 254
0 0 254
0 0 254
0 0 255
0 0 254
0 0 253
0 0 253
0 0 252
0 0 254
0 0 252
0 0 250
0 0 249
0 0 250
0 0 249
0 0 253
0 0 253
0 0 249
0 0 254
0 0 253
0 0 254
0 0 254
0 0 249
0 0 249
0 0 252
0 0 246
0 0 250
0 0 250
0 0 249
0 0 250
0 0 250
0 0 248
0 0 254
0 0 250
0 0 246
0 0 252
0 0 249
0 0 250
0 0 246
0 0 248
0 0 248
0 0 249
0 0 250
0 0 246
0 0 248
0 0 245
0 0 248
0 0 252
0 0 249
0 0 250
0 0 250
0 0 246
0 0 248
0 0 250
0 0 250
0 0 248
0 0 245
0 0 249
0 0 246
0 0 246
0 0 246
0 0 241
0 0 250
0 0 241
0 0 253
0 0 241
0 0 248
0 0 249
0 0 242
0 0 249
0 0 246
0 0 250
0 0 231
0 0 238
0 0 238
0 0 242
0 0 238
0 0 245
0 0 238
0 0 245
0 0 241
0 0 245
0 0 230
0 0 238
0 0 237
0 0 241
0 0 231
0 0 238
0 0 240
0 0 238
0 0 234
0 0 231
0 0 236
0 0 241
0 0 227
0 0 241
0 0 237
0 0 228
0 0 238
0 0 234
0 0 233
0 0 237
0 0 233
0 0 228
0 0 234
0 0 223
0 0 227
0 0 231
0 0 233
0 0 228
0 0 212
0 0 224
0 0 217
0 0 226
0 0 227
0 0 227
0 0 217
0 0 218
0 0 217
0 0 218
0 0 209
0 0 207
0 0 201
0 0 199
0 0 215
0 0 220
0 0 204
0 0 196
0 0 189
0 0 199
0 0 191
0 0 193
0 0 169
0 0 186
0 0 177
0 0 175
0 0 179
0 0 161
0 0 155
0 0 128
0 0 122
127 137 182
215 232 255
215 232 255
215 232 255
215 232 255
137 127 140
105 0 0
109 0 0
124 0 0
136 0 0
122 0 0
133 0 0
136 0 0
155 0 0
158 0 0
151 0 0
157 0 0
167 0 0
163 0 0
171 0 0
157 0 0
168 0 0
180 0 0
172 0 0
174 0 0
176 0 0
163 0 0
186 0 0
179 0 0
191 0 0
182 0 0
189 0 0
189 0 0
192 0 0
197 0 0
186 0 0
192 0 0
186 0 0
191 0 0
189 0 0
186 0 0
198 0 0
193 0 0
187 0 0
194 0 0
199 0 0
194 0 0
200 0 0
205 0 0
208 0 0
206 0 0
204 0 0
196 0 0
198 0 0
211 0 0
204 0 0
199 0 0
203 0 0
212 0 0
206 0 0
201 0 0
199 0 0
198 0 0
201 0 0
204 0 0
202 0 0
206 0 0
205 0 0
208 0 0
207 0 0
206 0 0
208 0 0
208 0 0
211 0 0
210 0 0
207 0 0
210 0 0
212 0 0
208 0 0
212 0 0
210 0 0
208 0 0
211 0 0
211 0 0
215 0 0
212 0 0
213 0 0
212 0 0
211 0 0
213 0 0
212 0 0
211 0 0
213 0 0
201 0 0
214 0 0
217 0 0
208 0 0
211 0 0
215 0 0
214 0 0
218 0 0
214 0 0
209 0 0
214 0 0
213 0 0
215 0 0
217 0 0
216 0 0
207 0 0
207 0 0
219 0 0
213 0 0
215 0 0
216 0 0
216 0 0
215 0 0
213 0 0
215 0 0
217 0 0
218 0 0
214 0 0
215 0 0
217 0 0
218 0 0
214 0 0
211 0 0
216 0 0
217 0 0
217 0 0
215 0 0
218 0 0
217 0 0
216 0 0
215 0 0
214 0 0
218 0 0
217 0 0
216 0 0
219 0 0
218 0 0
214 0 0
222 0 0
215 0 0
221 0 0
218 0 0
213 0 0
210 0 0
217 0 0
212 0 0
218 0 0
223 0 0
216 0 0
219 0 0
212 0 0
218 0 0
217 0 0
215 0 0
216 0 0
219 0 0
215 0 0
220 0 0
218 0 0
217 0 0
214 0 0
217 0 0
218 0 0
217 0 0
220 0 0
216 0 0
218 0 0
218 0 0
214 0 0
223 0 0
221 0 0
222 0 0
215 0 0
221 0 0
218 0 0
218 0 0
220 0 0
213 0 0
218 0 0
218 0 0
217 0 0
215 0 0
218 0 0
218 0 0
219 0 0
216 0 0
218 0 0
219 0 0
221 0 0
222 0 0
217 0 0
217 0 0
220 0 0
219 0 0
220 0 0
219 0 0
223 0 0
218 0 0
221 0 0
216 0 0
0 0 253
0 0 255
0 0 254
0 0 255
0 0 255
0 0 255
0 0 254
0 0 255
0 0 253
0 0 254
0 0 255
0 0 253
0 0 255
0 0 254
0 0 254
0 0 253
0 0 255
0 0 253
0 0 255
0 0 250
0 0 255
0 0 254
0 0 253
0 0 254
0 0 252
0 0 254
0 0 255
0 0 255
0 0 254
0 0 254
0 0 254
0 0 254
0 0 252
0 0 253
0 0 254
0 0 255
0 0 253
0 0 255
0 0 254
0 0 255
0 0 255
0 0 253
0 0 255
0 0 253
0 0 255
0 0 255
0 0 253
0 0 253
0 0 250
0 0 252
0 0 252
0 0 254
0 0 249
0 0 253
0 0 254
0 0 254
0 0 248
0 0 254
0 0 250
0 0 254
0 0 250
0 0 254
0 0 252
0 0 253
0 0 253
0 0 250
0 0 252
0 0 255
0 0 253
0 0 252
0 0 253
0 0 253
0 0 250
0 0 254
0 0 254
0 0 250
0 0 248
0 0 254
0 0 254
0 0 250
0 0 253
0 0 250
0 0 252
0 0 252
0 0 252
0 0 249
0 0 246
0 0 249
0 0 249
0 0 253
0 0 254
0 0 249
0 0 253
0 0 250
0 0 250
0 0 249
0 0 250
0 0 249
0 0 253
0 0 252
0 0 246
0 0 252
0 0 246
0 0 246
0 0 252
0 0 249
0 0 253
0 0 249
0 0 248
0 0 250
0 0 249
0 0 249
0 0 245
0 0 245
0 0 248
0 0 246
0 0 238
0 0 246
0 0 246
0 0 246
0 0 248
0 0 248
0 0 249
0 0 244
0 0 249
0 0 238
0 0 248
0 0 244
0 0 245
0 0 246
0 0 242
0 0 241
0 0 244
0 0 246
0 0 241
0 0 238
0 0 246
0 0 238
0 0 246
0 0 240
0 0 234
0 0 241
0 0 240
0 0 227
0 0 240
0 0 244
0 0 241
0 0 240
0 0 241
0 0 245
0 0 245
0 0 240
0 0 241
0 0 231
0 0 240
0 0 234
0 0 236
0 0 224
0 0 233
0 0 228
0 0 226
0 0 231
0 0 226
0 0 240
0 0 238
0 0 226
0 0 221
0 0 231
0 0 218
0 0 227
0 0 220
0 0 211
0 0 226
0 0 217
0 0 218
0 0 212
0 0 215
0 0 223
0 0 218
0 0 215
0 0 199
0 0 212
0 0 199
0 0 193
0 0 196
0 0 193
0 0 196
0 0 182
0 0 193
0 0 177
0 0 155
0 0 169
0 0 161
0 0 153
0 0 147
0 0 133
0 0 144
43 46 105
213 230 253
215 232 255
215 232 255
215 232 255
99 52 57
113 0 0
117 0 0
111 0 0
129 0 0
152 0 0
149 0 0
135 0 0
141 0 0
135 0 0
154 0 0
158 0 0
156 0 0
164 0 0
163 0 0
174 0 0
168 0 0
174 0 0
179 0 0
183 0 0
175 0 0
181 0 0
183 0 0
184 0 0
189 0 0
181 0 0
186 0 0
189 0 0
186 0 0
198 0 0
193 0 0
183 0 0
199 0 0
198 0 0
193 0 0
195 0 0
202 0 0
194 0 0
191 0 0
198 0 0
191 0 0
195 0 0
191 0 0
203 0 0
199 0 0
200 0 0
194 0 0
210 0 0
197 0 0
208 0 0
203 0 0
200 0 0
204 0 0
200 0 0
201 0 0
207 0 0
210 0 0
210 0 0
212 0 0
206 0 0
200 0 0
203 0 0
202 0 0
209 0 0
202 0 0
213 0 0
213 0 0
209 0 0
209 0 0
205 0 0
213 0 0
202 0 0
206 0 0
207 0 0
210 0 0
213 0 0
211 0 0
209 0 0
211 0 0
210 0 0
209 0 0
204 0 0
216 0 0
207 0 0
209 0 0
213 0 0
207 0 0
214 0 0
212 0 0
213 0 0
216 0 0
209 0 0
215 0 0
213 0 0
214 0 0
209 0 0
211 0 0
213 0 0
215 0 0
219 0 0
216 0 0
211 0 0
213 0 0
211 0 0
215 0 0
211 0 0
215 0 0
213 0 0
213 0 0
213 0 0
217 0 0
216 0 0
218 0 0
214 0 0
216 0 0
214 0 0
211 0 0
214 0 0
211 0 0
216 0 0
222 0 0
217 0 0
213 0 0
215 0 0
214 0 0
217 0 0
218 0 0
220 0 0
214 0 0
217 0 0
215 0 0
216 0 0
219 0 0
215 0 0
220 0 0
219 0 0
214 0 0
212 0 0
219 0 0
217 0 0
218 0 0
215 0 0
215 0 0
214 0 0
218 0 0
214 0 0
217 0 0
218 0 0
216 0 0
213 0 0
216 0 0
217 0 0
221 0 0
217 0 0
220 0 0
216 0 0
222 0 0
214 0 0
219 0 0
220 0 0
220 0 0
218 0 0
218 0 0
222 0 0
217 0 0
218 0 0
219 0 0
218 0 0
219 0 0
220 0 0
218 0 0
219 0 0
218 0 0
220 0 0
217 0 0
223 0 0
218 0 0
217 0 0
218 0 0
219 0 0
219 0 0
220 0 0
221 0 0
219 0 0
223 0 0
214 0 0
217 0 0
219 0 0
221 0 0
218 0 0
221 0 0
218 0 0
221 0 0
220 0 0
216 0 0
217 0 0
223 0 0
220 0 0
0 0 255
0 0 254
0 0 255
0 0 254
0 0 255
0 0 254
0 0 253
0 0 254
0 0 255
0 0 255
0 0 255
0 0 253
0 0 252
0 0 254
0 0 255
0 0 255
0 0 254
0 0 255
0 0 254
0 0 255
0 0 254
0 0 254
0 0 255
0 0 253
0 0 255
0 0 254
0 0 254
0 0 255
0 0 255
0 0 253
0 0 254
0 0 253
0 0 253
0 0 254
0 0 254
0 0 255
0 0 254
0 0 254
0 0 252
0 0 253
0 0 255
0 0 254
0 0 252
0 0 253
0 0 254
0 0 254
0 0 254
0 0 254
0 0 252
0 0 254
0 0 254
0 0 253
0 0 254
0 0 253
0 0 254
0 0 254
0 0 252
0 0 253
0 0 255
0 0 252
0 0 255
0 0 253
0 0 254
0 0 252
0 0 255
0 0 252
0 0 253
0 0 253
0 0 254
0 0 253
0 0 254
0 0 253
0 0 250
0 0 249
0 0 253
0 0 250
0 0 252
0 0 254
0 0 250
0 0 248
0 0 254
0 0 249
0 0 252
0 0 246
0 0 252
0 0 253
0 0 254
0 0 249
0 0 253
0 0 246
0 0 248
0 0 249
0 0 250
0 0 245
0 0 254
0 0 254
0 0 250
0 0 250
0 0 252
0 0 252
0 0 250
0 0 248
0 0 248
0 0 252
0 0 248
0 0 250
0 0 246
0 0 249
0 0 244
0 0 248
0 0 245
0 0 245
0 0 245
0 0 252
0 0 244
0 0 249
0 0 250
0 0 248
0 0 245
0 0 242
0 0 242
0 0 248
0 0 245
0 0 253
0 0 237
0 0 242
0 0 250
0 0 245
0 0 244
0 0 241
0 0 242
0 0 236
0 0 242
0 0 248
0 0 241
0 0 244
0 0 236
0 0 238
0 0 249
0 0 244
0 0 246
0 0 246
0 0 246
0 0 238
0 0 238
0 0 242
0 0 245
0 0 234
0 0 240
0 0 237
0 0 234
0 0 226
0 0 244
0 0 228
0 0 231
0 0 228
0 0 233
0 0 227
0 0 227
0 0 223
0 0 240
0 0 221
0 0 240
0 0 238
0 0 217
0 0 226
0 0 228
0 0 224
0 0 226
0 0 218
0 0 215
0 0 206
0 0 215
0 0 223
0 0 207
0 0 212
0 0 224
0 0 217
0 0 217
0 0 199
0 0 214
0 0 214
0 0 203
0 0 196
0 0 212
0 0 186
0 0 188
0 0 186
0 0 188
0 0 186
0 0 175
0 0 161
0 0 173
0 0 159
0 0 149
0 0 147
0 0 144
0 0 111
202 218 240
216 232 255
216 232 255
196 210 231
98 0 0
105 0 0
95 0 0
123 0 0
146 0 0
134 0 0
154 0 0
131 0 0
145 0 0
150 0 0
149 0 0
152 0 0
156 0 0
160 0 0
156 0 0
157 0 0
164 0 0
169 0 0
177 0 0
169 0 0
186 0 0
174 0 0
180 0 0
179 0 0
176 0 0
198 0 0
191 0 0
195 0 0
198 0 0
190 0 0
202 0 0
198 0 0
198 0 0
190 0 0
194 0 0
190 0 0
186 0 0
193 0 0
199 0 0
197 0 0
202 0 0
197 0 0
198 0 0
197 0 0
207 0 0
195 0 0
201 0 0
200 0 0
201 0 0
202 0 0
204 0 0
200 0 0
202 0 0
205 0 0
211 0 0
207 0 0
208 0 0
209 0 0
207 0 0
207 0 0
213 0 0
208 0 0
206 0 0
204 0 0
200 0 0
208 0 0
207 0 0
212 0 0
216 0 0
213 0 0
215 0 0
206 0 0
205 0 0
212 0 0
206 0 0
211 0 0
202 0 0
213 0 0
206 0 0
216 0 0
216 0 0
214 0 0
207 0 0
214 0 0
208 0 0
210 0 0
211 0 0
218 0 0
213 0 0
215 0 0
215 0 0
209 0 0
213 0 0
212 0 0
216 0 0
210 0 0
215 0 0
217 0 0
215 0 0
212 0 0
212 0 0
210 0 0
211 0 0
211 0 0
217 0 0
211 0 0
219 0 0
218 0 0
213 0 0
210 0 0
213 0 0
216 0 0
215 0 0
213 0 0
213 0 0
217 0 0
213 0 0
218 0 0
221 0 0
214 0 0
224 0 0
218 0 0
218 0 0
217 0 0
221 0 0
215 0 0
221 0 0
216 0 0
221 0 0
220 0 0
216 0 0
216 0 0
216 0 0
211 0 0
222 0 0
219 0 0
211 0 0
210 0 0
219 0 0
221 0 0
220 0 0
223 0 0
221 0 0
218 0 0
215 0 0
220 0 0
218 0 0
217 0 0
212 0 0
218 0 0
220 0 0
219 0 0
217 0 0
213 0 0
215 0 0
217 0 0
217 0 0
221 0 0
219 0 0
219 0 0
216 0 0
218 0 0
220 0 0
219 0 0
217 0 0
221 0 0
216 0 0
220 0 0
219 0 0
219 0 0
220 0 0
218 0 0
218 0 0
221 0 0
220 0 0
217 0 0
220 0 0
220 0 0
219 0 0
217 0 0
220 0 0
218 0 0
221 0 0
219 0 0
219 0 0
221 0 0
220 0 0
220 0 0
220 0 0
218 0 0
217 0 0
220 0 0
216 0 0
217 0 0
216 0 0
223 0 0
215 0 0
218 0 0
0 0 255
0 0 255
0 0 254
0 0 255
0 0 253
0 0 255
0 0 254
0 0 255
0 0 254
0 0 254
0 0 254
0 0 254
0 0 254
0 0 254
0 0 253
0 0 254
0 0 253
0 0 254
0 0 254
0 0 253
0 0 254
0 0 254
0 0 254
0 0 254
0 0 254
0 0 255
0 0 253
0 0 254
0 0 254
0 0 255
0 0 254
0 0 255
0 0 253
0 0 254
0 0 254
0 0 254
0 0 254
0 0 254
0 0 254
0 0 254
0 0 254
0 0 254
0 0 250
0 0 254
0 0 254
0 0 253
0 0 253
0 0 254
0 0 254
0 0 254
0 0 254
0 0 253
0 0 253
0 0 253
0 0 253
0 0 252
0 0 252
0 0 254
0 0 254
0 0 249
0 0 253
0 0 254
0 0 254
0 0 255
0 0 254
0 0 246
0 0 248
0 0 253
0 0 254
0 0 253
0 0 249
0 0 254
0 0 253
0 0 252
0 0 253
0 0 253
0 0 254
0 0 255
0 0 252
0 0 252
0 0 255
0 0 252
0 0 246
0 0 252
0 0 253
0 0 250
0 0 250
0 0 248
0 0 246
0 0 248
0 0 248
0 0 253
0 0 248
0 0 250
0 0 253
0 0 254
0 0 249
0 0 253
0 0 246
0 0 252
0 0 250
0 0 245
0 0 253
0 0 253
0 0 250
0 0 249
0 0 248
0 0 248
0 0 254
0 0 250
0 0 253
0 0 246
0 0 249
0 0 246
0 0 240
0 0 248
0 0 245
0 0 244
0 0 246
0 0 248
0 0 246
0 0 248
0 0 244
0 0 248
0 0 244
0 0 246
0 0 250
0 0 246
0 0 249
0 0 248
0 0 240
0 0 244
0 0 240
0 0 245
0 0 240
0 0 245
0 0 244
0 0 241
0 0 242
0 0 238
0 0 231
0 0 242
0 0 242
0 0 242
0 0 241
0 0 240
0 0 238
0 0 240
0 0 240
0 0 241
0 0 244
0 0 238
0 0 238
0 0 237
0 0 228
0 0 231
0 0 228
0 0 236
0 0 240
0 0 238
0 0 223
0 0 215
0 0 233
0 0 233
0 0 223
0 0 231
0 0 217
0 0 237
0 0 230
0 0 218
0 0 226
0 0 215
0 0 215
0 0 212
0 0 220
0 0 211
0 0 215
0 0 215
0 0 209
0 0 209
0 0 203
0 0 203
0 0 179
0 0 204
0 0 188
0 0 196
0 0 184
0 0 189
0 0 177
0 0 165
0 0 175
0 0 179
0 0 169
0 0 161
0 0 153
0 0 117
0 0 111
0 0 111
157 169 198
216 233 255
216 233 255
182 192 211
84 0 0
98 0 0
117 0 0
126 0 0
120 0 0
138 0 0
135 0 0
151 0 0
159 0 0
166 0 0
161 0 0
173 0 0
161 0 0
164 0 0
168 0 0
165 0 0
166 0 0
167 0 0
171 0 0
184 0 0
177 0 0
176 0 0
179 0 0
179 0 0
187 0 0
187 0 0
195 0 0
197 0 0
186 0 0
193 0 0
185 0 0
195 0 0
182 0 0
198 0 0
193 0 0
192 0 0
199 0 0
201 0 0
198 0 0
191 0 0
199 0 0
197 0 0
195 0 0
207 0 0
198 0 0
197 0 0
203 0 0
203 0 0
205 0 0
210 0 0
207 0 0
208 0 0
196 0 0
209 0 0
208 0 0
208 0 0
211 0 0
204 0 0
211 0 0
195 0 0
202 0 0
214 0 0
203 0 0
215 0 0
208 0 0
202 0 0
208 0 0
204 0 0
207 0 0
209 0 0
211 0 0
205 0 0
214 0 0
207 0 0
210 0 0
209 0 0
211 0 0
211 0 0
207 0 0
215 0 0
210 0 0
207 0 0
218 0 0
209 0 0
213 0 0
215 0 0
210 0 0
215 0 0
212 0 0
210 0 0
210 0 0
206 0 0
209 0 0
211 0 0
210 0 0
212 0 0
213 0 0
214 0 0
214 0 0
218 0 0
210 0 0
213 0 0
216 0 0
213 0 0
216 0 0
220 0 0
216 0 0
215 0 0
219 0 0
216 0 0
216 0 0
216 0 0
216 0 0
216 0 0
215 0 0
211 0 0
218 0 0
216 0 0
214 0 0
210 0 0
213 0 0
219 0 0
216 0 0
216 0 0
215 0 0
215 0 0
219 0 0
213 0 0
216 0 0
216 0 0
214 0 0
217 0 0
220 0 0
218 0 0
220 0 0
216 0 0
218 0 0
211 0 0
220 0 0
219 0 0
214 0 0
219 0 0
218 0 0
220 0 0
218 0 0
220 0 0
217 0 0
219 0 0
216 0 0
217 0 0
213 0 0
218 0 0
219 0 0
217 0 0
218 0 0
224 0 0
217 0 0
217 0 0
221 0 0
217 0 0
219 0 0
219 0 0
218 0 0
219 0 0
221 0 0
215 0 0
220 0 0
219 0 0
219 0 0
220 0 0
218 0 0
219 0 0
220 0 0
218 0 0
222 0 0
217 0 0
221 0 0
219 0 0
221 0 0
221 0 0
220 0 0
216 0 0
217 0 0
219 0 0
216 0 0
216 0 0
219 0 0
219 0 0
217 0 0
220 0 0
218 0 0
220 0 0
221 0 0
220 0 0
219 0 0
218 0 0
218 0 0
215 0 0
0 0 254
0 0 255
0 0 254
0 0 254
0 0 254
0 0 254
0 0 254
0 0 254
0 0 254
0 0 255
0 0 255
0 0 254
0 0 253
0 0 254
0 0 255
0 0 255
0 0 255
0 0 254
0 0 255
0 0 254
0 0 255
0 0 253
0 0 255
0 0 254
0 0 253
0 0 254
0 0 254
0 0 255
0 0 254
0 0 253
0 0 253
0 0 254
0 0 255
0 0 254
0 0 253
0 0 255
0 0 250
0 0 254
0 0 252
0 0 254
0 0 253
0 0 255
0 0 254
0 0 252
0 0 253
0 0 252
0 0 255
0 0 254
0 0 252
0 0 255
0 0 254
0 0 255
0 0 255
0 0 255
0 0 254
0 0 253
0 0 252
0 0 253
0 0 254
0 0 255
0 0 252
0 0 253
0 0 254
0 0 254
0 0 250
0 0 249
0 0 250
0 0 254
0 0 253
0 0 252
0 0 254
0 0 254
0 0 252
0 0 255
0 0 253
0 0 254
0 0 250
0 0 250
0 0 249
0 0 254
0 0 250
0 0 252
0 0 250
0 0 250
0 0 252
0 0 252
0 0 252
0 0 254
0 0 249
0 0 249
0 0 249
0 0 249
0 0 250
0 0 253
0 0 246
0 0 248
0 0 242
0 0 250
0 0 250
0 0 249
0 0 245
0 0 244
0 0 249
0 0 249
0 0 249
0 0 250
0 0 246
0 0 249
0 0 246
0 0 248
0 0 250
0 0 248
0 0 245
0 0 250
0 0 245
0 0 249
0 0 240
0 0 245
0 0 248
0 0 249
0 0 246
0 0 245
0 0 241
0 0 249
0 0 241
0 0 252
0 0 242
0 0 249
0 0 237
0 0 245
0 0 244
0 0 241
0 0 245
0 0 248
0 0 238
0 0 244
0 0 234
0 0 246
0 0 242
0 0 240
0 0 241
0 0 242
0 0 240
0 0 245
0 0 238
0 0 242
0 0 237
0 0 240
0 0 240
0 0 233
0 0 231
0 0 241
0 0 234
0 0 236
0 0 236
0 0 234
0 0 226
0 0 228
0 0 234
0 0 234
0 0 230
0 0 228
0 0 220
0 0 224
0 0 234
0 0 209
0 0 220
0 0 220
0 0 233
0 0 234
0 0 217
0 0 212
0 0 224
0 0 228
0 0 224
0 0 214
0 0 217
0 0 212
0 0 207
0 0 209
0 0 204
0 0 201
0 0 203
0 0 203
0 0 193
0 0 191
0 0 193
0 0 188
0 0 179
0 0 182
0 0 189
0 0 161
0 0 161
0 0 149
0 0 144
0 0 128
0 0 133
0 0 108
147 158 184
216 233 255
216 233 255
145 149 163
101 0 0
92 0 0
96 0 0
134 0 0
135 0 0
133 0 0
129 0 0
156 0 0
133 0 0
155 0 0
149 0 0
161 0 0
164 0 0
152 0 0
179 0 0
179 0 0
167 0 0
174 0 0
181 0 0
174 0 0
178 0 0
171 0 0
187 0 0
175 0 0
192 0 0
191 0 0
184 0 0
174 0 0
185 0 0
184 0 0
195 0 0
191 0 0
188 0 0
204 0 0
197 0 0
199 0 0
198 0 0
203 0 0
196 0 0
200 0 0
189 0 0
206 0 0
206 0 0
199 0 0
206 0 0
207 0 0
204 0 0
203 0 0
203 0 0
199 0 0
201 0 0
204 0 0
210 0 0
199 0 0
203 0 0
211 0 0
205 0 0
212 0 0
208 0 0
206 0 0
215 0 0
203 0 0
212 0 0
206 0 0
199 0 0
207 0 0
211 0 0
208 0 0
207 0 0
207 0 0
205 0 0
216 0 0
207 0 0
209 0 0
209 0 0
211 0 0
208 0 0
215 0 0
214 0 0
214 0 0
214 0 0
213 0 0
213 0 0
214 0 0
215 0 0
211 0 0
212 0 0
213 0 0
211 0 0
213 0 0
211 0 0
207 0 0
214 0 0
215 0 0
211 0 0
209 0 0
208 0 0
213 0 0
213 0 0
212 0 0
217 0 0
217 0 0
211 0 0
218 0 0
215 0 0
214 0 0
212 0 0
210 0 0
213 0 0
216 0 0
217 0 0
214 0 0
219 0 0
212 0 0
211 0 0
217 0 0
211 0 0
211 0 0
217 0 0
215 0 0
214 0 0
217 0 0
211 0 0
215 0 0
212 0 0
219 0 0
221 0 0
220 0 0
220 0 0
217 0 0
216 0 0
221 0 0
217 0 0
217 0 0
217 0 0
218 0 0
217 0 0
216 0 0
217 0 0
213 0 0
219 0 0
223 0 0
220 0 0
215 0 0
216 0 0
219 0 0
219 0 0
216 0 0
217 0 0
215 0 0
218 0 0
221 0 0
221 0 0
220 0 0
217 0 0
219 0 0
218 0 0
215 0 0
220 0 0
220 0 0
215 0 0
218 0 0
218 0 0
218 0 0
221 0 0
221 0 0
217 0 0
217 0 0
219 0 0
218 0 0
218 0 0
215 0 0
215 0 0
219 0 0
219 0 0
218 0 0
217 0 0
217 0 0
217 0 0
217 0 0
218 0 0
221 0 0
217 0 0
215 0 0
219 0 0
218 0 0
218 0 0
218 0 0
220 0 0
219 0 0
220 0 0
217 0 0
221 0 0
221 0 0
216 0 0
221 0 0
218 0 0
222 0 0
0 0 255
0 0 254
0 0 255
0 0 254
0 0 254
0 0 255
0 0 254
0 0 255
0 0 254
0 0 254
0 0 255
0 0 254
0 0 254
0 0 255
0 0 254
0 0 255
0 0 255
0 0 254
0 0 254
0 0 255
0 0 253
0 0 255
0 0 255
0 0 255
0 0 254
0 0 255
0 0 253
0 0 255
0 0 252
0 0 254
0 0 255
0 0 255
0 0 255
0 0 252
0 0 255
0 0 253
0 0 255
0 0 254
0 0 250
0 0 252
0 0 255
0 0 252
0 0 254
0 0 254
0 0 255
0 0 254
0 0 255
0 0 254
0 0 252
0 0 255
0 0 255
0 0 253
0 0 250
0 0 253
0 0 255
0 0 253
0 0 255
0 0 252
0 0 254
0 0 253
0 0 252
0 0 253
0 0 249
0 0 254
0 0 253
0 0 250
0 0 249
0 0 252
0 0 253
0 0 252
0 0 252
0 0 253
0 0 252
0 0 252
0 0 248
0 0 250
0 0 253
0 0 250
0 0 252
0 0 254
0 0 248
0 0 250
0 0 253
0 0 252
0 0 248
0 0 246
0 0 253
0 0 250
0 0 244
0 0 246
0 0 246
0 0 254
0 0 252
0 0 250
0 0 248
0 0 249
0 0 254
0 0 252
0 0 252
0 0 250
0 0 250
0 0 244
0 0 249
0 0 249
0 0 249
0 0 249
0 0 244
0 0 250
0 0 241
0 0 248
0 0 248
0 0 248
0 0 253
0 0 248
0 0 249
0 0 249
0 0 249
0 0 252
0 0 250
0 0 254
0 0 246
0 0 245
0 0 244
0 0 246
0 0 245
0 0 252
0 0 249
0 0 237
0 0 238
0 0 241
0 0 248
0 0 244
0 0 238
0 0 244
0 0 245
0 0 241
0 0 244
0 0 240
0 0 244
0 0 241
0 0 241
0 0 238
0 0 245
0 0 241
0 0 242
0 0 245
0 0 244
0 0 241
0 0 238
0 0 240
0 0 234
0 0 238
0 0 228
0 0 231
0 0 234
0 0 238
0 0 238
0 0 234
0 0 233
0 0 237
0 0 234
0 0 236
0 0 237
0 0 226
0 0 231
0 0 231
0 0 236
0 0 220
0 0 231
0 0 217
0 0 226
0 0 234
0 0 217
0 0 220
0 0 217
0 0 211
0 0 201
0 0 209
0 0 217
0 0 207
0 0 201
0 0 211
0 0 203
0 0 182
0 0 194
0 0 186
0 0 199
0 0 196
0 0 167
0 0 163
0 0 182
0 0 159
0 0 159
0 0 153
0 0 153
0 0 140
0 0 142
0 0 108
112 121 165
217 233 255
217 233 255
124 114 125
82 0 0
109 0 0
101 0 0
122 0 0
124 0 0
129 0 0
139 0 0
137 0 0
143 0 0
159 0 0
154 0 0
151 0 0
174 0 0
175 0 0
166 0 0
172 0 0
158 0 0
188 0 0
178 0 0
180 0 0
169 0 0
177 0 0
178 0 0
183 0 0
179 0 0
179 0 0
189 0 0
183 0 0
191 0 0
186 0 0
198 0 0
194 0 0
199 0 0
201 0 0
189 0 0
202 0 0
194 0 0
201 0 0
201 0 0
203 0 0
194 0 0
197 0 0
203 0 0
197 0 0
202 0 0
205 0 0
203 0 0
207 0 0
201 0 0
203 0 0
202 0 0
202 0 0
201 0 0
214 0 0
202 0 0
201 0 0
203 0 0
207 0 0
212 0 0
214 0 0
208 0 0
213 0 0
207 0 0
204 0 0
207 0 0
211 0 0
208 0 0
211 0 0
209 0 0
211 0 0
208 0 0
210 0 0
216 0 0
205 0 0
208 0 0
211 0 0
213 0 0
212 0 0
212 0 0
213 0 0
213 0 0
214 0 0
210 0 0
214 0 0
215 0 0
211 0 0
218 0 0
212 0 0
211 0 0
211 0 0
215 0 0
209 0 0
218 0 0
213 0 0
210 0 0
207 0 0
220 0 0
217 0 0
217 0 0
214 0 0
216 0 0
213 0 0
216 0 0
214 0 0
214 0 0
214 0 0
216 0 0
213 0 0
213 0 0
217 0 0
217 0 0
217 0 0
217 0 0
210 0 0
218 0 0
222 0 0
212 0 0
217 0 0
215 0 0
215 0 0
217 0 0
217 0 0
215 0 0
220 0 0
214 0 0
213 0 0
215 0 0
219 0 0
216 0 0
220 0 0
221 0 0
215 0 0
222 0 0
218 0 0
217 0 0
214 0 0
214 0 0
217 0 0
216 0 0
217 0 0
217 0 0
220 0 0
215 0 0
214 0 0
214 0 0
214 0 0
213 0 0
218 0 0
219 0 0
221 0 0
220 0 0
220 0 0
216 0 0
221 0 0
215 0 0
219 0 0
219 0 0
214 0 0
221 0 0
217 0 0
220 0 0
218 0 0
219 0 0
215 0 0
220 0 0
219 0 0
219 0 0
221 0 0
218 0 0
216 0 0
219 0 0
223 0 0
215 0 0
220 0 0
218 0 0
217 0 0
217 0 0
224 0 0
219 0 0
219 0 0
218 0 0
219 0 0
218 0 0
221 0 0
216 0 0
217 0 0
219 0 0
220 0 0
219 0 0
219 0 0
217 0 0
220 0 0
223 0 0
216 0 0
222 0 0
218 0 0
219 0 0
219 0 0
0 0 255
0 0 255
0 0 253
0 0 255
0 0 255
0 0 254
0 0 255
0 0 254
0 0 255
0 0 254
0 0 254
0 0 254
0 0 253
0 0 253
0 0 255
0 0 254
0 0 255
0 0 255
0 0 254
0 0 254
0 0 255
0 0 255
0 0 254
0 0 254
0 0 255
0 0 255
0 0 255
0 0 254
0 0 255
0 0 254
0 0 255
0 0 253
0 0 254
0 0 255
0 0 255
0 0 253
0 0 254
0 0 254
0 0 254
0 0 254
0 0 255
0 0 255
0 0 254
0 0 254
0 0 255
0 0 254
0 0 250
0 0 252
0 0 254
0 0 250
0 0 254
0 0 254
0 0 254
0 0 250
0 0 255
0 0 252
0 0 252
0 0 253
0 0 250
0 0 254
0 0 248
0 0 249
0 0 254
0 0 253
0 0 253
0 0 253
0 0 253
0 0 252
0 0 254
0 0 253
0 0 253
0 0 252
0 0 254
0 0 249
0 0 252
0 0 252
0 0 253
0 0 250
0 0 254
0 0 248
0 0 254
0 0 250
0 0 246
0 0 252
0 0 253
0 0 246
0 0 249
0 0 253
0 0 254
0 0 250
0 0 250
0 0 249
0 0 253
0 0 245
0 0 248
0 0 250
0 0 252
0 0 249
0 0 249
0 0 250
0 0 255
0 0 254
0 0 244
0 0 252
0 0 245
0 0 248
0 0 246
0 0 249
0 0 250
0 0 249
0 0 249
0 0 250
0 0 249
0 0 245
0 0 250
0 0 245
0 0 248
0 0 252
0 0 246
0 0 246
0 0 254
0 0 241
0 0 249
0 0 250
0 0 237
0 0 241
0 0 250
0 0 245
0 0 249
0 0 246
0 0 249
0 0 245
0 0 250
0 0 246
0 0 241
0 0 242
0 0 244
0 0 237
0 0 250
0 0 234
0 0 240
0 0 246
0 0 233
0 0 237
0 0 242
0 0 238
0 0 240
0 0 221
0 0 242
0 0 238
0 0 237
0 0 233
0 0 236
0 0 233
0 0 227
0 0 238
0 0 231
0 0 234
0 0 238
0 0 224
0 0 227
0 0 223
0 0 220
0 0 230
0 0 237
0 0 226
0 0 228
0 0 236
0 0 212
0 0 218
0 0 231
0 0 227
0 0 218
0 0 221
0 0 212
0 0 220
0 0 211
0 0 218
0 0 214
0 0 214
0 0 199
0 0 217
0 0 193
0 0 189
0 0 189
0 0 189
0 0 203
0 0 175
0 0 196
0 0 165
0 0 173
0 0 161
0 0 173
0 0 153
0 0 135
0 0 133
0 0 135
0 0 108
37 40 88
217 233 255
217 233 255
105 73 80
91 0 0
95 0 0
118 0 0
140 0 0
113 0 0
129 0 0
132 0 0
152 0 0
137 0 0
155 0 0
152 0 0
167 0 0
157 0 0
161 0 0
161 0 0
174 0 0
182 0 0
170 0 0
169 0 0
179 0 0
181 0 0
188 0 0
179 0 0
179 0 0
188 0 0
192 0 0
199 0 0
197 0 0
194 0 0
197 0 0
188 0 0
189 0 0
190 0 0
186 0 0
193 0 0
199 0 0
188 0 0
200 0 0
196 0 0
205 0 0
195 0 0
202 0 0
197 0 0
194 0 0
209 0 0
200 0 0
202 0 0
206 0 0
212 0 0
197 0 0
206 0 0
203 0 0
200 0 0
204 0 0
206 0 0
204 0 0
211 0 0
208 0 0
203 0 0
206 0 0
207 0 0
208 0 0
203 0 0
209 0 0
203 0 0
214 0 0
211 0 0
206 0 0
209 0 0
205 0 0
214 0 0
214 0 0
211 0 0
217 0 0
209 0 0
221 0 0
208 0 0
206 0 0
208 0 0
209 0 0
211 0 0
215 0 0
219 0 0
219 0 0
216 0 0
212 0 0
212 0 0
214 0 0
214 0 0
207 0 0
208 0 0
214 0 0
219 0 0
222 0 0
211 0 0
211 0 0
213 0 0
211 0 0
212 0 0
207 0 0
213 0 0
207 0 0
217 0 0
213 0 0
216 0 0
211 0 0
211 0 0
212 0 0
214 0 0
215 0 0
219 0 0
220 0 0
210 0 0
215 0 0
217 0 0
217 0 0
217 0 0
214 0 0
215 0 0
216 0 0
219 0 0
218 0 0
217 0 0
220 0 0
218 0 0
217 0 0
213 0 0
220 0 0
217 0 0
216 0 0
216 0 0
219 0 0
218 0 0
217 0 0
217 0 0
218 0 0
218 0 0
219 0 0
220 0 0
216 0 0
218 0 0
218 0 0
219 0 0
220 0 0
219 0 0
216 0 0
219 0 0
216 0 0
219 0 0
217 0 0
217 0 0
221 0 0
215 0 0
219 0 0
218 0 0
216 0 0
218 0 0
224 0 0
216 0 0
219 0 0
218 0 0
216 0 0
217 0 0
217 0 0
218 0 0
220 0 0
216 0 0
218 0 0
220 0 0
215 0 0
216 0 0
219 0 0
221 0 0
219 0 0
221 0 0
219 0 0
220 0 0
215 0 0
224 0 0
219 0 0
219 0 0
221 0 0
219 0 0
219 0 0
221 0 0
219 0 0
218 0 0
221 0 0
217 0 0
220 0 0
218 0 0
219 0 0
219 0 0
220 0 0
220 0 0
222 0 0
220 0 0
223 0 0
0 0 254
0 0 254
0 0 255
0 0 255
0 0 255
0 0 253
0 0 253
0 0 255
0 0 253
0 0 255
0 0 254
0 0 253
0 0 254
0 0 255
0 0 253
0 0 253
0 0 255
0 0 254
0 0 254
0 0 254
0 0 255
0 0 255
0 0 254
0 0 250
0 0 253
0 0 254
0 0 255
0 0 253
0 0 252
0 0 254
0 0 252
0 0 252
0 0 254
0 0 255
0 0 255
0 0 254
0 0 254
0 0 254
0 0 252
0 0 252
0 0 249
0 0 255
0 0 254
0 0 253
0 0 252
0 0 255
0 0 254
0 0 250
0 0 253
0 0 255
0 0 255
0 0 255
0 0 253
0 0 254
0 0 252
0 0 253
0 0 252
0 0 254
0 0 254
0 0 252
0 0 255
0 0 253
0 0 252
0 0 252
0 0 253
0 0 249
0 0 253
0 0 250
0 0 250
0 0 250
0 0 253
0 0 254
0 0 250
0 0 252
0 0 253
0 0 250
0 0 253
0 0 252
0 0 253
0 0 250
0 0 252
0 0 249
0 0 253
0 0 248
0 0 248
0 0 249
0 0 253
0 0 252
0 0 246
0 0 250
0 0 244
0 0 249
0 0 254
0 0 253
0 0 245
0 0 250
0 0 252
0 0 249
0 0 250
0 0 252
0 0 254
0 0 250
0 0 245
0 0 249
0 0 249
0 0 252
0 0 253
0 0 248
0 0 252
0 0 246
0 0 246
0 0 249
0 0 248
0 0 252
0 0 248
0 0 246
0 0 246
0 0 244
0 0 252
0 0 244
0 0 249
0 0 242
0 0 248
0 0 246
0 0 242
0 0 248
0 0 252
0 0 245
0 0 245
0 0 241
0 0 238
0 0 244
0 0 242
0 0 238
0 0 249
0 0 236
0 0 241
0 0 244
0 0 241
0 0 246
0 0 241
0 0 244
0 0 241
0 0 234
0 0 230
0 0 241
0 0 242
0 0 234
0 0 240
0 0 224
0 0 236
0 0 238
0 0 230
0 0 230
0 0 231
0 0 237
0 0 231
0 0 228
0 0 226
0 0 228
0 0 231
0 0 236
0 0 231
0 0 234
0 0 226
0 0 233
0 0 212
0 0 223
0 0 230
0 0 214
0 0 217
0 0 230
0 0 226
0 0 218
0 0 220
0 0 209
0 0 220
0 0 212
0 0 198
0 0 214
0 0 199
0 0 207
0 0 194
0 0 184
0 0 207
0 0 177
0 0 194
0 0 188
0 0 173
0 0 177
0 0 173
0 0 171
0 0 167
0 0 137
0 0 149
0 0 133
0 0 135
0 0 105
0 0 76
203 218 240
208 221 242
77 0 0
95 0 0
107 0 0
130 0 0
118 0 0
138 0 0
129 0 0
140 0 0
134 0 0
161 0 0
172 0 0
147 0 0
168 0 0
140 0 0
161 0 0
152 0 0
174 0 0
184 0 0
174 0 0
184 0 0
178 0 0
191 0 0
185 0 0
180 0 0
183 0 0
191 0 0
177 0 0
186 0 0
187 0 0
174 0 0
189 0 0
197 0 0
195 0 0
195 0 0
186 0 0
192 0 0
192 0 0
202 0 0
198 0 0
196 0 0
194 0 0
202 0 0
199 0 0
205 0 0
200 0 0
197 0 0
207 0 0
200 0 0
208 0 0
201 0 0
210 0 0
206 0 0
204 0 0
208 0 0
206 0 0
211 0 0
205 0 0
213 0 0
209 0 0
217 0 0
202 0 0
203 0 0
207 0 0
202 0 0
208 0 0
211 0 0
208 0 0
208 0 0
208 0 0
211 0 0
204 0 0
203 0 0
213 0 0
210 0 0
212 0 0
213 0 0
207 0 0
214 0 0
216 0 0
211 0 0
212 0 0
215 0 0
211 0 0
213 0 0
214 0 0
208 0 0
216 0 0
214 0 0
213 0 0
217 0 0
214 0 0
218 0 0
215 0 0
209 0 0
216 0 0
211 0 0
207 0 0
218 0 0
220 0 0
215 0 0
216 0 0
213 0 0
218 0 0
214 0 0
214 0 0
213 0 0
217 0 0
215 0 0
212 0 0
216 0 0
214 0 0
218 0 0
217 0 0
209 0 0
223 0 0
219 0 0
216 0 0
215 0 0
218 0 0
215 0 0
216 0 0
218 0 0
220 0 0
216 0 0
222 0 0
217 0 0
217 0 0
213 0 0
220 0 0
216 0 0
214 0 0
220 0 0
218 0 0
218 0 0
218 0 0
220 0 0
219 0 0
218 0 0
217 0 0
219 0 0
222 0 0
216 0 0
217 0 0
217 0 0
217 0 0
217 0 0
221 0 0
221 0 0
219 0 0
218 0 0
220 0 0
220 0 0
218 0 0
219 0 0
217 0 0
220 0 0
219 0 0
218 0 0
217 0 0
219 0 0
216 0 0
220 0 0
217 0 0
221 0 0
218 0 0
221 0 0
218 0 0
217 0 0
222 0 0
218 0 0
221 0 0
218 0 0
219 0 0
218 0 0
222 0 0
219 0 0
222 0 0
220 0 0
220 0 0
219 0 0
220 0 0
216 0 0
222 0 0
221 0 0
218 0 0
218 0 0
220 0 0
217 0 0
223 0 0
217 0 0
216 0 0
218 0 0
219 0 0
221 0 0
220 0 0
221 0 0
220 0 0
219 0 0
217 0 0
0 0 253
0 0 255
0 0 253
0 0 254
0 0 255
0 0 253
0 0 255
0 0 255
0 0 254
0 0 253
0 0 255
0 0 255
0 0 255
0 0 254
0 0 255
0 0 253
0 0 253
0 0 253
0 0 254
0 0 255
0 0 254
0 0 255
0 0 255
0 0 253
0 0 255
0 0 254
0 0 255
0 0 255
0 0 254
0 0 254
0 0 254
0 0 254
0 0 254
0 0 253
0 0 254
0 0 254
0 0 254
0 0 255
0 0 252
0 0 254
0 0 255
0 0 254
0 0 255
0 0 252
0 0 255
0 0 252
0 0 253
0 0 255
0 0 254
0 0 255
0 0 254
0 0 252
0 0 255
0 0 255
0 0 255
0 0 254
0 0 250
0 0 255
0 0 253
0 0 252
0 0 255
0 0 253
0 0 250
0 0 253
0 0 253
0 0 252
0 0 252
0 0 250
0 0 254
0 0 250
0 0 249
0 0 250
0 0 254
0 0 252
0 0 253
0 0 252
0 0 250
0 0 253
0 0 253
0 0 253
0 0 255
0 0 255
0 0 249
0 0 250
0 0 250
0 0 253
0 0 249
0 0 249
0 0 252
0 0 252
0 0 249
0 0 250
0 0 254
0 0 250
0 0 248
0 0 246
0 0 250
0 0 245
0 0 252
0 0 249
0 0 250
0 0 252
0 0 250
0 0 248
0 0 250
0 0 249
0 0 249
0 0 249
0 0 252
0 0 245
0 0 249
0 0 249
0 0 248
0 0 249
0 0 245
0 0 248
0 0 250
0 0 242
0 0 246
0 0 241
0 0 245
0 0 249
0 0 249
0 0 238
0 0 246
0 0 246
0 0 240
0 0 245
0 0 244
0 0 240
0 0 246
0 0 244
0 0 244
0 0 240
0 0 246
0 0 238
0 0 248
0 0 245
0 0 249
0 0 242
0 0 242
0 0 231
0 0 238
0 0 236
0 0 233
0 0 244
0 0 237
0 0 246
0 0 237
0 0 234
0 0 234
0 0 242
0 0 227
0 0 231
0 0 238
0 0 228
0 0 228
0 0 233
0 0 223
0 0 236
0 0 223
0 0 228
0 0 228
0 0 228
0 0 217
0 0 233
0 0 227
0 0 228
0 0 236
0 0 204
0 0 217
0 0 217
0 0 201
0 0 217
0 0 209
0 0 227
0 0 212
0 0 201
0 0 211
0 0 207
0 0 194
0 0 198
0 0 189
0 0 198
0 0 207
0 0 207
0 0 189
0 0 203
0 0 182
0 0 179
0 0 177
0 0 173
0 0 155
0 0 159
0 0 147
0 0 128
0 0 122
0 0 105
0 0 76
192 206 227
195 206 226
63 0 0
76 0 0
97 0 0
106 0 0
113 0 0
149 0 0
144 0 0
135 0 0
146 0 0
151 0 0
144 0 0
152 0 0
172 0 0
158 0 0
160 0 0
170 0 0
173 0 0
161 0 0
171 0 0
179 0 0
178 0 0
186 0 0
180 0 0
179 0 0
184 0 0
179 0 0
194 0 0
186 0 0
185 0 0
187 0 0
193 0 0
185 0 0
198 0 0
200 0 0
189 0 0
192 0 0
199 0 0
187 0 0
196 0 0
197 0 0
188 0 0
197 0 0
199 0 0
194 0 0
203 0 0
200 0 0
196 0 0
200 0 0
208 0 0
206 0 0
205 0 0
198 0 0
207 0 0
202 0 0
211 0 0
206 0 0
211 0 0
205 0 0
205 0 0
206 0 0
204 0 0
208 0 0
208 0 0
208 0 0
203 0 0
214 0 0
207 0 0
209 0 0
214 0 0
211 0 0
210 0 0
204 0 0
207 0 0
207 0 0
212 0 0
204 0 0
213 0 0
210 0 0
206 0 0
211 0 0
211 0 0
209 0 0
211 0 0
210 0 0
206 0 0
213 0 0
216 0 0
212 0 0
212 0 0
214 0 0
213 0 0
219 0 0
216 0 0
214 0 0
209 0 0
210 0 0
216 0 0
214 0 0
219 0 0
213 0 0
210 0 0
209 0 0
211 0 0
214 0 0
218 0 0
219 0 0
219 0 0
214 0 0
219 0 0
217 0 0
212 0 0
215 0 0
215 0 0
220 0 0
211 0 0
214 0 0
209 0 0
214 0 0
215 0 0
215 0 0
215 0 0
216 0 0
217 0 0
220 0 0
209 0 0
216 0 0
215 0 0
214 0 0
214 0 0
221 0 0
216 0 0
216 0 0
214 0 0
219 0 0
217 0 0
217 0 0
217 0 0
214 0 0
219 0 0
218 0 0
218 0 0
219 0 0
221 0 0
219 0 0
218 0 0
219 0 0
218 0 0
215 0 0
219 0 0
216 0 0
221 0 0
221 0 0
219 0 0
216 0 0
219 0 0
217 0 0
220 0 0
222 0 0
217 0 0
215 0 0
215 0 0
221 0 0
219 0 0
214 0 0
216 0 0
220 0 0
222 0 0
218 0 0
219 0 0
220 0 0
223 0 0
217 0 0
220 0 0
220 0 0
219 0 0
219 0 0
219 0 0
220 0 0
221 0 0
219 0 0
220 0 0
217 0 0
224 0 0
221 0 0
221 0 0
220 0 0
220 0 0
222 0 0
220 0 0
222 0 0
221 0 0
220 0 0
222 0 0
220 0 0
220 0 0
222 0 0
215 0 0
218 0 0
221 0 0
0 0 255
0 0 254
0 0 255
0 0 255
0 0 252
0 0 254
0 0 255
0 0 254
0 0 254
0 0 254
0 0 255
0 0 255
0 0 255
0 0 254
0 0 253
0 0 255
0 0 254
0 0 254
0 0 255
0 0 253
0 0 254
0 0 254
0 0 253
0 0 253
0 0 253
0 0 255
0 0 254
0 0 253
0 0 255
0 0 254
0 0 255
0 0 255
0 0 254
0 0 255
0 0 255
0 0 255
0 0 255
0 0 254
0 0 255
0 0 254
0 0 255
0 0 253
0 0 253
0 0 254
0 0 253
0 0 254
0 0 255
0 0 253
0 0 252
0 0 254
0 0 254
0 0 254
0 0 253
0 0 252
0 0 253
0 0 252
0 0 254
0 0 252
0 0 254
0 0 254
0 0 252
0 0 254
0 0 255
0 0 252
0 0 252
0 0 254
0 0 253
0 0 254
0 0 253
0 0 254
0 0 252
0 0 254
0 0 249
0 0 255
0 0 252
0 0 254
0 0 254
0 0 253
0 0 254
0 0 252
0 0 250
0 0 249
0 0 252
0 0 248
0 0 245
0 0 248
0 0 250
0 0 248
0 0 245
0 0 248
0 0 248
0 0 252
0 0 253
0 0 254
0 0 249
0 0 246
0 0 252
0 0 252
0 0 248
0 0 245
0 0 244
0 0 242
0 0 246
0 0 250
0 0 250
0 0 250
0 0 250
0 0 250
0 0 246
0 0 244
0 0 245
0 0 250
0 0 245
0 0 249
0 0 250
0 0 250
0 0 249
0 0 245
0 0 250
0 0 240
0 0 246
0 0 244
0 0 245
0 0 249
0 0 248
0 0 246
0 0 244
0 0 241
0 0 248
0 0 246
0 0 242
0 0 245
0 0 242
0 0 233
0 0 238
0 0 241
0 0 246
0 0 248
0 0 237
0 0 245
0 0 242
0 0 236
0 0 237
0 0 242
0 0 240
0 0 240
0 0 240
0 0 249
0 0 240
0 0 237
0 0 234
0 0 242
0 0 238
0 0 244
0 0 227
0 0 234
0 0 231
0 0 237
0 0 233
0 0 231
0 0 217
0 0 237
0 0 231
0 0 236
0 0 224
0 0 218
0 0 209
0 0 224
0 0 223
0 0 218
0 0 234
0 0 223
0 0 212
0 0 223
0 0 227
0 0 221
0 0 215
0 0 201
0 0 212
0 0 206
0 0 214
0 0 207
0 0 201
0 0 196
0 0 181
0 0 193
0 0 196
0 0 188
0 0 173
0 0 194
0 0 177
0 0 177
0 0 165
0 0 167
0 0 151
0 0 130
0 0 117
0 0 108
0 0 99
173 185 209
173 182 199
63 0 0
80 0 0
97 0 0
122 0 0
119 0 0
130 0 0
157 0 0
134 0 0
148 0 0
145 0 0
153 0 0
169 0 0
169 0 0
148 0 0
174 0 0
169 0 0
173 0 0
174 0 0
184 0 0
175 0 0
174 0 0
189 0 0
194 0 0
180 0 0
182 0 0
185 0 0
191 0 0
194 0 0
194 0 0
182 0 0
197 0 0
191 0 0
201 0 0
196 0 0
195 0 0
196 0 0
197 0 0
194 0 0
199 0 0
188 0 0
200 0 0
199 0 0
204 0 0
199 0 0
206 0 0
205 0 0
201 0 0
205 0 0
202 0 0
201 0 0
202 0 0
204 0 0
193 0 0
204 0 0
210 0 0
206 0 0
203 0 0
211 0 0
209 0 0
210 0 0
210 0 0
202 0 0
206 0 0
214 0 0
209 0 0
212 0 0
200 0 0
211 0 0
206 0 0
204 0 0
209 0 0
215 0 0
211 0 0
204 0 0
207 0 0
209 0 0
206 0 0
210 0 0
211 0 0
213 0 0
213 0 0
210 0 0
205 0 0
211 0 0
211 0 0
212 0 0
212 0 0
213 0 0
216 0 0
211 0 0
213 0 0
215 0 0
214 0 0
214 0 0
211 0 0
214 0 0
213 0 0
218 0 0
212 0 0
219 0 0
221 0 0
219 0 0
210 0 0
212 0 0
211 0 0
216 0 0
217 0 0
212 0 0
217 0 0
216 0 0
214 0 0
218 0 0
216 0 0
223 0 0
219 0 0
217 0 0
218 0 0
218 0 0
219 0 0
220 0 0
219 0 0
217 0 0
215 0 0
219 0 0
214 0 0
217 0 0
218 0 0
210 0 0
220 0 0
216 0 0
220 0 0
220 0 0
221 0 0
222 0 0
217 0 0
218 0 0
218 0 0
215 0 0
222 0 0
216 0 0
220 0 0
220 0 0
222 0 0
218 0 0
219 0 0
215 0 0
221 0 0
218 0 0
216 0 0
213 0 0
217 0 0
222 0 0
218 0 0
216 0 0
217 0 0
218 0 0
222 0 0
220 0 0
214 0 0
222 0 0
216 0 0
220 0 0
216 0 0
219 0 0
220 0 0
222 0 0
219 0 0
221 0 0
220 0 0
219 0 0
219 0 0
219 0 0
216 0 0
221 0 0
220 0 0
221 0 0
220 0 0
221 0 0
216 0 0
222 0 0
217 0 0
219 0 0
221 0 0
219 0 0
218 0 0
220 0 0
222 0 0
219 0 0
219 0 0
222 0 0
221 0 0
217 0 0
220 0 0
218 0 0
220 0 0
217 0 0
221 0 0
220 0 0
217 0 0
0 0 254
0 0 255
0 0 255
0 0 254
0 0 255
0 0 254
0 0 255
0 0 254
0 0 254
0 0 255
0 0 255
0 0 255
0 0 254
0 0 255
0 0 254
0 0 254
0 0 254
0 0 254
0 0 254
0 0 255
0 0 254
0 0 254
0 0 255
0 0 254
0 0 252
0 0 254
0 0 255
0 0 253
0 0 254
0 0 254
0 0 253
0 0 255
0 0 254
0 0 255
0 0 254
0 0 255
0 0 254
0 0 253
0 0 254
0 0 254
0 0 254
0 0 255
0 0 254
0 0 254
0 0 254
0 0 254
0 0 252
0 0 254
0 0 253
0 0 255
0 0 254
0 0 253
0 0 253
0 0 255
0 0 250
0 0 250
0 0 255
0 0 254
0 0 254
0 0 250
0 0 252
0 0 250
0 0 248
0 0 250
0 0 255
0 0 254
0 0 250
0 0 253
0 0 249
0 0 245
0 0 254
0 0 249
0 0 255
0 0 252
0 0 252
0 0 252
0 0 254
0 0 253
0 0 252
0 0 248
0 0 252
0 0 250
0 0 252
0 0 250
0 0 248
0 0 253
0 0 252
0 0 252
0 0 249
0 0 252
0 0 253
0 0 250
0 0 250
0 0 246
0 0 249
0 0 253
0 0 252
0 0 249
0 0 253
0 0 253
0 0 246
0 0 245
0 0 250
0 0 241
0 0 253
0 0 249
0 0 249
0 0 249
0 0 245
0 0 250
0 0 246
0 0 248
0 0 249
0 0 245
0 0 249
0 0 244
0 0 240
0 0 241
0 0 252
0 0 248
0 0 242
0 0 248
0 0 244
0 0 245
0 0 238
0 0 248
0 0 246
0 0 246
0 0 246
0 0 248
0 0 244
0 0 248
0 0 242
0 0 242
0 0 242
0 0 248
0 0 248
0 0 228
0 0 240
0 0 244
0 0 241
0 0 241
0 0 238
0 0 237
0 0 237
0 0 234
0 0 226
0 0 234
0 0 231
0 0 237
0 0 240
0 0 228
0 0 230
0 0 227
0 0 237
0 0 237
0 0 231
0 0 228
0 0 230
0 0 236
0 0 234
0 0 236
0 0 223
0 0 224
0 0 233
0 0 226
0 0 233
0 0 217
0 0 223
0 0 218
0 0 211
0 0 220
0 0 233
0 0 224
0 0 217
0 0 215
0 0 196
0 0 211
0 0 203
0 0 209
0 0 212
0 0 199
0 0 194
0 0 198
0 0 193
0 0 179
0 0 189
0 0 204
0 0 182
0 0 179
0 0 186
0 0 165
0 0 165
0 0 153
0 0 140
0 0 133
0 0 133
0 0 117
0 0 67
162 173 191
160 162 177
79 0 0
95 0 0
87 0 0
131 0 0
121 0 0
122 0 0
139 0 0
133 0 0
147 0 0
149 0 0
150 0 0
153 0 0
165 0 0
170 0 0
170 0 0
159 0 0
166 0 0
176 0 0
180 0 0
179 0 0
186 0 0
176 0 0
188 0 0
176 0 0
183 0 0
194 0 0
191 0 0
193 0 0
184 0 0
190 0 0
186 0 0
189 0 0
195 0 0
199 0 0
192 0 0
191 0 0
200 0 0
190 0 0
196 0 0
195 0 0
203 0 0
199 0 0
210 0 0
199 0 0
197 0 0
199 0 0
205 0 0
204 0 0
203 0 0
201 0 0
200 0 0
202 0 0
206 0 0
208 0 0
204 0 0
205 0 0
202 0 0
207 0 0
207 0 0
206 0 0
208 0 0
207 0 0
210 0 0
209 0 0
212 0 0
208 0 0
210 0 0
202 0 0
209 0 0
215 0 0
211 0 0
212 0 0
211 0 0
216 0 0
213 0 0
213 0 0
209 0 0
207 0 0
214 0 0
215 0 0
215 0 0
210 0 0
211 0 0
213 0 0
212 0 0
211 0 0
207 0 0
214 0 0
219 0 0
212 0 0
208 0 0
221 0 0
218 0 0
213 0 0
218 0 0
218 0 0
212 0 0
211 0 0
215 0 0
211 0 0
218 0 0
217 0 0
216 0 0
210 0 0
213 0 0
213 0 0
218 0 0
221 0 0
219 0 0
218 0 0
207 0 0
214 0 0
216 0 0
212 0 0
215 0 0
218 0 0
212 0 0
220 0 0
216 0 0
215 0 0
215 0 0
217 0 0
216 0 0
215 0 0
218 0 0
217 0 0
219 0 0
222 0 0
220 0 0
217 0 0
218 0 0
218 0 0
219 0 0
213 0 0
216 0 0
221 0 0
218 0 0
213 0 0
219 0 0
218 0 0
214 0 0
218 0 0
216 0 0
221 0 0
217 0 0
218 0 0
217 0 0
220 0 0
221 0 0
220 0 0
221 0 0
216 0 0
218 0 0
217 0 0
217 0 0
221 0 0
220 0 0
218 0 0
218 0 0
218 0 0
222 0 0
220 0 0
219 0 0
218 0 0
219 0 0
218 0 0
219 0 0
218 0 0
215 0 0
220 0 0
222 0 0
217 0 0
220 0 0
222 0 0
218 0 0
220 0 0
218 0 0
220 0 0
216 0 0
217 0 0
220 0 0
219 0 0
224 0 0
224 0 0
220 0 0
219 0 0
218 0 0
221 0 0
216 0 0
224 0 0
218 0 0
225 0 0
221 0 0
217 0 0
217 0 0
219 0 0
219 0 0
222 0 0
217 0 0
0 0 255
0 0 254
0 0 254
0 0 255
0 0 255
0 0 254
0 0 253
0 0 255
0 0 253
0 0 255
0 0 255
0 0 254
0 0 255
0 0 254
0 0 253
0 0 255
0 0 255
0 0 254
0 0 255
0 0 255
0 0 254
0 0 255
0 0 255
0 0 255
0 0 253
0 0 253
0 0 254
0 0 254
0 0 254
0 0 255
0 0 254
0 0 254
0 0 254
0 0 254
0 0 255
0 0 254
0 0 253
0 0 254
0 0 255
0 0 255
0 0 255
0 0 254
0 0 253
0 0 252
0 0 255
0 0 255
0 0 254
0 0 249
0 0 253
0 0 253
0 0 255
0 0 252
0 0 253
0 0 253
0 0 254
0 0 255
0 0 254
0 0 254
0 0 253
0 0 249
0 0 250
0 0 255
0 0 250
0 0 250
0 0 252
0 0 252
0 0 253
0 0 255
0 0 249
0 0 253
0 0 252
0 0 254
0 0 254
0 0 246
0 0 250
0 0 254
0 0 252
0 0 250
0 0 254
0 0 253
0 0 253
0 0 253
0 0 249
0 0 250
0 0 250
0 0 253
0 0 255
0 0 248
0 0 255
0 0 245
0 0 249
0 0 250
0 0 245
0 0 252
0 0 248
0 0 249
0 0 252
0 0 253
0 0 249
0 0 248
0 0 248
0 0 250
0 0 249
0 0 245
0 0 249
0 0 246
0 0 249
0 0 246
0 0 250
0 0 249
0 0 245
0 0 252
0 0 245
0 0 249
0 0 244
0 0 248
0 0 244
0 0 250
0 0 252
0 0 244
0 0 248
0 0 242
0 0 238
0 0 250
0 0 240
0 0 245
0 0 241
0 0 250
0 0 246
0 0 246
0 0 245
0 0 244
0 0 241
0 0 249
0 0 237
0 0 237
0 0 248
0 0 238
0 0 242
0 0 238
0 0 237
0 0 241
0 0 250
0 0 242
0 0 236
0 0 227
0 0 228
0 0 246
0 0 236
0 0 246
0 0 240
0 0 227
0 0 236
0 0 223
0 0 230
0 0 230
0 0 223
0 0 221
0 0 221
0 0 230
0 0 223
0 0 233
0 0 221
0 0 227
0 0 217
0 0 230
0 0 234
0 0 230
0 0 217
0 0 226
0 0 207
0 0 220
0 0 226
0 0 224
0 0 220
0 0 212
0 0 212
0 0 211
0 0 217
0 0 214
0 0 207
0 0 206
0 0 204
0 0 204
0 0 203
0 0 189
0 0 182
0 0 175
0 0 193
0 0 186
0 0 167
0 0 163
0 0 159
0 0 155
0 0 149
0 0 142
0 0 120
0 0 105
0 0 84
148 159 181
161 164 179
66 0 0
87 0 0
108 0 0
93 0 0
114 0 0
135 0 0
137 0 0
138 0 0
143 0 0
147 0 0
157 0 0
168 0 0
174 0 0
170 0 0
158 0 0
172 0 0
169 0 0
177 0 0
173 0 0
180 0 0
182 0 0
184 0 0
191 0 0
184 0 0
181 0 0
190 0 0
182 0 0
189 0 0
193 0 0
198 0 0
202 0 0
189 0 0
195 0 0
187 0 0
199 0 0
197 0 0
187 0 0
206 0 0
201 0 0
201 0 0
194 0 0
197 0 0
193 0 0
202 0 0
198 0 0
202 0 0
206 0 0
212 0 0
206 0 0
199 0 0
211 0 0
197 0 0
206 0 0
210 0 0
207 0 0
207 0 0
212 0 0
216 0 0
206 0 0
210 0 0
211 0 0
215 0 0
205 0 0
204 0 0
216 0 0
202 0 0
212 0 0
209 0 0
207 0 0
207 0 0
208 0 0
208 0 0
213 0 0
211 0 0
217 0 0
213 0 0
215 0 0
206 0 0
213 0 0
217 0 0
214 0 0
210 0 0
210 0 0
216 0 0
209 0 0
213 0 0
214 0 0
217 0 0
205 0 0
218 0 0
217 0 0
216 0 0
220 0 0
210 0 0
219 0 0
218 0 0
216 0 0
211 0 0
218 0 0
213 0 0
220 0 0
212 0 0
212 0 0
214 0 0
214 0 0
216 0 0
219 0 0
217 0 0
216 0 0
208 0 0
217 0 0
214 0 0
220 0 0
216 0 0
218 0 0
215 0 0
217 0 0
218 0 0
216 0 0
217 0 0
210 0 0
213 0 0
221 0 0
214 0 0
218 0 0
214 0 0
219 0 0
216 0 0
216 0 0
219 0 0
218 0 0
215 0 0
221 0 0
221 0 0
215 0 0
216 0 0
221 0 0
219 0 0
220 0 0
223 0 0
220 0 0
215 0 0
221 0 0
217 0 0
220 0 0
220 0 0
216 0 0
222 0 0
218 0 0
218 0 0
218 0 0
218 0 0
216 0 0
220 0 0
217 0 0
220 0 0
218 0 0
219 0 0
220 0 0
221 0 0
221 0 0
218 0 0
218 0 0
218 0 0
214 0 0
220 0 0
218 0 0
220 0 0
223 0 0
219 0 0
214 0 0
222 0 0
221 0 0
219 0 0
218 0 0
220 0 0
220 0 0
222 0 0
218 0 0
214 0 0
215 0 0
219 0 0
218 0 0
217 0 0
220 0 0
219 0 0
218 0 0
219 0 0
217 0 0
221 0 0
220 0 0
222 0 0
217 0 0
222 0 0
221 0 0
218 0 0
218 0 0
215 0 0
223 0 0
0 0 255
0 0 254
0 0 255
0 0 255
0 0 254
0 0 254
0 0 255
0 0 255
0 0 255
0 0 254
0 0 255
0 0 254
0 0 255
0 0 255
0 0 254
0 0 255
0 0 254
0 0 254
0 0 254
0 0 253
0 0 255
0 0 255
0 0 254
0 0 254
0 0 255
0 0 255
0 0 250
0 0 253
0 0 253
0 0 254
0 0 253
0 0 255
0 0 255
0 0 254
0 0 254
0 0 255
0 0 255
0 0 253
0 0 253
0 0 255
0 0 255
0 0 250
0 0 254
0 0 254
0 0 249
0 0 253
0 0 254
0 0 252
0 0 253
0 0 255
0 0 254
0 0 253
0 0 255
0 0 254
0 0 250
0 0 255
0 0 254
0 0 253
0 0 249
0 0 254
0 0 252
0 0 253
0 0 253
0 0 253
0 0 253
0 0 254
0 0 254
0 0 254
0 0 254
0 0 254
0 0 252
0 0 255
0 0 255
0 0 252
0 0 253
0 0 253
0 0 254
0 0 249
0 0 253
0 0 255
0 0 245
0 0 253
0 0 250
0 0 249
0 0 249
0 0 250
0 0 253
0 0 252
0 0 254
0 0 249
0 0 252
0 0 252
0 0 250
0 0 253
0 0 244
0 0 248
0 0 252
0 0 249
0 0 250
0 0 241
0 0 248
0 0 249
0 0 245
0 0 249
0 0 248
0 0 249
0 0 253
0 0 252
0 0 245
0 0 248
0 0 253
0 0 248
0 0 249
0 0 246
0 0 246
0 0 246
0 0 242
0 0 240
0 0 248
0 0 244
0 0 252
0 0 248
0 0 249
0 0 244
0 0 249
0 0 245
0 0 245
0 0 241
0 0 241
0 0 241
0 0 240
0 0 250
0 0 231
0 0 238
0 0 240
0 0 245
0 0 245
0 0 237
0 0 248
0 0 242
0 0 240
0 0 244
0 0 238
0 0 237
0 0 244
0 0 237
0 0 249
0 0 240
0 0 236
0 0 238
0 0 236
0 0 220
0 0 233
0 0 233
0 0 237
0 0 233
0 0 231
0 0 234
0 0 234
0 0 236
0 0 230
0 0 231
0 0 236
0 0 237
0 0 224
0 0 227
0 0 224
0 0 228
0 0 223
0 0 227
0 0 218
0 0 224
0 0 220
0 0 214
0 0 218
0 0 212
0 0 218
0 0 207
0 0 204
0 0 215
0 0 220
0 0 196
0 0 198
0 0 214
0 0 193
0 0 194
0 0 182
0 0 191
0 0 175
0 0 179
0 0 173
0 0 179
0 0 169
0 0 137
0 0 142
0 0 135
0 0 130
0 0 99
0 0 92
109 117 135
116 121 133
53 0 0
107 0 0
94 0 0
115 0 0
123 0 0
133 0 0
127 0 0
141 0 0
148 0 0
150 0 0
156 0 0
167 0 0
145 0 0
161 0 0
170 0 0
165 0 0
166 0 0
168 0 0
171 0 0
186 0 0
181 0 0
176 0 0
186 0 0
181 0 0
188 0 0
192 0 0
191 0 0
185 0 0
194 0 0
191 0 0
195 0 0
184 0 0
184 0 0
206 0 0
192 0 0
202 0 0
198 0 0
203 0 0
210 0 0
198 0 0
199 0 0
203 0 0
205 0 0
205 0 0
207 0 0
202 0 0
206 0 0
209 0 0
201 0 0
202 0 0
205 0 0
207 0 0
201 0 0
206 0 0
207 0 0
207 0 0
208 0 0
210 0 0
203 0 0
206 0 0
208 0 0
201 0 0
201 0 0
207 0 0
198 0 0
213 0 0
214 0 0
207 0 0
210 0 0
212 0 0
210 0 0
215 0 0
205 0 0
210 0 0
215 0 0
213 0 0
218 0 0
214 0 0
213 0 0
211 0 0
206 0 0
212 0 0
216 0 0
214 0 0
203 0 0
215 0 0
216 0 0
212 0 0
216 0 0
210 0 0
207 0 0
216 0 0
216 0 0
216 0 0
216 0 0
220 0 0
213 0 0
213 0 0
217 0 0
217 0 0
218 0 0
214 0 0
215 0 0
215 0 0
218 0 0
216 0 0
215 0 0
214 0 0
216 0 0
215 0 0
220 0 0
217 0 0
217 0 0
217 0 0
215 0 0
218 0 0
218 0 0
216 0 0
217 0 0
219 0 0
214 0 0
213 0 0
207 0 0
219 0 0
218 0 0
215 0 0
218 0 0
214 0 0
217 0 0
217 0 0
215 0 0
219 0 0
211 0 0
217 0 0
221 0 0
217 0 0
222 0 0
214 0 0
216 0 0
220 0 0
220 0 0
218 0 0
217 0 0
213 0 0
218 0 0
220 0 0
220 0 0
222 0 0
217 0 0
222 0 0
217 0 0
221 0 0
217 0 0
218 0 0
218 0 0
219 0 0
218 0 0
218 0 0
218 0 0
218 0 0
216 0 0
216 0 0
221 0 0
220 0 0
224 0 0
216 0 0
218 0 0
222 0 0
220 0 0
222 0 0
219 0 0
219 0 0
216 0 0
218 0 0
219 0 0
221 0 0
217 0 0
223 0 0
220 0 0
217 0 0
222 0 0
218 0 0
220 0 0
216 0 0
220 0 0
217 0 0
226 0 0
220 0 0
220 0 0
221 0 0
220 0 0
220 0 0
219 0 0
222 0 0
221 0 0
218 0 0
222 0 0
220 0 0
217 0 0
0 0 255
0 0 255
0 0 255
0 0 255
0 0 255
0 0 254
0 0 255
0 0 254
0 0 254
0 0 254
0 0 254
0 0 255
0 0 255
0 0 254
0 0 253
0 0 254
0 0 254
0 0 255
0 0 255
0 0 254
0 0 253
0 0 254
0 0 254
0 0 255
0 0 253
0 0 255
0 0 255
0 0 254
0 0 255
0 0 254
0 0 255
0 0 255
0 0 253
0 0 254
0 0 254
0 0 255
0 0 254
0 0 253
0 0 252
0 0 253
0 0 255
0 0 255
0 0 253
0 0 255
0 0 255
0 0 254
0 0 252
0 0 254
0 0 254
0 0 255
0 0 254
0 0 254
0 0 253
0 0 253
0 0 254
0 0 252
0 0 252
0 0 254
0 0 252
0 0 255
0 0 250
0 0 252
0 0 254
0 0 253
0 0 254
0 0 254
0 0 254
0 0 253
0 0 248
0 0 254
0 0 252
0 0 252
0 0 248
0 0 246
0 0 250
0 0 252
0 0 244
0 0 249
0 0 249
0 0 254
0 0 245
0 0 248
0 0 252
0 0 244
0 0 253
0 0 254
0 0 246
0 0 252
0 0 246
0 0 250
0 0 248
0 0 246
0 0 250
0 0 252
0 0 246
0 0 253
0 0 253
0 0 252
0 0 249
0 0 252
0 0 246
0 0 246
0 0 252
0 0 248
0 0 248
0 0 249
0 0 249
0 0 248
0 0 250
0 0 253
0 0 248
0 0 244
0 0 249
0 0 248
0 0 250
0 0 250
0 0 249
0 0 248
0 0 248
0 0 252
0 0 248
0 0 242
0 0 246
0 0 253
0 0 237
0 0 242
0 0 244
0 0 245
0 0 241
0 0 245
0 0 240
0 0 241
0 0 242
0 0 246
0 0 244
0 0 246
0 0 246
0 0 241
0 0 246
0 0 240
0 0 244
0 0 241
0 0 248
0 0 241
0 0 231
0 0 240
0 0 231
0 0 236
0 0 237
0 0 238
0 0 241
0 0 241
0 0 231
0 0 233
0 0 233
0 0 236
0 0 237
0 0 234
0 0 227
0 0 236
0 0 234
0 0 230
0 0 221
0 0 228
0 0 234
0 0 236
0 0 224
0 0 228
0 0 223
0 0 223
0 0 226
0 0 221
0 0 226
0 0 218
0 0 233
0 0 236
0 0 201
0 0 212
0 0 207
0 0 211
0 0 209
0 0 207
0 0 204
0 0 198
0 0 186
0 0 196
0 0 203
0 0 181
0 0 175
0 0 165
0 0 177
0 0 167
0 0 159
0 0 153
0 0 155
0 0 128
0 0 133
0 0 99
0 0 95
90 96 120
113 117 128
91 0 0
89 0 0
104 0 0
95 0 0
134 0 0
136 0 0
141 0 0
133 0 0
150 0 0
157 0 0
151 0 0
154 0 0
152 0 0
174 0 0
151 0 0
144 0 0
176 0 0
175 0 0
188 0 0
192 0 0
187 0 0
176 0 0
182 0 0
182 0 0
179 0 0
190 0 0
187 0 0
185 0 0
191 0 0
185 0 0
199 0 0
196 0 0
196 0 0
193 0 0
196 0 0
200 0 0
197 0 0
195 0 0
198 0 0
198 0 0
201 0 0
200 0 0
195 0 0
201 0 0
203 0 0
203 0 0
198 0 0
213 0 0
199 0 0
206 0 0
206 0 0
203 0 0
204 0 0
203 0 0
202 0 0
213 0 0
202 0 0
211 0 0
208 0 0
212 0 0
212 0 0
205 0 0
211 0 0
206 0 0
211 0 0
212 0 0
214 0 0
213 0 0
212 0 0
204 0 0
212 0 0
209 0 0
207 0 0
210 0 0
219 0 0
208 0 0
212 0 0
215 0 0
214 0 0
217 0 0
219 0 0
203 0 0
210 0 0
215 0 0
216 0 0
214 0 0
216 0 0
215 0 0
214 0 0
213 0 0
210 0 0
214 0 0
218 0 0
213 0 0
216 0 0
216 0 0
215 0 0
222 0 0
214 0 0
217 0 0
214 0 0
217 0 0
215 0 0
218 0 0
217 0 0
216 0 0
208 0 0
221 0 0
221 0 0
212 0 0
218 0 0
214 0 0
218 0 0
214 0 0
220 0 0
216 0 0
218 0 0
214 0 0
213 0 0
223 0 0
218 0 0
215 0 0
220 0 0
214 0 0
219 0 0
216 0 0
221 0 0
218 0 0
219 0 0
217 0 0
217 0 0
219 0 0
219 0 0
213 0 0
220 0 0
219 0 0
214 0 0
221 0 0
217 0 0
217 0 0
220 0 0
219 0 0
219 0 0
218 0 0
222 0 0
222 0 0
222 0 0
218 0 0
220 0 0
215 0 0
215 0 0
218 0 0
222 0 0
220 0 0
217 0 0
223 0 0
216 0 0
214 0 0
218 0 0
223 0 0
218 0 0
219 0 0
219 0 0
218 0 0
219 0 0
218 0 0
219 0 0
220 0 0
219 0 0
217 0 0
222 0 0
218 0 0
218 0 0
216 0 0
219 0 0
217 0 0
219 0 0
220 0 0
218 0 0
220 0 0
222 0 0
219 0 0
222 0 0
219 0 0
218 0 0
221 0 0
218 0 0
218 0 0
219 0 0
220 0 0
218 0 0
221 0 0
219 0 0
224 0 0
219 0 0
222 0 0
223 0 0
221 0 0
219 0 0
0 0 252
0 0 254
0 0 255
0 0 255
0 0 255
0 0 255
0 0 254
0 0 255
0 0 255
0 0 253
0 0 254
0 0 255
0 0 255
0 0 254
0 0 255
0 0 252
0 0 254
0 0 254
0 0 252
0 0 253
0 0 254
0 0 255
0 0 254
0 0 255
0 0 255
0 0 254
0 0 253
0 0 252
0 0 254
0 0 253
0 0 254
0 0 254
0 0 254
0 0 255
0 0 253
0 0 255
0 0 253
0 0 255
0 0 255
0 0 252
0 0 255
0 0 254
0 0 253
0 0 254
0 0 252
0 0 254
0 0 250
0 0 250
0 0 254
0 0 254
0 0 252
0 0 250
0 0 254
0 0 254
0 0 255
0 0 250
0 0 254
0 0 253
0 0 252
0 0 255
0 0 254
0 0 254
0 0 255
0 0 254
0 0 254
0 0 254
0 0 252
0 0 255
0 0 250
0 0 253
0 0 255
0 0 250
0 0 253
0 0 253
0 0 252
0 0 248
0 0 250
0 0 250
0 0 252
0 0 252
0 0 250
0 0 255
0 0 250
0 0 253
0 0 248
0 0 252
0 0 252
0 0 250
0 0 255
0 0 249
0 0 254
0 0 248
0 0 249
0 0 254
0 0 253
0 0 250
0 0 252
0 0 246
0 0 250
0 0 246
0 0 253
0 0 248
0 0 250
0 0 249
0 0 253
0 0 253
0 0 253
0 0 250
0 0 246
0 0 249
0 0 246
0 0 246
0 0 250
0 0 250
0 0 244
0 0 245
0 0 242
0 0 245
0 0 252
0 0 245
0 0 254
0 0 242
0 0 246
0 0 245
0 0 249
0 0 249
0 0 249
0 0 245
0 0 250
0 0 242
0 0 241
0 0 242
0 0 241
0 0 246
0 0 242
0 0 241
0 0 244
0 0 242
0 0 240
0 0 240
0 0 238
0 0 238
0 0 237
0 0 240
0 0 237
0 0 237
0 0 240
0 0 234
0 0 244
0 0 240
0 0 238
0 0 230
0 0 236
0 0 241
0 0 238
0 0 228
0 0 238
0 0 227
0 0 227
0 0 237
0 0 241
0 0 233
0 0 226
0 0 238
0 0 224
0 0 223
0 0 218
0 0 226
0 0 231
0 0 220
0 0 228
0 0 226
0 0 233
0 0 227
0 0 220
0 0 217
0 0 220
0 0 199
0 0 196
0 0 201
0 0 207
0 0 196
0 0 215
0 0 196
0 0 191
0 0 193
0 0 191
0 0 182
0 0 171
0 0 184
0 0 181
0 0 173
0 0 163
0 0 149
0 0 157
0 0 157
0 0 80
0 0 105
0 0 95
105 112 142
102 94 102
62 0 0
90 0 0
108 0 0
100 0 0
134 0 0
116 0 0
130 0 0
153 0 0
140 0 0
141 0 0
160 0 0
163 0 0
173 0 0
163 0 0
169 0 0
161 0 0
170 0 0
172 0 0
176 0 0
188 0 0
184 0 0
186 0 0
177 0 0
169 0 0
182 0 0
196 0 0
182 0 0
194 0 0
189 0 0
197 0 0
191 0 0
194 0 0
202 0 0
199 0 0
199 0 0
193 0 0
191 0 0
195 0 0
209 0 0
197 0 0
195 0 0
205 0 0
203 0 0
202 0 0
197 0 0
202 0 0
204 0 0
196 0 0
202 0 0
198 0 0
207 0 0
207 0 0
201 0 0
207 0 0
199 0 0
205 0 0
205 0 0
202 0 0
205 0 0
213 0 0
207 0 0
211 0 0
203 0 0
206 0 0
203 0 0
205 0 0
207 0 0
211 0 0
211 0 0
208 0 0
211 0 0
211 0 0
214 0 0
209 0 0
217 0 0
213 0 0
208 0 0
209 0 0
212 0 0
211 0 0
211 0 0
211 0 0
213 0 0
210 0 0
218 0 0
210 0 0
215 0 0
215 0 0
216 0 0
214 0 0
216 0 0
215 0 0
215 0 0
214 0 0
213 0 0
215 0 0
216 0 0
219 0 0
211 0 0
219 0 0
212 0 0
219 0 0
212 0 0
218 0 0
220 0 0
215 0 0
209 0 0
220 0 0
220 0 0
221 0 0
216 0 0
221 0 0
214 0 0
217 0 0
219 0 0
216 0 0
216 0 0
217 0 0
215 0 0
218 0 0
220 0 0
217 0 0
216 0 0
217 0 0
225 0 0
222 0 0
222 0 0
212 0 0
215 0 0
221 0 0
217 0 0
219 0 0
216 0 0
217 0 0
219 0 0
221 0 0
215 0 0
216 0 0
218 0 0
220 0 0
215 0 0
216 0 0
219 0 0
219 0 0
220 0 0
218 0 0
216 0 0
219 0 0
219 0 0
218 0 0
220 0 0
219 0 0
219 0 0
216 0 0
214 0 0
217 0 0
219 0 0
218 0 0
217 0 0
221 0 0
219 0 0
217 0 0
223 0 0
218 0 0
221 0 0
220 0 0
216 0 0
217 0 0
220 0 0
220 0 0
220 0 0
223 0 0
218 0 0
220 0 0
220 0 0
219 0 0
219 0 0
223 0 0
220 0 0
219 0 0
223 0 0
220 0 0
216 0 0
218 0 0
220 0 0
221 0 0
222 0 0
223 0 0
221 0 0
220 0 0
221 0 0
219 0 0
218 0 0
217 0 0
222 0 0
217 0 0
220 0 0
223 0 0
222 0 0
0 0 254
0 0 254
0 0 255
0 0 255
0 0 254
0 0 254
0 0 255
0 0 255
0 0 255
0 0 254
0 0 255
0 0 255
0 0 254
0 0 253
0 0 252
0 0 254
0 0 254
0 0 254
0 0 255
0 0 255
0 0 255
0 0 255
0 0 254
0 0 255
0 0 255
0 0 252
0 0 254
0 0 255
0 0 254
0 0 253
0 0 252
0 0 255
0 0 253
0 0 253
0 0 255
0 0 253
0 0 255
0 0 255
0 0 253
0 0 253
0 0 253
0 0 253
0 0 255
0 0 253
0 0 254
0 0 253
0 0 252
0 0 252
0 0 253
0 0 254
0 0 252
0 0 252
0 0 254
0 0 252
0 0 250
0 0 254
0 0 254
0 0 255
0 0 252
0 0 255
0 0 252
0 0 254
0 0 254
0 0 252
0 0 253
0 0 252
0 0 253
0 0 252
0 0 250
0 0 253
0 0 254
0 0 250
0 0 255
0 0 253
0 0 252
0 0 252
0 0 254
0 0 250
0 0 253
0 0 252
0 0 250
0 0 253
0 0 249
0 0 249
0 0 249
0 0 252
0 0 254
0 0 252
0 0 252
0 0 246
0 0 252
0 0 252
0 0 248
0 0 253
0 0 249
0 0 249
0 0 249
0 0 244
0 0 249
0 0 248
0 0 245
0 0 246
0 0 253
0 0 250
0 0 246
0 0 250
0 0 249
0 0 248
0 0 246
0 0 249
0 0 248
0 0 248
0 0 244
0 0 248
0 0 249
0 0 253
0 0 245
0 0 242
0 0 245
0 0 242
0 0 246
0 0 240
0 0 246
0 0 244
0 0 240
0 0 246
0 0 248
0 0 240
0 0 240
0 0 242
0 0 242
0 0 245
0 0 248
0 0 236
0 0 248
0 0 246
0 0 231
0 0 240
0 0 246
0 0 238
0 0 244
0 0 244
0 0 248
0 0 241
0 0 248
0 0 246
0 0 246
0 0 240
0 0 242
0 0 242
0 0 236
0 0 230
0 0 237
0 0 224
0 0 244
0 0 236
0 0 234
0 0 236
0 0 234
0 0 224
0 0 231
0 0 226
0 0 236
0 0 226
0 0 234
0 0 223
0 0 226
0 0 227
0 0 221
0 0 227
0 0 231
0 0 214
0 0 224
0 0 224
0 0 217
0 0 215
0 0 220
0 0 203
0 0 212
0 0 204
0 0 194
0 0 209
0 0 199
0 0 203
0 0 194
0 0 186
0 0 179
0 0 171
0 0 179
0 0 191
0 0 153
0 0 159
0 0 161
0 0 157
0 0 153
0 0 133
0 0 80
0 0 92
0 0 111
58 62 88
86 70 76
56 0 0
96 0 0
112 0 0
107 0 0
119 0 0
135 0 0
130 0 0
131 0 0
137 0 0
158 0 0
158 0 0
153 0 0
160 0 0
172 0 0
169 0 0
157 0 0
177 0 0
170 0 0
162 0 0
195 0 0
180 0 0
182 0 0
181 0 0
179 0 0
188 0 0
179 0 0
186 0 0
185 0 0
190 0 0
196 0 0
198 0 0
191 0 0
191 0 0
202 0 0
193 0 0
198 0 0
187 0 0
200 0 0
203 0 0
199 0 0
197 0 0
205 0 0
202 0 0
197 0 0
199 0 0
199 0 0
205 0 0
195 0 0
197 0 0
196 0 0
208 0 0
211 0 0
203 0 0
196 0 0
211 0 0
198 0 0
199 0 0
209 0 0
207 0 0
211 0 0
211 0 0
208 0 0
204 0 0
207 0 0
213 0 0
213 0 0
211 0 0
208 0 0
217 0 0
214 0 0
214 0 0
213 0 0
211 0 0
217 0 0
207 0 0
205 0 0
209 0 0
210 0 0
211 0 0
214 0 0
218 0 0
215 0 0
212 0 0
216 0 0
213 0 0
217 0 0
217 0 0
215 0 0
213 0 0
207 0 0
213 0 0
219 0 0
210 0 0
215 0 0
218 0 0
215 0 0
217 0 0
218 0 0
216 0 0
218 0 0
218 0 0
213 0 0
213 0 0
217 0 0
211 0 0
216 0 0
214 0 0
213 0 0
217 0 0
215 0 0
220 0 0
215 0 0
223 0 0
214 0 0
215 0 0
216 0 0
220 0 0
221 0 0
220 0 0
216 0 0
216 0 0
215 0 0
223 0 0
220 0 0
216 0 0
221 0 0
213 0 0
219 0 0
215 0 0
215 0 0
220 0 0
217 0 0
220 0 0
218 0 0
217 0 0
213 0 0
222 0 0
217 0 0
219 0 0
219 0 0
219 0 0
216 0 0
218 0 0
220 0 0
218 0 0
222 0 0
219 0 0
218 0 0
219 0 0
218 0 0
220 0 0
217 0 0
218 0 0
212 0 0
223 0 0
218 0 0
217 0 0
217 0 0
220 0 0
220 0 0
217 0 0
218 0 0
218 0 0
220 0 0
221 0 0
219 0 0
218 0 0
221 0 0
219 0 0
217 0 0
219 0 0
221 0 0
218 0 0
222 0 0
224 0 0
219 0 0
220 0 0
221 0 0
218 0 0
220 0 0
223 0 0
219 0 0
218 0 0
217 0 0
222 0 0
220 0 0
217 0 0
222 0 0
219 0 0
216 0 0
222 0 0
216 0 0
221 0 0
219 0 0
220 0 0
218 0 0
223 0 0
219 0 0
219 0 0
0 0 253
0 0 255
0 0 255
0 0 255
0 0 254
0 0 254
0 0 255
0 0 255
0 0 255
0 0 254
0 0 254
0 0 254
0 0 255
0 0 254
0 0 254
0 0 255
0 0 254
0 0 253
0 0 253
0 0 255
0 0 254
0 0 255
0 0 255
0 0 255
0 0 255
0 0 255
0 0 254
0 0 255
0 0 255
0 0 254
0 0 252
0 0 255
0 0 255
0 0 254
0 0 253
0 0 254
0 0 254
0 0 254
0 0 252
0 0 254
0 0 250
0 0 255
0 0 254
0 0 252
0 0 254
0 0 253
0 0 253
0 0 253
0 0 255
0 0 254
0 0 255
0 0 250
0 0 253
0 0 254
0 0 253
0 0 253
0 0 252
0 0 254
0 0 253
0 0 253
0 0 252
0 0 254
0 0 246
0 0 254
0 0 250
0 0 255
0 0 253
0 0 253
0 0 249
0 0 253
0 0 254
0 0 248
0 0 249
0 0 253
0 0 254
0 0 250
0 0 248
0 0 253
0 0 252
0 0 249
0 0 254
0 0 252
0 0 254
0 0 252
0 0 248
0 0 250
0 0 252
0 0 254
0 0 249
0 0 252
0 0 253
0 0 252
0 0 255
0 0 248
0 0 248
0 0 249
0 0 253
0 0 250
0 0 249
0 0 249
0 0 246
0 0 253
0 0 250
0 0 250
0 0 249
0 0 242
0 0 249
0 0 244
0 0 244
0 0 246
0 0 241
0 0 245
0 0 246
0 0 244
0 0 244
0 0 245
0 0 246
0 0 246
0 0 245
0 0 240
0 0 248
0 0 246
0 0 245
0 0 248
0 0 238
0 0 242
0 0 250
0 0 241
0 0 244
0 0 242
0 0 245
0 0 244
0 0 244
0 0 242
0 0 241
0 0 248
0 0 241
0 0 241
0 0 242
0 0 238
0 0 231
0 0 245
0 0 248
0 0 237
0 0 238
0 0 237
0 0 244
0 0 241
0 0 236
0 0 233
0 0 242
0 0 223
0 0 241
0 0 237
0 0 240
0 0 240
0 0 230
0 0 231
0 0 228
0 0 230
0 0 224
0 0 234
0 0 214
0 0 221
0 0 231
0 0 218
0 0 228
0 0 227
0 0 220
0 0 233
0 0 227
0 0 212
0 0 211
0 0 223
0 0 215
0 0 221
0 0 217
0 0 207
0 0 214
0 0 215
0 0 211
0 0 209
0 0 196
0 0 209
0 0 196
0 0 193
0 0 182
0 0 177
0 0 191
0 0 171
0 0 188
0 0 159
0 0 159
0 0 167
0 0 159
0 0 130
0 0 130
0 0 108
0 0 72
38 40 76
74 66 72
85 0 0
104 0 0
97 0 0
119 0 0
133 0 0
148 0 0
147 0 0
146 0 0
147 0 0
154 0 0
150 0 0
174 0 0
167 0 0
166 0 0
177 0 0
171 0 0
175 0 0
183 0 0
180 0 0
184 0 0
173 0 0
187 0 0
178 0 0
193 0 0
190 0 0
184 0 0
196 0 0
198 0 0
187 0 0
187 0 0
186 0 0
203 0 0
197 0 0
186 0 0
195 0 0
194 0 0
210 0 0
197 0 0
190 0 0
197 0 0
202 0 0
198 0 0
203 0 0
203 0 0
198 0 0
205 0 0
204 0 0
187 0 0
201 0 0
200 0 0
209 0 0
208 0 0
201 0 0
210 0 0
208 0 0
203 0 0
214 0 0
205 0 0
209 0 0
209 0 0
213 0 0
209 0 0
209 0 0
208 0 0
207 0 0
212 0 0
211 0 0
209 0 0
212 0 0
210 0 0
213 0 0
215 0 0
208 0 0
212 0 0
217 0 0
212 0 0
216 0 0
210 0 0
212 0 0
210 0 0
210 0 0
211 0 0
212 0 0
217 0 0
211 0 0
210 0 0
213 0 0
213 0 0
210 0 0
216 0 0
209 0 0
212 0 0
215 0 0
209 0 0
218 0 0
217 0 0
212 0 0
219 0 0
215 0 0
214 0 0
213 0 0
220 0 0
215 0 0
222 0 0
214 0 0
220 0 0
213 0 0
217 0 0
215 0 0
212 0 0
218 0 0
216 0 0
219 0 0
219 0 0
220 0 0
218 0 0
212 0 0
219 0 0
217 0 0
219 0 0
221 0 0
216 0 0
220 0 0
217 0 0
216 0 0
215 0 0
218 0 0
214 0 0
216 0 0
220 0 0
214 0 0
216 0 0
217 0 0
220 0 0
221 0 0
213 0 0
215 0 0
216 0 0
222 0 0
219 0 0
220 0 0
217 0 0
217 0 0
221 0 0
217 0 0
214 0 0
219 0 0
222 0 0
216 0 0
220 0 0
219 0 0
222 0 0
218 0 0
219 0 0
223 0 0
221 0 0
219 0 0
216 0 0
216 0 0
220 0 0
215 0 0
219 0 0
222 0 0
223 0 0
222 0 0
221 0 0
220 0 0
219 0 0
220 0 0
216 0 0
220 0 0
222 0 0
217 0 0
219 0 0
220 0 0
220 0 0
222 0 0
220 0 0
219 0 0
219 0 0
216 0 0
216 0 0
212 0 0
222 0 0
217 0 0
223 0 0
225 0 0
220 0 0
222 0 0
221 0 0
222 0 0
221 0 0
221 0 0
221 0 0
216 0 0
219 0 0
218 0 0
224 0 0
221 0 0
0 0 255
0 0 254
0 0 254
0 0 255
0 0 255
0 0 255
0 0 255
0 0 254
0 0 255
0 0 255
0 0 254
0 0 254
0 0 254
0 0 255
0 0 255
0 0 254
0 0 254
0 0 255
0 0 255
0 0 255
0 0 255
0 0 255
0 0 255
0 0 253
0 0 255
0 0 254
0 0 254
0 0 254
0 0 254
0 0 255
0 0 255
0 0 253
0 0 254
0 0 250
0 0 252
0 0 253
0 0 254
0 0 255
0 0 253
0 0 255
0 0 254
0 0 254
0 0 253
0 0 254
0 0 253
0 0 255
0 0 255
0 0 253
0 0 253
0 0 255
0 0 254
0 0 255
0 0 254
0 0 250
0 0 252
0 0 252
0 0 252
0 0 254
0 0 254
0 0 253
0 0 253
0 0 252
0 0 252
0 0 255
0 0 253
0 0 255
0 0 253
0 0 255
0 0 253
0 0 253
0 0 252
0 0 253
0 0 249
0 0 255
0 0 253
0 0 254
0 0 249
0 0 250
0 0 253
0 0 249
0 0 248
0 0 250
0 0 252
0 0 254
0 0 254
0 0 245
0 0 250
0 0 250
0 0 253
0 0 254
0 0 250
0 0 253
0 0 250
0 0 246
0 0 250
0 0 252
0 0 242
0 0 252
0 0 252
0 0 252
0 0 250
0 0 250
0 0 249
0 0 252
0 0 248
0 0 246
0 0 252
0 0 248
0 0 249
0 0 250
0 0 246
0 0 252
0 0 246
0 0 248
0 0 241
0 0 252
0 0 248
0 0 246
0 0 244
0 0 249
0 0 241
0 0 245
0 0 246
0 0 237
0 0 245
0 0 246
0 0 249
0 0 245
0 0 246
0 0 240
0 0 249
0 0 245
0 0 246
0 0 249
0 0 245
0 0 244
0 0 238
0 0 249
0 0 245
0 0 241
0 0 248
0 0 240
0 0 240
0 0 240
0 0 234
0 0 230
0 0 234
0 0 237
0 0 233
0 0 236
0 0 236
0 0 231
0 0 234
0 0 236
0 0 230
0 0 236
0 0 234
0 0 231
0 0 228
0 0 230
0 0 228
0 0 226
0 0 212
0 0 220
0 0 231
0 0 228
0 0 233
0 0 233
0 0 228
0 0 218
0 0 220
0 0 211
0 0 204
0 0 212
0 0 217
0 0 209
0 0 214
0 0 201
0 0 211
0 0 218
0 0 206
0 0 198
0 0 203
0 0 201
0 0 203
0 0 201
0 0 198
0 0 169
0 0 194
0 0 179
0 0 189
0 0 177
0 0 144
0 0 157
0 0 159
0 0 142
0 0 125
0 0 111
0 0 95
0 0 51
61 23 25
93 0 0
105 0 0
110 0 0
122 0 0
120 0 0
120 0 0
135 0 0
157 0 0
173 0 0
158 0 0
168 0 0
167 0 0
162 0 0
170 0 0
175 0 0
168 0 0
160 0 0
190 0 0
188 0 0
189 0 0
176 0 0
181 0 0
186 0 0
182 0 0
192 0 0
181 0 0
192 0 0
191 0 0
185 0 0
188 0 0
191 0 0
201 0 0
197 0 0
193 0 0
193 0 0
194 0 0
193 0 0
197 0 0
202 0 0
194 0 0
206 0 0
195 0 0
199 0 0
199 0 0
204 0 0
203 0 0
200 0 0
201 0 0
210 0 0
207 0 0
198 0 0
205 0 0
203 0 0
211 0 0
208 0 0
205 0 0
204 0 0
212 0 0
208 0 0
210 0 0
208 0 0
204 0 0
212 0 0
208 0 0
208 0 0
217 0 0
214 0 0
195 0 0
208 0 0
214 0 0
210 0 0
213 0 0
209 0 0
214 0 0
206 0 0
214 0 0
215 0 0
218 0 0
209 0 0
214 0 0
216 0 0
214 0 0
220 0 0
215 0 0
212 0 0
215 0 0
218 0 0
218 0 0
213 0 0
214 0 0
219 0 0
210 0 0
215 0 0
218 0 0
213 0 0
209 0 0
217 0 0
216 0 0
212 0 0
219 0 0
217 0 0
215 0 0
215 0 0
219 0 0
220 0 0
218 0 0
217 0 0
220 0 0
219 0 0
216 0 0
220 0 0
208 0 0
216 0 0
218 0 0
217 0 0
218 0 0
216 0 0
217 0 0
219 0 0
216 0 0
219 0 0
217 0 0
219 0 0
215 0 0
222 0 0
225 0 0
216 0 0
216 0 0
215 0 0
220 0 0
221 0 0
218 0 0
224 0 0
220 0 0
220 0 0
221 0 0
220 0 0
222 0 0
213 0 0
222 0 0
223 0 0
215 0 0
218 0 0
219 0 0
220 0 0
221 0 0
222 0 0
217 0 0
219 0 0
218 0 0
219 0 0
220 0 0
220 0 0
224 0 0
217 0 0
219 0 0
217 0 0
221 0 0
220 0 0
219 0 0
219 0 0
221 0 0
220 0 0
222 0 0
215 0 0
217 0 0
221 0 0
220 0 0
222 0 0
221 0 0
221 0 0
220 0 0
219 0 0
220 0 0
220 0 0
223 0 0
219 0 0
221 0 0
220 0 0
220 0 0
220 0 0
221 0 0
221 0 0
220 0 0
222 0 0
218 0 0
221 0 0
220 0 0
219 0 0
220 0 0
220 0 0
221 0 0
224 0 0
221 0 0
221 0 0
223 0 0
219 0 0
223 0 0
218 0 0
0 0 254
0 0 255
0 0 255
0 0 255
0 0 255
0 0 255
0 0 254
0 0 254
0 0 255
0 0 255
0 0 255
0 0 253
0 0 255
0 0 253
0 0 253
0 0 254
0 0 255
0 0 255
0 0 255
0 0 255
0 0 254
0 0 255
0 0 254
0 0 254
0 0 255
0 0 254
0 0 253
0 0 255
0 0 254
0 0 255
0 0 253
0 0 255
0 0 254
0 0 255
0 0 254
0 0 255
0 0 252
0 0 254
0 0 253
0 0 250
0 0 255
0 0 255
0 0 254
0 0 253
0 0 252
0 0 254
0 0 250
0 0 254
0 0 254
0 0 252
0 0 254
0 0 253
0 0 254
0 0 254
0 0 248
0 0 253
0 0 255
0 0 253
0 0 253
0 0 253
0 0 253
0 0 249
0 0 255
0 0 255
0 0 254
0 0 253
0 0 254
0 0 252
0 0 249
0 0 252
0 0 250
0 0 253
0 0 253
0 0 252
0 0 252
0 0 252
0 0 252
0 0 253
0 0 253
0 0 252
0 0 252
0 0 250
0 0 252
0 0 253
0 0 250
0 0 250
0 0 254
0 0 246
0 0 254
0 0 252
0 0 254
0 0 252
0 0 248
0 0 250
0 0 254
0 0 248
0 0 250
0 0 252
0 0 250
0 0 246
0 0 248
0 0 250
0 0 246
0 0 245
0 0 254
0 0 248
0 0 249
0 0 242
0 0 250
0 0 246
0 0 244
0 0 250
0 0 246
0 0 253
0 0 244
0 0 248
0 0 248
0 0 245
0 0 248
0 0 246
0 0 245
0 0 245
0 0 244
0 0 246
0 0 249
0 0 248
0 0 246
0 0 238
0 0 242
0 0 244
0 0 246
0 0 245
0 0 242
0 0 246
0 0 242
0 0 244
0 0 244
0 0 244
0 0 241
0 0 242
0 0 245
0 0 242
0 0 245
0 0 230
0 0 237
0 0 240
0 0 236
0 0 236
0 0 233
0 0 240
0 0 234
0 0 237
0 0 234
0 0 237
0 0 241
0 0 242
0 0 238
0 0 238
0 0 226
0 0 240
0 0 220
0 0 236
0 0 228
0 0 234
0 0 211
0 0 226
0 0 238
0 0 223
0 0 211
0 0 226
0 0 214
0 0 221
0 0 217
0 0 218
0 0 212
0 0 206
0 0 221
0 0 212
0 0 206
0 0 207
0 0 211
0 0 201
0 0 204
0 0 194
0 0 193
0 0 189
0 0 199
0 0 175
0 0 189
0 0 188
0 0 159
0 0 161
0 0 157
0 0 161
0 0 142
0 0 142
0 0 114
0 0 114
0 0 99
22 23 67
54 23 25
65 0 0
92 0 0
104 0 0
102 0 0
133 0 0
135 0 0
140 0 0
144 0 0
146 0 0
147 0 0
156 0 0
152 0 0
159 0 0
174 0 0
166 0 0
163 0 0
189 0 0
170 0 0
182 0 0
168 0 0
187 0 0
193 0 0
195 0 0
192 0 0
175 0 0
187 0 0
198 0 0
195 0 0
182 0 0
191 0 0
188 0 0
186 0 0
208 0 0
200 0 0
190 0 0
202 0 0
198 0 0
207 0 0
199 0 0
198 0 0
200 0 0
207 0 0
196 0 0
198 0 0
188 0 0
199 0 0
199 0 0
199 0 0
207 0 0
210 0 0
200 0 0
209 0 0
210 0 0
207 0 0
210 0 0
197 0 0
208 0 0
202 0 0
205 0 0
205 0 0
213 0 0
215 0 0
207 0 0
210 0 0
202 0 0
209 0 0
212 0 0
219 0 0
211 0 0
213 0 0
210 0 0
212 0 0
215 0 0
214 0 0
208 0 0
210 0 0
213 0 0
218 0 0
207 0 0
211 0 0
206 0 0
216 0 0
211 0 0
208 0 0
203 0 0
214 0 0
221 0 0
214 0 0
213 0 0
211 0 0
216 0 0
212 0 0
214 0 0
211 0 0
210 0 0
216 0 0
217 0 0
218 0 0
211 0 0
220 0 0
214 0 0
218 0 0
210 0 0
217 0 0
214 0 0
213 0 0
220 0 0
219 0 0
212 0 0
220 0 0
215 0 0
216 0 0
217 0 0
221 0 0
217 0 0
223 0 0
217 0 0
217 0 0
217 0 0
217 0 0
220 0 0
216 0 0
219 0 0
218 0 0
219 0 0
216 0 0
216 0 0
220 0 0
214 0 0
217 0 0
219 0 0
221 0 0
218 0 0
216 0 0
218 0 0
222 0 0
214 0 0
218 0 0
219 0 0
221 0 0
213 0 0
221 0 0
220 0 0
218 0 0
220 0 0
225 0 0
219 0 0
221 0 0
216 0 0
224 0 0
219 0 0
219 0 0
219 0 0
221 0 0
223 0 0
220 0 0
221 0 0
218 0 0
222 0 0
220 0 0
219 0 0
220 0 0
218 0 0
222 0 0
220 0 0
217 0 0
222 0 0
218 0 0
223 0 0
222 0 0
218 0 0
216 0 0
216 0 0
220 0 0
217 0 0
222 0 0
223 0 0
223 0 0
219 0 0
221 0 0
223 0 0
223 0 0
218 0 0
222 0 0
220 0 0
220 0 0
219 0 0
221 0 0
218 0 0
221 0 0
224 0 0
219 0 0
223 0 0
221 0 0
220 0 0
221 0 0
221 0 0
221 0 0
219 0 0
0 0 253
0 0 254
0 0 255
0 0 255
0 0 255
0 0 254
0 0 255
0 0 255
0 0 254
0 0 255
0 0 255
0 0 255
0 0 255
0 0 254
0 0 254
0 0 255
0 0 255
0 0 255
0 0 255
0 0 255
0 0 253
0 0 255
0 0 255
0 0 254
0 0 255
0 0 254
0 0 254
0 0 255
0 0 255
0 0 254
0 0 253
0 0 254
0 0 254
0 0 255
0 0 254
0 0 255
0 0 254
0 0 255
0 0 254
0 0 254
0 0 254
0 0 255
0 0 254
0 0 253
0 0 253
0 0 249
0 0 253
0 0 254
0 0 253
0 0 255
0 0 254
0 0 255
0 0 253
0 0 255
0 0 253
0 0 254
0 0 253
0 0 254
0 0 253
0 0 248
0 0 253
0 0 253
0 0 254
0 0 252
0 0 252
0 0 249
0 0 253
0 0 254
0 0 252
0 0 252
0 0 252
0 0 250
0 0 253
0 0 249
0 0 253
0 0 253
0 0 252
0 0 252
0 0 254
0 0 254
0 0 250
0 0 249
0 0 248
0 0 250
0 0 250
0 0 250
0 0 254
0 0 248
0 0 253
0 0 253
0 0 246
0 0 250
0 0 249
0 0 250
0 0 253
0 0 252
0 0 252
0 0 252
0 0 249
0 0 245
0 0 250
0 0 246
0 0 249
0 0 249
0 0 250
0 0 246
0 0 249
0 0 245
0 0 250
0 0 252
0 0 245
0 0 244
0 0 248
0 0 240
0 0 241
0 0 245
0 0 248
0 0 248
0 0 244
0 0 248
0 0 234
0 0 238
0 0 246
0 0 246
0 0 248
0 0 242
0 0 238
0 0 244
0 0 240
0 0 237
0 0 245
0 0 237
0 0 246
0 0 241
0 0 241
0 0 249
0 0 246
0 0 244
0 0 244
0 0 244
0 0 237
0 0 240
0 0 244
0 0 238
0 0 238
0 0 245
0 0 246
0 0 230
0 0 231
0 0 238
0 0 237
0 0 233
0 0 237
0 0 234
0 0 236
0 0 237
0 0 240
0 0 231
0 0 230
0 0 236
0 0 236
0 0 226
0 0 230
0 0 211
0 0 237
0 0 227
0 0 221
0 0 221
0 0 211
0 0 223
0 0 218
0 0 224
0 0 227
0 0 212
0 0 215
0 0 207
0 0 204
0 0 211
0 0 211
0 0 217
0 0 211
0 0 217
0 0 201
0 0 198
0 0 196
0 0 193
0 0 206
0 0 181
0 0 186
0 0 179
0 0 175
0 0 169
0 0 167
0 0 161
0 0 140
0 0 147
0 0 142
0 0 92
0 0 88
0 0 44
58 0 0
68 0 0
93 0 0
105 0 0
111 0 0
136 0 0
125 0 0
122 0 0
138 0 0
138 0 0
160 0 0
149 0 0
135 0 0
152 0 0
166 0 0
166 0 0
151 0 0
183 0 0
171 0 0
175 0 0
183 0 0
183 0 0
187 0 0
187 0 0
188 0 0
177 0 0
197 0 0
181 0 0
200 0 0
191 0 0
187 0 0
192 0 0
197 0 0
190 0 0
199 0 0
196 0 0
196 0 0
205 0 0
199 0 0
205 0 0
195 0 0
200 0 0
198 0 0
200 0 0
196 0 0
195 0 0
202 0 0
205 0 0
204 0 0
201 0 0
200 0 0
200 0 0
210 0 0
207 0 0
204 0 0
205 0 0
209 0 0
207 0 0
211 0 0
202 0 0
213 0 0
206 0 0
212 0 0
205 0 0
206 0 0
217 0 0
212 0 0
205 0 0
211 0 0
210 0 0
212 0 0
215 0 0
208 0 0
213 0 0
211 0 0
215 0 0
214 0 0
211 0 0
212 0 0
210 0 0
213 0 0
218 0 0
219 0 0
214 0 0
213 0 0
213 0 0
210 0 0
217 0 0
218 0 0
215 0 0
212 0 0
219 0 0
209 0 0
206 0 0
211 0 0
218 0 0
218 0 0
218 0 0
213 0 0
213 0 0
214 0 0
216 0 0
218 0 0
217 0 0
210 0 0
212 0 0
214 0 0
218 0 0
220 0 0
212 0 0
220 0 0
219 0 0
215 0 0
219 0 0
215 0 0
215 0 0
220 0 0
221 0 0
215 0 0
219 0 0
220 0 0
214 0 0
214 0 0
214 0 0
217 0 0
217 0 0
220 0 0
215 0 0
221 0 0
220 0 0
220 0 0
217 0 0
219 0 0
223 0 0
214 0 0
223 0 0
215 0 0
219 0 0
220 0 0
224 0 0
219 0 0
217 0 0
221 0 0
219 0 0
217 0 0
217 0 0
221 0 0
221 0 0
220 0 0
217 0 0
218 0 0
218 0 0
217 0 0
220 0 0
218 0 0
214 0 0
216 0 0
219 0 0
222 0 0
223 0 0
221 0 0
219 0 0
221 0 0
219 0 0
223 0 0
221 0 0
218 0 0
220 0 0
219 0 0
218 0 0
218 0 0
219 0 0
221 0 0
220 0 0
220 0 0
220 0 0
221 0 0
223 0 0
217 0 0
221 0 0
217 0 0
225 0 0
222 0 0
221 0 0
220 0 0
220 0 0
222 0 0
220 0 0
223 0 0
219 0 0
221 0 0
220 0 0
220 0 0
221 0 0
222 0 0
221 0 0
223 0 0
216 0 0
218 0 0
224 0 0
0 0 255
0 0 254
0 0 255
0 0 255
0 0 255
0 0 254
0 0 253
0 0 255
0 0 253
0 0 254
0 0 254
0 0 255
0 0 254
0 0 254
0 0 255
0 0 255
0 0 253
0 0 255
0 0 255
0 0 254
0 0 255
0 0 253
0 0 254
0 0 254
0 0 254
0 0 255
0 0 253
0 0 252
0 0 254
0 0 255
0 0 254
0 0 254
0 0 255
0 0 254
0 0 253
0 0 255
0 0 255
0 0 255
0 0 254
0 0 253
0 0 254
0 0 254
0 0 252
0 0 254
0 0 254
0 0 255
0 0 255
0 0 253
0 0 253
0 0 253
0 0 254
0 0 252
0 0 254
0 0 253
0 0 254
0 0 254
0 0 252
0 0 252
0 0 253
0 0 253
0 0 249
0 0 253
0 0 252
0 0 254
0 0 253
0 0 250
0 0 249
0 0 249
0 0 255
0 0 252
0 0 253
0 0 250
0 0 253
0 0 250
0 0 255
0 0 252
0 0 250
0 0 255
0 0 253
0 0 250
0 0 252
0 0 253
0 0 252
0 0 252
0 0 253
0 0 253
0 0 250
0 0 253
0 0 249
0 0 246
0 0 253
0 0 248
0 0 250
0 0 249
0 0 253
0 0 249
0 0 248
0 0 248
0 0 249
0 0 246
0 0 252
0 0 244
0 0 245
0 0 252
0 0 246
0 0 252
0 0 248
0 0 255
0 0 246
0 0 246
0 0 250
0 0 252
0 0 246
0 0 253
0 0 245
0 0 246
0 0 249
0 0 242
0 0 245
0 0 245
0 0 244
0 0 240
0 0 249
0 0 238
0 0 252
0 0 241
0 0 245
0 0 248
0 0 241
0 0 242
0 0 246
0 0 240
0 0 237
0 0 242
0 0 241
0 0 234
0 0 244
0 0 242
0 0 246
0 0 241
0 0 238
0 0 240
0 0 242
0 0 234
0 0 240
0 0 224
0 0 242
0 0 240
0 0 238
0 0 237
0 0 236
0 0 236
0 0 228
0 0 234
0 0 228
0 0 233
0 0 233
0 0 237
0 0 234
0 0 231
0 0 234
0 0 233
0 0 227
0 0 224
0 0 234
0 0 226
0 0 212
0 0 224
0 0 237
0 0 212
0 0 224
0 0 220
0 0 224
0 0 215
0 0 217
0 0 220
0 0 214
0 0 218
0 0 209
0 0 214
0 0 198
0 0 196
0 0 209
0 0 212
0 0 177
0 0 189
0 0 189
0 0 181
0 0 173
0 0 177
0 0 175
0 0 161
0 0 182
0 0 165
0 0 163
0 0 133
0 0 117
0 0 105
0 0 88
31 33 67
60 33 36
71 0 0
93 0 0
109 0 0
118 0 0
129 0 0
116 0 0
159 0 0
139 0 0
146 0 0
141 0 0
166 0 0
161 0 0
163 0 0
184 0 0
175 0 0
163 0 0
179 0 0
188 0 0
182 0 0
175 0 0
189 0 0
192 0 0
186 0 0
192 0 0
179 0 0
194 0 0
183 0 0
185 0 0
189 0 0
194 0 0
182 0 0
192 0 0
183 0 0
194 0 0
207 0 0
197 0 0
192 0 0
195 0 0
204 0 0
205 0 0
206 0 0
200 0 0
207 0 0
202 0 0
201 0 0
203 0 0
198 0 0
208 0 0
210 0 0
207 0 0
204 0 0
205 0 0
204 0 0
213 0 0
200 0 0
206 0 0
205 0 0
198 0 0
208 0 0
196 0 0
206 0 0
208 0 0
204 0 0
212 0 0
213 0 0
214 0 0
205 0 0
208 0 0
210 0 0
208 0 0
215 0 0
202 0 0
214 0 0
216 0 0
215 0 0
217 0 0
211 0 0
213 0 0
210 0 0
212 0 0
213 0 0
221 0 0
215 0 0
209 0 0
209 0 0
211 0 0
211 0 0
211 0 0
215 0 0
222 0 0
210 0 0
214 0 0
215 0 0
218 0 0
220 0 0
216 0 0
219 0 0
216 0 0
220 0 0
215 0 0
220 0 0
221 0 0
214 0 0
209 0 0
219 0 0
215 0 0
217 0 0
218 0 0
217 0 0
223 0 0
216 0 0
211 0 0
216 0 0
220 0 0
214 0 0
217 0 0
221 0 0
213 0 0
218 0 0
220 0 0
217 0 0
218 0 0
220 0 0
219 0 0
222 0 0
219 0 0
214 0 0
217 0 0
214 0 0
213 0 0
217 0 0
222 0 0
214 0 0
220 0 0
221 0 0
219 0 0
223 0 0
222 0 0
215 0 0
219 0 0
219 0 0
219 0 0
221 0 0
215 0 0
220 0 0
222 0 0
217 0 0
221 0 0
217 0 0
220 0 0
216 0 0
224 0 0
219 0 0
218 0 0
214 0 0
219 0 0
221 0 0
218 0 0
219 0 0
218 0 0
221 0 0
218 0 0
222 0 0
221 0 0
217 0 0
222 0 0
217 0 0
220 0 0
219 0 0
220 0 0
225 0 0
221 0 0
222 0 0
220 0 0
222 0 0
220 0 0
222 0 0
221 0 0
223 0 0
221 0 0
219 0 0
222 0 0
219 0 0
222 0 0
220 0 0
224 0 0
223 0 0
220 0 0
219 0 0
220 0 0
222 0 0
217 0 0
221 0 0
221 0 0
220 0 0
216 0 0
219 0 0
217 0 0
219 0 0
0 0 255
0 0 254
0 0 255
0 0 254
0 0 255
0 0 254
0 0 255
0 0 255
0 0 254
0 0 255
0 0 254
0 0 255
0 0 255
0 0 255
0 0 255
0 0 255
0 0 252
0 0 255
0 0 255
0 0 255
0 0 254
0 0 253
0 0 254
0 0 254
0 0 255
0 0 254
0 0 254
0 0 252
0 0 255
0 0 255
0 0 254
0 0 255
0 0 255
0 0 254
0 0 253
0 0 255
0 0 255
0 0 255
0 0 253
0 0 249
0 0 254
0 0 254
0 0 255
0 0 253
0 0 250
0 0 254
0 0 253
0 0 250
0 0 252
0 0 255
0 0 254
0 0 252
0 0 255
0 0 254
0 0 252
0 0 254
0 0 254
0 0 250
0 0 250
0 0 253
0 0 253
0 0 252
0 0 253
0 0 253
0 0 253
0 0 252
0 0 253
0 0 253
0 0 253
0 0 252
0 0 252
0 0 254
0 0 252
0 0 254
0 0 252
0 0 250
0 0 254
0 0 250
0 0 250
0 0 252
0 0 246
0 0 253
0 0 250
0 0 250
0 0 249
0 0 254
0 0 254
0 0 248
0 0 249
0 0 253
0 0 250
0 0 248
0 0 253
0 0 248
0 0 254
0 0 244
0 0 253
0 0 253
0 0 253
0 0 248
0 0 248
0 0 250
0 0 249
0 0 244
0 0 245
0 0 255
0 0 249
0 0 248
0 0 248
0 0 250
0 0 252
0 0 246
0 0 244
0 0 244
0 0 245
0 0 246
0 0 245
0 0 248
0 0 249
0 0 242
0 0 249
0 0 244
0 0 249
0 0 246
0 0 250
0 0 246
0 0 244
0 0 241
0 0 240
0 0 244
0 0 241
0 0 244
0 0 242
0 0 242
0 0 244
0 0 246
0 0 237
0 0 245
0 0 242
0 0 245
0 0 245
0 0 245
0 0 234
0 0 233
0 0 238
0 0 237
0 0 244
0 0 236
0 0 227
0 0 240
0 0 246
0 0 242
0 0 237
0 0 240
0 0 230
0 0 236
0 0 234
0 0 240
0 0 231
0 0 227
0 0 237
0 0 227
0 0 233
0 0 240
0 0 230
0 0 231
0 0 227
0 0 231
0 0 226
0 0 224
0 0 218
0 0 226
0 0 221
0 0 218
0 0 224
0 0 215
0 0 218
0 0 215
0 0 199
0 0 201
0 0 211
0 0 198
0 0 203
0 0 199
0 0 198
0 0 189
0 0 203
0 0 191
0 0 169
0 0 182
0 0 177
0 0 147
0 0 153
0 0 163
0 0 163
0 0 133
0 0 128
0 0 111
0 0 95
31 33 67
42 23 25
73 0 0
90 0 0
104 0 0
123 0 0
122 0 0
137 0 0
145 0 0
132 0 0
147 0 0
157 0 0
161 0 0
174 0 0
157 0 0
166 0 0
175 0 0
173 0 0
179 0 0
176 0 0
186 0 0
170 0 0
180 0 0
188 0 0
191 0 0
188 0 0
186 0 0
185 0 0
194 0 0
192 0 0
199 0 0
191 0 0
196 0 0
197 0 0
196 0 0
197 0 0
192 0 0
199 0 0
196 0 0
199 0 0
205 0 0
198 0 0
201 0 0
203 0 0
202 0 0
207 0 0
199 0 0
211 0 0
196 0 0
207 0 0
205 0 0
205 0 0
208 0 0
217 0 0
207 0 0
208 0 0
218 0 0
204 0 0
205 0 0
200 0 0
209 0 0
208 0 0
212 0 0
210 0 0
217 0 0
208 0 0
212 0 0
214 0 0
203 0 0
210 0 0
209 0 0
213 0 0
216 0 0
216 0 0
217 0 0
214 0 0
212 0 0
218 0 0
214 0 0
216 0 0
214 0 0
210 0 0
215 0 0
212 0 0
218 0 0
214 0 0
212 0 0
213 0 0
213 0 0
216 0 0
214 0 0
218 0 0
213 0 0
216 0 0
211 0 0
214 0 0
211 0 0
215 0 0
216 0 0
216 0 0
216 0 0
217 0 0
216 0 0
219 0 0
216 0 0
221 0 0
216 0 0
216 0 0
215 0 0
218 0 0
209 0 0
220 0 0
217 0 0
221 0 0
215 0 0
219 0 0
224 0 0
216 0 0
213 0 0
217 0 0
218 0 0
215 0 0
220 0 0
216 0 0
222 0 0
215 0 0
218 0 0
219 0 0
221 0 0
216 0 0
217 0 0
221 0 0
217 0 0
212 0 0
215 0 0
219 0 0
217 0 0
221 0 0
216 0 0
215 0 0
221 0 0
218 0 0
220 0 0
222 0 0
217 0 0
222 0 0
217 0 0
219 0 0
220 0 0
219 0 0
220 0 0
215 0 0
221 0 0
224 0 0
222 0 0
218 0 0
217 0 0
220 0 0
221 0 0
221 0 0
219 0 0
226 0 0
219 0 0
218 0 0
220 0 0
220 0 0
216 0 0
222 0 0
220 0 0
222 0 0
216 0 0
221 0 0
224 0 0
220 0 0
219 0 0
220 0 0
221 0 0
222 0 0
223 0 0
222 0 0
222 0 0
221 0 0
219 0 0
220 0 0
220 0 0
218 0 0
218 0 0
219 0 0
220 0 0
223 0 0
218 0 0
222 0 0
222 0 0
219 0 0
220 0 0
220 0 0
222 0 0
220 0 0
220 0 0
219 0 0
218 0 0
0 0 254
0 0 255
0 0 255
0 0 255
0 0 255
0 0 255
0 0 255
0 0 254
0 0 254
0 0 255
0 0 255
0 0 255
0 0 255
0 0 255
0 0 255
0 0 254
0 0 255
0 0 255
0 0 255
0 0 255
0 0 255
0 0 255
0 0 255
0 0 254
0 0 254
0 0 254
0 0 255
0 0 255
0 0 253
0 0 254
0 0 255
0 0 255
0 0 253
0 0 254
0 0 255
0 0 254
0 0 252
0 0 254
0 0 255
0 0 254
0 0 254
0 0 255
0 0 250
0 0 250
0 0 252
0 0 249
0 0 255
0 0 253
0 0 252
0 0 253
0 0 252
0 0 250
0 0 254
0 0 254
0 0 253
0 0 253
0 0 255
0 0 252
0 0 254
0 0 254
0 0 249
0 0 252
0 0 254
0 0 249
0 0 252
0 0 253
0 0 254
0 0 253
0 0 255
0 0 252
0 0 250
0 0 252
0 0 255
0 0 250
0 0 254
0 0 253
0 0 254
0 0 252
0 0 253
0 0 252
0 0 255
0 0 252
0 0 250
0 0 252
0 0 249
0 0 254
0 0 252
0 0 252
0 0 249
0 0 250
0 0 253
0 0 250
0 0 249
0 0 252
0 0 250
0 0 246
0 0 249
0 0 248
0 0 242
0 0 249
0 0 246
0 0 252
0 0 253
0 0 244
0 0 249
0 0 248
0 0 252
0 0 245
0 0 245
0 0 249
0 0 245
0 0 245
0 0 244
0 0 245
0 0 237
0 0 248
0 0 245
0 0 237
0 0 253
0 0 245
0 0 244
0 0 249
0 0 242
0 0 246
0 0 246
0 0 244
0 0 240
0 0 242
0 0 248
0 0 241
0 0 245
0 0 244
0 0 245
0 0 240
0 0 240
0 0 244
0 0 242
0 0 244
0 0 234
0 0 240
0 0 238
0 0 244
0 0 240
0 0 238
0 0 238
0 0 237
0 0 238
0 0 226
0 0 236
0 0 234
0 0 241
0 0 234
0 0 231
0 0 237
0 0 238
0 0 221
0 0 233
0 0 230
0 0 230
0 0 221
0 0 234
0 0 230
0 0 230
0 0 228
0 0 237
0 0 233
0 0 237
0 0 224
0 0 223
0 0 218
0 0 212
0 0 221
0 0 206
0 0 218
0 0 228
0 0 217
0 0 217
0 0 209
0 0 211
0 0 217
0 0 207
0 0 201
0 0 198
0 0 206
0 0 201
0 0 189
0 0 189
0 0 194
0 0 191
0 0 169
0 0 175
0 0 157
0 0 173
0 0 142
0 0 155
0 0 130
0 0 137
0 0 111
0 0 76
58 62 84
70 47 51
74 0 0
88 0 0
103 0 0
115 0 0
145 0 0
140 0 0
135 0 0
155 0 0
155 0 0
154 0 0
146 0 0
164 0 0
176 0 0
171 0 0
174 0 0
186 0 0
173 0 0
194 0 0
181 0 0
179 0 0
169 0 0
175 0 0
191 0 0
188 0 0
186 0 0
190 0 0
190 0 0
194 0 0
196 0 0
193 0 0
190 0 0
195 0 0
198 0 0
197 0 0
188 0 0
200 0 0
199 0 0
196 0 0
199 0 0
203 0 0
203 0 0
200 0 0
198 0 0
199 0 0
209 0 0
202 0 0
202 0 0
206 0 0
211 0 0
200 0 0
210 0 0
203 0 0
212 0 0
196 0 0
205 0 0
217 0 0
212 0 0
210 0 0
204 0 0
206 0 0
210 0 0
213 0 0
211 0 0
208 0 0
207 0 0
206 0 0
214 0 0
209 0 0
212 0 0
207 0 0
213 0 0
214 0 0
216 0 0
217 0 0
209 0 0
215 0 0
210 0 0
211 0 0
210 0 0
204 0 0
215 0 0
216 0 0
220 0 0
219 0 0
214 0 0
214 0 0
216 0 0
216 0 0
213 0 0
217 0 0
219 0 0
212 0 0
214 0 0
220 0 0
218 0 0
219 0 0
216 0 0
217 0 0
219 0 0
219 0 0
216 0 0
216 0 0
215 0 0
215 0 0
212 0 0
214 0 0
222 0 0
215 0 0
212 0 0
218 0 0
211 0 0
217 0 0
220 0 0
218 0 0
212 0 0
218 0 0
215 0 0
215 0 0
219 0 0
217 0 0
220 0 0
221 0 0
223 0 0
219 0 0
218 0 0
216 0 0
214 0 0
221 0 0
218 0 0
214 0 0
215 0 0
219 0 0
218 0 0
214 0 0
223 0 0
217 0 0
220 0 0
216 0 0
215 0 0
220 0 0
216 0 0
215 0 0
225 0 0
218 0 0
222 0 0
216 0 0
223 0 0
218 0 0
218 0 0
221 0 0
218 0 0
222 0 0
220 0 0
217 0 0
219 0 0
219 0 0
221 0 0
220 0 0
218 0 0
222 0 0
227 0 0
219 0 0
222 0 0
220 0 0
222 0 0
222 0 0
223 0 0
221 0 0
219 0 0
219 0 0
219 0 0
221 0 0
216 0 0
220 0 0
219 0 0
222 0 0
223 0 0
224 0 0
221 0 0
221 0 0
219 0 0
223 0 0
221 0 0
223 0 0
221 0 0
222 0 0
218 0 0
221 0 0
216 0 0
223 0 0
219 0 0
221 0 0
221 0 0
222 0 0
220 0 0
219 0 0
217 0 0
219 0 0
220 0 0
0 0 255
0 0 254
0 0 253
0 0 255
0 0 254
0 0 254
0 0 254
0 0 255
0 0 254
0 0 254
0 0 254
0 0 255
0 0 255
0 0 255
0 0 255
0 0 254
0 0 254
0 0 254
0 0 255
0 0 253
0 0 253
0 0 253
0 0 255
0 0 254
0 0 255
0 0 254
0 0 255
0 0 255
0 0 255
0 0 254
0 0 254
0 0 255
0 0 255
0 0 254
0 0 253
0 0 255
0 0 253
0 0 253
0 0 255
0 0 255
0 0 253
0 0 255
0 0 253
0 0 252
0 0 254
0 0 255
0 0 254
0 0 254
0 0 253
0 0 253
0 0 255
0 0 255
0 0 252
0 0 253
0 0 253
0 0 255
0 0 253
0 0 252
0 0 253
0 0 254
0 0 252
0 0 252
0 0 252
0 0 254
0 0 254
0 0 253
0 0 252
0 0 253
0 0 255
0 0 252
0 0 253
0 0 253
0 0 250
0 0 250
0 0 252
0 0 249
0 0 250
0 0 254
0 0 246
0 0 253
0 0 253
0 0 252
0 0 248
0 0 255
0 0 253
0 0 248
0 0 249
0 0 250
0 0 253
0 0 253
0 0 249
0 0 252
0 0 249
0 0 249
0 0 249
0 0 248
0 0 249
0 0 253
0 0 249
0 0 248
0 0 249
0 0 250
0 0 246
0 0 245
0 0 250
0 0 250
0 0 250
0 0 252
0 0 255
0 0 246
0 0 244
0 0 245
0 0 249
0 0 248
0 0 250
0 0 249
0 0 242
0 0 245
0 0 245
0 0 248
0 0 245
0 0 238
0 0 249
0 0 237
0 0 246
0 0 240
0 0 242
0 0 248
0 0 245
0 0 242
0 0 236
0 0 236
0 0 231
0 0 242
0 0 248
0 0 244
0 0 233
0 0 244
0 0 244
0 0 242
0 0 240
0 0 240
0 0 236
0 0 237
0 0 240
0 0 240
0 0 236
0 0 241
0 0 238
0 0 236
0 0 240
0 0 234
0 0 240
0 0 244
0 0 234
0 0 230
0 0 234
0 0 234
0 0 237
0 0 230
0 0 240
0 0 220
0 0 237
0 0 227
0 0 233
0 0 227
0 0 228
0 0 218
0 0 223
0 0 215
0 0 203
0 0 230
0 0 221
0 0 215
0 0 217
0 0 214
0 0 211
0 0 209
0 0 206
0 0 204
0 0 209
0 0 204
0 0 194
0 0 191
0 0 201
0 0 182
0 0 193
0 0 182
0 0 191
0 0 181
0 0 167
0 0 165
0 0 167
0 0 151
0 0 133
0 0 144
0 0 122
0 0 111
0 0 76
66 71 92
82 78 84
81 0 0
101 0 0
120 0 0
96 0 0
122 0 0
142 0 0
128 0 0
126 0 0
159 0 0
156 0 0
169 0 0
158 0 0
178 0 0
161 0 0
180 0 0
169 0 0
172 0 0
173 0 0
177 0 0
183 0 0
177 0 0
182 0 0
177 0 0
189 0 0
178 0 0
187 0 0
198 0 0
191 0 0
200 0 0
184 0 0
187 0 0
197 0 0
192 0 0
198 0 0
195 0 0
197 0 0
201 0 0
189 0 0
203 0 0
201 0 0
203 0 0
200 0 0
203 0 0
201 0 0
200 0 0
210 0 0
202 0 0
200 0 0
212 0 0
194 0 0
200 0 0
214 0 0
202 0 0
213 0 0
208 0 0
201 0 0
205 0 0
204 0 0
207 0 0
215 0 0
214 0 0
214 0 0
197 0 0
208 0 0
211 0 0
210 0 0
219 0 0
211 0 0
211 0 0
215 0 0
204 0 0
217 0 0
210 0 0
212 0 0
215 0 0
209 0 0
211 0 0
219 0 0
218 0 0
210 0 0
212 0 0
217 0 0
213 0 0
212 0 0
214 0 0
220 0 0
212 0 0
216 0 0
217 0 0
216 0 0
219 0 0
219 0 0
216 0 0
218 0 0
215 0 0
218 0 0
212 0 0
221 0 0
216 0 0
213 0 0
223 0 0
210 0 0
214 0 0
217 0 0
219 0 0
212 0 0
216 0 0
217 0 0
221 0 0
214 0 0
213 0 0
225 0 0
215 0 0
216 0 0
221 0 0
218 0 0
222 0 0
220 0 0
218 0 0
217 0 0
222 0 0
214 0 0
218 0 0
213 0 0
216 0 0
220 0 0
217 0 0
221 0 0
220 0 0
214 0 0
216 0 0
221 0 0
220 0 0
224 0 0
218 0 0
224 0 0
220 0 0
221 0 0
219 0 0
220 0 0
218 0 0
219 0 0
219 0 0
222 0 0
219 0 0
217 0 0
219 0 0
221 0 0
221 0 0
218 0 0
223 0 0
226 0 0
222 0 0
227 0 0
220 0 0
221 0 0
218 0 0
224 0 0
221 0 0
220 0 0
219 0 0
222 0 0
214 0 0
219 0 0
220 0 0
222 0 0
222 0 0
222 0 0
224 0 0
219 0 0
222 0 0
218 0 0
220 0 0
223 0 0
222 0 0
221 0 0
222 0 0
223 0 0
218 0 0
215 0 0
223 0 0
220 0 0
222 0 0
217 0 0
223 0 0
222 0 0
221 0 0
220 0 0
221 0 0
221 0 0
221 0 0
220 0 0
218 0 0
223 0 0
222 0 0
217 0 0
222 0 0
219 0 0
221 0 0
0 0 252
0 0 255
0 0 254
0 0 254
0 0 255
0 0 253
0 0 255
0 0 254
0 0 255
0 0 255
0 0 255
0 0 253
0 0 255
0 0 255
0 0 253
0 0 255
0 0 255
0 0 254
0 0 255
0 0 255
0 0 255
0 0 255
0 0 254
0 0 253
0 0 253
0 0 254
0 0 254
0 0 253
0 0 252
0 0 254
0 0 252
0 0 254
0 0 255
0 0 253
0 0 253
0 0 254
0 0 254
0 0 255
0 0 255
0 0 250
0 0 254
0 0 253
0 0 255
0 0 253
0 0 249
0 0 254
0 0 253
0 0 250
0 0 254
0 0 255
0 0 255
0 0 249
0 0 252
0 0 254
0 0 252
0 0 254
0 0 252
0 0 253
0 0 253
0 0 255
0 0 250
0 0 253
0 0 248
0 0 253
0 0 253
0 0 253
0 0 253
0 0 253
0 0 249
0 0 254
0 0 250
0 0 254
0 0 252
0 0 250
0 0 253
0 0 253
0 0 252
0 0 255
0 0 248
0 0 253
0 0 248
0 0 250
0 0 245
0 0 250
0 0 254
0 0 255
0 0 253
0 0 248
0 0 244
0 0 255
0 0 254
0 0 249
0 0 250
0 0 249
0 0 248
0 0 248
0 0 252
0 0 250
0 0 252
0 0 250
0 0 253
0 0 248
0 0 246
0 0 248
0 0 248
0 0 250
0 0 253
0 0 253
0 0 252
0 0 250
0 0 253
0 0 244
0 0 242
0 0 248
0 0 249
0 0 248
0 0 245
0 0 253
0 0 249
0 0 245
0 0 246
0 0 252
0 0 253
0 0 244
0 0 238
0 0 245
0 0 245
0 0 240
0 0 244
0 0 242
0 0 246
0 0 245
0 0 250
0 0 249
0 0 240
0 0 241
0 0 244
0 0 245
0 0 242
0 0 244
0 0 240
0 0 236
0 0 241
0 0 245
0 0 238
0 0 241
0 0 237
0 0 238
0 0 234
0 0 237
0 0 238
0 0 241
0 0 234
0 0 224
0 0 233
0 0 238
0 0 226
0 0 233
0 0 226
0 0 236
0 0 223
0 0 231
0 0 234
0 0 228
0 0 233
0 0 228
0 0 221
0 0 226
0 0 223
0 0 221
0 0 223
0 0 226
0 0 214
0 0 214
0 0 217
0 0 215
0 0 221
0 0 221
0 0 206
0 0 188
0 0 191
0 0 203
0 0 204
0 0 194
0 0 199
0 0 188
0 0 182
0 0 191
0 0 186
0 0 179
0 0 153
0 0 169
0 0 155
0 0 149
0 0 128
0 0 133
0 0 128
0 0 102
0 0 92
80 85 102
105 88 95
76 0 0
110 0 0
101 0 0
128 0 0
126 0 0
126 0 0
150 0 0
149 0 0
155 0 0
141 0 0
157 0 0
163 0 0
166 0 0
172 0 0
182 0 0
165 0 0
181 0 0
174 0 0
175 0 0
169 0 0
194 0 0
195 0 0
186 0 0
190 0 0
180 0 0
190 0 0
188 0 0
190 0 0
191 0 0
203 0 0
187 0 0
190 0 0
192 0 0
194 0 0
205 0 0
198 0 0
198 0 0
203 0 0
199 0 0
197 0 0
195 0 0
199 0 0
202 0 0
196 0 0
206 0 0
206 0 0
202 0 0
205 0 0
209 0 0
209 0 0
202 0 0
204 0 0
195 0 0
205 0 0
203 0 0
205 0 0
210 0 0
209 0 0
210 0 0
213 0 0
200 0 0
211 0 0
213 0 0
206 0 0
213 0 0
209 0 0
214 0 0
205 0 0
211 0 0
218 0 0
217 0 0
214 0 0
213 0 0
211 0 0
210 0 0
212 0 0
206 0 0
218 0 0
211 0 0
217 0 0
212 0 0
208 0 0
219 0 0
211 0 0
220 0 0
219 0 0
214 0 0
217 0 0
220 0 0
212 0 0
217 0 0
208 0 0
205 0 0
213 0 0
216 0 0
221 0 0
214 0 0
220 0 0
214 0 0
213 0 0
219 0 0
214 0 0
216 0 0
217 0 0
221 0 0
215 0 0
217 0 0
216 0 0
218 0 0
216 0 0
219 0 0
218 0 0
223 0 0
216 0 0
222 0 0
220 0 0
215 0 0
221 0 0
224 0 0
218 0 0
217 0 0
215 0 0
217 0 0
221 0 0
220 0 0
220 0 0
216 0 0
214 0 0
219 0 0
216 0 0
219 0 0
217 0 0
217 0 0
218 0 0
216 0 0
219 0 0
218 0 0
224 0 0
221 0 0
219 0 0
220 0 0
218 0 0
219 0 0
223 0 0
221 0 0
223 0 0
220 0 0
220 0 0
216 0 0
219 0 0
218 0 0
223 0 0
222 0 0
220 0 0
221 0 0
217 0 0
219 0 0
222 0 0
224 0 0
221 0 0
224 0 0
222 0 0
217 0 0
219 0 0
222 0 0
220 0 0
224 0 0
218 0 0
218 0 0
221 0 0
220 0 0
218 0 0
222 0 0
223 0 0
223 0 0
223 0 0
220 0 0
219 0 0
217 0 0
221 0 0
224 0 0
221 0 0
221 0 0
223 0 0
223 0 0
218 0 0
220 0 0
222 0 0
220 0 0
220 0 0
221 0 0
220 0 0
221 0 0
219 0 0
215 0 0
222 0 0
226 0 0
221 0 0
220 0 0
0 0 254
0 0 255
0 0 253
0 0 255
0 0 255
0 0 254
0 0 255
0 0 255
0 0 254
0 0 254
0 0 255
0 0 253
0 0 254
0 0 254
0 0 254
0 0 255
0 0 255
0 0 253
0 0 254
0 0 253
0 0 254
0 0 254
0 0 255
0 0 254
0 0 254
0 0 255
0 0 253
0 0 252
0 0 254
0 0 250
0 0 250
0 0 255
0 0 254
0 0 255
0 0 255
0 0 254
0 0 254
0 0 253
0 0 253
0 0 254
0 0 254
0 0 254
0 0 252
0 0 254
0 0 252
0 0 255
0 0 253
0 0 254
0 0 253
0 0 250
0 0 254
0 0 250
0 0 255
0 0 254
0 0 253
0 0 253
0 0 250
0 0 254
0 0 255
0 0 250
0 0 253
0 0 255
0 0 254
0 0 253
0 0 250
0 0 253
0 0 252
0 0 250
0 0 252
0 0 255
0 0 245
0 0 246
0 0 254
0 0 252
0 0 252
0 0 253
0 0 246
0 0 252
0 0 253
0 0 252
0 0 252
0 0 255
0 0 253
0 0 252
0 0 250
0 0 252
0 0 248
0 0 252
0 0 246
0 0 245
0 0 252
0 0 252
0 0 249
0 0 249
0 0 252
0 0 249
0 0 249
0 0 252
0 0 254
0 0 249
0 0 248
0 0 253
0 0 248
0 0 246
0 0 248
0 0 252
0 0 244
0 0 252
0 0 249
0 0 249
0 0 246
0 0 254
0 0 250
0 0 245
0 0 248
0 0 246
0 0 245
0 0 249
0 0 245
0 0 240
0 0 246
0 0 244
0 0 249
0 0 250
0 0 252
0 0 241
0 0 244
0 0 234
0 0 240
0 0 238
0 0 245
0 0 242
0 0 234
0 0 242
0 0 234
0 0 248
0 0 240
0 0 234
0 0 237
0 0 238
0 0 244
0 0 237
0 0 237
0 0 240
0 0 244
0 0 245
0 0 245
0 0 241
0 0 241
0 0 234
0 0 228
0 0 233
0 0 233
0 0 240
0 0 227
0 0 244
0 0 230
0 0 224
0 0 234
0 0 233
0 0 230
0 0 220
0 0 234
0 0 227
0 0 226
0 0 221
0 0 230
0 0 233
0 0 230
0 0 215
0 0 223
0 0 228
0 0 226
0 0 214
0 0 204
0 0 217
0 0 211
0 0 206
0 0 220
0 0 196
0 0 199
0 0 196
0 0 194
0 0 217
0 0 198
0 0 203
0 0 204
0 0 188
0 0 188
0 0 171
0 0 175
0 0 177
0 0 165
0 0 144
0 0 140
0 0 128
0 0 111
0 0 108
0 0 108
114 120 137
103 100 108
91 0 0
78 0 0
99 0 0
125 0 0
124 0 0
144 0 0
147 0 0
145 0 0
164 0 0
147 0 0
153 0 0
163 0 0
166 0 0
186 0 0
172 0 0
168 0 0
165 0 0
180 0 0
181 0 0
179 0 0
178 0 0
191 0 0
191 0 0
196 0 0
194 0 0
190 0 0
190 0 0
190 0 0
192 0 0
185 0 0
206 0 0
197 0 0
203 0 0
202 0 0
194 0 0
191 0 0
200 0 0
197 0 0
202 0 0
204 0 0
205 0 0
203 0 0
206 0 0
204 0 0
205 0 0
203 0 0
207 0 0
206 0 0
202 0 0
196 0 0
209 0 0
204 0 0
198 0 0
208 0 0
207 0 0
197 0 0
206 0 0
209 0 0
214 0 0
211 0 0
208 0 0
212 0 0
215 0 0
217 0 0
213 0 0
208 0 0
212 0 0
214 0 0
207 0 0
215 0 0
220 0 0
212 0 0
213 0 0
204 0 0
213 0 0
216 0 0
211 0 0
214 0 0
215 0 0
206 0 0
218 0 0
211 0 0
211 0 0
217 0 0
216 0 0
210 0 0
219 0 0
215 0 0
220 0 0
215 0 0
217 0 0
220 0 0
213 0 0
215 0 0
218 0 0
217 0 0
213 0 0
223 0 0
218 0 0
214 0 0
213 0 0
220 0 0
216 0 0
213 0 0
219 0 0
219 0 0
213 0 0
215 0 0
216 0 0
220 0 0
221 0 0
222 0 0
224 0 0
221 0 0
214 0 0
221 0 0
212 0 0
218 0 0
219 0 0
214 0 0
216 0 0
216 0 0
219 0 0
222 0 0
214 0 0
216 0 0
223 0 0
219 0 0
218 0 0
220 0 0
215 0 0
222 0 0
219 0 0
222 0 0
220 0 0
219 0 0
215 0 0
218 0 0
221 0 0
216 0 0
216 0 0
221 0 0
221 0 0
224 0 0
220 0 0
222 0 0
222 0 0
219 0 0
219 0 0
224 0 0
222 0 0
215 0 0
223 0 0
218 0 0
219 0 0
220 0 0
223 0 0
218 0 0
223 0 0
220 0 0
222 0 0
217 0 0
221 0 0
220 0 0
220 0 0
222 0 0
217 0 0
220 0 0
219 0 0
218 0 0
219 0 0
224 0 0
220 0 0
219 0 0
219 0 0
223 0 0
218 0 0
219 0 0
221 0 0
222 0 0
223 0 0
218 0 0
222 0 0
221 0 0
221 0 0
222 0 0
219 0 0
217 0 0
222 0 0
220 0 0
222 0 0
219 0 0
219 0 0
219 0 0
219 0 0
219 0 0
219 0 0
223 0 0
223 0 0
0 0 255
0 0 255
0 0 254
0 0 254
0 0 255
0 0 255
0 0 255
0 0 255
0 0 255
0 0 255
0 0 255
0 0 255
0 0 254
0 0 254
0 0 254
0 0 255
0 0 254
0 0 254
0 0 254
0 0 254
0 0 252
0 0 255
0 0 254
0 0 255
0 0 255
0 0 255
0 0 255
0 0 255
0 0 255
0 0 255
0 0 254
0 0 255
0 0 253
0 0 255
0 0 253
0 0 254
0 0 253
0 0 253
0 0 255
0 0 255
0 0 253
0 0 255
0 0 255
0 0 254
0 0 254
0 0 255
0 0 249
0 0 254
0 0 254
0 0 255
0 0 254
0 0 253
0 0 255
0 0 255
0 0 255
0 0 252
0 0 255
0 0 254
0 0 250
0 0 254
0 0 253
0 0 255
0 0 254
0 0 253
0 0 253
0 0 250
0 0 252
0 0 250
0 0 253
0 0 254
0 0 252
0 0 248
0 0 254
0 0 250
0 0 252
0 0 253
0 0 253
0 0 252
0 0 254
0 0 252
0 0 252
0 0 253
0 0 253
0 0 254
0 0 252
0 0 249
0 0 250
0 0 248
0 0 254
0 0 250
0 0 248
0 0 253
0 0 250
0 0 250
0 0 253
0 0 253
0 0 249
0 0 255
0 0 246
0 0 252
0 0 250
0 0 252
0 0 248
0 0 252
0 0 253
0 0 241
0 0 249
0 0 245
0 0 252
0 0 244
0 0 250
0 0 249
0 0 252
0 0 244
0 0 245
0 0 252
0 0 248
0 0 246
0 0 245
0 0 249
0 0 238
0 0 248
0 0 244
0 0 244
0 0 248
0 0 245
0 0 246
0 0 245
0 0 250
0 0 238
0 0 242
0 0 236
0 0 245
0 0 242
0 0 246
0 0 238
0 0 246
0 0 245
0 0 244
0 0 246
0 0 241
0 0 240
0 0 250
0 0 237
0 0 240
0 0 246
0 0 234
0 0 238
0 0 236
0 0 236
0 0 236
0 0 228
0 0 231
0 0 230
0 0 230
0 0 228
0 0 227
0 0 230
0 0 234
0 0 226
0 0 228
0 0 228
0 0 224
0 0 228
0 0 231
0 0 221
0 0 230
0 0 227
0 0 227
0 0 212
0 0 221
0 0 224
0 0 215
0 0 221
0 0 214
0 0 226
0 0 207
0 0 211
0 0 223
0 0 193
0 0 201
0 0 209
0 0 215
0 0 189
0 0 214
0 0 184
0 0 201
0 0 211
0 0 189
0 0 186
0 0 155
0 0 157
0 0 155
0 0 149
0 0 157
0 0 140
0 0 114
0 0 111
0 0 102
120 127 153
122 127 137
96 0 0
110 0 0
108 0 0
106 0 0
125 0 0
150 0 0
149 0 0
144 0 0
157 0 0
166 0 0
159 0 0
169 0 0
163 0 0
163 0 0
173 0 0
174 0 0
176 0 0
181 0 0
189 0 0
190 0 0
189 0 0
195 0 0
177 0 0
161 0 0
191 0 0
191 0 0
194 0 0
192 0 0
193 0 0
188 0 0
208 0 0
203 0 0
196 0 0
202 0 0
208 0 0
194 0 0
207 0 0
205 0 0
198 0 0
198 0 0
209 0 0
197 0 0
198 0 0
196 0 0
204 0 0
209 0 0
192 0 0
208 0 0
196 0 0
206 0 0
200 0 0
212 0 0
212 0 0
209 0 0
212 0 0
209 0 0
202 0 0
211 0 0
214 0 0
213 0 0
203 0 0
203 0 0
211 0 0
210 0 0
210 0 0
212 0 0
209 0 0
213 0 0
215 0 0
208 0 0
208 0 0
215 0 0
207 0 0
214 0 0
215 0 0
219 0 0
211 0 0
213 0 0
216 0 0
210 0 0
207 0 0
216 0 0
212 0 0
215 0 0
212 0 0
215 0 0
216 0 0
211 0 0
212 0 0
217 0 0
216 0 0
212 0 0
214 0 0
213 0 0
215 0 0
218 0 0
219 0 0
214 0 0
220 0 0
215 0 0
213 0 0
216 0 0
214 0 0
220 0 0
217 0 0
219 0 0
218 0 0
220 0 0
221 0 0
216 0 0
220 0 0
219 0 0
218 0 0
217 0 0
217 0 0
220 0 0
218 0 0
213 0 0
217 0 0
220 0 0
214 0 0
219 0 0
222 0 0
219 0 0
219 0 0
218 0 0
217 0 0
218 0 0
215 0 0
215 0 0
218 0 0
218 0 0
219 0 0
220 0 0
216 0 0
225 0 0
221 0 0
223 0 0
219 0 0
218 0 0
216 0 0
223 0 0
220 0 0
220 0 0
218 0 0
219 0 0
223 0 0
222 0 0
222 0 0
221 0 0
222 0 0
218 0 0
219 0 0
217 0 0
219 0 0
222 0 0
222 0 0
220 0 0
217 0 0
218 0 0
219 0 0
224 0 0
221 0 0
217 0 0
222 0 0
222 0 0
223 0 0
223 0 0
219 0 0
219 0 0
221 0 0
222 0 0
222 0 0
220 0 0
221 0 0
222 0 0
220 0 0
221 0 0
220 0 0
221 0 0
218 0 0
221 0 0
221 0 0
223 0 0
225 0 0
222 0 0
219 0 0
220 0 0
220 0 0
223 0 0
223 0 0
221 0 0
222 0 0
222 0 0
223 0 0
219 0 0
222 0 0
224 0 0
220 0 0
0 0 255
0 0 255
0 0 254
0 0 255
0 0 255
0 0 255
0 0 255
0 0 254
0 0 253
0 0 253
0 0 254
0 0 255
0 0 253
0 0 255
0 0 254
0 0 254
0 0 255
0 0 252
0 0 255
0 0 254
0 0 253
0 0 255
0 0 255
0 0 254
0 0 255
0 0 253
0 0 255
0 0 255
0 0 255
0 0 254
0 0 255
0 0 255
0 0 252
0 0 255
0 0 253
0 0 255
0 0 255
0 0 255
0 0 254
0 0 253
0 0 250
0 0 252
0 0 253
0 0 254
0 0 253
0 0 255
0 0 253
0 0 254
0 0 255
0 0 252
0 0 253
0 0 254
0 0 254
0 0 254
0 0 252
0 0 253
0 0 250
0 0 253
0 0 252
0 0 252
0 0 255
0 0 252
0 0 250
0 0 252
0 0 252
0 0 254
0 0 250
0 0 252
0 0 255
0 0 249
0 0 249
0 0 250
0 0 249
0 0 253
0 0 249
0 0 254
0 0 252
0 0 248
0 0 248
0 0 250
0 0 252
0 0 250
0 0 249
0 0 253
0 0 253
0 0 246
0 0 252
0 0 253
0 0 249
0 0 252
0 0 249
0 0 252
0 0 252
0 0 253
0 0 250
0 0 253
0 0 250
0 0 248
0 0 252
0 0 253
0 0 250
0 0 250
0 0 249
0 0 250
0 0 252
0 0 249
0 0 252
0 0 255
0 0 248
0 0 248
0 0 244
0 0 241
0 0 242
0 0 244
0 0 242
0 0 248
0 0 248
0 0 242
0 0 248
0 0 246
0 0 245
0 0 242
0 0 248
0 0 246
0 0 245
0 0 236
0 0 245
0 0 231
0 0 246
0 0 244
0 0 244
0 0 242
0 0 244
0 0 238
0 0 244
0 0 246
0 0 237
0 0 238
0 0 249
0 0 248
0 0 238
0 0 231
0 0 245
0 0 246
0 0 231
0 0 233
0 0 234
0 0 242
0 0 234
0 0 240
0 0 236
0 0 230
0 0 228
0 0 230
0 0 228
0 0 234
0 0 231
0 0 237
0 0 236
0 0 231
0 0 220
0 0 234
0 0 230
0 0 233
0 0 234
0 0 228
0 0 223
0 0 227
0 0 227
0 0 215
0 0 209
0 0 231
0 0 217
0 0 218
0 0 221
0 0 212
0 0 214
0 0 206
0 0 224
0 0 206
0 0 207
0 0 194
0 0 212
0 0 224
0 0 207
0 0 193
0 0 191
0 0 191
0 0 193
0 0 181
0 0 181
0 0 163
0 0 159
0 0 169
0 0 142
0 0 128
0 0 147
0 0 117
0 0 72
152 161 181
159 153 165
67 0 0
112 0 0
111 0 0
99 0 0
139 0 0
139 0 0
112 0 0
133 0 0
157 0 0
151 0 0
150 0 0
166 0 0
162 0 0
170 0 0
157 0 0
180 0 0
183 0 0
175 0 0
185 0 0
181 0 0
193 0 0
195 0 0
171 0 0
181 0 0
188 0 0
190 0 0
197 0 0
194 0 0
197 0 0
197 0 0
198 0 0
197 0 0
198 0 0
192 0 0
194 0 0
200 0 0
201 0 0
202 0 0
205 0 0
205 0 0
199 0 0
196 0 0
196 0 0
207 0 0
201 0 0
207 0 0
205 0 0
203 0 0
197 0 0
213 0 0
212 0 0
212 0 0
209 0 0
212 0 0
213 0 0
204 0 0
196 0 0
210 0 0
210 0 0
209 0 0
215 0 0
202 0 0
212 0 0
209 0 0
211 0 0
209 0 0
214 0 0
212 0 0
210 0 0
211 0 0
211 0 0
213 0 0
215 0 0
213 0 0
215 0 0
210 0 0
222 0 0
212 0 0
210 0 0
220 0 0
215 0 0
211 0 0
211 0 0
217 0 0
222 0 0
214 0 0
217 0 0
216 0 0
216 0 0
216 0 0
215 0 0
219 0 0
217 0 0
211 0 0
221 0 0
216 0 0
218 0 0
212 0 0
218 0 0
217 0 0
217 0 0
220 0 0
220 0 0
212 0 0
216 0 0
219 0 0
217 0 0
217 0 0
215 0 0
220 0 0
218 0 0
218 0 0
221 0 0
217 0 0
222 0 0
221 0 0
219 0 0
217 0 0
219 0 0
214 0 0
221 0 0
218 0 0
223 0 0
220 0 0
219 0 0
219 0 0
220 0 0
220 0 0
221 0 0
220 0 0
223 0 0
219 0 0
219 0 0
220 0 0
219 0 0
217 0 0
212 0 0
220 0 0
221 0 0
218 0 0
220 0 0
222 0 0
217 0 0
219 0 0
221 0 0
223 0 0
219 0 0
218 0 0
221 0 0
220 0 0
223 0 0
224 0 0
220 0 0
217 0 0
223 0 0
223 0 0
221 0 0
221 0 0
217 0 0
221 0 0
224 0 0
222 0 0
223 0 0
217 0 0
221 0 0
224 0 0
221 0 0
223 0 0
219 0 0
220 0 0
223 0 0
219 0 0
222 0 0
220 0 0
223 0 0
216 0 0
215 0 0
222 0 0
220 0 0
220 0 0
222 0 0
221 0 0
224 0 0
222 0 0
222 0 0
223 0 0
218 0 0
224 0 0
220 0 0
223 0 0
223 0 0
218 0 0
224 0 0
219 0 0
223 0 0
223 0 0
226 0 0
222 0 0
219 0 0
0 0 254
0 0 255
0 0 255
0 0 255
0 0 253
0 0 254
0 0 254
0 0 255
0 0 252
0 0 255
0 0 255
0 0 255
0 0 255
0 0 255
0 0 255
0 0 252
0 0 254
0 0 255
0 0 255
0 0 252
0 0 255
0 0 255
0 0 253
0 0 254
0 0 254
0 0 254
0 0 255
0 0 252
0 0 254
0 0 253
0 0 254
0 0 255
0 0 255
0 0 255
0 0 255
0 0 253
0 0 252
0 0 255
0 0 250
0 0 252
0 0 255
0 0 254
0 0 253
0 0 252
0 0 253
0 0 253
0 0 249
0 0 248
0 0 249
0 0 249
0 0 253
0 0 254
0 0 254
0 0 254
0 0 255
0 0 252
0 0 252
0 0 253
0 0 253
0 0 253
0 0 250
0 0 253
0 0 255
0 0 254
0 0 253
0 0 253
0 0 253
0 0 253
0 0 252
0 0 249
0 0 255
0 0 253
0 0 250
0 0 253
0 0 248
0 0 252
0 0 250
0 0 250
0 0 255
0 0 253
0 0 250
0 0 253
0 0 253
0 0 246
0 0 253
0 0 246
0 0 253
0 0 249
0 0 248
0 0 252
0 0 249
0 0 244
0 0 250
0 0 250
0 0 250
0 0 253
0 0 246
0 0 249
0 0 246
0 0 248
0 0 246
0 0 250
0 0 246
0 0 242
0 0 248
0 0 246
0 0 245
0 0 248
0 0 246
0 0 249
0 0 246
0 0 245
0 0 250
0 0 240
0 0 253
0 0 237
0 0 253
0 0 248
0 0 246
0 0 250
0 0 246
0 0 248
0 0 241
0 0 249
0 0 237
0 0 242
0 0 242
0 0 250
0 0 236
0 0 240
0 0 248
0 0 238
0 0 249
0 0 237
0 0 240
0 0 245
0 0 240
0 0 246
0 0 236
0 0 241
0 0 240
0 0 241
0 0 241
0 0 237
0 0 241
0 0 237
0 0 240
0 0 227
0 0 237
0 0 230
0 0 231
0 0 234
0 0 236
0 0 228
0 0 244
0 0 237
0 0 234
0 0 241
0 0 236
0 0 234
0 0 234
0 0 230
0 0 233
0 0 230
0 0 228
0 0 218
0 0 212
0 0 224
0 0 220
0 0 231
0 0 221
0 0 228
0 0 212
0 0 217
0 0 224
0 0 201
0 0 204
0 0 214
0 0 212
0 0 209
0 0 191
0 0 191
0 0 198
0 0 193
0 0 189
0 0 184
0 0 196
0 0 188
0 0 177
0 0 198
0 0 173
0 0 163
0 0 165
0 0 169
0 0 147
0 0 128
0 0 133
0 0 133
0 0 67
163 173 196
166 173 186
94 0 0
114 0 0
96 0 0
116 0 0
134 0 0
141 0 0
145 0 0
139 0 0
162 0 0
168 0 0
171 0 0
166 0 0
174 0 0
164 0 0
171 0 0
169 0 0
179 0 0
167 0 0
178 0 0
188 0 0
189 0 0
187 0 0
197 0 0
179 0 0
188 0 0
188 0 0
184 0 0
193 0 0
195 0 0
189 0 0
197 0 0
198 0 0
196 0 0
191 0 0
199 0 0
199 0 0
196 0 0
193 0 0
195 0 0
204 0 0
201 0 0
196 0 0
207 0 0
203 0 0
205 0 0
200 0 0
209 0 0
213 0 0
208 0 0
209 0 0
210 0 0
204 0 0
205 0 0
209 0 0
211 0 0
201 0 0
211 0 0
210 0 0
210 0 0
205 0 0
199 0 0
210 0 0
210 0 0
212 0 0
209 0 0
214 0 0
211 0 0
213 0 0
218 0 0
208 0 0
209 0 0
219 0 0
211 0 0
213 0 0
207 0 0
215 0 0
214 0 0
214 0 0
212 0 0
214 0 0
217 0 0
219 0 0
217 0 0
216 0 0
221 0 0
215 0 0
213 0 0
218 0 0
218 0 0
215 0 0
217 0 0
219 0 0
216 0 0
213 0 0
221 0 0
221 0 0
217 0 0
214 0 0
215 0 0
214 0 0
221 0 0
219 0 0
215 0 0
221 0 0
218 0 0
215 0 0
217 0 0
213 0 0
219 0 0
220 0 0
215 0 0
211 0 0
213 0 0
212 0 0
218 0 0
219 0 0
216 0 0
221 0 0
220 0 0
220 0 0
216 0 0
218 0 0
220 0 0
217 0 0
222 0 0
216 0 0
219 0 0
224 0 0
218 0 0
219 0 0
223 0 0
216 0 0
217 0 0
219 0 0
223 0 0
223 0 0
222 0 0
217 0 0
221 0 0
218 0 0
217 0 0
218 0 0
219 0 0
221 0 0
218 0 0
224 0 0
220 0 0
220 0 0
222 0 0
218 0 0
221 0 0
220 0 0
220 0 0
222 0 0
220 0 0
219 0 0
219 0 0
222 0 0
222 0 0
224 0 0
220 0 0
221 0 0
222 0 0
217 0 0
222 0 0
219 0 0
221 0 0
221 0 0
218 0 0
219 0 0
220 0 0
223 0 0
219 0 0
223 0 0
223 0 0
218 0 0
223 0 0
220 0 0
222 0 0
221 0 0
222 0 0
217 0 0
221 0 0
222 0 0
221 0 0
219 0 0
221 0 0
221 0 0
222 0 0
223 0 0
219 0 0
220 0 0
222 0 0
224 0 0
224 0 0
220 0 0
220 0 0
221 0 0
220 0 0
0 0 255
0 0 255
0 0 255
0 0 255
0 0 255
0 0 255
0 0 255
0 0 255
0 0 255
0 0 255
0 0 255
0 0 253
0 0 254
0 0 255
0 0 254
0 0 254
0 0 252
0 0 253
0 0 253
0 0 255
0 0 252
0 0 254
0 0 255
0 0 255
0 0 253
0 0 255
0 0 255
0 0 255
0 0 255
0 0 255
0 0 255
0 0 255
0 0 255
0 0 253
0 0 254
0 0 252
0 0 254
0 0 255
0 0 253
0 0 253
0 0 255
0 0 255
0 0 254
0 0 254
0 0 253
0 0 253
0 0 253
0 0 255
0 0 254
0 0 255
0 0 252
0 0 254
0 0 252
0 0 253
0 0 254
0 0 250
0 0 253
0 0 253
0 0 254
0 0 253
0 0 254
0 0 254
0 0 254
0 0 255
0 0 254
0 0 254
0 0 253
0 0 252
0 0 254
0 0 249
0 0 254
0 0 249
0 0 252
0 0 255
0 0 252
0 0 253
0 0 254
0 0 254
0 0 253
0 0 240
0 0 254
0 0 252
0 0 255
0 0 255
0 0 249
0 0 253
0 0 254
0 0 252
0 0 250
0 0 248
0 0 246
0 0 246
0 0 249
0 0 253
0 0 253
0 0 249
0 0 248
0 0 241
0 0 250
0 0 250
0 0 248
0 0 254
0 0 245
0 0 245
0 0 248
0 0 248
0 0 245
0 0 246
0 0 244
0 0 250
0 0 245
0 0 245
0 0 250
0 0 248
0 0 240
0 0 246
0 0 238
0 0 248
0 0 245
0 0 245
0 0 244
0 0 248
0 0 254
0 0 246
0 0 245
0 0 241
0 0 245
0 0 245
0 0 246
0 0 236
0 0 240
0 0 245
0 0 244
0 0 242
0 0 246
0 0 238
0 0 236
0 0 242
0 0 240
0 0 240
0 0 245
0 0 241
0 0 233
0 0 241
0 0 244
0 0 246
0 0 237
0 0 234
0 0 231
0 0 234
0 0 230
0 0 228
0 0 234
0 0 242
0 0 236
0 0 244
0 0 242
0 0 227
0 0 233
0 0 226
0 0 227
0 0 230
0 0 230
0 0 227
0 0 227
0 0 233
0 0 221
0 0 221
0 0 221
0 0 221
0 0 218
0 0 224
0 0 212
0 0 211
0 0 220
0 0 212
0 0 206
0 0 224
0 0 211
0 0 204
0 0 215
0 0 211
0 0 211
0 0 194
0 0 179
0 0 201
0 0 184
0 0 186
0 0 181
0 0 188
0 0 175
0 0 165
0 0 151
0 0 153
0 0 140
0 0 130
0 0 135
0 0 88
0 0 111
177 187 206
184 185 199
58 0 0
88 0 0
118 0 0
126 0 0
136 0 0
142 0 0
148 0 0
146 0 0
136 0 0
146 0 0
173 0 0
163 0 0
161 0 0
154 0 0
170 0 0
169 0 0
180 0 0
186 0 0
182 0 0
164 0 0
183 0 0
189 0 0
181 0 0
182 0 0
176 0 0
195 0 0
189 0 0
195 0 0
195 0 0
190 0 0
191 0 0
200 0 0
197 0 0
191 0 0
194 0 0
202 0 0
206 0 0
202 0 0
204 0 0
201 0 0
201 0 0
203 0 0
196 0 0
205 0 0
206 0 0
207 0 0
203 0 0
209 0 0
209 0 0
203 0 0
209 0 0
209 0 0
211 0 0
206 0 0
210 0 0
204 0 0
217 0 0
210 0 0
214 0 0
207 0 0
210 0 0
212 0 0
208 0 0
210 0 0
214 0 0
208 0 0
211 0 0
215 0 0
215 0 0
203 0 0
211 0 0
214 0 0
210 0 0
215 0 0
208 0 0
215 0 0
216 0 0
214 0 0
213 0 0
210 0 0
214 0 0
218 0 0
216 0 0
214 0 0
217 0 0
212 0 0
216 0 0
214 0 0
220 0 0
214 0 0
213 0 0
218 0 0
221 0 0
210 0 0
214 0 0
216 0 0
215 0 0
219 0 0
217 0 0
214 0 0
210 0 0
219 0 0
218 0 0
223 0 0
215 0 0
216 0 0
213 0 0
213 0 0
217 0 0
216 0 0
222 0 0
220 0 0
217 0 0
221 0 0
221 0 0
215 0 0
225 0 0
220 0 0
212 0 0
220 0 0
214 0 0
222 0 0
215 0 0
218 0 0
219 0 0
219 0 0
223 0 0
218 0 0
220 0 0
222 0 0
219 0 0
219 0 0
217 0 0
213 0 0
219 0 0
220 0 0
221 0 0
219 0 0
223 0 0
218 0 0
217 0 0
220 0 0
218 0 0
218 0 0
221 0 0
221 0 0
225 0 0
216 0 0
219 0 0
216 0 0
221 0 0
222 0 0
222 0 0
223 0 0
218 0 0
219 0 0
219 0 0
222 0 0
220 0 0
220 0 0
221 0 0
222 0 0
217 0 0
216 0 0
221 0 0
222 0 0
219 0 0
220 0 0
218 0 0
222 0 0
220 0 0
221 0 0
224 0 0
227 0 0
223 0 0
219 0 0
216 0 0
220 0 0
218 0 0
220 0 0
222 0 0
221 0 0
225 0 0
223 0 0
223 0 0
219 0 0
221 0 0
220 0 0
224 0 0
223 0 0
220 0 0
215 0 0
222 0 0
226 0 0
219 0 0
223 0 0
222 0 0
222 0 0
220 0 0
0 0 255
0 0 253
0 0 254
0 0 255
0 0 255
0 0 255
0 0 255
0 0 254
0 0 255
0 0 255
0 0 255
0 0 253
0 0 255
0 0 255
0 0 255
0 0 253
0 0 254
0 0 255
0 0 255
0 0 254
0 0 255
0 0 255
0 0 255
0 0 255
0 0 255
0 0 254
0 0 254
0 0 255
0 0 254
0 0 255
0 0 253
0 0 254
0 0 254
0 0 253
0 0 255
0 0 250
0 0 254
0 0 255
0 0 255
0 0 254
0 0 253
0 0 253
0 0 255
0 0 253
0 0 254
0 0 254
0 0 253
0 0 253
0 0 254
0 0 254
0 0 255
0 0 255
0 0 255
0 0 252
0 0 253
0 0 254
0 0 252
0 0 254
0 0 255
0 0 253
0 0 254
0 0 253
0 0 252
0 0 255
0 0 255
0 0 252
0 0 254
0 0 252
0 0 253
0 0 254
0 0 255
0 0 250
0 0 250
0 0 253
0 0 246
0 0 254
0 0 253
0 0 254
0 0 250
0 0 252
0 0 253
0 0 253
0 0 245
0 0 252
0 0 253
0 0 249
0 0 254
0 0 250
0 0 253
0 0 249
0 0 249
0 0 250
0 0 252
0 0 252
0 0 252
0 0 248
0 0 252
0 0 248
0 0 250
0 0 249
0 0 249
0 0 250
0 0 248
0 0 253
0 0 246
0 0 244
0 0 253
0 0 248
0 0 252
0 0 244
0 0 245
0 0 250
0 0 252
0 0 246
0 0 246
0 0 248
0 0 249
0 0 245
0 0 246
0 0 245
0 0 253
0 0 249
0 0 245
0 0 242
0 0 246
0 0 242
0 0 245
0 0 245
0 0 248
0 0 241
0 0 245
0 0 246
0 0 242
0 0 245
0 0 240
0 0 242
0 0 249
0 0 240
0 0 248
0 0 240
0 0 244
0 0 241
0 0 234
0 0 237
0 0 238
0 0 237
0 0 236
0 0 238
0 0 226
0 0 244
0 0 237
0 0 233
0 0 223
0 0 236
0 0 230
0 0 240
0 0 238
0 0 236
0 0 230
0 0 230
0 0 227
0 0 231
0 0 218
0 0 224
0 0 237
0 0 230
0 0 224
0 0 215
0 0 226
0 0 215
0 0 221
0 0 211
0 0 223
0 0 217
0 0 209
0 0 220
0 0 201
0 0 223
0 0 211
0 0 209
0 0 214
0 0 214
0 0 203
0 0 209
0 0 196
0 0 194
0 0 177
0 0 186
0 0 191
0 0 199
0 0 177
0 0 161
0 0 157
0 0 144
0 0 128
0 0 149
0 0 120
0 0 102
0 0 84
198 210 228
199 206 221
98 0 0
103 0 0
123 0 0
135 0 0
116 0 0
137 0 0
155 0 0
151 0 0
160 0 0
169 0 0
161 0 0
154 0 0
161 0 0
179 0 0
158 0 0
172 0 0
174 0 0
181 0 0
185 0 0
184 0 0
172 0 0
177 0 0
190 0 0
194 0 0
191 0 0
194 0 0
202 0 0
192 0 0
185 0 0
202 0 0
199 0 0
203 0 0
203 0 0
197 0 0
203 0 0
204 0 0
194 0 0
197 0 0
193 0 0
206 0 0
208 0 0
205 0 0
203 0 0
210 0 0
211 0 0
205 0 0
205 0 0
195 0 0
205 0 0
212 0 0
209 0 0
208 0 0
213 0 0
207 0 0
208 0 0
212 0 0
202 0 0
204 0 0
211 0 0
212 0 0
208 0 0
210 0 0
211 0 0
217 0 0
202 0 0
214 0 0
214 0 0
212 0 0
210 0 0
208 0 0
214 0 0
217 0 0
214 0 0
212 0 0
215 0 0
210 0 0
211 0 0
214 0 0
209 0 0
218 0 0
215 0 0
218 0 0
216 0 0
220 0 0
216 0 0
220 0 0
216 0 0
203 0 0
215 0 0
218 0 0
205 0 0
212 0 0
220 0 0
214 0 0
217 0 0
213 0 0
216 0 0
219 0 0
212 0 0
217 0 0
222 0 0
216 0 0
217 0 0
218 0 0
218 0 0
211 0 0
217 0 0
222 0 0
215 0 0
219 0 0
223 0 0
218 0 0
221 0 0
222 0 0
220 0 0
219 0 0
222 0 0
221 0 0
216 0 0
218 0 0
224 0 0
214 0 0
215 0 0
215 0 0
222 0 0
219 0 0
214 0 0
220 0 0
219 0 0
222 0 0
221 0 0
219 0 0
220 0 0
218 0 0
219 0 0
220 0 0
222 0 0
219 0 0
221 0 0
221 0 0
221 0 0
226 0 0
223 0 0
217 0 0
218 0 0
224 0 0
223 0 0
219 0 0
223 0 0
220 0 0
224 0 0
222 0 0
223 0 0
220 0 0
221 0 0
219 0 0
223 0 0
221 0 0
219 0 0
225 0 0
224 0 0
219 0 0
221 0 0
222 0 0
222 0 0
222 0 0
223 0 0
217 0 0
221 0 0
221 0 0
227 0 0
222 0 0
222 0 0
220 0 0
223 0 0
220 0 0
220 0 0
222 0 0
222 0 0
225 0 0
221 0 0
220 0 0
224 0 0
222 0 0
221 0 0
222 0 0
220 0 0
223 0 0
219 0 0
222 0 0
224 0 0
223 0 0
221 0 0
219 0 0
222 0 0
221 0 0
222 0 0
224 0 0
221 0 0
0 0 255
0 0 255
0 0 255
0 0 254
0 0 254
0 0 253
0 0 255
0 0 255
0 0 255
0 0 255
0 0 253
0 0 255
0 0 255
0 0 255
0 0 255
0 0 255
0 0 254
0 0 253
0 0 254
0 0 255
0 0 255
0 0 254
0 0 253
0 0 253
0 0 254
0 0 255
0 0 253
0 0 255
0 0 252
0 0 254
0 0 255
0 0 253
0 0 253
0 0 255
0 0 254
0 0 255
0 0 255
0 0 255
0 0 253
0 0 252
0 0 254
0 0 254
0 0 254
0 0 254
0 0 252
0 0 254
0 0 253
0 0 252
0 0 255
0 0 254
0 0 252
0 0 253
0 0 248
0 0 253
0 0 252
0 0 253
0 0 255
0 0 255
0 0 253
0 0 254
0 0 250
0 0 252
0 0 253
0 0 253
0 0 254
0 0 249
0 0 252
0 0 250
0 0 250
0 0 253
0 0 255
0 0 250
0 0 253
0 0 252
0 0 252
0 0 248
0 0 254
0 0 248
0 0 254
0 0 248
0 0 253
0 0 250
0 0 254
0 0 254
0 0 254
0 0 252
0 0 253
0 0 252
0 0 254
0 0 253
0 0 249
0 0 252
0 0 254
0 0 250
0 0 250
0 0 252
0 0 252
0 0 253
0 0 250
0 0 246
0 0 254
0 0 252
0 0 249
0 0 244
0 0 249
0 0 242
0 0 245
0 0 248
0 0 249
0 0 248
0 0 252
0 0 241
0 0 252
0 0 252
0 0 246
0 0 245
0 0 241
0 0 246
0 0 250
0 0 245
0 0 250
0 0 246
0 0 244
0 0 242
0 0 241
0 0 237
0 0 244
0 0 246
0 0 242
0 0 241
0 0 244
0 0 249
0 0 246
0 0 245
0 0 245
0 0 238
0 0 241
0 0 241
0 0 240
0 0 238
0 0 236
0 0 237
0 0 236
0 0 238
0 0 242
0 0 238
0 0 237
0 0 246
0 0 236
0 0 242
0 0 241
0 0 236
0 0 230
0 0 238
0 0 233
0 0 237
0 0 242
0 0 231
0 0 240
0 0 227
0 0 226
0 0 234
0 0 230
0 0 218
0 0 231
0 0 228
0 0 228
0 0 234
0 0 220
0 0 217
0 0 227
0 0 226
0 0 218
0 0 215
0 0 212
0 0 224
0 0 209
0 0 203
0 0 207
0 0 211
0 0 199
0 0 199
0 0 214
0 0 198
0 0 201
0 0 189
0 0 193
0 0 201
0 0 177
0 0 189
0 0 175
0 0 165
0 0 155
0 0 153
0 0 159
0 0 151
0 0 114
0 0 114
0 0 95
214 225 244
218 230 248
106 0 0
102 0 0
107 0 0
111 0 0
113 0 0
137 0 0
127 0 0
152 0 0
148 0 0
171 0 0
168 0 0
161 0 0
167 0 0
163 0 0
176 0 0
167 0 0
186 0 0
181 0 0
184 0 0
182 0 0
186 0 0
185 0 0
191 0 0
195 0 0
189 0 0
198 0 0
186 0 0
205 0 0
199 0 0
186 0 0
204 0 0
192 0 0
200 0 0
191 0 0
198 0 0
199 0 0
196 0 0
197 0 0
203 0 0
207 0 0
207 0 0
200 0 0
205 0 0
202 0 0
202 0 0
203 0 0
208 0 0
203 0 0
208 0 0
209 0 0
212 0 0
201 0 0
210 0 0
203 0 0
210 0 0
206 0 0
208 0 0
207 0 0
208 0 0
207 0 0
202 0 0
212 0 0
206 0 0
215 0 0
214 0 0
212 0 0
210 0 0
210 0 0
218 0 0
215 0 0
215 0 0
212 0 0
219 0 0
214 0 0
214 0 0
215 0 0
218 0 0
212 0 0
213 0 0
215 0 0
207 0 0
216 0 0
216 0 0
213 0 0
213 0 0
211 0 0
221 0 0
214 0 0
219 0 0
214 0 0
220 0 0
218 0 0
211 0 0
222 0 0
216 0 0
214 0 0
218 0 0
214 0 0
221 0 0
221 0 0
215 0 0
215 0 0
222 0 0
217 0 0
216 0 0
221 0 0
218 0 0
217 0 0
222 0 0
221 0 0
216 0 0
221 0 0
214 0 0
219 0 0
219 0 0
220 0 0
216 0 0
220 0 0
218 0 0
217 0 0
218 0 0
219 0 0
221 0 0
219 0 0
216 0 0
220 0 0
219 0 0
218 0 0
220 0 0
221 0 0
221 0 0
219 0 0
221 0 0
218 0 0
219 0 0
214 0 0
216 0 0
222 0 0
221 0 0
225 0 0
218 0 0
222 0 0
223 0 0
219 0 0
221 0 0
216 0 0
221 0 0
224 0 0
223 0 0
219 0 0
221 0 0
223 0 0
222 0 0
223 0 0
221 0 0
215 0 0
223 0 0
220 0 0
219 0 0
222 0 0
225 0 0
216 0 0
221 0 0
222 0 0
221 0 0
221 0 0
222 0 0
222 0 0
223 0 0
221 0 0
221 0 0
222 0 0
220 0 0
222 0 0
223 0 0
222 0 0
224 0 0
224 0 0
221 0 0
221 0 0
221 0 0
219 0 0
221 0 0
219 0 0
226 0 0
221 0 0
222 0 0
225 0 0
218 0 0
223 0 0
220 0 0
218 0 0
221 0 0
224 0 0
219 0 0
220 0 0
224 0 0
222 0 0
221 0 0
0 0 255
0 0 255
0 0 254
0 0 255
0 0 254
0 0 255
0 0 255
0 0 254
0 0 253
0 0 254
0 0 255
0 0 255
0 0 255
0 0 255
0 0 253
0 0 254
0 0 255
0 0 254
0 0 255
0 0 254
0 0 255
0 0 255
0 0 254
0 0 255
0 0 254
0 0 255
0 0 255
0 0 254
0 0 254
0 0 255
0 0 253
0 0 255
0 0 255
0 0 253
0 0 255
0 0 255
0 0 255
0 0 255
0 0 254
0 0 254
0 0 252
0 0 253
0 0 254
0 0 255
0 0 254
0 0 255
0 0 253
0 0 253
0 0 253
0 0 252
0 0 253
0 0 254
0 0 254
0 0 253
0 0 255
0 0 254
0 0 253
0 0 254
0 0 253
0 0 252
0 0 253
0 0 250
0 0 253
0 0 253
0 0 253
0 0 250
0 0 250
0 0 253
0 0 252
0 0 250
0 0 254
0 0 249
0 0 252
0 0 250
0 0 253
0 0 249
0 0 250
0 0 255
0 0 248
0 0 250
0 0 248
0 0 249
0 0 249
0 0 252
0 0 253
0 0 249
0 0 245
0 0 252
0 0 250
0 0 249
0 0 248
0 0 253
0 0 248
0 0 255
0 0 250
0 0 249
0 0 249
0 0 249
0 0 252
0 0 252
0 0 250
0 0 248
0 0 244
0 0 249
0 0 245
0 0 250
0 0 238
0 0 250
0 0 248
0 0 252
0 0 249
0 0 244
0 0 252
0 0 244
0 0 244
0 0 252
0 0 246
0 0 240
0 0 248
0 0 248
0 0 244
0 0 246
0 0 246
0 0 241
0 0 244
0 0 245
0 0 250
0 0 248
0 0 248
0 0 250
0 0 241
0 0 245
0 0 244
0 0 244
0 0 240
0 0 234
0 0 242
0 0 242
0 0 242
0 0 237
0 0 242
0 0 234
0 0 241
0 0 238
0 0 234
0 0 242
0 0 244
0 0 228
0 0 237
0 0 242
0 0 231
0 0 240
0 0 227
0 0 234
0 0 240
0 0 224
0 0 230
0 0 238
0 0 231
0 0 227
0 0 236
0 0 226
0 0 218
0 0 234
0 0 230
0 0 228
0 0 230
0 0 227
0 0 224
0 0 214
0 0 215
0 0 220
0 0 218
0 0 226
0 0 226
0 0 212
0 0 214
0 0 215
0 0 209
0 0 201
0 0 203
0 0 203
0 0 198
0 0 199
0 0 206
0 0 198
0 0 193
0 0 188
0 0 191
0 0 171
0 0 163
0 0 181
0 0 142
0 0 155
0 0 151
0 0 153
0 0 108
0 0 108
67 71 122
225 238 255
225 238 255
112 58 62
108 0 0
121 0 0
126 0 0
130 0 0
133 0 0
157 0 0
146 0 0
161 0 0
176 0 0
178 0 0
173 0 0
173 0 0
167 0 0
177 0 0
174 0 0
181 0 0
183 0 0
185 0 0
185 0 0
194 0 0
184 0 0
189 0 0
186 0 0
181 0 0
196 0 0
198 0 0
193 0 0
186 0 0
190 0 0
189 0 0
189 0 0
202 0 0
201 0 0
212 0 0
196 0 0
199 0 0
211 0 0
202 0 0
200 0 0
206 0 0
192 0 0
205 0 0
203 0 0
199 0 0
208 0 0
211 0 0
213 0 0
209 0 0
216 0 0
209 0 0
200 0 0
202 0 0
207 0 0
214 0 0
217 0 0
215 0 0
214 0 0
207 0 0
214 0 0
211 0 0
206 0 0
212 0 0
211 0 0
209 0 0
216 0 0
213 0 0
217 0 0
214 0 0
214 0 0
211 0 0
212 0 0
220 0 0
212 0 0
206 0 0
214 0 0
215 0 0
213 0 0
220 0 0
217 0 0
221 0 0
214 0 0
212 0 0
216 0 0
221 0 0
214 0 0
213 0 0
217 0 0
212 0 0
218 0 0
213 0 0
213 0 0
217 0 0
215 0 0
216 0 0
219 0 0
211 0 0
215 0 0
218 0 0
215 0 0
220 0 0
220 0 0
219 0 0
221 0 0
215 0 0
220 0 0
215 0 0
219 0 0
222 0 0
218 0 0
220 0 0
221 0 0
217 0 0
221 0 0
217 0 0
221 0 0
215 0 0
217 0 0
216 0 0
223 0 0
216 0 0
218 0 0
217 0 0
216 0 0
223 0 0
223 0 0
220 0 0
222 0 0
221 0 0
223 0 0
221 0 0
217 0 0
223 0 0
220 0 0
219 0 0
219 0 0
221 0 0
224 0 0
222 0 0
220 0 0
225 0 0
221 0 0
218 0 0
220 0 0
218 0 0
221 0 0
216 0 0
225 0 0
222 0 0
221 0 0
219 0 0
220 0 0
223 0 0
221 0 0
221 0 0
221 0 0
224 0 0
220 0 0
225 0 0
222 0 0
221 0 0
218 0 0
219 0 0
221 0 0
222 0 0
224 0 0
224 0 0
222 0 0
222 0 0
223 0 0
225 0 0
220 0 0
225 0 0
221 0 0
224 0 0
222 0 0
224 0 0
221 0 0
222 0 0
220 0 0
221 0 0
222 0 0
222 0 0
222 0 0
224 0 0
223 0 0
221 0 0
223 0 0
224 0 0
221 0 0
220 0 0
222 0 0
224 0 0
224 0 0
224 0 0
222 0 0
222 0 0
224 0 0
221 0 0
0 0 255
0 0 254
0 0 255
0 0 255
0 0 254
0 0 255
0 0 255
0 0 255
0 0 255
0 0 255
0 0 255
0 0 255
0 0 255
0 0 255
0 0 254
0 0 253
0 0 254
0 0 254
0 0 255
0 0 254
0 0 255
0 0 255
0 0 254
0 0 254
0 0 255
0 0 254
0 0 248
0 0 253
0 0 253
0 0 252
0 0 254
0 0 255
0 0 254
0 0 254
0 0 254
0 0 254
0 0 253
0 0 255
0 0 254
0 0 255
0 0 255
0 0 254
0 0 254
0 0 254
0 0 252
0 0 253
0 0 254
0 0 252
0 0 252
0 0 255
0 0 253
0 0 255
0 0 253
0 0 255
0 0 250
0 0 254
0 0 255
0 0 253
0 0 254
0 0 252
0 0 252
0 0 252
0 0 255
0 0 254
0 0 250
0 0 252
0 0 254
0 0 255
0 0 253
0 0 250
0 0 254
0 0 253
0 0 250
0 0 254
0 0 252
0 0 253
0 0 254
0 0 245
0 0 253
0 0 250
0 0 254
0 0 249
0 0 250
0 0 253
0 0 250
0 0 249
0 0 253
0 0 246
0 0 253
0 0 250
0 0 250
0 0 250
0 0 249
0 0 249
0 0 250
0 0 249
0 0 248
0 0 252
0 0 246
0 0 246
0 0 249
0 0 246
0 0 250
0 0 249
0 0 245
0 0 244
0 0 246
0 0 248
0 0 246
0 0 250
0 0 250
0 0 249
0 0 244
0 0 248
0 0 244
0 0 246
0 0 249
0 0 246
0 0 250
0 0 246
0 0 238
0 0 248
0 0 241
0 0 245
0 0 249
0 0 238
0 0 248
0 0 246
0 0 236
0 0 248
0 0 241
0 0 242
0 0 245
0 0 246
0 0 236
0 0 238
0 0 242
0 0 246
0 0 242
0 0 240
0 0 246
0 0 244
0 0 234
0 0 228
0 0 242
0 0 241
0 0 238
0 0 233
0 0 249
0 0 238
0 0 241
0 0 234
0 0 240
0 0 240
0 0 234
0 0 238
0 0 234
0 0 244
0 0 234
0 0 240
0 0 236
0 0 234
0 0 230
0 0 221
0 0 231
0 0 220
0 0 226
0 0 220
0 0 227
0 0 228
0 0 223
0 0 228
0 0 231
0 0 215
0 0 227
0 0 230
0 0 204
0 0 212
0 0 214
0 0 206
0 0 191
0 0 217
0 0 199
0 0 199
0 0 201
0 0 194
0 0 194
0 0 186
0 0 179
0 0 177
0 0 179
0 0 153
0 0 149
0 0 167
0 0 135
0 0 130
0 0 133
0 0 111
113 119 151
226 238 255
226 238 255
149 130 140
115 0 0
122 0 0
132 0 0
130 0 0
142 0 0
150 0 0
161 0 0
165 0 0
162 0 0
166 0 0
163 0 0
183 0 0
175 0 0
177 0 0
186 0 0
183 0 0
184 0 0
184 0 0
192 0 0
198 0 0
169 0 0
193 0 0
183 0 0
195 0 0
191 0 0
184 0 0
194 0 0
194 0 0
202 0 0
190 0 0
198 0 0
199 0 0
186 0 0
202 0 0
199 0 0
201 0 0
203 0 0
201 0 0
197 0 0
211 0 0
217 0 0
205 0 0
212 0 0
210 0 0
206 0 0
212 0 0
197 0 0
205 0 0
210 0 0
211 0 0
217 0 0
207 0 0
207 0 0
214 0 0
206 0 0
215 0 0
212 0 0
215 0 0
204 0 0
207 0 0
207 0 0
211 0 0
213 0 0
215 0 0
212 0 0
214 0 0
200 0 0
215 0 0
212 0 0
216 0 0
219 0 0
210 0 0
209 0 0
214 0 0
220 0 0
217 0 0
215 0 0
213 0 0
216 0 0
212 0 0
213 0 0
222 0 0
217 0 0
214 0 0
218 0 0
219 0 0
212 0 0
219 0 0
217 0 0
209 0 0
221 0 0
212 0 0
216 0 0
216 0 0
220 0 0
216 0 0
221 0 0
220 0 0
218 0 0
217 0 0
220 0 0
224 0 0
223 0 0
218 0 0
222 0 0
212 0 0
219 0 0
219 0 0
219 0 0
217 0 0
217 0 0
218 0 0
220 0 0
223 0 0
220 0 0
222 0 0
221 0 0
220 0 0
220 0 0
217 0 0
214 0 0
218 0 0
220 0 0
217 0 0
218 0 0
221 0 0
218 0 0
223 0 0
221 0 0
218 0 0
220 0 0
225 0 0
223 0 0
224 0 0
222 0 0
219 0 0
223 0 0
223 0 0
215 0 0
219 0 0
221 0 0
219 0 0
219 0 0
219 0 0
222 0 0
222 0 0
219 0 0
221 0 0
223 0 0
224 0 0
224 0 0
219 0 0
221 0 0
219 0 0
220 0 0
219 0 0
220 0 0
221 0 0
221 0 0
223 0 0
219 0 0
220 0 0
220 0 0
219 0 0
221 0 0
218 0 0
222 0 0
224 0 0
226 0 0
225 0 0
215 0 0
221 0 0
223 0 0
224 0 0
220 0 0
219 0 0
222 0 0
222 0 0
219 0 0
224 0 0
222 0 0
225 0 0
224 0 0
221 0 0
223 0 0
221 0 0
221 0 0
221 0 0
224 0 0
221 0 0
220 0 0
218 0 0
224 0 0
222 0 0
221 0 0
225 0 0
223 0 0
222 0 0
0 0 255
0 0 254
0 0 255
0 0 254
0 0 254
0 0 255
0 0 254
0 0 255
0 0 255
0 0 255
0 0 255
0 0 255
0 0 255
0 0 255
0 0 254
0 0 255
0 0 254
0 0 255
0 0 254
0 0 254
0 0 254
0 0 255
0 0 252
0 0 255
0 0 252
0 0 254
0 0 254
0 0 255
0 0 254
0 0 254
0 0 255
0 0 254
0 0 253
0 0 253
0 0 253
0 0 254
0 0 255
0 0 252
0 0 250
0 0 253
0 0 252
0 0 254
0 0 252
0 0 253
0 0 255
0 0 255
0 0 252
0 0 254
0 0 255
0 0 249
0 0 254
0 0 250
0 0 255
0 0 255
0 0 253
0 0 255
0 0 250
0 0 253
0 0 250
0 0 254
0 0 252
0 0 253
0 0 254
0 0 255
0 0 255
0 0 249
0 0 250
0 0 254
0 0 255
0 0 252
0 0 252
0 0 254
0 0 252
0 0 255
0 0 253
0 0 253
0 0 252
0 0 252
0 0 253
0 0 255
0 0 253
0 0 252
0 0 253
0 0 253
0 0 253
0 0 254
0 0 246
0 0 255
0 0 252
0 0 252
0 0 253
0 0 253
0 0 245
0 0 249
0 0 246
0 0 252
0 0 249
0 0 253
0 0 248
0 0 249
0 0 254
0 0 253
0 0 249
0 0 242
0 0 253
0 0 248
0 0 249
0 0 246
0 0 249
0 0 246
0 0 248
0 0 253
0 0 249
0 0 249
0 0 246
0 0 245
0 0 245
0 0 244
0 0 248
0 0 249
0 0 240
0 0 246
0 0 252
0 0 246
0 0 234
0 0 245
0 0 248
0 0 244
0 0 240
0 0 240
0 0 249
0 0 240
0 0 238
0 0 248
0 0 248
0 0 237
0 0 236
0 0 242
0 0 240
0 0 246
0 0 242
0 0 240
0 0 245
0 0 240
0 0 242
0 0 240
0 0 242
0 0 240
0 0 233
0 0 242
0 0 237
0 0 238
0 0 231
0 0 228
0 0 245
0 0 237
0 0 238
0 0 227
0 0 230
0 0 228
0 0 238
0 0 224
0 0 231
0 0 233
0 0 233
0 0 218
0 0 230
0 0 230
0 0 228
0 0 224
0 0 228
0 0 217
0 0 209
0 0 206
0 0 217
0 0 217
0 0 209
0 0 207
0 0 215
0 0 209
0 0 207
0 0 198
0 0 215
0 0 194
0 0 189
0 0 181
0 0 181
0 0 179
0 0 186
0 0 182
0 0 191
0 0 165
0 0 161
0 0 149
0 0 140
0 0 142
0 0 114
0 0 114
155 163 193
226 238 255
226 238 255
164 163 175
106 0 0
119 0 0
124 0 0
135 0 0
146 0 0
142 0 0
147 0 0
170 0 0
168 0 0
174 0 0
182 0 0
163 0 0
185 0 0
176 0 0
188 0 0
176 0 0
185 0 0
188 0 0
185 0 0
189 0 0
183 0 0
193 0 0
188 0 0
204 0 0
172 0 0
182 0 0
189 0 0
202 0 0
201 0 0
187 0 0
194 0 0
205 0 0
201 0 0
202 0 0
196 0 0
199 0 0
202 0 0
200 0 0
201 0 0
205 0 0
206 0 0
201 0 0
204 0 0
215 0 0
200 0 0
202 0 0
207 0 0
209 0 0
212 0 0
198 0 0
210 0 0
198 0 0
215 0 0
207 0 0
217 0 0
212 0 0
216 0 0
212 0 0
211 0 0
212 0 0
213 0 0
201 0 0
211 0 0
209 0 0
213 0 0
206 0 0
218 0 0
213 0 0
215 0 0
213 0 0
210 0 0
213 0 0
212 0 0
210 0 0
221 0 0
211 0 0
212 0 0
218 0 0
217 0 0
211 0 0
209 0 0
221 0 0
212 0 0
217 0 0
212 0 0
217 0 0
213 0 0
217 0 0
213 0 0
215 0 0
215 0 0
216 0 0
209 0 0
219 0 0
221 0 0
217 0 0
216 0 0
221 0 0
219 0 0
220 0 0
219 0 0
220 0 0
220 0 0
217 0 0
224 0 0
218 0 0
217 0 0
222 0 0
219 0 0
222 0 0
220 0 0
217 0 0
222 0 0
222 0 0
218 0 0
216 0 0
216 0 0
218 0 0
224 0 0
226 0 0
219 0 0
215 0 0
222 0 0
218 0 0
220 0 0
219 0 0
219 0 0
224 0 0
220 0 0
221 0 0
222 0 0
222 0 0
219 0 0
220 0 0
222 0 0
222 0 0
220 0 0
221 0 0
218 0 0
218 0 0
221 0 0
223 0 0
218 0 0
217 0 0
222 0 0
223 0 0
220 0 0
222 0 0
222 0 0
219 0 0
219 0 0
224 0 0
224 0 0
220 0 0
222 0 0
221 0 0
221 0 0
220 0 0
224 0 0
223 0 0
223 0 0
225 0 0
222 0 0
223 0 0
222 0 0
223 0 0
222 0 0
223 0 0
222 0 0
222 0 0
219 0 0
224 0 0
226 0 0
224 0 0
222 0 0
220 0 0
221 0 0
223 0 0
222 0 0
221 0 0
224 0 0
223 0 0
224 0 0
219 0 0
225 0 0
223 0 0
223 0 0
220 0 0
223 0 0
219 0 0
223 0 0
221 0 0
222 0 0
223 0 0
222 0 0
223 0 0
227 0 0
221 0 0
0 0 255
0 0 255
0 0 254
0 0 255
0 0 255
0 0 254
0 0 255
0 0 254
0 0 255
0 0 255
0 0 253
0 0 254
0 0 255
0 0 255
0 0 255
0 0 255
0 0 253
0 0 255
0 0 253
0 0 255
0 0 254
0 0 254
0 0 255
0 0 253
0 0 254
0 0 253
0 0 253
0 0 254
0 0 254
0 0 255
0 0 252
0 0 254
0 0 255
0 0 253
0 0 253
0 0 253
0 0 253
0 0 254
0 0 254
0 0 253
0 0 255
0 0 250
0 0 253
0 0 252
0 0 253
0 0 253
0 0 253
0 0 255
0 0 255
0 0 254
0 0 252
0 0 254
0 0 254
0 0 253
0 0 255
0 0 254
0 0 253
0 0 250
0 0 255
0 0 254
0 0 253
0 0 252
0 0 254
0 0 252
0 0 253
0 0 254
0 0 252
0 0 252
0 0 252
0 0 253
0 0 252
0 0 246
0 0 253
0 0 252
0 0 254
0 0 253
0 0 255
0 0 252
0 0 254
0 0 252
0 0 250
0 0 252
0 0 248
0 0 252
0 0 254
0 0 250
0 0 250
0 0 249
0 0 252
0 0 252
0 0 250
0 0 249
0 0 254
0 0 250
0 0 250
0 0 250
0 0 249
0 0 249
0 0 240
0 0 252
0 0 249
0 0 249
0 0 249
0 0 253
0 0 246
0 0 244
0 0 246
0 0 249
0 0 248
0 0 245
0 0 248
0 0 246
0 0 250
0 0 254
0 0 252
0 0 248
0 0 241
0 0 249
0 0 245
0 0 245
0 0 240
0 0 246
0 0 248
0 0 242
0 0 248
0 0 250
0 0 244
0 0 249
0 0 242
0 0 246
0 0 252
0 0 244
0 0 245
0 0 242
0 0 246
0 0 242
0 0 240
0 0 246
0 0 233
0 0 242
0 0 238
0 0 241
0 0 238
0 0 245
0 0 244
0 0 242
0 0 238
0 0 242
0 0 237
0 0 237
0 0 236
0 0 236
0 0 236
0 0 233
0 0 242
0 0 231
0 0 233
0 0 230
0 0 241
0 0 233
0 0 237
0 0 224
0 0 228
0 0 228
0 0 231
0 0 227
0 0 226
0 0 226
0 0 234
0 0 209
0 0 215
0 0 220
0 0 209
0 0 212
0 0 217
0 0 217
0 0 215
0 0 201
0 0 209
0 0 221
0 0 204
0 0 201
0 0 193
0 0 188
0 0 206
0 0 189
0 0 186
0 0 177
0 0 179
0 0 184
0 0 169
0 0 161
0 0 153
0 0 153
0 0 153
0 0 149
0 0 117
0 0 125
184 194 215
226 238 255
226 238 255
186 186 199
109 0 0
103 0 0
120 0 0
152 0 0
134 0 0
155 0 0
163 0 0
157 0 0
158 0 0
164 0 0
170 0 0
179 0 0
170 0 0
166 0 0
185 0 0
183 0 0
168 0 0
180 0 0
190 0 0
190 0 0
184 0 0
179 0 0
197 0 0
197 0 0
202 0 0
192 0 0
192 0 0
189 0 0
194 0 0
197 0 0
205 0 0
196 0 0
196 0 0
206 0 0
199 0 0
200 0 0
206 0 0
199 0 0
197 0 0
209 0 0
189 0 0
208 0 0
206 0 0
217 0 0
209 0 0
209 0 0
208 0 0
210 0 0
210 0 0
216 0 0
206 0 0
210 0 0
210 0 0
209 0 0
215 0 0
209 0 0
209 0 0
219 0 0
215 0 0
208 0 0
211 0 0
206 0 0
213 0 0
209 0 0
203 0 0
213 0 0
215 0 0
208 0 0
221 0 0
211 0 0
214 0 0
217 0 0
212 0 0
206 0 0
210 0 0
216 0 0
217 0 0
220 0 0
216 0 0
213 0 0
215 0 0
218 0 0
216 0 0
217 0 0
213 0 0
218 0 0
222 0 0
217 0 0
216 0 0
220 0 0
218 0 0
219 0 0
217 0 0
218 0 0
217 0 0
219 0 0
220 0 0
219 0 0
216 0 0
222 0 0
219 0 0
219 0 0
225 0 0
211 0 0
219 0 0
218 0 0
215 0 0
223 0 0
218 0 0
221 0 0
219 0 0
222 0 0
219 0 0
221 0 0
223 0 0
219 0 0
222 0 0
221 0 0
221 0 0
220 0 0
214 0 0
219 0 0
220 0 0
222 0 0
223 0 0
216 0 0
221 0 0
223 0 0
222 0 0
219 0 0
220 0 0
219 0 0
218 0 0
221 0 0
220 0 0
223 0 0
220 0 0
222 0 0
223 0 0
222 0 0
221 0 0
222 0 0
223 0 0
221 0 0
219 0 0
219 0 0
222 0 0
224 0 0
224 0 0
219 0 0
224 0 0
221 0 0
218 0 0
221 0 0
221 0 0
225 0 0
224 0 0
223 0 0
222 0 0
223 0 0
224 0 0
223 0 0
222 0 0
217 0 0
223 0 0
224 0 0
222 0 0
219 0 0
221 0 0
223 0 0
219 0 0
220 0 0
223 0 0
224 0 0
223 0 0
224 0 0
221 0 0
223 0 0
217 0 0
219 0 0
222 0 0
224 0 0
223 0 0
229 0 0
223 0 0
224 0 0
223 0 0
224 0 0
222 0 0
222 0 0
225 0 0
224 0 0
223 0 0
223 0 0
220 0 0
225 0 0
221 0 0
219 0 0
0 0 255
0 0 254
0 0 254
0 0 254
0 0 255
0 0 254
0 0 255
0 0 254
0 0 255
0 0 254
0 0 254
0 0 254
0 0 255
0 0 253
0 0 254
0 0 254
0 0 253
0 0 253
0 0 255
0 0 254
0 0 254
0 0 255
0 0 252
0 0 250
0 0 255
0 0 254
0 0 255
0 0 254
0 0 254
0 0 254
0 0 253
0 0 254
0 0 253
0 0 254
0 0 252
0 0 253
0 0 250
0 0 253
0 0 255
0 0 253
0 0 253
0 0 253
0 0 253
0 0 253
0 0 254
0 0 254
0 0 254
0 0 255
0 0 254
0 0 254
0 0 253
0 0 253
0 0 254
0 0 252
0 0 254
0 0 250
0 0 254
0 0 252
0 0 255
0 0 252
0 0 253
0 0 252
0 0 252
0 0 253
0 0 254
0 0 249
0 0 255
0 0 252
0 0 250
0 0 250
0 0 250
0 0 248
0 0 253
0 0 254
0 0 248
0 0 252
0 0 246
0 0 250
0 0 252
0 0 248
0 0 254
0 0 252
0 0 254
0 0 250
0 0 254
0 0 254
0 0 252
0 0 246
0 0 254
0 0 253
0 0 249
0 0 250
0 0 255
0 0 253
0 0 253
0 0 249
0 0 250
0 0 253
0 0 249
0 0 246
0 0 250
0 0 250
0 0 252
0 0 250
0 0 252
0 0 252
0 0 245
0 0 250
0 0 253
0 0 248
0 0 248
0 0 250
0 0 248
0 0 250
0 0 244
0 0 245
0 0 248
0 0 244
0 0 249
0 0 240
0 0 245
0 0 237
0 0 245
0 0 248
0 0 246
0 0 246
0 0 241
0 0 244
0 0 246
0 0 252
0 0 246
0 0 231
0 0 241
0 0 240
0 0 242
0 0 242
0 0 238
0 0 246
0 0 238
0 0 248
0 0 242
0 0 233
0 0 245
0 0 237
0 0 238
0 0 231
0 0 242
0 0 241
0 0 234
0 0 230
0 0 231
0 0 240
0 0 238
0 0 233
0 0 236
0 0 230
0 0 237
0 0 234
0 0 236
0 0 234
0 0 224
0 0 228
0 0 237
0 0 230
0 0 226
0 0 224
0 0 228
0 0 226
0 0 227
0 0 220
0 0 227
0 0 226
0 0 221
0 0 223
0 0 223
0 0 220
0 0 224
0 0 211
0 0 211
0 0 199
0 0 199
0 0 214
0 0 196
0 0 204
0 0 198
0 0 203
0 0 191
0 0 181
0 0 165
0 0 191
0 0 171
0 0 175
0 0 159
0 0 153
0 0 147
0 0 144
0 0 130
0 0 117
209 220 238
227 239 255
227 239 255
215 219 234
109 0 0
130 0 0
127 0 0
142 0 0
130 0 0
143 0 0
154 0 0
153 0 0
157 0 0
158 0 0
181 0 0
167 0 0
172 0 0
186 0 0
173 0 0
170 0 0
182 0 0
176 0 0
177 0 0
179 0 0
193 0 0
197 0 0
191 0 0
187 0 0
183 0 0
199 0 0
177 0 0
199 0 0
197 0 0
204 0 0
198 0 0
206 0 0
196 0 0
202 0 0
204 0 0
205 0 0
200 0 0
201 0 0
206 0 0
208 0 0
206 0 0
209 0 0
202 0 0
201 0 0
211 0 0
208 0 0
213 0 0
210 0 0
203 0 0
215 0 0
207 0 0
214 0 0
205 0 0
207 0 0
210 0 0
211 0 0
201 0 0
216 0 0
215 0 0
213 0 0
213 0 0
222 0 0
213 0 0
218 0 0
205 0 0
208 0 0
213 0 0
212 0 0
217 0 0
214 0 0
221 0 0
214 0 0
216 0 0
207 0 0
207 0 0
216 0 0
214 0 0
218 0 0
219 0 0
217 0 0
221 0 0
217 0 0
216 0 0
218 0 0
218 0 0
218 0 0
221 0 0
221 0 0
212 0 0
223 0 0
216 0 0
218 0 0
216 0 0
219 0 0
217 0 0
218 0 0
212 0 0
221 0 0
212 0 0
219 0 0
216 0 0
222 0 0
213 0 0
224 0 0
221 0 0
221 0 0
213 0 0
215 0 0
218 0 0
221 0 0
220 0 0
219 0 0
223 0 0
218 0 0
220 0 0
223 0 0
220 0 0
216 0 0
217 0 0
220 0 0
215 0 0
222 0 0
216 0 0
224 0 0
219 0 0
215 0 0
219 0 0
218 0 0
219 0 0
221 0 0
223 0 0
224 0 0
218 0 0
223 0 0
217 0 0
220 0 0
220 0 0
221 0 0
222 0 0
215 0 0
224 0 0
219 0 0
221 0 0
221 0 0
219 0 0
222 0 0
219 0 0
221 0 0
224 0 0
219 0 0
221 0 0
221 0 0
221 0 0
221 0 0
222 0 0
221 0 0
219 0 0
221 0 0
223 0 0
220 0 0
224 0 0
220 0 0
224 0 0
221 0 0
224 0 0
216 0 0
219 0 0
221 0 0
221 0 0
222 0 0
220 0 0
220 0 0
222 0 0
224 0 0
220 0 0
221 0 0
220 0 0
223 0 0
224 0 0
219 0 0
219 0 0
219 0 0
225 0 0
225 0 0
224 0 0
221 0 0
226 0 0
221 0 0
222 0 0
223 0 0
221 0 0
224 0 0
225 0 0
222 0 0
225 0 0
222 0 0
223 0 0
223 0 0
0 0 255
0 0 255
0 0 254
0 0 254
0 0 255
0 0 255
0 0 254
0 0 254
0 0 255
0 0 255
0 0 253
0 0 252
0 0 254
0 0 253
0 0 255
0 0 253
0 0 253
0 0 255
0 0 252
0 0 255
0 0 252
0 0 253
0 0 252
0 0 254
0 0 254
0 0 254
0 0 254
0 0 254
0 0 248
0 0 254
0 0 254
0 0 248
0 0 254
0 0 255
0 0 255
0 0 253
0 0 254
0 0 253
0 0 254
0 0 253
0 0 252
0 0 254
0 0 254
0 0 255
0 0 255
0 0 255
0 0 254
0 0 254
0 0 253
0 0 253
0 0 254
0 0 253
0 0 253
0 0 252
0 0 253
0 0 253
0 0 254
0 0 255
0 0 253
0 0 254
0 0 255
0 0 253
0 0 252
0 0 249
0 0 250
0 0 254
0 0 249
0 0 255
0 0 254
0 0 253
0 0 250
0 0 253
0 0 255
0 0 246
0 0 250
0 0 252
0 0 254
0 0 252
0 0 246
0 0 250
0 0 253
0 0 255
0 0 253
0 0 252
0 0 252
0 0 250
0 0 253
0 0 249
0 0 252
0 0 245
0 0 248
0 0 245
0 0 253
0 0 253
0 0 254
0 0 250
0 0 248
0 0 246
0 0 250
0 0 252
0 0 252
0 0 250
0 0 250
0 0 246
0 0 249
0 0 248
0 0 248
0 0 248
0 0 248
0 0 249
0 0 252
0 0 245
0 0 245
0 0 250
0 0 246
0 0 249
0 0 249
0 0 238
0 0 242
0 0 250
0 0 241
0 0 242
0 0 248
0 0 250
0 0 245
0 0 238
0 0 249
0 0 241
0 0 241
0 0 244
0 0 245
0 0 241
0 0 242
0 0 246
0 0 244
0 0 248
0 0 244
0 0 236
0 0 236
0 0 242
0 0 242
0 0 248
0 0 245
0 0 236
0 0 237
0 0 238
0 0 242
0 0 240
0 0 241
0 0 231
0 0 238
0 0 240
0 0 237
0 0 224
0 0 237
0 0 227
0 0 230
0 0 234
0 0 228
0 0 227
0 0 233
0 0 237
0 0 233
0 0 231
0 0 230
0 0 221
0 0 231
0 0 226
0 0 226
0 0 221
0 0 217
0 0 211
0 0 217
0 0 211
0 0 226
0 0 203
0 0 223
0 0 211
0 0 217
0 0 198
0 0 199
0 0 211
0 0 193
0 0 198
0 0 181
0 0 193
0 0 184
0 0 186
0 0 175
0 0 191
0 0 171
0 0 163
0 0 171
0 0 169
0 0 155
0 0 147
0 0 125
60 63 157
227 239 255
227 239 255
227 239 255
226 238 254
122 67 72
105 0 0
120 0 0
130 0 0
151 0 0
167 0 0
141 0 0
160 0 0
161 0 0
153 0 0
175 0 0
183 0 0
161 0 0
189 0 0
189 0 0
172 0 0
180 0 0
188 0 0
194 0 0
196 0 0
175 0 0
189 0 0
200 0 0
189 0 0
194 0 0
195 0 0
194 0 0
201 0 0
198 0 0
189 0 0
200 0 0
202 0 0
197 0 0
206 0 0
196 0 0
203 0 0
203 0 0
201 0 0
200 0 0
201 0 0
205 0 0
207 0 0
194 0 0
208 0 0
194 0 0
209 0 0
208 0 0
212 0 0
206 0 0
204 0 0
211 0 0
205 0 0
205 0 0
217 0 0
213 0 0
215 0 0
208 0 0
213 0 0
212 0 0
214 0 0
208 0 0
213 0 0
218 0 0
214 0 0
215 0 0
214 0 0
214 0 0
215 0 0
215 0 0
218 0 0
220 0 0
217 0 0
212 0 0
221 0 0
218 0 0
213 0 0
217 0 0
218 0 0
221 0 0
225 0 0
210 0 0
215 0 0
214 0 0
215 0 0
221 0 0
217 0 0
211 0 0
217 0 0
214 0 0
210 0 0
217 0 0
223 0 0
219 0 0
213 0 0
224 0 0
220 0 0
217 0 0
223 0 0
216 0 0
225 0 0
220 0 0
221 0 0
216 0 0
218 0 0
214 0 0
220 0 0
218 0 0
222 0 0
221 0 0
219 0 0
213 0 0
217 0 0
220 0 0
219 0 0
221 0 0
222 0 0
222 0 0
220 0 0
223 0 0
219 0 0
219 0 0
217 0 0
222 0 0
221 0 0
222 0 0
219 0 0
221 0 0
223 0 0
217 0 0
222 0 0
222 0 0
224 0 0
218 0 0
216 0 0
223 0 0
221 0 0
217 0 0
221 0 0
218 0 0
221 0 0
218 0 0
217 0 0
223 0 0
224 0 0
221 0 0
215 0 0
222 0 0
217 0 0
224 0 0
220 0 0
220 0 0
222 0 0
225 0 0
222 0 0
219 0 0
224 0 0
220 0 0
218 0 0
220 0 0
222 0 0
222 0 0
225 0 0
223 0 0
222 0 0
219 0 0
223 0 0
223 0 0
218 0 0
222 0 0
225 0 0
219 0 0
222 0 0
221 0 0
223 0 0
221 0 0
224 0 0
225 0 0
225 0 0
222 0 0
227 0 0
222 0 0
223 0 0
219 0 0
221 0 0
226 0 0
220 0 0
224 0 0
220 0 0
224 0 0
222 0 0
222 0 0
220 0 0
225 0 0
223 0 0
226 0 0
226 0 0
222 0 0
221 0 0
0 0 255
0 0 255
0 0 255
0 0 255
0 0 255
0 0 255
0 0 254
0 0 254
0 0 255
0 0 255
0 0 255
0 0 255
0 0 254
0 0 254
0 0 255
0 0 252
0 0 255
0 0 255
0 0 253
0 0 255
0 0 254
0 0 255
0 0 255
0 0 253
0 0 255
0 0 255
0 0 254
0 0 254
0 0 254
0 0 255
0 0 255
0 0 253
0 0 255
0 0 255
0 0 254
0 0 254
0 0 254
0 0 255
0 0 254
0 0 255
0 0 255
0 0 253
0 0 253
0 0 255
0 0 254
0 0 253
0 0 253
0 0 254
0 0 253
0 0 253
0 0 252
0 0 252
0 0 254
0 0 254
0 0 254
0 0 253
0 0 255
0 0 254
0 0 252
0 0 254
0 0 254
0 0 255
0 0 254
0 0 252
0 0 246
0 0 255
0 0 252
0 0 248
0 0 250
0 0 252
0 0 253
0 0 252
0 0 252
0 0 254
0 0 253
0 0 252
0 0 250
0 0 250
0 0 252
0 0 253
0 0 250
0 0 252
0 0 254
0 0 252
0 0 252
0 0 254
0 0 249
0 0 252
0 0 246
0 0 249
0 0 250
0 0 248
0 0 245
0 0 249
0 0 250
0 0 253
0 0 245
0 0 253
0 0 250
0 0 246
0 0 248
0 0 246
0 0 242
0 0 245
0 0 252
0 0 244
0 0 244
0 0 249
0 0 252
0 0 245
0 0 250
0 0 249
0 0 250
0 0 249
0 0 250
0 0 245
0 0 249
0 0 246
0 0 246
0 0 252
0 0 249
0 0 245
0 0 250
0 0 246
0 0 236
0 0 244
0 0 244
0 0 238
0 0 248
0 0 244
0 0 245
0 0 246
0 0 248
0 0 238
0 0 246
0 0 245
0 0 245
0 0 244
0 0 240
0 0 242
0 0 238
0 0 241
0 0 241
0 0 244
0 0 242
0 0 245
0 0 241
0 0 238
0 0 238
0 0 242
0 0 238
0 0 242
0 0 226
0 0 241
0 0 226
0 0 237
0 0 241
0 0 233
0 0 237
0 0 234
0 0 234
0 0 238
0 0 218
0 0 234
0 0 220
0 0 224
0 0 220
0 0 221
0 0 214
0 0 221
0 0 221
0 0 226
0 0 233
0 0 211
0 0 212
0 0 214
0 0 215
0 0 212
0 0 220
0 0 211
0 0 209
0 0 212
0 0 203
0 0 201
0 0 198
0 0 204
0 0 179
0 0 204
0 0 179
0 0 189
0 0 188
0 0 169
0 0 186
0 0 169
0 0 153
0 0 142
0 0 125
111 117 155
227 239 255
227 239 255
227 239 255
227 239 255
156 143 153
113 0 0
139 0 0
141 0 0
152 0 0
166 0 0
162 0 0
159 0 0
159 0 0
147 0 0
154 0 0
176 0 0
165 0 0
177 0 0
180 0 0
185 0 0
183 0 0
188 0 0
195 0 0
192 0 0
194 0 0
191 0 0
189 0 0
189 0 0
199 0 0
187 0 0
189 0 0
185 0 0
187 0 0
193 0 0
201 0 0
194 0 0
200 0 0
205 0 0
201 0 0
204 0 0
198 0 0
210 0 0
202 0 0
202 0 0
200 0 0
199 0 0
212 0 0
204 0 0
208 0 0
199 0 0
216 0 0
207 0 0
213 0 0
217 0 0
214 0 0
214 0 0
205 0 0
214 0 0
203 0 0
215 0 0
213 0 0
216 0 0
216 0 0
207 0 0
210 0 0
207 0 0
214 0 0
207 0 0
207 0 0
213 0 0
213 0 0
216 0 0
209 0 0
210 0 0
214 0 0
211 0 0
218 0 0
207 0 0
216 0 0
214 0 0
215 0 0
219 0 0
221 0 0
221 0 0
213 0 0
217 0 0
218 0 0
226 0 0
219 0 0
219 0 0
221 0 0
218 0 0
214 0 0
214 0 0
215 0 0
214 0 0
218 0 0
214 0 0
217 0 0
217 0 0
220 0 0
224 0 0
222 0 0
215 0 0
220 0 0
220 0 0
221 0 0
214 0 0
219 0 0
219 0 0
228 0 0
220 0 0
222 0 0
213 0 0
216 0 0
221 0 0
219 0 0
217 0 0
220 0 0
222 0 0
218 0 0
218 0 0
216 0 0
219 0 0
213 0 0
220 0 0
221 0 0
219 0 0
220 0 0
222 0 0
220 0 0
221 0 0
223 0 0
219 0 0
223 0 0
222 0 0
225 0 0
225 0 0
221 0 0
219 0 0
218 0 0
219 0 0
219 0 0
225 0 0
222 0 0
220 0 0
223 0 0
223 0 0
223 0 0
226 0 0
221 0 0
221 0 0
223 0 0
221 0 0
221 0 0
222 0 0
224 0 0
221 0 0
219 0 0
220 0 0
224 0 0
223 0 0
225 0 0
226 0 0
226 0 0
220 0 0
217 0 0
224 0 0
222 0 0
222 0 0
225 0 0
223 0 0
223 0 0
222 0 0
223 0 0
223 0 0
222 0 0
225 0 0
216 0 0
225 0 0
223 0 0
222 0 0
222 0 0
220 0 0
222 0 0
225 0 0
222 0 0
224 0 0
229 0 0
220 0 0
222 0 0
222 0 0
222 0 0
223 0 0
222 0 0
221 0 0
223 0 0
220 0 0
220 0 0
223 0 0
221 0 0
224 0 0
0 0 254
0 0 255
0 0 255
0 0 255
0 0 255
0 0 255
0 0 254
0 0 255
0 0 255
0 0 253
0 0 255
0 0 254
0 0 255
0 0 252
0 0 255
0 0 254
0 0 253
0 0 255
0 0 255
0 0 254
0 0 255
0 0 253
0 0 254
0 0 254
0 0 255
0 0 254
0 0 254
0 0 253
0 0 252
0 0 253
0 0 254
0 0 255
0 0 254
0 0 254
0 0 252
0 0 255
0 0 255
0 0 252
0 0 253
0 0 249
0 0 255
0 0 253
0 0 254
0 0 255
0 0 253
0 0 255
0 0 255
0 0 252
0 0 253
0 0 250
0 0 253
0 0 252
0 0 252
0 0 255
0 0 255
0 0 254
0 0 254
0 0 250
0 0 252
0 0 254
0 0 255
0 0 250
0 0 254
0 0 253
0 0 253
0 0 249
0 0 252
0 0 252
0 0 253
0 0 249
0 0 255
0 0 248
0 0 246
0 0 253
0 0 252
0 0 252
0 0 252
0 0 250
0 0 249
0 0 245
0 0 254
0 0 252
0 0 252
0 0 253
0 0 253
0 0 254
0 0 254
0 0 250
0 0 250
0 0 254
0 0 246
0 0 253
0 0 250
0 0 249
0 0 248
0 0 249
0 0 248
0 0 249
0 0 252
0 0 250
0 0 250
0 0 252
0 0 253
0 0 253
0 0 253
0 0 254
0 0 250
0 0 248
0 0 252
0 0 250
0 0 248
0 0 255
0 0 252
0 0 249
0 0 253
0 0 245
0 0 246
0 0 249
0 0 246
0 0 245
0 0 245
0 0 248
0 0 242
0 0 240
0 0 250
0 0 244
0 0 249
0 0 249
0 0 245
0 0 242
0 0 236
0 0 246
0 0 246
0 0 246
0 0 246
0 0 245
0 0 242
0 0 242
0 0 244
0 0 244
0 0 238
0 0 241
0 0 245
0 0 237
0 0 238
0 0 231
0 0 238
0 0 228
0 0 245
0 0 238
0 0 241
0 0 242
0 0 241
0 0 230
0 0 231
0 0 238
0 0 230
0 0 228
0 0 237
0 0 227
0 0 227
0 0 236
0 0 227
0 0 223
0 0 226
0 0 226
0 0 228
0 0 217
0 0 218
0 0 218
0 0 215
0 0 218
0 0 226
0 0 217
0 0 223
0 0 211
0 0 221
0 0 207
0 0 223
0 0 206
0 0 201
0 0 223
0 0 207
0 0 203
0 0 198
0 0 206
0 0 193
0 0 186
0 0 189
0 0 167
0 0 193
0 0 161
0 0 165
0 0 140
0 0 157
0 0 147
0 0 108
173 182 211
228 239 255
228 239 255
228 239 255
228 239 255
170 167 179
117 0 0
139 0 0
143 0 0
150 0 0
135 0 0
159 0 0
154 0 0
164 0 0
172 0 0
179 0 0
176 0 0
167 0 0
171 0 0
181 0 0
178 0 0
183 0 0
173 0 0
185 0 0
178 0 0
184 0 0
196 0 0
204 0 0
193 0 0
203 0 0
192 0 0
197 0 0
189 0 0
201 0 0
197 0 0
197 0 0
204 0 0
192 0 0
204 0 0
199 0 0
205 0 0
199 0 0
203 0 0
200 0 0
207 0 0
197 0 0
213 0 0
210 0 0
204 0 0
202 0 0
215 0 0
208 0 0
207 0 0
203 0 0
214 0 0
203 0 0
208 0 0
209 0 0
215 0 0
207 0 0
207 0 0
211 0 0
216 0 0
207 0 0
209 0 0
212 0 0
214 0 0
220 0 0
211 0 0
212 0 0
219 0 0
220 0 0
212 0 0
216 0 0
212 0 0
218 0 0
213 0 0
218 0 0
214 0 0
217 0 0
219 0 0
219 0 0
220 0 0
216 0 0
218 0 0
218 0 0
221 0 0
216 0 0
210 0 0
222 0 0
215 0 0
221 0 0
216 0 0
216 0 0
220 0 0
216 0 0
216 0 0
221 0 0
221 0 0
219 0 0
218 0 0
217 0 0
216 0 0
221 0 0
217 0 0
218 0 0
221 0 0
218 0 0
213 0 0
220 0 0
222 0 0
220 0 0
216 0 0
218 0 0
220 0 0
221 0 0
222 0 0
221 0 0
217 0 0
219 0 0
221 0 0
219 0 0
218 0 0
218 0 0
222 0 0
217 0 0
219 0 0
219 0 0
225 0 0
220 0 0
222 0 0
216 0 0
219 0 0
219 0 0
222 0 0
224 0 0
217 0 0
219 0 0
217 0 0
221 0 0
225 0 0
220 0 0
221 0 0
222 0 0
222 0 0
222 0 0
223 0 0
224 0 0
218 0 0
216 0 0
221 0 0
224 0 0
226 0 0
223 0 0
219 0 0
222 0 0
223 0 0
225 0 0
219 0 0
220 0 0
219 0 0
221 0 0
224 0 0
218 0 0
219 0 0
222 0 0
219 0 0
222 0 0
221 0 0
225 0 0
224 0 0
229 0 0
223 0 0
219 0 0
221 0 0
225 0 0
221 0 0
224 0 0
225 0 0
219 0 0
225 0 0
225 0 0
222 0 0
224 0 0
224 0 0
221 0 0
224 0 0
226 0 0
223 0 0
222 0 0
221 0 0
223 0 0
217 0 0
222 0 0
223 0 0
224 0 0
222 0 0
224 0 0
221 0 0
224 0 0
224 0 0
225 0 0
221 0 0
0 0 255
0 0 255
0 0 255
0 0 255
0 0 254
0 0 255
0 0 255
0 0 255
0 0 255
0 0 255
0 0 255
0 0 254
0 0 254
0 0 254
0 0 252
0 0 255
0 0 255
0 0 255
0 0 255
0 0 254
0 0 255
0 0 253
0 0 253
0 0 253
0 0 255
0 0 254
0 0 255
0 0 253
0 0 255
0 0 255
0 0 253
0 0 250
0 0 255
0 0 254
0 0 252
0 0 254
0 0 253
0 0 254
0 0 253
0 0 254
0 0 254
0 0 255
0 0 254
0 0 253
0 0 255
0 0 252
0 0 254
0 0 254
0 0 252
0 0 254
0 0 255
0 0 253
0 0 254
0 0 252
0 0 255
0 0 254
0 0 254
0 0 252
0 0 253
0 0 253
0 0 255
0 0 253
0 0 253
0 0 248
0 0 254
0 0 254
0 0 252
0 0 250
0 0 250
0 0 254
0 0 252
0 0 252
0 0 252
0 0 249
0 0 253
0 0 252
0 0 250
0 0 252
0 0 253
0 0 250
0 0 252
0 0 252
0 0 250
0 0 253
0 0 250
0 0 253
0 0 250
0 0 250
0 0 252
0 0 254
0 0 248
0 0 253
0 0 246
0 0 252
0 0 252
0 0 250
0 0 246
0 0 248
0 0 250
0 0 252
0 0 249
0 0 246
0 0 246
0 0 244
0 0 246
0 0 249
0 0 250
0 0 245
0 0 249
0 0 250
0 0 246
0 0 245
0 0 246
0 0 248
0 0 249
0 0 248
0 0 252
0 0 248
0 0 246
0 0 245
0 0 246
0 0 248
0 0 246
0 0 248
0 0 244
0 0 246
0 0 248
0 0 249
0 0 249
0 0 250
0 0 245
0 0 242
0 0 242
0 0 248
0 0 244
0 0 240
0 0 245
0 0 238
0 0 240
0 0 240
0 0 238
0 0 240
0 0 241
0 0 241
0 0 230
0 0 248
0 0 238
0 0 237
0 0 230
0 0 249
0 0 238
0 0 231
0 0 237
0 0 236
0 0 237
0 0 231
0 0 230
0 0 236
0 0 233
0 0 231
0 0 230
0 0 233
0 0 237
0 0 231
0 0 237
0 0 212
0 0 236
0 0 226
0 0 218
0 0 218
0 0 218
0 0 224
0 0 215
0 0 228
0 0 217
0 0 223
0 0 203
0 0 204
0 0 207
0 0 212
0 0 217
0 0 206
0 0 211
0 0 196
0 0 198
0 0 201
0 0 191
0 0 191
0 0 194
0 0 177
0 0 167
0 0 165
0 0 165
0 0 163
0 0 153
0 0 144
0 0 125
217 228 246
228 239 255
228 239 255
228 239 255
228 239 255
203 209 223
133 0 0
121 0 0
124 0 0
142 0 0
154 0 0
159 0 0
158 0 0
157 0 0
169 0 0
166 0 0
173 0 0
171 0 0
174 0 0
184 0 0
177 0 0
178 0 0
174 0 0
198 0 0
187 0 0
192 0 0
197 0 0
203 0 0
191 0 0
184 0 0
194 0 0
200 0 0
183 0 0
199 0 0
205 0 0
199 0 0
206 0 0
204 0 0
203 0 0
205 0 0
202 0 0
196 0 0
208 0 0
213 0 0
201 0 0
211 0 0
204 0 0
208 0 0
208 0 0
203 0 0
211 0 0
211 0 0
213 0 0
218 0 0
206 0 0
206 0 0
215 0 0
212 0 0
210 0 0
217 0 0
208 0 0
212 0 0
206 0 0
208 0 0
213 0 0
213 0 0
207 0 0
220 0 0
220 0 0
217 0 0
215 0 0
216 0 0
216 0 0
215 0 0
218 0 0
220 0 0
218 0 0
217 0 0
212 0 0
214 0 0
217 0 0
212 0 0
217 0 0
220 0 0
218 0 0
211 0 0
216 0 0
219 0 0
220 0 0
216 0 0
216 0 0
219 0 0
211 0 0
216 0 0
218 0 0
219 0 0
215 0 0
224 0 0
218 0 0
220 0 0
217 0 0
221 0 0
215 0 0
216 0 0
220 0 0
219 0 0
220 0 0
219 0 0
224 0 0
222 0 0
218 0 0
216 0 0
215 0 0
220 0 0
218 0 0
223 0 0
223 0 0
217 0 0
217 0 0
222 0 0
226 0 0
224 0 0
221 0 0
221 0 0
221 0 0
220 0 0
218 0 0
221 0 0
221 0 0
221 0 0
221 0 0
224 0 0
226 0 0
227 0 0
220 0 0
225 0 0
217 0 0
222 0 0
220 0 0
219 0 0
219 0 0
221 0 0
222 0 0
222 0 0
222 0 0
225 0 0
222 0 0
222 0 0
222 0 0
219 0 0
220 0 0
224 0 0
220 0 0
224 0 0
222 0 0
226 0 0
224 0 0
222 0 0
224 0 0
222 0 0
224 0 0
220 0 0
224 0 0
222 0 0
219 0 0
224 0 0
221 0 0
224 0 0
219 0 0
223 0 0
223 0 0
219 0 0
223 0 0
226 0 0
224 0 0
221 0 0
223 0 0
221 0 0
225 0 0
221 0 0
222 0 0
223 0 0
223 0 0
223 0 0
222 0 0
221 0 0
225 0 0
222 0 0
227 0 0
224 0 0
226 0 0
223 0 0
221 0 0
226 0 0
222 0 0
223 0 0
223 0 0
227 0 0
222 0 0
220 0 0
225 0 0
220 0 0
224 0 0
0 0 255
0 0 255
0 0 254
0 0 254
0 0 254
0 0 255
0 0 254
0 0 254
0 0 254
0 0 254
0 0 255
0 0 255
0 0 254
0 0 255
0 0 253
0 0 255
0 0 254
0 0 255
0 0 255
0 0 254
0 0 253
0 0 254
0 0 253
0 0 255
0 0 255
0 0 254
0 0 253
0 0 254
0 0 253
0 0 252
0 0 255
0 0 254
0 0 254
0 0 253
0 0 255
0 0 255
0 0 252
0 0 253
0 0 253
0 0 253
0 0 255
0 0 254
0 0 253
0 0 254
0 0 252
0 0 255
0 0 254
0 0 252
0 0 252
0 0 254
0 0 254
0 0 253
0 0 255
0 0 253
0 0 252
0 0 254
0 0 254
0 0 255
0 0 253
0 0 255
0 0 254
0 0 250
0 0 254
0 0 252
0 0 253
0 0 254
0 0 252
0 0 254
0 0 249
0 0 252
0 0 254
0 0 244
0 0 249
0 0 252
0 0 250
0 0 249
0 0 250
0 0 250
0 0 255
0 0 252
0 0 253
0 0 250
0 0 252
0 0 249
0 0 252
0 0 252
0 0 249
0 0 249
0 0 250
0 0 249
0 0 254
0 0 250
0 0 250
0 0 252
0 0 249
0 0 253
0 0 248
0 0 250
0 0 252
0 0 252
0 0 250
0 0 244
0 0 244
0 0 252
0 0 253
0 0 250
0 0 250
0 0 244
0 0 246
0 0 250
0 0 246
0 0 246
0 0 246
0 0 244
0 0 246
0 0 254
0 0 248
0 0 248
0 0 238
0 0 245
0 0 246
0 0 249
0 0 250
0 0 242
0 0 249
0 0 248
0 0 244
0 0 241
0 0 237
0 0 246
0 0 238
0 0 244
0 0 244
0 0 244
0 0 242
0 0 241
0 0 233
0 0 231
0 0 237
0 0 237
0 0 244
0 0 242
0 0 244
0 0 240
0 0 237
0 0 236
0 0 238
0 0 238
0 0 236
0 0 236
0 0 241
0 0 228
0 0 242
0 0 227
0 0 228
0 0 231
0 0 241
0 0 237
0 0 237
0 0 234
0 0 231
0 0 231
0 0 226
0 0 236
0 0 234
0 0 224
0 0 234
0 0 224
0 0 224
0 0 233
0 0 220
0 0 220
0 0 215
0 0 212
0 0 224
0 0 214
0 0 204
0 0 218
0 0 204
0 0 201
0 0 206
0 0 204
0 0 207
0 0 217
0 0 177
0 0 201
0 0 184
0 0 186
0 0 186
0 0 165
0 0 161
0 0 163
0 0 165
0 0 147
0 0 157
0 0 140
60 63 144
226 237 254
228 239 255
228 239 255
228 239 255
228 239 255
228 239 255
144 67 72
121 0 0
138 0 0
154 0 0
158 0 0
155 0 0
167 0 0
157 0 0
186 0 0
180 0 0
160 0 0
168 0 0
191 0 0
173 0 0
178 0 0
174 0 0
191 0 0
172 0 0
197 0 0
185 0 0
187 0 0
195 0 0
200 0 0
196 0 0
188 0 0
199 0 0
177 0 0
199 0 0
206 0 0
202 0 0
197 0 0
205 0 0
205 0 0
203 0 0
204 0 0
208 0 0
205 0 0
201 0 0
207 0 0
206 0 0
211 0 0
206 0 0
207 0 0
214 0 0
203 0 0
214 0 0
205 0 0
207 0 0
207 0 0
200 0 0
205 0 0
213 0 0
212 0 0
210 0 0
210 0 0
215 0 0
219 0 0
212 0 0
214 0 0
210 0 0
212 0 0
209 0 0
217 0 0
214 0 0
216 0 0
217 0 0
215 0 0
216 0 0
206 0 0
215 0 0
221 0 0
215 0 0
210 0 0
214 0 0
214 0 0
222 0 0
219 0 0
211 0 0
215 0 0
220 0 0
220 0 0
219 0 0
219 0 0
212 0 0
216 0 0
218 0 0
222 0 0
218 0 0
222 0 0
217 0 0
212 0 0
216 0 0
220 0 0
218 0 0
219 0 0
219 0 0
221 0 0
220 0 0
217 0 0
218 0 0
223 0 0
216 0 0
218 0 0
219 0 0
217 0 0
222 0 0
219 0 0
214 0 0
221 0 0
223 0 0
222 0 0
220 0 0
220 0 0
217 0 0
221 0 0
219 0 0
220 0 0
225 0 0
216 0 0
219 0 0
222 0 0
219 0 0
223 0 0
218 0 0
221 0 0
221 0 0
221 0 0
221 0 0
218 0 0
216 0 0
224 0 0
217 0 0
216 0 0
219 0 0
222 0 0
218 0 0
218 0 0
224 0 0
223 0 0
217 0 0
219 0 0
221 0 0
220 0 0
221 0 0
219 0 0
219 0 0
224 0 0
218 0 0
223 0 0
221 0 0
218 0 0
219 0 0
217 0 0
223 0 0
215 0 0
223 0 0
220 0 0
221 0 0
219 0 0
223 0 0
224 0 0
229 0 0
214 0 0
222 0 0
224 0 0
226 0 0
220 0 0
221 0 0
222 0 0
224 0 0
220 0 0
224 0 0
227 0 0
223 0 0
221 0 0
223 0 0
221 0 0
227 0 0
218 0 0
221 0 0
222 0 0
225 0 0
222 0 0
227 0 0
223 0 0
224 0 0
227 0 0
225 0 0
222 0 0
220 0 0
220 0 0
222 0 0
221 0 0
225 0 0
224 0 0
225 0 0
221 0 0
0 0 254
0 0 254
0 0 255
0 0 255
0 0 255
0 0 254
0 0 253
0 0 254
0 0 254
0 0 255
0 0 254
0 0 255
0 0 254
0 0 255
0 0 254
0 0 254
0 0 254
0 0 254
0 0 254
0 0 252
0 0 254
0 0 255
0 0 253
0 0 254
0 0 254
0 0 253
0 0 255
0 0 253
0 0 254
0 0 255
0 0 255
0 0 253
0 0 253
0 0 255
0 0 253
0 0 254
0 0 253
0 0 252
0 0 253
0 0 253
0 0 253
0 0 255
0 0 253
0 0 255
0 0 249
0 0 255
0 0 252
0 0 255
0 0 253
0 0 254
0 0 255
0 0 250
0 0 254
0 0 253
0 0 255
0 0 254
0 0 254
0 0 249
0 0 253
0 0 250
0 0 248
0 0 252
0 0 253
0 0 255
0 0 255
0 0 248
0 0 252
0 0 250
0 0 253
0 0 252
0 0 252
0 0 250
0 0 254
0 0 252
0 0 253
0 0 252
0 0 252
0 0 253
0 0 250
0 0 252
0 0 250
0 0 252
0 0 252
0 0 249
0 0 254
0 0 252
0 0 253
0 0 250
0 0 252
0 0 250
0 0 249
0 0 246
0 0 249
0 0 244
0 0 249
0 0 249
0 0 246
0 0 254
0 0 246
0 0 248
0 0 248
0 0 249
0 0 252
0 0 249
0 0 253
0 0 249
0 0 252
0 0 249
0 0 253
0 0 249
0 0 252
0 0 246
0 0 246
0 0 249
0 0 249
0 0 248
0 0 249
0 0 250
0 0 245
0 0 240
0 0 250
0 0 249
0 0 245
0 0 245
0 0 245
0 0 242
0 0 246
0 0 238
0 0 245
0 0 244
0 0 248
0 0 240
0 0 241
0 0 245
0 0 244
0 0 246
0 0 248
0 0 234
0 0 248
0 0 238
0 0 241
0 0 237
0 0 238
0 0 242
0 0 244
0 0 233
0 0 241
0 0 238
0 0 237
0 0 226
0 0 242
0 0 234
0 0 233
0 0 234
0 0 240
0 0 237
0 0 241
0 0 233
0 0 220
0 0 234
0 0 238
0 0 230
0 0 228
0 0 236
0 0 226
0 0 227
0 0 234
0 0 228
0 0 226
0 0 231
0 0 221
0 0 224
0 0 220
0 0 221
0 0 227
0 0 221
0 0 211
0 0 214
0 0 217
0 0 212
0 0 196
0 0 211
0 0 203
0 0 206
0 0 191
0 0 211
0 0 199
0 0 193
0 0 169
0 0 182
0 0 175
0 0 157
0 0 169
0 0 153
0 0 151
0 0 144
137 144 181
228 240 255
228 240 255
228 240 255
228 240 255
228 240 255
228 240 255
167 140 149
132 0 0
135 0 0
127 0 0
141 0 0
148 0 0
166 0 0
155 0 0
161 0 0
182 0 0
167 0 0
178 0 0
170 0 0
186 0 0
192 0 0
177 0 0
186 0 0
189 0 0
198 0 0
183 0 0
197 0 0
196 0 0
189 0 0
196 0 0
193 0 0
206 0 0
191 0 0
207 0 0
199 0 0
203 0 0
191 0 0
210 0 0
199 0 0
205 0 0
207 0 0
197 0 0
212 0 0
213 0 0
203 0 0
211 0 0
208 0 0
205 0 0
204 0 0
206 0 0
206 0 0
211 0 0
207 0 0
203 0 0
207 0 0
211 0 0
203 0 0
205 0 0
211 0 0
212 0 0
215 0 0
213 0 0
209 0 0
206 0 0
225 0 0
214 0 0
214 0 0
213 0 0
219 0 0
221 0 0
217 0 0
210 0 0
217 0 0
213 0 0
213 0 0
218 0 0
221 0 0
209 0 0
218 0 0
218 0 0
217 0 0
215 0 0
210 0 0
207 0 0
221 0 0
220 0 0
217 0 0
212 0 0
215 0 0
223 0 0
214 0 0
216 0 0
220 0 0
217 0 0
215 0 0
208 0 0
218 0 0
220 0 0
224 0 0
220 0 0
222 0 0
219 0 0
220 0 0
215 0 0
220 0 0
220 0 0
222 0 0
210 0 0
223 0 0
213 0 0
221 0 0
220 0 0
222 0 0
220 0 0
225 0 0
219 0 0
224 0 0
216 0 0
223 0 0
219 0 0
222 0 0
219 0 0
214 0 0
224 0 0
222 0 0
221 0 0
219 0 0
217 0 0
221 0 0
220 0 0
222 0 0
219 0 0
215 0 0
224 0 0
220 0 0
223 0 0
219 0 0
222 0 0
217 0 0
219 0 0
221 0 0
220 0 0
222 0 0
221 0 0
221 0 0
222 0 0
218 0 0
223 0 0
219 0 0
224 0 0
223 0 0
224 0 0
223 0 0
220 0 0
222 0 0
219 0 0
220 0 0
223 0 0
217 0 0
223 0 0
225 0 0
223 0 0
223 0 0
220 0 0
221 0 0
221 0 0
224 0 0
223 0 0
224 0 0
223 0 0
223 0 0
223 0 0
222 0 0
225 0 0
222 0 0
221 0 0
226 0 0
224 0 0
223 0 0
225 0 0
224 0 0
220 0 0
225 0 0
219 0 0
223 0 0
223 0 0
221 0 0
226 0 0
217 0 0
221 0 0
225 0 0
227 0 0
221 0 0
221 0 0
223 0 0
222 0 0
224 0 0
220 0 0
223 0 0
227 0 0
223 0 0
223 0 0
223 0 0
0 0 255
0 0 255
0 0 254
0 0 255
0 0 254
0 0 254
0 0 255
0 0 254
0 0 255
0 0 253
0 0 255
0 0 254
0 0 254
0 0 255
0 0 255
0 0 255
0 0 254
0 0 255
0 0 255
0 0 252
0 0 254
0 0 255
0 0 255
0 0 253
0 0 255
0 0 254
0 0 255
0 0 255
0 0 253
0 0 255
0 0 255
0 0 255
0 0 253
0 0 254
0 0 254
0 0 254
0 0 254
0 0 252
0 0 254
0 0 253
0 0 249
0 0 255
0 0 252
0 0 254
0 0 254
0 0 255
0 0 254
0 0 252
0 0 255
0 0 253
0 0 250
0 0 250
0 0 253
0 0 252
0 0 250
0 0 254
0 0 252
0 0 252
0 0 253
0 0 253
0 0 253
0 0 253
0 0 253
0 0 255
0 0 252
0 0 250
0 0 253
0 0 254
0 0 255
0 0 252
0 0 250
0 0 255
0 0 253
0 0 253
0 0 249
0 0 249
0 0 250
0 0 254
0 0 253
0 0 254
0 0 252
0 0 253
0 0 249
0 0 254
0 0 254
0 0 249
0 0 252
0 0 250
0 0 249
0 0 255
0 0 252
0 0 248
0 0 249
0 0 254
0 0 249
0 0 253
0 0 250
0 0 250
0 0 248
0 0 248
0 0 250
0 0 250
0 0 245
0 0 252
0 0 252
0 0 246
0 0 249
0 0 250
0 0 248
0 0 246
0 0 250
0 0 250
0 0 248
0 0 250
0 0 245
0 0 252
0 0 248
0 0 245
0 0 242
0 0 253
0 0 241
0 0 244
0 0 248
0 0 244
0 0 244
0 0 242
0 0 248
0 0 240
0 0 252
0 0 248
0 0 249
0 0 248
0 0 240
0 0 237
0 0 250
0 0 241
0 0 244
0 0 241
0 0 246
0 0 245
0 0 241
0 0 249
0 0 237
0 0 233
0 0 244
0 0 240
0 0 238
0 0 242
0 0 228
0 0 242
0 0 245
0 0 230
0 0 236
0 0 233
0 0 230
0 0 236
0 0 237
0 0 223
0 0 241
0 0 230
0 0 233
0 0 233
0 0 233
0 0 231
0 0 223
0 0 221
0 0 226
0 0 227
0 0 224
0 0 230
0 0 224
0 0 211
0 0 211
0 0 228
0 0 215
0 0 228
0 0 211
0 0 207
0 0 218
0 0 207
0 0 201
0 0 191
0 0 181
0 0 199
0 0 201
0 0 199
0 0 196
0 0 189
0 0 198
0 0 181
0 0 159
0 0 175
0 0 161
0 0 167
0 0 153
0 0 128
182 190 217
229 240 255
229 240 255
229 240 255
229 240 255
229 240 255
229 240 255
206 193 206
136 0 0
144 0 0
142 0 0
159 0 0
173 0 0
168 0 0
157 0 0
165 0 0
178 0 0
169 0 0
181 0 0
175 0 0
179 0 0
190 0 0
177 0 0
173 0 0
192 0 0
192 0 0
182 0 0
195 0 0
191 0 0
190 0 0
196 0 0
185 0 0
188 0 0
182 0 0
195 0 0
201 0 0
192 0 0
196 0 0
210 0 0
201 0 0
211 0 0
203 0 0
204 0 0
205 0 0
209 0 0
214 0 0
204 0 0
206 0 0
208 0 0
209 0 0
205 0 0
214 0 0
208 0 0
211 0 0
209 0 0
217 0 0
208 0 0
209 0 0
207 0 0
202 0 0
213 0 0
206 0 0
215 0 0
215 0 0
208 0 0
213 0 0
213 0 0
209 0 0
209 0 0
219 0 0
210 0 0
212 0 0
215 0 0
217 0 0
214 0 0
219 0 0
214 0 0
211 0 0
217 0 0
214 0 0
213 0 0
215 0 0
214 0 0
219 0 0
212 0 0
216 0 0
223 0 0
212 0 0
217 0 0
214 0 0
222 0 0
218 0 0
210 0 0
216 0 0
219 0 0
216 0 0
220 0 0
219 0 0
222 0 0
219 0 0
220 0 0
211 0 0
215 0 0
223 0 0
222 0 0
215 0 0
217 0 0
219 0 0
217 0 0
218 0 0
218 0 0
224 0 0
218 0 0
223 0 0
221 0 0
217 0 0
220 0 0
223 0 0
220 0 0
223 0 0
222 0 0
220 0 0
218 0 0
220 0 0
222 0 0
221 0 0
219 0 0
223 0 0
218 0 0
224 0 0
219 0 0
221 0 0
224 0 0
220 0 0
221 0 0
221 0 0
223 0 0
222 0 0
220 0 0
222 0 0
225 0 0
218 0 0
222 0 0
223 0 0
219 0 0
220 0 0
224 0 0
220 0 0
218 0 0
220 0 0
223 0 0
219 0 0
221 0 0
225 0 0
219 0 0
225 0 0
226 0 0
222 0 0
217 0 0
221 0 0
221 0 0
222 0 0
220 0 0
221 0 0
222 0 0
221 0 0
221 0 0
223 0 0
221 0 0
226 0 0
222 0 0
225 0 0
226 0 0
225 0 0
223 0 0
220 0 0
224 0 0
222 0 0
221 0 0
225 0 0
220 0 0
220 0 0
221 0 0
223 0 0
223 0 0
223 0 0
222 0 0
223 0 0
224 0 0
223 0 0
225 0 0
225 0 0
220 0 0
220 0 0
220 0 0
224 0 0
224 0 0
224 0 0
226 0 0
223 0 0
219 0 0
225 0 0
224 0 0
221 0 0
0 0 254
0 0 255
0 0 254
0 0 254
0 0 255
0 0 255
0 0 253
0 0 255
0 0 253
0 0 254
0 0 255
0 0 255
0 0 255
0 0 255
0 0 253
0 0 254
0 0 255
0 0 254
0 0 254
0 0 254
0 0 253
0 0 254
0 0 255
0 0 255
0 0 255
0 0 255
0 0 254
0 0 254
0 0 254
0 0 254
0 0 253
0 0 254
0 0 255
0 0 254
0 0 254
0 0 254
0 0 254
0 0 254
0 0 254
0 0 252
0 0 253
0 0 254
0 0 254
0 0 254
0 0 253
0 0 252
0 0 254
0 0 252
0 0 254
0 0 249
0 0 253
0 0 255
0 0 254
0 0 252
0 0 254
0 0 254
0 0 253
0 0 252
0 0 253
0 0 254
0 0 254
0 0 253
0 0 254
0 0 254
0 0 254
0 0 252
0 0 249
0 0 250
0 0 250
0 0 246
0 0 253
0 0 253
0 0 252
0 0 253
0 0 253
0 0 249
0 0 252
0 0 252
0 0 248
0 0 253
0 0 250
0 0 250
0 0 252
0 0 254
0 0 250
0 0 250
0 0 249
0 0 252
0 0 254
0 0 254
0 0 250
0 0 252
0 0 250
0 0 254
0 0 254
0 0 246
0 0 248
0 0 245
0 0 253
0 0 252
0 0 250
0 0 253
0 0 249
0 0 248
0 0 252
0 0 246
0 0 250
0 0 246
0 0 248
0 0 246
0 0 246
0 0 249
0 0 248
0 0 250
0 0 246
0 0 248
0 0 244
0 0 248
0 0 252
0 0 246
0 0 248
0 0 250
0 0 240
0 0 245
0 0 244
0 0 244
0 0 250
0 0 241
0 0 252
0 0 244
0 0 245
0 0 244
0 0 249
0 0 242
0 0 242
0 0 241
0 0 241
0 0 242
0 0 241
0 0 241
0 0 242
0 0 242
0 0 242
0 0 241
0 0 240
0 0 231
0 0 237
0 0 233
0 0 237
0 0 238
0 0 233
0 0 227
0 0 240
0 0 237
0 0 231
0 0 240
0 0 237
0 0 237
0 0 238
0 0 230
0 0 224
0 0 236
0 0 231
0 0 233
0 0 227
0 0 231
0 0 227
0 0 218
0 0 230
0 0 228
0 0 218
0 0 215
0 0 230
0 0 215
0 0 223
0 0 226
0 0 217
0 0 221
0 0 214
0 0 211
0 0 206
0 0 203
0 0 198
0 0 203
0 0 204
0 0 199
0 0 175
0 0 194
0 0 196
0 0 186
0 0 179
0 0 186
0 0 181
0 0 155
0 0 177
56 58 144
222 233 252
229 240 255
229 240 255
229 240 255
229 240 255
229 240 255
229 240 255
222 230 245
121 24 25
153 0 0
150 0 0
157 0 0
151 0 0
179 0 0
166 0 0
169 0 0
173 0 0
180 0 0
173 0 0
186 0 0
166 0 0
192 0 0
171 0 0
201 0 0
185 0 0
192 0 0
196 0 0
193 0 0
204 0 0
190 0 0
190 0 0
187 0 0
206 0 0
193 0 0
197 0 0
197 0 0
201 0 0
202 0 0
209 0 0
202 0 0
201 0 0
201 0 0
199 0 0
194 0 0
207 0 0
199 0 0
203 0 0
205 0 0
212 0 0
210 0 0
215 0 0
207 0 0
215 0 0
211 0 0
198 0 0
213 0 0
211 0 0
211 0 0
218 0 0
210 0 0
214 0 0
209 0 0
218 0 0
219 0 0
214 0 0
214 0 0
213 0 0
217 0 0
215 0 0
216 0 0
216 0 0
213 0 0
216 0 0
215 0 0
218 0 0
218 0 0
214 0 0
211 0 0
221 0 0
208 0 0
215 0 0
216 0 0
221 0 0
210 0 0
217 0 0
220 0 0
222 0 0
216 0 0
220 0 0
224 0 0
215 0 0
215 0 0
218 0 0
222 0 0
217 0 0
219 0 0
217 0 0
219 0 0
221 0 0
219 0 0
221 0 0
223 0 0
214 0 0
220 0 0
221 0 0
222 0 0
221 0 0
221 0 0
218 0 0
221 0 0
222 0 0
221 0 0
216 0 0
223 0 0
224 0 0
221 0 0
217 0 0
221 0 0
218 0 0
219 0 0
228 0 0
224 0 0
220 0 0
220 0 0
222 0 0
219 0 0
221 0 0
224 0 0
220 0 0
220 0 0
219 0 0
220 0 0
218 0 0
218 0 0
219 0 0
223 0 0
221 0 0
221 0 0
221 0 0
225 0 0
221 0 0
220 0 0
217 0 0
219 0 0
223 0 0
222 0 0
224 0 0
215 0 0
225 0 0
222 0 0
221 0 0
222 0 0
225 0 0
220 0 0
227 0 0
220 0 0
220 0 0
220 0 0
223 0 0
225 0 0
215 0 0
223 0 0
223 0 0
225 0 0
225 0 0
221 0 0
223 0 0
217 0 0
222 0 0
222 0 0
222 0 0
220 0 0
217 0 0
224 0 0
221 0 0
220 0 0
224 0 0
225 0 0
220 0 0
222 0 0
221 0 0
221 0 0
228 0 0
222 0 0
222 0 0
224 0 0
226 0 0
225 0 0
226 0 0
223 0 0
223 0 0
226 0 0
223 0 0
220 0 0
226 0 0
221 0 0
220 0 0
223 0 0
222 0 0
223 0 0
224 0 0
224 0 0
225 0 0
224 0 0
0 0 255
0 0 254
0 0 255
0 0 254
0 0 255
0 0 254
0 0 255
0 0 255
0 0 255
0 0 254
0 0 254
0 0 253
0 0 254
0 0 255
0 0 255
0 0 252
0 0 253
0 0 255
0 0 254
0 0 255
0 0 254
0 0 255
0 0 253
0 0 255
0 0 255
0 0 252
0 0 253
0 0 255
0 0 255
0 0 252
0 0 254
0 0 255
0 0 255
0 0 254
0 0 254
0 0 254
0 0 255
0 0 254
0 0 253
0 0 254
0 0 253
0 0 255
0 0 255
0 0 253
0 0 254
0 0 253
0 0 252
0 0 253
0 0 250
0 0 252
0 0 254
0 0 249
0 0 254
0 0 250
0 0 253
0 0 254
0 0 254
0 0 255
0 0 253
0 0 252
0 0 255
0 0 254
0 0 252
0 0 249
0 0 255
0 0 253
0 0 249
0 0 249
0 0 252
0 0 255
0 0 254
0 0 253
0 0 250
0 0 253
0 0 253
0 0 253
0 0 249
0 0 254
0 0 249
0 0 253
0 0 254
0 0 248
0 0 254
0 0 253
0 0 253
0 0 252
0 0 253
0 0 253
0 0 244
0 0 250
0 0 253
0 0 252
0 0 252
0 0 246
0 0 248
0 0 248
0 0 253
0 0 249
0 0 250
0 0 249
0 0 252
0 0 248
0 0 250
0 0 250
0 0 248
0 0 242
0 0 250
0 0 245
0 0 241
0 0 248
0 0 249
0 0 241
0 0 248
0 0 245
0 0 245
0 0 248
0 0 244
0 0 249
0 0 245
0 0 249
0 0 246
0 0 245
0 0 246
0 0 249
0 0 253
0 0 245
0 0 249
0 0 240
0 0 252
0 0 242
0 0 240
0 0 246
0 0 238
0 0 238
0 0 240
0 0 249
0 0 240
0 0 242
0 0 241
0 0 240
0 0 244
0 0 234
0 0 245
0 0 230
0 0 238
0 0 236
0 0 244
0 0 230
0 0 236
0 0 236
0 0 233
0 0 236
0 0 244
0 0 245
0 0 241
0 0 236
0 0 244
0 0 237
0 0 228
0 0 227
0 0 230
0 0 236
0 0 226
0 0 234
0 0 226
0 0 226
0 0 224
0 0 215
0 0 226
0 0 212
0 0 220
0 0 220
0 0 228
0 0 227
0 0 215
0 0 218
0 0 223
0 0 204
0 0 218
0 0 206
0 0 204
0 0 196
0 0 201
0 0 175
0 0 194
0 0 191
0 0 201
0 0 173
0 0 181
0 0 188
0 0 181
0 0 179
0 0 157
0 0 157
0 0 153
123 129 193
229 240 255
229 240 255
229 240 255
229 240 255
229 240 255
229 240 255
229 240 255
229 240 255
175 134 142
144 0 0
149 0 0
154 0 0
146 0 0
159 0 0
163 0 0
179 0 0
197 0 0
180 0 0
177 0 0
182 0 0
169 0 0
181 0 0
192 0 0
182 0 0
192 0 0
184 0 0
184 0 0
187 0 0
190 0 0
192 0 0
181 0 0
198 0 0
193 0 0
200 0 0
212 0 0
205 0 0
197 0 0
197 0 0
197 0 0
205 0 0
208 0 0
203 0 0
207 0 0
197 0 0
217 0 0
209 0 0
208 0 0
206 0 0
204 0 0
205 0 0
205 0 0
212 0 0
205 0 0
213 0 0
221 0 0
195 0 0
208 0 0
210 0 0
203 0 0
210 0 0
210 0 0
213 0 0
214 0 0
204 0 0
217 0 0
214 0 0
216 0 0
218 0 0
215 0 0
213 0 0
216 0 0
215 0 0
214 0 0
207 0 0
213 0 0
222 0 0
216 0 0
214 0 0
214 0 0
212 0 0
217 0 0
216 0 0
217 0 0
220 0 0
213 0 0
210 0 0
212 0 0
228 0 0
219 0 0
221 0 0
213 0 0
217 0 0
217 0 0
222 0 0
223 0 0
216 0 0
220 0 0
214 0 0
221 0 0
218 0 0
217 0 0
218 0 0
210 0 0
218 0 0
220 0 0
218 0 0
221 0 0
218 0 0
220 0 0
224 0 0
218 0 0
219 0 0
217 0 0
217 0 0
218 0 0
219 0 0
221 0 0
220 0 0
224 0 0
224 0 0
219 0 0
220 0 0
217 0 0
226 0 0
218 0 0
215 0 0
222 0 0
224 0 0
217 0 0
223 0 0
224 0 0
220 0 0
222 0 0
222 0 0
223 0 0
225 0 0
220 0 0
222 0 0
220 0 0
219 0 0
220 0 0
217 0 0
224 0 0
222 0 0
222 0 0
222 0 0
221 0 0
223 0 0
220 0 0
220 0 0
223 0 0
220 0 0
224 0 0
225 0 0
223 0 0
223 0 0
220 0 0
223 0 0
220 0 0
222 0 0
226 0 0
222 0 0
225 0 0
222 0 0
224 0 0
221 0 0
219 0 0
223 0 0
226 0 0
222 0 0
227 0 0
221 0 0
223 0 0
225 0 0
223 0 0
223 0 0
223 0 0
219 0 0
225 0 0
222 0 0
223 0 0
223 0 0
224 0 0
225 0 0
222 0 0
225 0 0
221 0 0
226 0 0
222 0 0
223 0 0
224 0 0
226 0 0
226 0 0
226 0 0
222 0 0
223 0 0
224 0 0
226 0 0
225 0 0
223 0 0
223 0 0
223 0 0
226 0 0
224 0 0
0 0 254
0 0 255
0 0 255
0 0 255
0 0 255
0 0 255
0 0 253
0 0 255
0 0 254
0 0 255
0 0 255
0 0 255
0 0 255
0 0 254
0 0 253
0 0 253
0 0 255
0 0 255
0 0 255
0 0 255
0 0 254
0 0 254
0 0 254
0 0 254
0 0 255
0 0 254
0 0 254
0 0 254
0 0 252
0 0 254
0 0 254
0 0 252
0 0 254
0 0 254
0 0 254
0 0 252
0 0 252
0 0 253
0 0 254
0 0 254
0 0 255
0 0 254
0 0 252
0 0 254
0 0 254
0 0 255
0 0 254
0 0 253
0 0 252
0 0 254
0 0 255
0 0 253
0 0 254
0 0 254
0 0 253
0 0 253
0 0 254
0 0 252
0 0 252
0 0 254
0 0 255
0 0 255
0 0 252
0 0 250
0 0 250
0 0 254
0 0 253
0 0 254
0 0 252
0 0 254
0 0 253
0 0 253
0 0 255
0 0 253
0 0 249
0 0 253
0 0 255
0 0 253
0 0 252
0 0 255
0 0 250
0 0 254
0 0 252
0 0 248
0 0 254
0 0 253
0 0 249
0 0 255
0 0 253
0 0 254
0 0 250
0 0 248
0 0 252
0 0 248
0 0 248
0 0 249
0 0 249
0 0 250
0 0 252
0 0 249
0 0 250
0 0 241
0 0 245
0 0 250
0 0 252
0 0 253
0 0 252
0 0 248
0 0 244
0 0 252
0 0 248
0 0 249
0 0 244
0 0 252
0 0 244
0 0 240
0 0 244
0 0 252
0 0 244
0 0 254
0 0 248
0 0 246
0 0 246
0 0 242
0 0 245
0 0 244
0 0 241
0 0 246
0 0 244
0 0 244
0 0 236
0 0 245
0 0 245
0 0 237
0 0 248
0 0 246
0 0 246
0 0 245
0 0 242
0 0 244
0 0 237
0 0 245
0 0 242
0 0 234
0 0 241
0 0 237
0 0 236
0 0 240
0 0 236
0 0 242
0 0 244
0 0 237
0 0 236
0 0 238
0 0 242
0 0 231
0 0 237
0 0 238
0 0 237
0 0 234
0 0 212
0 0 242
0 0 223
0 0 236
0 0 227
0 0 224
0 0 227
0 0 215
0 0 221
0 0 220
0 0 220
0 0 207
0 0 220
0 0 215
0 0 206
0 0 227
0 0 220
0 0 223
0 0 204
0 0 196
0 0 215
0 0 196
0 0 204
0 0 207
0 0 214
0 0 188
0 0 204
0 0 173
0 0 181
0 0 188
0 0 181
0 0 175
0 0 173
0 0 151
0 0 147
184 192 231
230 240 255
230 240 255
230 240 255
230 240 255
230 240 255
230 240 255
230 240 255
230 240 255
202 188 199
165 0 0
146 0 0
147 0 0
169 0 0
150 0 0
174 0 0
168 0 0
158 0 0
172 0 0
174 0 0
176 0 0
175 0 0
175 0 0
175 0 0
189 0 0
189 0 0
194 0 0
182 0 0
184 0 0
190 0 0
181 0 0
192 0 0
193 0 0
197 0 0
189 0 0
207 0 0
204 0 0
201 0 0
206 0 0
199 0 0
207 0 0
205 0 0
211 0 0
198 0 0
206 0 0
205 0 0
208 0 0
207 0 0
208 0 0
209 0 0
205 0 0
198 0 0
209 0 0
212 0 0
210 0 0
211 0 0
215 0 0
216 0 0
214 0 0
206 0 0
209 0 0
213 0 0
214 0 0
204 0 0
217 0 0
215 0 0
205 0 0
212 0 0
213 0 0
209 0 0
217 0 0
209 0 0
216 0 0
212 0 0
215 0 0
206 0 0
212 0 0
221 0 0
203 0 0
206 0 0
218 0 0
213 0 0
216 0 0
215 0 0
213 0 0
219 0 0
211 0 0
213 0 0
218 0 0
216 0 0
217 0 0
215 0 0
221 0 0
220 0 0
217 0 0
222 0 0
219 0 0
219 0 0
216 0 0
221 0 0
222 0 0
220 0 0
222 0 0
221 0 0
221 0 0
219 0 0
222 0 0
219 0 0
218 0 0
225 0 0
222 0 0
222 0 0
224 0 0
216 0 0
223 0 0
218 0 0
222 0 0
217 0 0
220 0 0
220 0 0
224 0 0
225 0 0
222 0 0
222 0 0
223 0 0
218 0 0
219 0 0
221 0 0
222 0 0
216 0 0
223 0 0
223 0 0
223 0 0
223 0 0
223 0 0
218 0 0
223 0 0
221 0 0
221 0 0
221 0 0
221 0 0
222 0 0
222 0 0
219 0 0
223 0 0
225 0 0
221 0 0
225 0 0
217 0 0
223 0 0
218 0 0
220 0 0
219 0 0
227 0 0
227 0 0
224 0 0
223 0 0
224 0 0
225 0 0
224 0 0
222 0 0
219 0 0
225 0 0
223 0 0
221 0 0
224 0 0
224 0 0
224 0 0
222 0 0
221 0 0
222 0 0
227 0 0
224 0 0
226 0 0
223 0 0
223 0 0
223 0 0
219 0 0
226 0 0
219 0 0
222 0 0
223 0 0
223 0 0
221 0 0
223 0 0
219 0 0
221 0 0
229 0 0
222 0 0
224 0 0
220 0 0
226 0 0
221 0 0
223 0 0
227 0 0
222 0 0
228 0 0
223 0 0
223 0 0
222 0 0
226 0 0
225 0 0
224 0 0
221 0 0
224 0 0
0 0 255
0 0 255
0 0 254
0 0 255
0 0 254
0 0 255
0 0 253
0 0 254
0 0 255
0 0 254
0 0 253
0 0 255
0 0 253
0 0 254
0 0 255
0 0 254
0 0 255
0 0 255
0 0 255
0 0 255
0 0 255
0 0 255
0 0 254
0 0 255
0 0 255
0 0 253
0 0 255
0 0 254
0 0 255
0 0 254
0 0 253
0 0 255
0 0 253
0 0 255
0 0 254
0 0 250
0 0 255
0 0 253
0 0 255
0 0 255
0 0 255
0 0 255
0 0 250
0 0 254
0 0 252
0 0 253
0 0 252
0 0 253
0 0 255
0 0 255
0 0 255
0 0 254
0 0 254
0 0 253
0 0 254
0 0 253
0 0 253
0 0 252
0 0 250
0 0 254
0 0 252
0 0 255
0 0 255
0 0 254
0 0 253
0 0 255
0 0 252
0 0 254
0 0 252
0 0 253
0 0 252
0 0 253
0 0 252
0 0 252
0 0 252
0 0 248
0 0 254
0 0 253
0 0 255
0 0 253
0 0 252
0 0 253
0 0 249
0 0 249
0 0 252
0 0 252
0 0 250
0 0 246
0 0 253
0 0 250
0 0 252
0 0 250
0 0 246
0 0 248
0 0 250
0 0 248
0 0 242
0 0 252
0 0 250
0 0 245
0 0 244
0 0 244
0 0 254
0 0 249
0 0 253
0 0 250
0 0 248
0 0 252
0 0 250
0 0 248
0 0 253
0 0 246
0 0 250
0 0 249
0 0 253
0 0 246
0 0 244
0 0 245
0 0 249
0 0 249
0 0 246
0 0 242
0 0 244
0 0 250
0 0 250
0 0 241
0 0 242
0 0 240
0 0 244
0 0 245
0 0 244
0 0 244
0 0 240
0 0 248
0 0 245
0 0 242
0 0 237
0 0 246
0 0 236
0 0 244
0 0 244
0 0 245
0 0 237
0 0 242
0 0 241
0 0 240
0 0 237
0 0 233
0 0 240
0 0 242
0 0 224
0 0 231
0 0 237
0 0 241
0 0 231
0 0 234
0 0 233
0 0 238
0 0 236
0 0 236
0 0 236
0 0 227
0 0 228
0 0 227
0 0 230
0 0 231
0 0 230
0 0 224
0 0 226
0 0 224
0 0 233
0 0 226
0 0 221
0 0 218
0 0 228
0 0 224
0 0 223
0 0 223
0 0 212
0 0 215
0 0 206
0 0 211
0 0 206
0 0 207
0 0 215
0 0 198
0 0 193
0 0 203
0 0 173
0 0 186
0 0 179
0 0 177
0 0 165
0 0 167
32 34 135
223 233 250
230 240 255
230 240 255
230 240 255
230 240 255
230 240 255
230 241 255
230 240 255
230 241 255
228 238 253
171 59 62
166 0 0
146 0 0
146 0 0
162 0 0
152 0 0
181 0 0
161 0 0
193 0 0
175 0 0
185 0 0
184 0 0
186 0 0
198 0 0
188 0 0
202 0 0
174 0 0
189 0 0
189 0 0
194 0 0
201 0 0
204 0 0
201 0 0
203 0 0
215 0 0
204 0 0
202 0 0
198 0 0
197 0 0
197 0 0
202 0 0
221 0 0
199 0 0
209 0 0
204 0 0
206 0 0
213 0 0
203 0 0
211 0 0
208 0 0
214 0 0
207 0 0
206 0 0
212 0 0
211 0 0
204 0 0
211 0 0
207 0 0
206 0 0
218 0 0
207 0 0
211 0 0
211 0 0
202 0 0
213 0 0
212 0 0
211 0 0
210 0 0
212 0 0
217 0 0
214 0 0
214 0 0
216 0 0
216 0 0
221 0 0
213 0 0
213 0 0
213 0 0
214 0 0
224 0 0
223 0 0
217 0 0
217 0 0
213 0 0
221 0 0
215 0 0
218 0 0
220 0 0
217 0 0
220 0 0
220 0 0
221 0 0
219 0 0
222 0 0
220 0 0
219 0 0
223 0 0
222 0 0
225 0 0
218 0 0
220 0 0
224 0 0
219 0 0
219 0 0
220 0 0
226 0 0
218 0 0
221 0 0
220 0 0
221 0 0
221 0 0
221 0 0
221 0 0
219 0 0
220 0 0
221 0 0
216 0 0
218 0 0
221 0 0
221 0 0
220 0 0
223 0 0
215 0 0
226 0 0
220 0 0
221 0 0
222 0 0
222 0 0
218 0 0
221 0 0
225 0 0
225 0 0
222 0 0
220 0 0
222 0 0
225 0 0
225 0 0
218 0 0
223 0 0
224 0 0
221 0 0
221 0 0
221 0 0
221 0 0
223 0 0
222 0 0
220 0 0
217 0 0
224 0 0
223 0 0
227 0 0
222 0 0
223 0 0
222 0 0
220 0 0
219 0 0
222 0 0
218 0 0
225 0 0
228 0 0
222 0 0
218 0 0
224 0 0
223 0 0
220 0 0
224 0 0
225 0 0
221 0 0
224 0 0
224 0 0
219 0 0
221 0 0
221 0 0
222 0 0
225 0 0
222 0 0
225 0 0
225 0 0
224 0 0
220 0 0
222 0 0
225 0 0
224 0 0
225 0 0
221 0 0
223 0 0
226 0 0
221 0 0
226 0 0
220 0 0
221 0 0
224 0 0
224 0 0
223 0 0
219 0 0
224 0 0
223 0 0
228 0 0
220 0 0
223 0 0
226 0 0
222 0 0
225 0 0
222 0 0
224 0 0
0 0 255
0 0 254
0 0 255
0 0 253
0 0 254
0 0 253
0 0 255
0 0 254
0 0 255
0 0 255
0 0 254
0 0 254
0 0 254
0 0 255
0 0 255
0 0 255
0 0 254
0 0 254
0 0 254
0 0 255
0 0 253
0 0 255
0 0 255
0 0 253
0 0 255
0 0 253
0 0 255
0 0 255
0 0 254
0 0 254
0 0 255
0 0 253
0 0 253
0 0 254
0 0 255
0 0 254
0 0 254
0 0 255
0 0 252
0 0 254
0 0 254
0 0 255
0 0 255
0 0 255
0 0 254
0 0 252
0 0 255
0 0 254
0 0 254
0 0 254
0 0 253
0 0 255
0 0 252
0 0 254
0 0 252
0 0 253
0 0 253
0 0 253
0 0 253
0 0 253
0 0 250
0 0 252
0 0 252
0 0 250
0 0 254
0 0 255
0 0 254
0 0 254
0 0 253
0 0 253
0 0 250
0 0 249
0 0 250
0 0 252
0 0 253
0 0 253
0 0 254
0 0 254
0 0 248
0 0 252
0 0 252
0 0 253
0 0 252
0 0 250
0 0 253
0 0 252
0 0 252
0 0 254
0 0 252
0 0 253
0 0 250
0 0 249
0 0 253
0 0 249
0 0 246
0 0 246
0 0 246
0 0 248
0 0 253
0 0 245
0 0 249
0 0 245
0 0 249
0 0 245
0 0 246
0 0 252
0 0 246
0 0 252
0 0 246
0 0 252
0 0 248
0 0 253
0 0 249
0 0 240
0 0 244
0 0 246
0 0 245
0 0 249
0 0 253
0 0 249
0 0 244
0 0 242
0 0 249
0 0 248
0 0 244
0 0 242
0 0 244
0 0 241
0 0 248
0 0 242
0 0 245
0 0 246
0 0 244
0 0 240
0 0 245
0 0 241
0 0 245
0 0 238
0 0 240
0 0 237
0 0 231
0 0 246
0 0 242
0 0 236
0 0 238
0 0 238
0 0 237
0 0 238
0 0 240
0 0 240
0 0 240
0 0 244
0 0 234
0 0 234
0 0 234
0 0 236
0 0 241
0 0 241
0 0 231
0 0 231
0 0 220
0 0 230
0 0 238
0 0 218
0 0 227
0 0 228
0 0 230
0 0 233
0 0 228
0 0 230
0 0 227
0 0 227
0 0 218
0 0 220
0 0 215
0 0 220
0 0 220
0 0 223
0 0 221
0 0 209
0 0 212
0 0 201
0 0 217
0 0 206
0 0 179
0 0 201
0 0 188
0 0 193
0 0 184
0 0 163
0 0 175
0 0 167
0 0 140
0 0 151
151 158 204
230 241 255
230 241 255
230 241 255
230 241 255
230 241 255
230 241 255
230 241 255
230 241 255
230 241 255
230 241 255
200 146 155
170 0 0
147 0 0
153 0 0
166 0 0
168 0 0
166 0 0
179 0 0
183 0 0
172 0 0
179 0 0
185 0 0
190 0 0
174 0 0
185 0 0
192 0 0
193 0 0
182 0 0
192 0 0
174 0 0
191 0 0
200 0 0
201 0 0
205 0 0
197 0 0
201 0 0
203 0 0
191 0 0
198 0 0
206 0 0
191 0 0
207 0 0
205 0 0
199 0 0
207 0 0
209 0 0
208 0 0
199 0 0
207 0 0
206 0 0
208 0 0
211 0 0
210 0 0
219 0 0
217 0 0
209 0 0
214 0 0
212 0 0
205 0 0
212 0 0
204 0 0
208 0 0
213 0 0
213 0 0
213 0 0
214 0 0
219 0 0
218 0 0
215 0 0
213 0 0
220 0 0
213 0 0
217 0 0
211 0 0
211 0 0
221 0 0
213 0 0
220 0 0
220 0 0
222 0 0
214 0 0
218 0 0
217 0 0
214 0 0
218 0 0
221 0 0
214 0 0
217 0 0
214 0 0
213 0 0
220 0 0
221 0 0
220 0 0
217 0 0
217 0 0
222 0 0
217 0 0
218 0 0
218 0 0
218 0 0
215 0 0
218 0 0
220 0 0
219 0 0
216 0 0
222 0 0
220 0 0
220 0 0
221 0 0
226 0 0
219 0 0
220 0 0
221 0 0
225 0 0
219 0 0
219 0 0
220 0 0
221 0 0
219 0 0
219 0 0
222 0 0
221 0 0
217 0 0
223 0 0
224 0 0
217 0 0
225 0 0
226 0 0
220 0 0
222 0 0
220 0 0
218 0 0
221 0 0
222 0 0
222 0 0
220 0 0
221 0 0
221 0 0
221 0 0
223 0 0
223 0 0
227 0 0
223 0 0
221 0 0
224 0 0
221 0 0
217 0 0
226 0 0
220 0 0
218 0 0
227 0 0
223 0 0
222 0 0
224 0 0
224 0 0
220 0 0
224 0 0
223 0 0
222 0 0
222 0 0
225 0 0
216 0 0
220 0 0
223 0 0
221 0 0
221 0 0
225 0 0
224 0 0
223 0 0
228 0 0
224 0 0
222 0 0
223 0 0
223 0 0
222 0 0
222 0 0
225 0 0
220 0 0
225 0 0
220 0 0
219 0 0
227 0 0
223 0 0
224 0 0
226 0 0
228 0 0
222 0 0
224 0 0
221 0 0
217 0 0
219 0 0
222 0 0
221 0 0
227 0 0
228 0 0
223 0 0
223 0 0
224 0 0
223 0 0
222 0 0
224 0 0
220 0 0
222 0 0
225 0 0
227 0 0
0 0 255
0 0 255
0 0 255
0 0 255
0 0 253
0 0 254
0 0 254
0 0 254
0 0 254
0 0 255
0 0 255
0 0 254
0 0 254
0 0 254
0 0 254
0 0 254
0 0 255
0 0 255
0 0 254
0 0 254
0 0 254
0 0 255
0 0 254
0 0 255
0 0 254
0 0 255
0 0 253
0 0 254
0 0 253
0 0 255
0 0 255
0 0 255
0 0 255
0 0 254
0 0 254
0 0 253
0 0 253
0 0 253
0 0 254
0 0 253
0 0 255
0 0 255
0 0 253
0 0 253
0 0 255
0 0 254
0 0 255
0 0 254
0 0 253
0 0 254
0 0 253
0 0 255
0 0 250
0 0 253
0 0 254
0 0 250
0 0 252
0 0 253
0 0 250
0 0 252
0 0 254
0 0 254
0 0 252
0 0 252
0 0 255
0 0 252
0 0 254
0 0 254
0 0 253
0 0 253
0 0 252
0 0 252
0 0 252
0 0 255
0 0 252
0 0 252
0 0 253
0 0 253
0 0 252
0 0 250
0 0 252
0 0 250
0 0 252
0 0 252
0 0 254
0 0 252
0 0 252
0 0 249
0 0 246
0 0 252
0 0 249
0 0 250
0 0 252
0 0 249
0 0 252
0 0 248
0 0 252
0 0 250
0 0 248
0 0 253
0 0 250
0 0 249
0 0 249
0 0 248
0 0 250
0 0 244
0 0 246
0 0 245
0 0 246
0 0 248
0 0 245
0 0 253
0 0 246
0 0 250
0 0 245
0 0 249
0 0 244
0 0 249
0 0 249
0 0 249
0 0 245
0 0 240
0 0 246
0 0 242
0 0 242
0 0 244
0 0 245
0 0 250
0 0 246
0 0 244
0 0 244
0 0 249
0 0 250
0 0 244
0 0 246
0 0 250
0 0 246
0 0 248
0 0 237
0 0 240
0 0 244
0 0 240
0 0 241
0 0 245
0 0 241
0 0 241
0 0 231
0 0 226
0 0 240
0 0 244
0 0 240
0 0 236
0 0 238
0 0 237
0 0 233
0 0 230
0 0 238
0 0 231
0 0 231
0 0 233
0 0 230
0 0 236
0 0 227
0 0 223
0 0 224
0 0 228
0 0 233
0 0 230
0 0 215
0 0 231
0 0 217
0 0 228
0 0 215
0 0 211
0 0 217
0 0 230
0 0 207
0 0 206
0 0 220
0 0 217
0 0 207
0 0 203
0 0 206
0 0 207
0 0 204
0 0 193
0 0 189
0 0 179
0 0 177
0 0 181
0 0 169
0 0 159
0 0 177
0 0 173
194 203 234
231 241 255
231 241 255
231 241 255
231 241 255
231 241 255
231 241 255
231 241 255
231 241 255
231 241 255
231 241 255
213 207 220
134 0 0
176 0 0
168 0 0
162 0 0
179 0 0
178 0 0
167 0 0
184 0 0
182 0 0
180 0 0
176 0 0
193 0 0
175 0 0
186 0 0
176 0 0
195 0 0
195 0 0
195 0 0
204 0 0
190 0 0
192 0 0
195 0 0
187 0 0
197 0 0
199 0 0
197 0 0
207 0 0
203 0 0
193 0 0
209 0 0
206 0 0
212 0 0
200 0 0
207 0 0
208 0 0
211 0 0
201 0 0
211 0 0
198 0 0
204 0 0
211 0 0
211 0 0
205 0 0
204 0 0
208 0 0
206 0 0
210 0 0
217 0 0
207 0 0
199 0 0
210 0 0
216 0 0
211 0 0
216 0 0
220 0 0
212 0 0
214 0 0
210 0 0
215 0 0
214 0 0
218 0 0
215 0 0
207 0 0
210 0 0
218 0 0
218 0 0
218 0 0
220 0 0
219 0 0
215 0 0
222 0 0
217 0 0
217 0 0
218 0 0
218 0 0
223 0 0
215 0 0
222 0 0
216 0 0
219 0 0
216 0 0
216 0 0
219 0 0
221 0 0
211 0 0
216 0 0
225 0 0
221 0 0
220 0 0
223 0 0
221 0 0
221 0 0
219 0 0
220 0 0
218 0 0
223 0 0
222 0 0
221 0 0
217 0 0
222 0 0
219 0 0
218 0 0
219 0 0
228 0 0
220 0 0
221 0 0
223 0 0
219 0 0
225 0 0
222 0 0
214 0 0
221 0 0
220 0 0
217 0 0
219 0 0
223 0 0
222 0 0
219 0 0
220 0 0
223 0 0
220 0 0
223 0 0
224 0 0
225 0 0
223 0 0
222 0 0
223 0 0
220 0 0
218 0 0
221 0 0
222 0 0
221 0 0
219 0 0
224 0 0
224 0 0
218 0 0
224 0 0
225 0 0
220 0 0
219 0 0
222 0 0
217 0 0
219 0 0
219 0 0
222 0 0
222 0 0
224 0 0
222 0 0
221 0 0
222 0 0
223 0 0
222 0 0
219 0 0
225 0 0
222 0 0
223 0 0
220 0 0
225 0 0
223 0 0
224 0 0
223 0 0
230 0 0
226 0 0
229 0 0
227 0 0
224 0 0
224 0 0
225 0 0
224 0 0
222 0 0
226 0 0
224 0 0
224 0 0
222 0 0
225 0 0
222 0 0
226 0 0
224 0 0
222 0 0
223 0 0
222 0 0
224 0 0
224 0 0
225 0 0
226 0 0
224 0 0
223 0 0
223 0 0
223 0 0
226 0 0
224 0 0
223 0 0
222 0 0
224 0 0
0 0 255
0 0 254
0 0 254
0 0 254
0 0 254
0 0 255
0 0 255
0 0 255
0 0 253
0 0 254
0 0 255
0 0 255
0 0 254
0 0 255
0 0 254
0 0 255
0 0 255
0 0 255
0 0 254
0 0 255
0 0 255
0 0 254
0 0 253
0 0 254
0 0 254
0 0 250
0 0 255
0 0 254
0 0 255
0 0 255
0 0 254
0 0 254
0 0 255
0 0 254
0 0 253
0 0 253
0 0 255
0 0 254
0 0 254
0 0 254
0 0 253
0 0 255
0 0 252
0 0 252
0 0 253
0 0 252
0 0 255
0 0 255
0 0 255
0 0 254
0 0 254
0 0 254
0 0 253
0 0 253
0 0 254
0 0 253
0 0 255
0 0 255
0 0 250
0 0 254
0 0 255
0 0 254
0 0 253
0 0 255
0 0 252
0 0 254
0 0 252
0 0 254
0 0 253
0 0 249
0 0 253
0 0 253
0 0 253
0 0 252
0 0 253
0 0 252
0 0 252
0 0 255
0 0 253
0 0 252
0 0 254
0 0 249
0 0 252
0 0 249
0 0 253
0 0 255
0 0 250
0 0 250
0 0 249
0 0 250
0 0 249
0 0 252
0 0 250
0 0 250
0 0 248
0 0 252
0 0 248
0 0 245
0 0 253
0 0 242
0 0 249
0 0 252
0 0 245
0 0 248
0 0 252
0 0 248
0 0 248
0 0 250
0 0 250
0 0 249
0 0 253
0 0 250
0 0 246
0 0 248
0 0 253
0 0 242
0 0 249
0 0 246
0 0 253
0 0 248
0 0 248
0 0 249
0 0 244
0 0 250
0 0 246
0 0 248
0 0 252
0 0 244
0 0 246
0 0 246
0 0 246
0 0 241
0 0 242
0 0 244
0 0 246
0 0 234
0 0 244
0 0 245
0 0 245
0 0 237
0 0 238
0 0 244
0 0 241
0 0 238
0 0 238
0 0 236
0 0 223
0 0 244
0 0 242
0 0 234
0 0 231
0 0 241
0 0 234
0 0 237
0 0 236
0 0 231
0 0 233
0 0 228
0 0 234
0 0 234
0 0 221
0 0 226
0 0 221
0 0 242
0 0 233
0 0 228
0 0 234
0 0 224
0 0 228
0 0 224
0 0 218
0 0 228
0 0 227
0 0 209
0 0 220
0 0 215
0 0 212
0 0 215
0 0 218
0 0 223
0 0 199
0 0 191
0 0 203
0 0 209
0 0 198
0 0 201
0 0 196
0 0 189
0 0 191
0 0 184
0 0 193
0 0 157
0 0 175
92 96 169
231 241 255
231 241 255
231 241 255
231 241 255
231 241 255
231 241 255
231 241 255
231 241 255
231 241 255
231 241 255
231 241 255
231 240 254
191 110 117
167 0 0
159 0 0
179 0 0
171 0 0
182 0 0
174 0 0
180 0 0
171 0 0
189 0 0
186 0 0
181 0 0
178 0 0
187 0 0
187 0 0
197 0 0
191 0 0
200 0 0
191 0 0
199 0 0
190 0 0
208 0 0
188 0 0
207 0 0
200 0 0
207 0 0
201 0 0
192 0 0
192 0 0
199 0 0
196 0 0
212 0 0
209 0 0
217 0 0
197 0 0
206 0 0
212 0 0
210 0 0
207 0 0
212 0 0
209 0 0
209 0 0
212 0 0
208 0 0
220 0 0
211 0 0
211 0 0
216 0 0
211 0 0
215 0 0
208 0 0
215 0 0
213 0 0
203 0 0
218 0 0
205 0 0
218 0 0
212 0 0
210 0 0
221 0 0
219 0 0
217 0 0
221 0 0
221 0 0
216 0 0
220 0 0
225 0 0
212 0 0
221 0 0
208 0 0
219 0 0
215 0 0
220 0 0
215 0 0
208 0 0
219 0 0
220 0 0
224 0 0
212 0 0
218 0 0
216 0 0
216 0 0
216 0 0
218 0 0
216 0 0
214 0 0
221 0 0
221 0 0
221 0 0
214 0 0
223 0 0
223 0 0
220 0 0
223 0 0
217 0 0
220 0 0
217 0 0
223 0 0
218 0 0
222 0 0
218 0 0
223 0 0
220 0 0
220 0 0
222 0 0
220 0 0
223 0 0
220 0 0
227 0 0
218 0 0
219 0 0
225 0 0
218 0 0
223 0 0
216 0 0
223 0 0
217 0 0
218 0 0
222 0 0
224 0 0
214 0 0
218 0 0
224 0 0
219 0 0
222 0 0
225 0 0
221 0 0
223 0 0
219 0 0
222 0 0
223 0 0
222 0 0
228 0 0
226 0 0
225 0 0
225 0 0
222 0 0
221 0 0
225 0 0
226 0 0
223 0 0
221 0 0
224 0 0
223 0 0
223 0 0
228 0 0
216 0 0
221 0 0
227 0 0
222 0 0
223 0 0
221 0 0
220 0 0
218 0 0
223 0 0
226 0 0
224 0 0
225 0 0
228 0 0
221 0 0
226 0 0
221 0 0
223 0 0
223 0 0
217 0 0
224 0 0
223 0 0
224 0 0
223 0 0
221 0 0
221 0 0
225 0 0
221 0 0
222 0 0
222 0 0
222 0 0
223 0 0
224 0 0
224 0 0
225 0 0
225 0 0
217 0 0
224 0 0
223 0 0
226 0 0
226 0 0
224 0 0
223 0 0
225 0 0
225 0 0
222 0 0
225 0 0
226 0 0
226 0 0
0 0 255
0 0 255
0 0 255
0 0 255
0 0 255
0 0 255
0 0 255
0 0 255
0 0 254
0 0 255
0 0 255
0 0 253
0 0 253
0 0 254
0 0 255
0 0 255
0 0 255
0 0 253
0 0 253
0 0 255
0 0 253
0 0 254
0 0 252
0 0 253
0 0 254
0 0 255
0 0 254
0 0 254
0 0 255
0 0 255
0 0 253
0 0 255
0 0 253
0 0 255
0 0 252
0 0 252
0 0 252
0 0 253
0 0 252
0 0 254
0 0 254
0 0 254
0 0 255
0 0 254
0 0 254
0 0 254
0 0 253
0 0 255
0 0 253
0 0 254
0 0 250
0 0 252
0 0 254
0 0 252
0 0 255
0 0 255
0 0 255
0 0 252
0 0 252
0 0 252
0 0 248
0 0 252
0 0 252
0 0 254
0 0 253
0 0 253
0 0 253
0 0 245
0 0 252
0 0 252
0 0 248
0 0 254
0 0 250
0 0 254
0 0 249
0 0 254
0 0 254
0 0 253
0 0 240
0 0 246
0 0 250
0 0 253
0 0 253
0 0 254
0 0 249
0 0 250
0 0 244
0 0 250
0 0 254
0 0 250
0 0 250
0 0 248
0 0 254
0 0 252
0 0 249
0 0 253
0 0 246
0 0 244
0 0 253
0 0 249
0 0 250
0 0 250
0 0 242
0 0 248
0 0 252
0 0 250
0 0 250
0 0 248
0 0 253
0 0 248
0 0 250
0 0 249
0 0 245
0 0 250
0 0 245
0 0 248
0 0 242
0 0 244
0 0 242
0 0 245
0 0 249
0 0 252
0 0 250
0 0 250
0 0 244
0 0 240
0 0 244
0 0 242
0 0 242
0 0 241
0 0 248
0 0 246
0 0 246
0 0 241
0 0 241
0 0 240
0 0 245
0 0 242
0 0 237
0 0 244
0 0 245
0 0 242
0 0 237
0 0 238
0 0 240
0 0 238
0 0 238
0 0 242
0 0 240
0 0 240
0 0 240
0 0 237
0 0 241
0 0 234
0 0 240
0 0 228
0 0 237
0 0 237
0 0 230
0 0 231
0 0 224
0 0 237
0 0 233
0 0 233
0 0 231
0 0 226
0 0 220
0 0 223
0 0 230
0 0 220
0 0 224
0 0 230
0 0 227
0 0 214
0 0 220
0 0 211
0 0 206
0 0 226
0 0 211
0 0 221
0 0 207
0 0 201
0 0 198
0 0 198
0 0 191
0 0 198
0 0 191
0 0 203
0 0 199
0 0 177
0 0 171
0 0 161
0 0 157
180 188 228
231 241 255
231 241 255
231 241 255
231 241 255
231 241 255
231 241 255
231 241 255
231 241 255
231 241 255
231 241 255
231 241 255
231 241 255
209 185 196
159 0 0
167 0 0
168 0 0
165 0 0
180 0 0
182 0 0
179 0 0
177 0 0
197 0 0
180 0 0
190 0 0
186 0 0
196 0 0
176 0 0
197 0 0
193 0 0
195 0 0
198 0 0
198 0 0
196 0 0
191 0 0
198 0 0
201 0 0
197 0 0
195 0 0
201 0 0
202 0 0
209 0 0
207 0 0
202 0 0
208 0 0
202 0 0
201 0 0
202 0 0
200 0 0
209 0 0
203 0 0
211 0 0
205 0 0
217 0 0
206 0 0
204 0 0
205 0 0
213 0 0
211 0 0
219 0 0
209 0 0
219 0 0
214 0 0
210 0 0
213 0 0
216 0 0
213 0 0
213 0 0
207 0 0
214 0 0
217 0 0
216 0 0
208 0 0
223 0 0
215 0 0
215 0 0
216 0 0
217 0 0
214 0 0
215 0 0
217 0 0
218 0 0
218 0 0
217 0 0
214 0 0
219 0 0
221 0 0
215 0 0
221 0 0
214 0 0
216 0 0
221 0 0
216 0 0
213 0 0
209 0 0
221 0 0
224 0 0
217 0 0
218 0 0
217 0 0
220 0 0
217 0 0
219 0 0
224 0 0
221 0 0
224 0 0
221 0 0
220 0 0
219 0 0
220 0 0
222 0 0
219 0 0
224 0 0
223 0 0
223 0 0
221 0 0
221 0 0
221 0 0
219 0 0
222 0 0
227 0 0
222 0 0
220 0 0
222 0 0
223 0 0
223 0 0
222 0 0
223 0 0
221 0 0
224 0 0
222 0 0
221 0 0
219 0 0
216 0 0
222 0 0
226 0 0
222 0 0
220 0 0
221 0 0
220 0 0
223 0 0
220 0 0
225 0 0
222 0 0
222 0 0
224 0 0
225 0 0
220 0 0
222 0 0
220 0 0
215 0 0
221 0 0
225 0 0
224 0 0
220 0 0
227 0 0
219 0 0
221 0 0
227 0 0
220 0 0
228 0 0
223 0 0
225 0 0
222 0 0
221 0 0
226 0 0
228 0 0
218 0 0
223 0 0
220 0 0
221 0 0
221 0 0
223 0 0
221 0 0
221 0 0
225 0 0
224 0 0
221 0 0
222 0 0
223 0 0
222 0 0
223 0 0
219 0 0
224 0 0
225 0 0
227 0 0
225 0 0
224 0 0
225 0 0
225 0 0
224 0 0
225 0 0
226 0 0
222 0 0
223 0 0
220 0 0
224 0 0
226 0 0
224 0 0
225 0 0
226 0 0
223 0 0
223 0 0
223 0 0
224 0 0
225 0 0
225 0 0
0 0 255
0 0 255
0 0 255
0 0 255
0 0 255
0 0 255
0 0 255
0 0 254
0 0 255
0 0 255
0 0 255
0 0 255
0 0 255
0 0 255
0 0 255
0 0 254
0 0 255
0 0 255
0 0 254
0 0 252
0 0 253
0 0 255
0 0 254
0 0 253
0 0 255
0 0 254
0 0 255
0 0 253
0 0 254
0 0 252
0 0 255
0 0 254
0 0 255
0 0 254
0 0 253
0 0 255
0 0 254
0 0 254
0 0 253
0 0 252
0 0 255
0 0 254
0 0 253
0 0 254
0 0 252
0 0 252
0 0 254
0 0 250
0 0 255
0 0 254
0 0 252
0 0 253
0 0 255
0 0 253
0 0 254
0 0 254
0 0 253
0 0 254
0 0 252
0 0 254
0 0 252
0 0 254
0 0 255
0 0 252
0 0 253
0 0 254
0 0 254
0 0 248
0 0 253
0 0 253
0 0 255
0 0 246
0 0 252
0 0 249
0 0 249
0 0 252
0 0 252
0 0 250
0 0 248
0 0 248
0 0 250
0 0 252
0 0 252
0 0 254
0 0 253
0 0 252
0 0 249
0 0 253
0 0 253
0 0 246
0 0 252
0 0 253
0 0 249
0 0 249
0 0 248
0 0 254
0 0 249
0 0 249
0 0 245
0 0 253
0 0 249
0 0 246
0 0 250
0 0 255
0 0 253
0 0 248
0 0 252
0 0 253
0 0 242
0 0 242
0 0 253
0 0 249
0 0 250
0 0 255
0 0 240
0 0 246
0 0 248
0 0 242
0 0 253
0 0 245
0 0 248
0 0 252
0 0 246
0 0 242
0 0 246
0 0 242
0 0 244
0 0 250
0 0 244
0 0 242
0 0 246
0 0 246
0 0 245
0 0 248
0 0 248
0 0 241
0 0 241
0 0 248
0 0 237
0 0 242
0 0 238
0 0 245
0 0 242
0 0 242
0 0 244
0 0 226
0 0 244
0 0 242
0 0 242
0 0 244
0 0 231
0 0 234
0 0 230
0 0 237
0 0 240
0 0 238
0 0 231
0 0 237
0 0 228
0 0 231
0 0 233
0 0 233
0 0 221
0 0 236
0 0 226
0 0 238
0 0 227
0 0 224
0 0 228
0 0 218
0 0 228
0 0 226
0 0 230
0 0 203
0 0 228
0 0 220
0 0 209
0 0 206
0 0 211
0 0 209
0 0 226
0 0 206
0 0 209
0 0 201
0 0 199
0 0 206
0 0 196
0 0 188
0 0 171
0 0 184
0 0 199
0 0 169
46 48 163
224 234 250
231 241 255
231 241 255
231 241 255
231 241 255
231 241 255
231 241 255
231 241 255
231 241 255
231 241 255
231 241 255
231 241 255
231 241 255
230 234 248
161 59 62
165 0 0
176 0 0
160 0 0
160 0 0
188 0 0
180 0 0
182 0 0
183 0 0
179 0 0
189 0 0
193 0 0
191 0 0
194 0 0
189 0 0
200 0 0
189 0 0
204 0 0
209 0 0
199 0 0
194 0 0
191 0 0
193 0 0
205 0 0
206 0 0
199 0 0
198 0 0
203 0 0
201 0 0
208 0 0
205 0 0
216 0 0
215 0 0
210 0 0
211 0 0
215 0 0
212 0 0
215 0 0
206 0 0
214 0 0
213 0 0
206 0 0
208 0 0
214 0 0
214 0 0
211 0 0
213 0 0
219 0 0
209 0 0
214 0 0
207 0 0
220 0 0
214 0 0
216 0 0
220 0 0
215 0 0
219 0 0
221 0 0
215 0 0
209 0 0
212 0 0
212 0 0
217 0 0
221 0 0
217 0 0
221 0 0
222 0 0
217 0 0
214 0 0
218 0 0
215 0 0
218 0 0
215 0 0
221 0 0
210 0 0
214 0 0
222 0 0
219 0 0
218 0 0
220 0 0
218 0 0
221 0 0
217 0 0
221 0 0
218 0 0
213 0 0
214 0 0
219 0 0
219 0 0
224 0 0
220 0 0
225 0 0
219 0 0
222 0 0
223 0 0
221 0 0
217 0 0
222 0 0
214 0 0
219 0 0
221 0 0
224 0 0
224 0 0
220 0 0
220 0 0
223 0 0
219 0 0
222 0 0
217 0 0
223 0 0
219 0 0
222 0 0
224 0 0
217 0 0
220 0 0
219 0 0
223 0 0
220 0 0
221 0 0
225 0 0
220 0 0
218 0 0
221 0 0
225 0 0
221 0 0
222 0 0
223 0 0
220 0 0
226 0 0
223 0 0
223 0 0
224 0 0
222 0 0
222 0 0
221 0 0
221 0 0
227 0 0
219 0 0
223 0 0
227 0 0
223 0 0
221 0 0
222 0 0
223 0 0
220 0 0
222 0 0
225 0 0
221 0 0
223 0 0
221 0 0
223 0 0
223 0 0
228 0 0
224 0 0
224 0 0
222 0 0
220 0 0
225 0 0
224 0 0
227 0 0
223 0 0
225 0 0
226 0 0
226 0 0
226 0 0
221 0 0
226 0 0
224 0 0
223 0 0
226 0 0
220 0 0
221 0 0
223 0 0
223 0 0
226 0 0
224 0 0
221 0 0
223 0 0
223 0 0
225 0 0
222 0 0
224 0 0
224 0 0
225 0 0
227 0 0
223 0 0
223 0 0
226 0 0
225 0 0
223 0 0
224 0 0
227 0 0
222 0 0
0 0 255
0 0 255
0 0 255
0 0 254
0 0 254
0 0 254
0 0 255
0 0 255
0 0 254
0 0 253
0 0 255
0 0 254
0 0 255
0 0 255
0 0 255
0 0 255
0 0 253
0 0 255
0 0 255
0 0 254
0 0 253
0 0 253
0 0 255
0 0 254
0 0 254
0 0 255
0 0 255
0 0 253
0 0 255
0 0 252
0 0 254
0 0 254
0 0 250
0 0 255
0 0 253
0 0 255
0 0 254
0 0 255
0 0 254
0 0 255
0 0 254
0 0 253
0 0 252
0 0 254
0 0 253
0 0 254
0 0 255
0 0 255
0 0 255
0 0 254
0 0 253
0 0 254
0 0 255
0 0 253
0 0 253
0 0 255
0 0 254
0 0 254
0 0 253
0 0 255
0 0 253
0 0 253
0 0 254
0 0 254
0 0 253
0 0 254
0 0 253
0 0 254
0 0 252
0 0 255
0 0 252
0 0 254
0 0 254
0 0 246
0 0 253
0 0 248
0 0 254
0 0 254
0 0 252
0 0 252
0 0 255
0 0 252
0 0 253
0 0 253
0 0 249
0 0 252
0 0 253
0 0 252
0 0 253
0 0 253
0 0 252
0 0 249
0 0 252
0 0 250
0 0 250
0 0 250
0 0 250
0 0 248
0 0 252
0 0 248
0 0 252
0 0 245
0 0 252
0 0 252
0 0 248
0 0 254
0 0 249
0 0 245
0 0 248
0 0 252
0 0 250
0 0 244
0 0 248
0 0 252
0 0 253
0 0 244
0 0 248
0 0 244
0 0 246
0 0 250
0 0 250
0 0 244
0 0 249
0 0 248
0 0 250
0 0 246
0 0 246
0 0 250
0 0 246
0 0 250
0 0 250
0 0 240
0 0 241
0 0 242
0 0 248
0 0 244
0 0 245
0 0 248
0 0 238
0 0 244
0 0 231
0 0 238
0 0 240
0 0 233
0 0 241
0 0 233
0 0 242
0 0 242
0 0 236
0 0 236
0 0 236
0 0 228
0 0 237
0 0 231
0 0 241
0 0 228
0 0 237
0 0 237
0 0 234
0 0 230
0 0 228
0 0 217
0 0 231
0 0 236
0 0 231
0 0 218
0 0 223
0 0 234
0 0 220
0 0 233
0 0 236
0 0 233
0 0 224
0 0 211
0 0 214
0 0 209
0 0 215
0 0 211
0 0 221
0 0 215
0 0 217
0 0 212
0 0 215
0 0 215
0 0 194
0 0 198
0 0 201
0 0 184
0 0 189
0 0 181
0 0 173
0 0 179
153 160 220
232 241 255
232 241 255
232 241 255
232 241 255
232 241 255
232 241 255
232 241 255
232 241 255
232 241 255
232 241 255
232 241 255
232 241 255
232 241 255
232 241 255
208 165 175
174 0 0
178 0 0
181 0 0
165 0 0
175 0 0
181 0 0
179 0 0
194 0 0
171 0 0
185 0 0
182 0 0
193 0 0
185 0 0
187 0 0
189 0 0
199 0 0
184 0 0
191 0 0
198 0 0
196 0 0
207 0 0
196 0 0
192 0 0
204 0 0
199 0 0
205 0 0
201 0 0
203 0 0
211 0 0
208 0 0
211 0 0
211 0 0
201 0 0
214 0 0
205 0 0
211 0 0
196 0 0
209 0 0
206 0 0
209 0 0
211 0 0
214 0 0
218 0 0
207 0 0
210 0 0
217 0 0
216 0 0
207 0 0
219 0 0
216 0 0
212 0 0
212 0 0
213 0 0
214 0 0
217 0 0
218 0 0
214 0 0
217 0 0
216 0 0
217 0 0
217 0 0
209 0 0
215 0 0
213 0 0
216 0 0
213 0 0
214 0 0
214 0 0
220 0 0
217 0 0
216 0 0
219 0 0
221 0 0
214 0 0
221 0 0
226 0 0
212 0 0
221 0 0
219 0 0
222 0 0
223 0 0
220 0 0
220 0 0
224 0 0
220 0 0
219 0 0
222 0 0
219 0 0
222 0 0
221 0 0
224 0 0
225 0 0
222 0 0
225 0 0
223 0 0
217 0 0
224 0 0
219 0 0
219 0 0
219 0 0
223 0 0
225 0 0
223 0 0
219 0 0
224 0 0
218 0 0
217 0 0
222 0 0
223 0 0
222 0 0
224 0 0
220 0 0
221 0 0
224 0 0
218 0 0
217 0 0
219 0 0
223 0 0
222 0 0
223 0 0
222 0 0
225 0 0
220 0 0
224 0 0
224 0 0
225 0 0
218 0 0
221 0 0
221 0 0
220 0 0
219 0 0
222 0 0
221 0 0
224 0 0
221 0 0
223 0 0
222 0 0
222 0 0
228 0 0
221 0 0
225 0 0
221 0 0
223 0 0
220 0 0
223 0 0
228 0 0
221 0 0
225 0 0
226 0 0
221 0 0
227 0 0
226 0 0
228 0 0
220 0 0
225 0 0
225 0 0
222 0 0
223 0 0
226 0 0
225 0 0
220 0 0
222 0 0
223 0 0
222 0 0
229 0 0
221 0 0
225 0 0
226 0 0
225 0 0
226 0 0
223 0 0
226 0 0
224 0 0
222 0 0
222 0 0
224 0 0
221 0 0
219 0 0
226 0 0
217 0 0
226 0 0
224 0 0
225 0 0
222 0 0
226 0 0
225 0 0
226 0 0
225 0 0
226 0 0
223 0 0
224 0 0
225 0 0
0 0 255
0 0 253
0 0 255
0 0 254
0 0 255
0 0 255
0 0 254
0 0 255
0 0 255
0 0 255
0 0 255
0 0 254
0 0 255
0 0 255
0 0 255
0 0 255
0 0 255
0 0 255
0 0 254
0 0 254
0 0 254
0 0 255
0 0 254
0 0 254
0 0 255
0 0 254
0 0 255
0 0 254
0 0 255
0 0 253
0 0 255
0 0 255
0 0 253
0 0 254
0 0 255
0 0 253
0 0 254
0 0 254
0 0 255
0 0 255
0 0 254
0 0 253
0 0 255
0 0 254
0 0 253
0 0 253
0 0 255
0 0 253
0 0 255
0 0 254
0 0 253
0 0 252
0 0 252
0 0 253
0 0 254
0 0 254
0 0 252
0 0 250
0 0 255
0 0 250
0 0 254
0 0 253
0 0 246
0 0 253
0 0 252
0 0 252
0 0 254
0 0 249
0 0 254
0 0 254
0 0 254
0 0 250
0 0 248
0 0 246
0 0 253
0 0 252
0 0 253
0 0 250
0 0 248
0 0 250
0 0 253
0 0 253
0 0 253
0 0 253
0 0 250
0 0 253
0 0 253
0 0 252
0 0 248
0 0 254
0 0 255
0 0 252
0 0 249
0 0 246
0 0 253
0 0 249
0 0 253
0 0 252
0 0 245
0 0 252
0 0 249
0 0 250
0 0 253
0 0 248
0 0 250
0 0 253
0 0 249
0 0 248
0 0 252
0 0 249
0 0 248
0 0 248
0 0 248
0 0 253
0 0 250
0 0 249
0 0 245
0 0 248
0 0 252
0 0 242
0 0 249
0 0 245
0 0 245
0 0 246
0 0 242
0 0 246
0 0 246
0 0 240
0 0 244
0 0 245
0 0 244
0 0 245
0 0 242
0 0 242
0 0 241
0 0 238
0 0 245
0 0 245
0 0 246
0 0 233
0 0 240
0 0 234
0 0 244
0 0 236
0 0 246
0 0 240
0 0 233
0 0 223
0 0 238
0 0 234
0 0 233
0 0 236
0 0 227
0 0 242
0 0 237
0 0 224
0 0 231
0 0 231
0 0 236
0 0 234
0 0 240
0 0 234
0 0 228
0 0 230
0 0 231
0 0 227
0 0 230
0 0 226
0 0 217
0 0 218
0 0 218
0 0 220
0 0 226
0 0 230
0 0 212
0 0 214
0 0 223
0 0 218
0 0 211
0 0 214
0 0 204
0 0 223
0 0 201
0 0 194
0 0 198
0 0 206
0 0 193
0 0 193
0 0 201
0 0 177
0 0 194
23 24 188
216 225 248
232 242 255
232 242 255
232 242 255
232 242 255
232 242 255
232 242 255
232 242 255
232 242 255
232 242 255
232 242 255
232 242 255
232 242 255
232 242 255
232 242 255
225 233 246
168 34 36
174 0 0
181 0 0
181 0 0
171 0 0
180 0 0
188 0 0
182 0 0
195 0 0
189 0 0
182 0 0
193 0 0
186 0 0
185 0 0
199 0 0
190 0 0
200 0 0
201 0 0
193 0 0
192 0 0
208 0 0
196 0 0
201 0 0
201 0 0
200 0 0
206 0 0
211 0 0
204 0 0
216 0 0
207 0 0
211 0 0
203 0 0
204 0 0
212 0 0
202 0 0
214 0 0
208 0 0
213 0 0
208 0 0
210 0 0
213 0 0
207 0 0
214 0 0
207 0 0
211 0 0
222 0 0
216 0 0
198 0 0
211 0 0
215 0 0
213 0 0
213 0 0
214 0 0
213 0 0
218 0 0
213 0 0
216 0 0
216 0 0
214 0 0
217 0 0
215 0 0
221 0 0
222 0 0
217 0 0
216 0 0
218 0 0
216 0 0
217 0 0
215 0 0
223 0 0
218 0 0
224 0 0
220 0 0
216 0 0
219 0 0
219 0 0
219 0 0
222 0 0
218 0 0
214 0 0
225 0 0
218 0 0
219 0 0
220 0 0
216 0 0
224 0 0
223 0 0
221 0 0
219 0 0
225 0 0
215 0 0
222 0 0
220 0 0
221 0 0
219 0 0
221 0 0
223 0 0
222 0 0
217 0 0
218 0 0
218 0 0
223 0 0
222 0 0
218 0 0
222 0 0
222 0 0
220 0 0
221 0 0
222 0 0
222 0 0
222 0 0
223 0 0
220 0 0
221 0 0
219 0 0
224 0 0
222 0 0
219 0 0
218 0 0
220 0 0
226 0 0
222 0 0
225 0 0
222 0 0
224 0 0
223 0 0
224 0 0
224 0 0
222 0 0
224 0 0
222 0 0
225 0 0
222 0 0
221 0 0
221 0 0
224 0 0
226 0 0
225 0 0
223 0 0
221 0 0
224 0 0
221 0 0
223 0 0
226 0 0
224 0 0
225 0 0
224 0 0
226 0 0
224 0 0
222 0 0
224 0 0
225 0 0
220 0 0
223 0 0
221 0 0
224 0 0
222 0 0
224 0 0
223 0 0
223 0 0
225 0 0
226 0 0
225 0 0
226 0 0
223 0 0
223 0 0
220 0 0
224 0 0
219 0 0
224 0 0
224 0 0
221 0 0
226 0 0
225 0 0
225 0 0
224 0 0
222 0 0
225 0 0
226 0 0
224 0 0
227 0 0
226 0 0
223 0 0
222 0 0
223 0 0
225 0 0
225 0 0
225 0 0
227 0 0
222 0 0
226 0 0
222 0 0
0 0 254
0 0 255
0 0 255
0 0 255
0 0 253
0 0 254
0 0 254
0 0 255
0 0 255
0 0 255
0 0 255
0 0 253
0 0 255
0 0 255
0 0 255
0 0 254
0 0 255
0 0 252
0 0 255
0 0 254
0 0 254
0 0 255
0 0 254
0 0 255
0 0 253
0 0 254
0 0 253
0 0 255
0 0 253
0 0 255
0 0 254
0 0 255
0 0 253
0 0 253
0 0 255
0 0 253
0 0 254
0 0 254
0 0 255
0 0 254
0 0 255
0 0 253
0 0 255
0 0 255
0 0 253
0 0 254
0 0 253
0 0 255
0 0 253
0 0 254
0 0 252
0 0 253
0 0 250
0 0 255
0 0 255
0 0 254
0 0 254
0 0 252
0 0 253
0 0 252
0 0 253
0 0 255
0 0 249
0 0 255
0 0 249
0 0 254
0 0 254
0 0 252
0 0 254
0 0 254
0 0 250
0 0 255
0 0 252
0 0 253
0 0 254
0 0 252
0 0 250
0 0 252
0 0 252
0 0 250
0 0 252
0 0 253
0 0 249
0 0 252
0 0 255
0 0 250
0 0 254
0 0 254
0 0 255
0 0 252
0 0 252
0 0 248
0 0 252
0 0 254
0 0 253
0 0 255
0 0 250
0 0 246
0 0 250
0 0 249
0 0 246
0 0 250
0 0 250
0 0 245
0 0 253
0 0 242
0 0 248
0 0 245
0 0 246
0 0 250
0 0 246
0 0 246
0 0 242
0 0 244
0 0 248
0 0 242
0 0 250
0 0 244
0 0 245
0 0 246
0 0 245
0 0 252
0 0 245
0 0 248
0 0 245
0 0 244
0 0 241
0 0 245
0 0 245
0 0 238
0 0 242
0 0 248
0 0 248
0 0 244
0 0 242
0 0 246
0 0 248
0 0 231
0 0 244
0 0 240
0 0 242
0 0 241
0 0 244
0 0 238
0 0 237
0 0 238
0 0 238
0 0 245
0 0 244
0 0 237
0 0 231
0 0 245
0 0 245
0 0 233
0 0 237
0 0 240
0 0 230
0 0 233
0 0 242
0 0 234
0 0 227
0 0 228
0 0 231
0 0 230
0 0 224
0 0 226
0 0 228
0 0 221
0 0 226
0 0 233
0 0 228
0 0 220
0 0 214
0 0 209
0 0 217
0 0 217
0 0 220
0 0 224
0 0 212
0 0 221
0 0 204
0 0 203
0 0 191
0 0 201
0 0 191
0 0 212
0 0 198
0 0 212
0 0 184
0 0 201
0 0 184
131 137 209
232 242 255
232 242 255
232 242 255
232 242 255
232 242 255
232 242 255
232 242 255
232 242 255
232 242 255
232 242 255
232 242 255
232 242 255
232 242 255
232 242 255
232 242 255
232 242 255
193 153 161
167 0 0
167 0 0
174 0 0
183 0 0
167 0 0
179 0 0
179 0 0
188 0 0
184 0 0
189 0 0
184 0 0
197 0 0
202 0 0
207 0 0
187 0 0
200 0 0
188 0 0
194 0 0
206 0 0
194 0 0
209 0 0
202 0 0
213 0 0
219 0 0
204 0 0
209 0 0
204 0 0
205 0 0
203 0 0
205 0 0
205 0 0
202 0 0
206 0 0
209 0 0
209 0 0
210 0 0
213 0 0
212 0 0
211 0 0
208 0 0
208 0 0
210 0 0
221 0 0
214 0 0
211 0 0
214 0 0
218 0 0
216 0 0
206 0 0
215 0 0
223 0 0
211 0 0
215 0 0
214 0 0
216 0 0
210 0 0
222 0 0
213 0 0
219 0 0
214 0 0
220 0 0
209 0 0
204 0 0
216 0 0
222 0 0
217 0 0
219 0 0
217 0 0
220 0 0
222 0 0
226 0 0
216 0 0
215 0 0
216 0 0
218 0 0
217 0 0
219 0 0
213 0 0
221 0 0
223 0 0
223 0 0
224 0 0
218 0 0
218 0 0
218 0 0
222 0 0
221 0 0
220 0 0
216 0 0
222 0 0
221 0 0
219 0 0
224 0 0
222 0 0
222 0 0
216 0 0
219 0 0
222 0 0
221 0 0
218 0 0
220 0 0
225 0 0
222 0 0
222 0 0
222 0 0
225 0 0
222 0 0
220 0 0
221 0 0
222 0 0
224 0 0
231 0 0
221 0 0
225 0 0
224 0 0
221 0 0
221 0 0
223 0 0
221 0 0
219 0 0
224 0 0
224 0 0
222 0 0
221 0 0
226 0 0
223 0 0
224 0 0
222 0 0
224 0 0
227 0 0
222 0 0
225 0 0
223 0 0
228 0 0
228 0 0
226 0 0
225 0 0
224 0 0
222 0 0
224 0 0
226 0 0
224 0 0
223 0 0
221 0 0
227 0 0
225 0 0
224 0 0
226 0 0
218 0 0
224 0 0
223 0 0
225 0 0
226 0 0
222 0 0
226 0 0
225 0 0
223 0 0
226 0 0
224 0 0
225 0 0
221 0 0
224 0 0
224 0 0
227 0 0
224 0 0
220 0 0
225 0 0
228 0 0
222 0 0
226 0 0
224 0 0
222 0 0
226 0 0
224 0 0
224 0 0
224 0 0
223 0 0
224 0 0
226 0 0
227 0 0
225 0 0
228 0 0
227 0 0
224 0 0
222 0 0
225 0 0
227 0 0
225 0 0
223 0 0
224 0 0
227 0 0
0 0 255
0 0 254
0 0 255
0 0 255
0 0 254
0 0 255
0 0 253
0 0 254
0 0 254
0 0 255
0 0 255
0 0 254
0 0 255
0 0 255
0 0 255
0 0 255
0 0 254
0 0 254
0 0 254
0 0 253
0 0 255
0 0 254
0 0 254
0 0 255
0 0 254
0 0 255
0 0 255
0 0 253
0 0 250
0 0 254
0 0 253
0 0 255
0 0 255
0 0 253
0 0 255
0 0 253
0 0 254
0 0 255
0 0 254
0 0 254
0 0 254
0 0 255
0 0 254
0 0 249
0 0 254
0 0 254
0 0 255
0 0 253
0 0 255
0 0 254
0 0 249
0 0 253
0 0 254
0 0 254
0 0 253
0 0 253
0 0 254
0 0 254
0 0 253
0 0 255
0 0 252
0 0 253
0 0 253
0 0 254
0 0 254
0 0 252
0 0 252
0 0 254
0 0 253
0 0 250
0 0 254
0 0 250
0 0 252
0 0 255
0 0 252
0 0 253
0 0 252
0 0 252
0 0 255
0 0 252
0 0 253
0 0 253
0 0 252
0 0 253
0 0 249
0 0 249
0 0 249
0 0 255
0 0 255
0 0 252
0 0 250
0 0 253
0 0 250
0 0 253
0 0 242
0 0 254
0 0 249
0 0 252
0 0 248
0 0 252
0 0 246
0 0 246
0 0 248
0 0 250
0 0 248
0 0 252
0 0 240
0 0 248
0 0 250
0 0 248
0 0 248
0 0 248
0 0 249
0 0 252
0 0 250
0 0 249
0 0 248
0 0 244
0 0 245
0 0 249
0 0 245
0 0 244
0 0 244
0 0 244
0 0 241
0 0 246
0 0 240
0 0 246
0 0 249
0 0 248
0 0 245
0 0 245
0 0 250
0 0 244
0 0 244
0 0 245
0 0 242
0 0 241
0 0 241
0 0 244
0 0 240
0 0 241
0 0 242
0 0 237
0 0 245
0 0 240
0 0 245
0 0 237
0 0 244
0 0 226
0 0 240
0 0 240
0 0 240
0 0 237
0 0 237
0 0 237
0 0 226
0 0 220
0 0 242
0 0 233
0 0 233
0 0 233
0 0 231
0 0 227
0 0 236
0 0 223
0 0 234
0 0 227
0 0 218
0 0 224
0 0 212
0 0 231
0 0 220
0 0 223
0 0 221
0 0 215
0 0 223
0 0 212
0 0 214
0 0 217
0 0 201
0 0 199
0 0 196
0 0 209
0 0 204
0 0 196
0 0 184
0 0 193
0 0 191
0 0 186
0 0 191
209 218 241
232 242 255
232 242 255
232 242 255
232 242 255
232 242 255
232 242 255
232 242 255
232 242 255
232 242 255
232 242 255
232 242 255
232 242 255
232 242 255
232 242 255
232 242 255
232 242 255
225 224 237
175 24 25
182 0 0
180 0 0
169 0 0
186 0 0
193 0 0
182 0 0
191 0 0
174 0 0
187 0 0
190 0 0
195 0 0
199 0 0
198 0 0
196 0 0
204 0 0
199 0 0
204 0 0
206 0 0
196 0 0
210 0 0
200 0 0
208 0 0
215 0 0
200 0 0
206 0 0
202 0 0
203 0 0
205 0 0
212 0 0
200 0 0
204 0 0
206 0 0
213 0 0
211 0 0
217 0 0
214 0 0
216 0 0
203 0 0
213 0 0
208 0 0
216 0 0
213 0 0
217 0 0
216 0 0
217 0 0
210 0 0
214 0 0
205 0 0
219 0 0
209 0 0
216 0 0
212 0 0
215 0 0
221 0 0
214 0 0
220 0 0
221 0 0
213 0 0
220 0 0
209 0 0
222 0 0
220 0 0
214 0 0
218 0 0
214 0 0
216 0 0
214 0 0
218 0 0
208 0 0
213 0 0
219 0 0
220 0 0
218 0 0
219 0 0
219 0 0
216 0 0
218 0 0
221 0 0
222 0 0
216 0 0
220 0 0
221 0 0
215 0 0
219 0 0
222 0 0
221 0 0
219 0 0
221 0 0
216 0 0
224 0 0
219 0 0
222 0 0
218 0 0
217 0 0
223 0 0
222 0 0
217 0 0
221 0 0
220 0 0
220 0 0
222 0 0
220 0 0
223 0 0
224 0 0
218 0 0
217 0 0
221 0 0
221 0 0
217 0 0
217 0 0
222 0 0
222 0 0
220 0 0
220 0 0
223 0 0
223 0 0
222 0 0
215 0 0
220 0 0
225 0 0
220 0 0
224 0 0
222 0 0
225 0 0
226 0 0
219 0 0
223 0 0
227 0 0
223 0 0
226 0 0
219 0 0
220 0 0
221 0 0
225 0 0
225 0 0
223 0 0
224 0 0
221 0 0
225 0 0
221 0 0
221 0 0
228 0 0
225 0 0
225 0 0
224 0 0
224 0 0
226 0 0
220 0 0
223 0 0
229 0 0
224 0 0
223 0 0
221 0 0
222 0 0
224 0 0
225 0 0
222 0 0
223 0 0
220 0 0
226 0 0
224 0 0
222 0 0
225 0 0
224 0 0
222 0 0
225 0 0
225 0 0
228 0 0
227 0 0
227 0 0
223 0 0
221 0 0
226 0 0
224 0 0
226 0 0
226 0 0
224 0 0
227 0 0
224 0 0
226 0 0
223 0 0
223 0 0
223 0 0
226 0 0
223 0 0
223 0 0
226 0 0
224 0 0
224 0 0
225 0 0
0 0 255
0 0 255
0 0 255
0 0 255
0 0 255
0 0 255
0 0 255
0 0 255
0 0 254
0 0 252
0 0 254
0 0 255
0 0 255
0 0 255
0 0 254
0 0 254
0 0 255
0 0 254
0 0 254
0 0 254
0 0 255
0 0 255
0 0 255
0 0 255
0 0 254
0 0 254
0 0 252
0 0 254
0 0 255
0 0 254
0 0 252
0 0 255
0 0 254
0 0 255
0 0 254
0 0 254
0 0 254
0 0 254
0 0 255
0 0 255
0 0 255
0 0 253
0 0 252
0 0 255
0 0 255
0 0 254
0 0 254
0 0 254
0 0 252
0 0 254
0 0 254
0 0 252
0 0 254
0 0 255
0 0 252
0 0 250
0 0 254
0 0 252
0 0 254
0 0 255
0 0 253
0 0 253
0 0 249
0 0 254
0 0 252
0 0 246
0 0 252
0 0 252
0 0 250
0 0 253
0 0 255
0 0 254
0 0 254
0 0 253
0 0 250
0 0 253
0 0 252
0 0 252
0 0 248
0 0 252
0 0 253
0 0 253
0 0 253
0 0 250
0 0 253
0 0 248
0 0 249
0 0 249
0 0 254
0 0 246
0 0 250
0 0 254
0 0 252
0 0 253
0 0 250
0 0 248
0 0 254
0 0 249
0 0 249
0 0 253
0 0 248
0 0 246
0 0 244
0 0 249
0 0 250
0 0 248
0 0 242
0 0 245
0 0 248
0 0 249
0 0 253
0 0 252
0 0 246
0 0 246
0 0 249
0 0 252
0 0 244
0 0 242
0 0 249
0 0 244
0 0 246
0 0 250
0 0 246
0 0 241
0 0 242
0 0 237
0 0 245
0 0 237
0 0 242
0 0 248
0 0 249
0 0 248
0 0 248
0 0 238
0 0 240
0 0 242
0 0 240
0 0 245
0 0 241
0 0 238
0 0 244
0 0 241
0 0 240
0 0 244
0 0 244
0 0 238
0 0 240
0 0 245
0 0 238
0 0 238
0 0 240
0 0 240
0 0 234
0 0 236
0 0 242
0 0 228
0 0 230
0 0 238
0 0 231
0 0 220
0 0 236
0 0 231
0 0 227
0 0 226
0 0 231
0 0 233
0 0 228
0 0 233
0 0 226
0 0 234
0 0 223
0 0 227
0 0 226
0 0 226
0 0 220
0 0 230
0 0 221
0 0 224
0 0 212
0 0 209
0 0 220
0 0 221
0 0 212
0 0 204
0 0 218
0 0 207
0 0 186
0 0 201
0 0 206
0 0 191
121 126 203
233 242 255
233 242 255
233 242 255
233 242 255
233 242 255
233 242 255
233 242 255
233 242 255
233 242 255
233 242 255
233 242 255
233 242 255
233 242 255
233 242 255
233 242 255
233 242 255
233 242 255
233 242 255
201 137 144
180 0 0
177 0 0
187 0 0
198 0 0
190 0 0
183 0 0
188 0 0
209 0 0
189 0 0
183 0 0
198 0 0
186 0 0
193 0 0
198 0 0
199 0 0
201 0 0
195 0 0
209 0 0
201 0 0
204 0 0
200 0 0
205 0 0
201 0 0
201 0 0
201 0 0
201 0 0
205 0 0
210 0 0
206 0 0
214 0 0
197 0 0
210 0 0
214 0 0
212 0 0
211 0 0
216 0 0
209 0 0
211 0 0
207 0 0
220 0 0
216 0 0
210 0 0
210 0 0
213 0 0
217 0 0
216 0 0
223 0 0
217 0 0
215 0 0
222 0 0
216 0 0
216 0 0
220 0 0
213 0 0
215 0 0
206 0 0
221 0 0
217 0 0
218 0 0
220 0 0
218 0 0
224 0 0
211 0 0
221 0 0
219 0 0
215 0 0
224 0 0
222 0 0
217 0 0
223 0 0
226 0 0
225 0 0
225 0 0
218 0 0
220 0 0
216 0 0
226 0 0
218 0 0
216 0 0
220 0 0
219 0 0
220 0 0
225 0 0
223 0 0
220 0 0
221 0 0
225 0 0
223 0 0
220 0 0
221 0 0
219 0 0
214 0 0
222 0 0
220 0 0
224 0 0
220 0 0
223 0 0
218 0 0
224 0 0
225 0 0
225 0 0
220 0 0
222 0 0
222 0 0
220 0 0
218 0 0
222 0 0
221 0 0
224 0 0
221 0 0
220 0 0
222 0 0
224 0 0
219 0 0
219 0 0
223 0 0
227 0 0
222 0 0
224 0 0
221 0 0
223 0 0
221 0 0
223 0 0
223 0 0
220 0 0
226 0 0
225 0 0
220 0 0
221 0 0
228 0 0
222 0 0
227 0 0
223 0 0
223 0 0
220 0 0
226 0 0
221 0 0
221 0 0
224 0 0
221 0 0
225 0 0
226 0 0
222 0 0
223 0 0
224 0 0
222 0 0
225 0 0
224 0 0
225 0 0
226 0 0
226 0 0
223 0 0
226 0 0
221 0 0
220 0 0
225 0 0
223 0 0
224 0 0
226 0 0
221 0 0
221 0 0
225 0 0
226 0 0
229 0 0
225 0 0
224 0 0
225 0 0
225 0 0
226 0 0
226 0 0
227 0 0
229 0 0
221 0 0
227 0 0
228 0 0
225 0 0
223 0 0
221 0 0
227 0 0
223 0 0
224 0 0
222 0 0
226 0 0
222 0 0
226 0 0
225 0 0
224 0 0
224 0 0
225 0 0
222 0 0
0 0 255
0 0 254
0 0 255
0 0 255
0 0 255
0 0 255
0 0 254
0 0 253
0 0 255
0 0 253
0 0 255
0 0 253
0 0 255
0 0 254
0 0 254
0 0 254
0 0 254
0 0 255
0 0 254
0 0 255
0 0 254
0 0 255
0 0 250
0 0 255
0 0 254
0 0 254
0 0 253
0 0 253
0 0 255
0 0 254
0 0 255
0 0 255
0 0 253
0 0 253
0 0 254
0 0 254
0 0 252
0 0 252
0 0 252
0 0 255
0 0 252
0 0 255
0 0 254
0 0 252
0 0 254
0 0 254
0 0 253
0 0 255
0 0 255
0 0 253
0 0 254
0 0 253
0 0 252
0 0 254
0 0 255
0 0 254
0 0 254
0 0 253
0 0 249
0 0 253
0 0 254
0 0 254
0 0 253
0 0 254
0 0 248
0 0 253
0 0 254
0 0 249
0 0 252
0 0 250
0 0 249
0 0 248
0 0 253
0 0 254
0 0 252
0 0 255
0 0 250
0 0 250
0 0 252
0 0 254
0 0 253
0 0 252
0 0 250
0 0 254
0 0 254
0 0 253
0 0 248
0 0 254
0 0 249
0 0 246
0 0 250
0 0 249
0 0 253
0 0 250
0 0 250
0 0 246
0 0 248
0 0 246
0 0 249
0 0 253
0 0 248
0 0 246
0 0 248
0 0 249
0 0 248
0 0 248
0 0 246
0 0 246
0 0 245
0 0 250
0 0 246
0 0 237
0 0 246
0 0 249
0 0 249
0 0 250
0 0 249
0 0 245
0 0 246
0 0 249
0 0 245
0 0 248
0 0 242
0 0 246
0 0 250
0 0 250
0 0 242
0 0 246
0 0 246
0 0 248
0 0 245
0 0 240
0 0 246
0 0 240
0 0 242
0 0 245
0 0 244
0 0 249
0 0 244
0 0 238
0 0 240
0 0 240
0 0 238
0 0 250
0 0 244
0 0 238
0 0 245
0 0 233
0 0 238
0 0 237
0 0 245
0 0 236
0 0 231
0 0 237
0 0 242
0 0 236
0 0 236
0 0 234
0 0 215
0 0 236
0 0 237
0 0 237
0 0 241
0 0 233
0 0 230
0 0 234
0 0 237
0 0 231
0 0 231
0 0 204
0 0 224
0 0 224
0 0 212
0 0 214
0 0 226
0 0 223
0 0 217
0 0 203
0 0 212
0 0 217
0 0 217
0 0 203
0 0 204
0 0 199
0 0 203
0 0 206
0 0 194
0 0 173
0 0 201
23 24 207
212 221 250
233 242 255
233 242 255
233 242 255
233 242 255
233 242 255
233 242 255
233 242 255
233 242 255
233 242 255
233 242 255
233 242 255
233 242 255
233 242 255
233 242 255
233 242 255
233 242 255
233 242 255
233 242 255
227 225 237
168 54 57
188 0 0
194 0 0
173 0 0
196 0 0
184 0 0
190 0 0
184 0 0
188 0 0
188 0 0
198 0 0
193 0 0
206 0 0
208 0 0
187 0 0
195 0 0
198 0 0
198 0 0
213 0 0
188 0 0
208 0 0
199 0 0
211 0 0
209 0 0
203 0 0
199 0 0
210 0 0
203 0 0
208 0 0
217 0 0
201 0 0
207 0 0
206 0 0
212 0 0
211 0 0
214 0 0
208 0 0
222 0 0
210 0 0
208 0 0
214 0 0
205 0 0
210 0 0
209 0 0
205 0 0
212 0 0
212 0 0
213 0 0
214 0 0
219 0 0
205 0 0
211 0 0
221 0 0
219 0 0
215 0 0
223 0 0
211 0 0
221 0 0
216 0 0
220 0 0
224 0 0
217 0 0
213 0 0
221 0 0
219 0 0
223 0 0
221 0 0
215 0 0
225 0 0
220 0 0
217 0 0
218 0 0
224 0 0
218 0 0
221 0 0
224 0 0
219 0 0
222 0 0
219 0 0
223 0 0
219 0 0
216 0 0
224 0 0
227 0 0
219 0 0
216 0 0
225 0 0
224 0 0
221 0 0
221 0 0
220 0 0
225 0 0
221 0 0
220 0 0
219 0 0
222 0 0
224 0 0
223 0 0
226 0 0
223 0 0
226 0 0
220 0 0
220 0 0
222 0 0
220 0 0
221 0 0
223 0 0
222 0 0
227 0 0
222 0 0
222 0 0
223 0 0
224 0 0
222 0 0
225 0 0
224 0 0
226 0 0
224 0 0
222 0 0
229 0 0
222 0 0
223 0 0
220 0 0
221 0 0
222 0 0
224 0 0
221 0 0
225 0 0
219 0 0
226 0 0
223 0 0
225 0 0
221 0 0
220 0 0
225 0 0
225 0 0
222 0 0
225 0 0
225 0 0
220 0 0
222 0 0
224 0 0
225 0 0
223 0 0
227 0 0
223 0 0
223 0 0
220 0 0
225 0 0
224 0 0
218 0 0
223 0 0
225 0 0
225 0 0
224 0 0
221 0 0
225 0 0
226 0 0
227 0 0
227 0 0
226 0 0
223 0 0
224 0 0
221 0 0
226 0 0
225 0 0
225 0 0
225 0 0
220 0 0
222 0 0
223 0 0
225 0 0
227 0 0
227 0 0
225 0 0
222 0 0
221 0 0
225 0 0
222 0 0
225 0 0
224 0 0
228 0 0
225 0 0
226 0 0
224 0 0
223 0 0
229 0 0
224 0 0
222 0 0
225 0 0
0 0 255
0 0 254
0 0 255
0 0 255
0 0 255
0 0 254
0 0 254
0 0 255
0 0 255
0 0 254
0 0 255
0 0 255
0 0 255
0 0 254
0 0 255
0 0 255
0 0 255
0 0 254
0 0 255
0 0 254
0 0 254
0 0 254
0 0 255
0 0 255
0 0 254
0 0 254
0 0 254
0 0 253
0 0 255
0 0 254
0 0 254
0 0 255
0 0 253
0 0 253
0 0 252
0 0 253
0 0 255
0 0 253
0 0 254
0 0 252
0 0 254
0 0 255
0 0 253
0 0 254
0 0 253
0 0 254
0 0 254
0 0 253
0 0 254
0 0 254
0 0 252
0 0 255
0 0 252
0 0 254
0 0 254
0 0 252
0 0 253
0 0 254
0 0 255
0 0 255
0 0 255
0 0 255
0 0 254
0 0 252
0 0 250
0 0 249
0 0 254
0 0 254
0 0 253
0 0 254
0 0 250
0 0 250
0 0 246
0 0 253
0 0 254
0 0 253
0 0 248
0 0 252
0 0 252
0 0 249
0 0 253
0 0 254
0 0 249
0 0 254
0 0 248
0 0 254
0 0 250
0 0 248
0 0 245
0 0 253
0 0 249
0 0 252
0 0 249
0 0 245
0 0 248
0 0 250
0 0 249
0 0 248
0 0 245
0 0 250
0 0 248
0 0 249
0 0 249
0 0 249
0 0 250
0 0 252
0 0 248
0 0 250
0 0 248
0 0 250
0 0 252
0 0 253
0 0 240
0 0 249
0 0 249
0 0 240
0 0 245
0 0 252
0 0 240
0 0 241
0 0 244
0 0 245
0 0 248
0 0 246
0 0 252
0 0 237
0 0 246
0 0 242
0 0 248
0 0 244
0 0 246
0 0 237
0 0 238
0 0 246
0 0 240
0 0 252
0 0 241
0 0 242
0 0 241
0 0 242
0 0 242
0 0 246
0 0 249
0 0 244
0 0 238
0 0 240
0 0 238
0 0 245
0 0 238
0 0 236
0 0 244
0 0 238
0 0 237
0 0 237
0 0 240
0 0 230
0 0 234
0 0 234
0 0 226
0 0 234
0 0 226
0 0 230
0 0 230
0 0 240
0 0 234
0 0 237
0 0 234
0 0 226
0 0 234
0 0 212
0 0 231
0 0 218
0 0 224
0 0 221
0 0 206
0 0 220
0 0 227
0 0 218
0 0 214
0 0 227
0 0 215
0 0 218
0 0 196
0 0 204
0 0 207
0 0 181
0 0 203
0 0 194
0 0 196
147 153 211
233 242 255
233 242 255
233 242 255
233 242 255
233 242 255
233 242 255
233 242 255
233 242 255
233 242 255
233 242 255
233 242 255
233 242 255
233 242 255
233 242 255
233 242 255
233 242 255
233 242 255
233 242 255
233 242 255
233 242 255
199 147 155
184 0 0
179 0 0
182 0 0
180 0 0
187 0 0
183 0 0
180 0 0
195 0 0
200 0 0
196 0 0
195 0 0
200 0 0
203 0 0
200 0 0
192 0 0
195 0 0
202 0 0
208 0 0
197 0 0
203 0 0
200 0 0
200 0 0
199 0 0
210 0 0
203 0 0
203 0 0
213 0 0
206 0 0
208 0 0
208 0 0
212 0 0
201 0 0
209 0 0
209 0 0
216 0 0
214 0 0
217 0 0
209 0 0
224 0 0
210 0 0
217 0 0
215 0 0
213 0 0
206 0 0
219 0 0
220 0 0
217 0 0
221 0 0
217 0 0
216 0 0
217 0 0
210 0 0
214 0 0
218 0 0
222 0 0
213 0 0
211 0 0
219 0 0
221 0 0
214 0 0
221 0 0
224 0 0
218 0 0
226 0 0
216 0 0
209 0 0
220 0 0
220 0 0
217 0 0
214 0 0
225 0 0
225 0 0
219 0 0
222 0 0
218 0 0
219 0 0
216 0 0
214 0 0
218 0 0
218 0 0
209 0 0
217 0 0
221 0 0
216 0 0
226 0 0
223 0 0
223 0 0
219 0 0
220 0 0
220 0 0
221 0 0
219 0 0
219 0 0
226 0 0
223 0 0
217 0 0
221 0 0
222 0 0
224 0 0
220 0 0
222 0 0
221 0 0
217 0 0
222 0 0
222 0 0
220 0 0
221 0 0
221 0 0
222 0 0
218 0 0
224 0 0
225 0 0
225 0 0
224 0 0
225 0 0
219 0 0
224 0 0
225 0 0
221 0 0
224 0 0
222 0 0
223 0 0
221 0 0
220 0 0
220 0 0
225 0 0
217 0 0
224 0 0
226 0 0
222 0 0
222 0 0
224 0 0
222 0 0
220 0 0
227 0 0
227 0 0
222 0 0
222 0 0
226 0 0
227 0 0
225 0 0
226 0 0
226 0 0
226 0 0
226 0 0
221 0 0
221 0 0
223 0 0
226 0 0
224 0 0
227 0 0
223 0 0
226 0 0
220 0 0
224 0 0
226 0 0
222 0 0
227 0 0
226 0 0
223 0 0
222 0 0
226 0 0
224 0 0
223 0 0
226 0 0
223 0 0
221 0 0
224 0 0
225 0 0
223 0 0
223 0 0
225 0 0
228 0 0
223 0 0
222 0 0
223 0 0
226 0 0
226 0 0
226 0 0
225 0 0
224 0 0
226 0 0
225 0 0
227 0 0
223 0 0
223 0 0
225 0 0
225 0 0
228 0 0
0 0 255
0 0 255
0 0 254
0 0 255
0 0 254
0 0 254
0 0 253
0 0 255
0 0 254
0 0 255
0 0 255
0 0 253
0 0 254
0 0 255
0 0 255
0 0 254
0 0 255
0 0 254
0 0 255
0 0 254
0 0 255
0 0 255
0 0 254
0 0 255
0 0 254
0 0 255
0 0 254
0 0 255
0 0 255
0 0 254
0 0 252
0 0 254
0 0 254
0 0 253
0 0 255
0 0 255
0 0 254
0 0 255
0 0 254
0 0 253
0 0 254
0 0 255
0 0 255
0 0 253
0 0 253
0 0 252
0 0 255
0 0 254
0 0 253
0 0 254
0 0 254
0 0 254
0 0 254
0 0 254
0 0 252
0 0 255
0 0 254
0 0 254
0 0 254
0 0 254
0 0 253
0 0 255
0 0 249
0 0 252
0 0 254
0 0 254
0 0 253
0 0 255
0 0 250
0 0 255
0 0 254
0 0 250
0 0 252
0 0 249
0 0 255
0 0 249
0 0 254
0 0 245
0 0 253
0 0 250
0 0 254
0 0 250
0 0 254
0 0 255
0 0 252
0 0 253
0 0 242
0 0 253
0 0 249
0 0 253
0 0 253
0 0 250
0 0 248
0 0 249
0 0 254
0 0 252
0 0 250
0 0 253
0 0 253
0 0 249
0 0 252
0 0 253
0 0 246
0 0 248
0 0 248
0 0 246
0 0 252
0 0 250
0 0 249
0 0 250
0 0 248
0 0 249
0 0 250
0 0 248
0 0 249
0 0 248
0 0 248
0 0 245
0 0 246
0 0 250
0 0 242
0 0 246
0 0 245
0 0 240
0 0 242
0 0 249
0 0 245
0 0 249
0 0 248
0 0 248
0 0 246
0 0 246
0 0 250
0 0 248
0 0 246
0 0 244
0 0 248
0 0 241
0 0 236
0 0 250
0 0 238
0 0 234
0 0 242
0 0 245
0 0 234
0 0 246
0 0 245
0 0 242
0 0 233
0 0 231
0 0 234
0 0 238
0 0 241
0 0 238
0 0 237
0 0 238
0 0 236
0 0 242
0 0 227
0 0 242
0 0 231
0 0 228
0 0 226
0 0 234
0 0 215
0 0 230
0 0 224
0 0 230
0 0 233
0 0 221
0 0 230
0 0 223
0 0 231
0 0 231
0 0 217
0 0 227
0 0 227
0 0 221
0 0 198
0 0 218
0 0 209
0 0 206
0 0 211
0 0 209
0 0 207
0 0 201
0 0 201
0 0 193
40 42 186
221 230 250
233 243 255
233 243 255
233 243 255
233 243 255
234 243 255
234 243 255
234 243 255
234 243 255
234 243 255
234 243 255
234 243 255
234 243 255
234 243 255
233 243 255
234 243 255
233 243 255
233 243 255
233 243 255
233 243 255
233 243 255
230 234 246
181 68 72
185 0 0
189 0 0
179 0 0
195 0 0
202 0 0
195 0 0
178 0 0
193 0 0
190 0 0
197 0 0
193 0 0
216 0 0
195 0 0
204 0 0
202 0 0
207 0 0
199 0 0
206 0 0
216 0 0
210 0 0
199 0 0
198 0 0
206 0 0
209 0 0
205 0 0
217 0 0
215 0 0
212 0 0
208 0 0
216 0 0
212 0 0
213 0 0
217 0 0
217 0 0
208 0 0
217 0 0
216 0 0
218 0 0
216 0 0
211 0 0
217 0 0
202 0 0
222 0 0
219 0 0
213 0 0
220 0 0
217 0 0
214 0 0
213 0 0
214 0 0
209 0 0
219 0 0
215 0 0
220 0 0
218 0 0
219 0 0
224 0 0
221 0 0
217 0 0
218 0 0
219 0 0
217 0 0
218 0 0
221 0 0
220 0 0
217 0 0
209 0 0
222 0 0
218 0 0
221 0 0
220 0 0
218 0 0
219 0 0
222 0 0
217 0 0
218 0 0
218 0 0
221 0 0
216 0 0
223 0 0
217 0 0
217 0 0
221 0 0
222 0 0
222 0 0
224 0 0
222 0 0
225 0 0
222 0 0
223 0 0
222 0 0
221 0 0
222 0 0
227 0 0
216 0 0
223 0 0
226 0 0
224 0 0
224 0 0
218 0 0
221 0 0
227 0 0
222 0 0
221 0 0
222 0 0
220 0 0
224 0 0
231 0 0
222 0 0
220 0 0
225 0 0
220 0 0
218 0 0
226 0 0
225 0 0
223 0 0
224 0 0
223 0 0
225 0 0
222 0 0
222 0 0
223 0 0
220 0 0
224 0 0
222 0 0
223 0 0
220 0 0
225 0 0
227 0 0
225 0 0
224 0 0
220 0 0
224 0 0
223 0 0
221 0 0
224 0 0
225 0 0
225 0 0
223 0 0
222 0 0
226 0 0
225 0 0
226 0 0
228 0 0
226 0 0
223 0 0
227 0 0
222 0 0
224 0 0
221 0 0
227 0 0
224 0 0
227 0 0
224 0 0
224 0 0
222 0 0
225 0 0
226 0 0
225 0 0
227 0 0
225 0 0
221 0 0
226 0 0
219 0 0
227 0 0
226 0 0
224 0 0
224 0 0
225 0 0
225 0 0
228 0 0
225 0 0
224 0 0
226 0 0
228 0 0
222 0 0
225 0 0
224 0 0
224 0 0
223 0 0
226 0 0
224 0 0
223 0 0
224 0 0
223 0 0
223 0 0
222 0 0
224 0 0
0 0 255
0 0 255
0 0 255
0 0 254
0 0 255
0 0 255
0 0 255
0 0 254
0 0 254
0 0 255
0 0 255
0 0 255
0 0 254
0 0 255
0 0 255
0 0 254
0 0 254
0 0 255
0 0 255
0 0 253
0 0 255
0 0 255
0 0 253
0 0 254
0 0 253
0 0 254
0 0 254
0 0 255
0 0 254
0 0 253
0 0 254
0 0 254
0 0 255
0 0 253
0 0 254
0 0 255
0 0 252
0 0 252
0 0 254
0 0 254
0 0 254
0 0 250
0 0 254
0 0 254
0 0 250
0 0 253
0 0 254
0 0 254
0 0 252
0 0 254
0 0 253
0 0 252
0 0 255
0 0 253
0 0 254
0 0 254
0 0 254
0 0 254
0 0 253
0 0 252
0 0 254
0 0 254
0 0 254
0 0 253
0 0 253
0 0 252
0 0 254
0 0 254
0 0 252
0 0 253
0 0 249
0 0 254
0 0 254
0 0 250
0 0 253
0 0 254
0 0 249
0 0 254
0 0 253
0 0 252
0 0 253
0 0 249
0 0 253
0 0 250
0 0 252
0 0 252
0 0 253
0 0 254
0 0 249
0 0 249
0 0 253
0 0 249
0 0 250
0 0 253
0 0 249
0 0 248
0 0 252
0 0 249
0 0 252
0 0 253
0 0 248
0 0 244
0 0 250
0 0 255
0 0 249
0 0 249
0 0 250
0 0 254
0 0 241
0 0 249
0 0 249
0 0 242
0 0 246
0 0 249
0 0 250
0 0 252
0 0 252
0 0 246
0 0 250
0 0 249
0 0 248
0 0 246
0 0 248
0 0 242
0 0 242
0 0 249
0 0 249
0 0 244
0 0 242
0 0 245
0 0 242
0 0 244
0 0 244
0 0 242
0 0 240
0 0 242
0 0 246
0 0 241
0 0 245
0 0 244
0 0 248
0 0 245
0 0 236
0 0 238
0 0 237
0 0 234
0 0 234
0 0 244
0 0 238
0 0 238
0 0 238
0 0 233
0 0 238
0 0 237
0 0 237
0 0 233
0 0 231
0 0 238
0 0 231
0 0 237
0 0 223
0 0 236
0 0 236
0 0 237
0 0 228
0 0 230
0 0 223
0 0 228
0 0 227
0 0 227
0 0 224
0 0 223
0 0 223
0 0 218
0 0 211
0 0 212
0 0 226
0 0 215
0 0 218
0 0 218
0 0 207
0 0 215
0 0 198
0 0 198
0 0 199
0 0 199
0 0 209
0 0 193
158 164 226
234 243 255
234 243 255
234 243 255
234 243 255
234 243 255
234 243 255
234 243 255
234 243 255
234 243 255
234 243 255
234 243 255
234 243 255
234 243 255
234 243 255
234 243 255
234 243 255
234 243 255
234 243 255
234 243 255
234 243 255
234 243 255
234 243 255
201 166 175
189 0 0
189 0 0
202 0 0
181 0 0
195 0 0
190 0 0
201 0 0
194 0 0
195 0 0
193 0 0
201 0 0
210 0 0
209 0 0
203 0 0
199 0 0
203 0 0
214 0 0
214 0 0
209 0 0
207 0 0
211 0 0
196 0 0
207 0 0
205 0 0
214 0 0
217 0 0
216 0 0
212 0 0
204 0 0
211 0 0
212 0 0
217 0 0
207 0 0
213 0 0
218 0 0
220 0 0
207 0 0
208 0 0
215 0 0
214 0 0
219 0 0
211 0 0
209 0 0
217 0 0
217 0 0
222 0 0
220 0 0
220 0 0
215 0 0
213 0 0
215 0 0
225 0 0
219 0 0
218 0 0
219 0 0
215 0 0
218 0 0
221 0 0
219 0 0
217 0 0
219 0 0
219 0 0
216 0 0
221 0 0
220 0 0
223 0 0
217 0 0
221 0 0
220 0 0
217 0 0
227 0 0
220 0 0
220 0 0
226 0 0
222 0 0
225 0 0
220 0 0
221 0 0
221 0 0
223 0 0
221 0 0
213 0 0
226 0 0
216 0 0
225 0 0
228 0 0
223 0 0
226 0 0
225 0 0
223 0 0
219 0 0
223 0 0
223 0 0
224 0 0
224 0 0
226 0 0
222 0 0
221 0 0
225 0 0
225 0 0
226 0 0
220 0 0
225 0 0
220 0 0
225 0 0
224 0 0
220 0 0
222 0 0
222 0 0
227 0 0
220 0 0
221 0 0
227 0 0
222 0 0
224 0 0
220 0 0
224 0 0
227 0 0
226 0 0
225 0 0
222 0 0
223 0 0
222 0 0
224 0 0
221 0 0
226 0 0
225 0 0
220 0 0
225 0 0
228 0 0
225 0 0
223 0 0
223 0 0
224 0 0
224 0 0
228 0 0
222 0 0
226 0 0
221 0 0
225 0 0
223 0 0
224 0 0
223 0 0
222 0 0
220 0 0
224 0 0
226 0 0
225 0 0
222 0 0
223 0 0
227 0 0
222 0 0
221 0 0
223 0 0
224 0 0
225 0 0
219 0 0
224 0 0
227 0 0
223 0 0
223 0 0
225 0 0
227 0 0
223 0 0
228 0 0
227 0 0
225 0 0
226 0 0
225 0 0
226 0 0
227 0 0
227 0 0
224 0 0
222 0 0
219 0 0
223 0 0
222 0 0
227 0 0
224 0 0
225 0 0
225 0 0
224 0 0
225 0 0
221 0 0
227 0 0
222 0 0
228 0 0
223 0 0
0 0 255
0 0 254
0 0 255
0 0 254
0 0 255
0 0 255
0 0 255
0 0 255
0 0 255
0 0 255
0 0 254
0 0 255
0 0 255
0 0 255
0 0 255
0 0 255
0 0 253
0 0 255
0 0 255
0 0 255
0 0 254
0 0 254
0 0 255
0 0 254
0 0 252
0 0 253
0 0 254
0 0 255
0 0 253
0 0 255
0 0 254
0 0 252
0 0 252
0 0 254
0 0 254
0 0 255
0 0 254
0 0 252
0 0 255
0 0 254
0 0 252
0 0 254
0 0 254
0 0 255
0 0 254
0 0 255
0 0 250
0 0 255
0 0 255
0 0 255
0 0 254
0 0 254
0 0 254
0 0 254
0 0 253
0 0 254
0 0 254
0 0 254
0 0 248
0 0 250
0 0 253
0 0 252
0 0 253
0 0 255
0 0 255
0 0 253
0 0 252
0 0 254
0 0 252
0 0 252
0 0 255
0 0 254
0 0 250
0 0 252
0 0 253
0 0 250
0 0 253
0 0 255
0 0 252
0 0 253
0 0 254
0 0 249
0 0 250
0 0 254
0 0 250
0 0 252
0 0 252
0 0 252
0 0 250
0 0 253
0 0 246
0 0 249
0 0 249
0 0 249
0 0 248
0 0 252
0 0 253
0 0 252
0 0 253
0 0 248
0 0 250
0 0 252
0 0 248
0 0 250
0 0 249
0 0 250
0 0 252
0 0 249
0 0 253
0 0 249
0 0 245
0 0 254
0 0 249
0 0 242
0 0 242
0 0 248
0 0 254
0 0 244
0 0 249
0 0 246
0 0 248
0 0 244
0 0 244
0 0 245
0 0 246
0 0 245
0 0 245
0 0 250
0 0 245
0 0 240
0 0 248
0 0 237
0 0 244
0 0 246
0 0 248
0 0 238
0 0 242
0 0 248
0 0 240
0 0 244
0 0 246
0 0 245
0 0 245
0 0 242
0 0 245
0 0 236
0 0 249
0 0 236
0 0 237
0 0 234
0 0 237
0 0 242
0 0 246
0 0 238
0 0 238
0 0 238
0 0 240
0 0 237
0 0 233
0 0 230
0 0 245
0 0 234
0 0 227
0 0 236
0 0 220
0 0 224
0 0 231
0 0 217
0 0 226
0 0 218
0 0 230
0 0 217
0 0 218
0 0 215
0 0 228
0 0 221
0 0 211
0 0 215
0 0 218
0 0 209
0 0 206
0 0 207
0 0 189
0 0 203
0 0 191
0 0 193
0 0 204
87 91 212
227 235 254
234 243 255
234 243 255
234 243 255
234 243 255
234 243 255
234 243 255
234 243 255
234 243 255
234 243 255
234 243 255
234 243 255
234 243 255
234 243 255
234 243 255
234 243 255
234 243 255
234 243 255
234 243 255
234 243 255
234 243 255
234 243 255
234 243 255
232 239 252
200 91 95
189 0 0
195 0 0
194 0 0
186 0 0
191 0 0
197 0 0
203 0 0
188 0 0
190 0 0
194 0 0
199 0 0
203 0 0
200 0 0
206 0 0
207 0 0
203 0 0
204 0 0
197 0 0
209 0 0
216 0 0
207 0 0
198 0 0
213 0 0
214 0 0
218 0 0
213 0 0
205 0 0
202 0 0
216 0 0
209 0 0
210 0 0
213 0 0
214 0 0
223 0 0
220 0 0
220 0 0
212 0 0
223 0 0
219 0 0
219 0 0
219 0 0
213 0 0
217 0 0
216 0 0
215 0 0
218 0 0
218 0 0
222 0 0
215 0 0
220 0 0
218 0 0
217 0 0
215 0 0
211 0 0
225 0 0
216 0 0
214 0 0
218 0 0
222 0 0
215 0 0
221 0 0
220 0 0
220 0 0
218 0 0
218 0 0
215 0 0
217 0 0
218 0 0
221 0 0
224 0 0
217 0 0
222 0 0
220 0 0
220 0 0
225 0 0
219 0 0
222 0 0
222 0 0
221 0 0
223 0 0
228 0 0
220 0 0
220 0 0
218 0 0
217 0 0
221 0 0
223 0 0
225 0 0
224 0 0
224 0 0
223 0 0
223 0 0
222 0 0
223 0 0
226 0 0
223 0 0
224 0 0
222 0 0
224 0 0
224 0 0
223 0 0
220 0 0
225 0 0
224 0 0
217 0 0
224 0 0
222 0 0
224 0 0
220 0 0
218 0 0
227 0 0
223 0 0
224 0 0
221 0 0
224 0 0
215 0 0
221 0 0
219 0 0
224 0 0
223 0 0
227 0 0
222 0 0
222 0 0
226 0 0
223 0 0
223 0 0
220 0 0
223 0 0
222 0 0
225 0 0
222 0 0
225 0 0
225 0 0
224 0 0
227 0 0
220 0 0
225 0 0
221 0 0
225 0 0
223 0 0
227 0 0
224 0 0
223 0 0
227 0 0
222 0 0
225 0 0
226 0 0
225 0 0
224 0 0
226 0 0
228 0 0
228 0 0
224 0 0
226 0 0
225 0 0
225 0 0
218 0 0
222 0 0
226 0 0
227 0 0
227 0 0
225 0 0
226 0 0
225 0 0
226 0 0
224 0 0
226 0 0
226 0 0
226 0 0
223 0 0
222 0 0
224 0 0
227 0 0
229 0 0
227 0 0
224 0 0
227 0 0
224 0 0
225 0 0
224 0 0
220 0 0
224 0 0
228 0 0
228 0 0
227 0 0
228 0 0
228 0 0
0 0 254
0 0 255
0 0 255
0 0 255
0 0 255
0 0 255
0 0 255
0 0 254
0 0 255
0 0 255
0 0 255
0 0 255
0 0 255
0 0 255
0 0 255
0 0 255
0 0 253
0 0 254
0 0 255
0 0 254
0 0 252
0 0 255
0 0 254
0 0 254
0 0 253
0 0 255
0 0 255
0 0 254
0 0 254
0 0 254
0 0 254
0 0 254
0 0 255
0 0 255
0 0 254
0 0 253
0 0 255
0 0 255
0 0 253
0 0 254
0 0 253
0 0 254
0 0 254
0 0 253
0 0 253
0 0 253
0 0 254
0 0 255
0 0 254
0 0 253
0 0 253
0 0 253
0 0 254
0 0 253
0 0 253
0 0 253
0 0 254
0 0 252
0 0 255
0 0 252
0 0 255
0 0 254
0 0 252
0 0 252
0 0 254
0 0 255
0 0 253
0 0 252
0 0 252
0 0 253
0 0 253
0 0 253
0 0 254
0 0 252
0 0 252
0 0 254
0 0 253
0 0 253
0 0 253
0 0 253
0 0 253
0 0 254
0 0 248
0 0 249
0 0 250
0 0 250
0 0 250
0 0 248
0 0 249
0 0 253
0 0 253
0 0 249
0 0 253
0 0 252
0 0 248
0 0 250
0 0 252
0 0 248
0 0 250
0 0 244
0 0 252
0 0 254
0 0 249
0 0 249
0 0 246
0 0 248
0 0 246
0 0 249
0 0 244
0 0 249
0 0 253
0 0 245
0 0 248
0 0 249
0 0 249
0 0 248
0 0 249
0 0 245
0 0 245
0 0 245
0 0 249
0 0 252
0 0 245
0 0 246
0 0 246
0 0 248
0 0 245
0 0 240
0 0 242
0 0 240
0 0 248
0 0 246
0 0 238
0 0 245
0 0 245
0 0 244
0 0 246
0 0 241
0 0 244
0 0 241
0 0 238
0 0 242
0 0 236
0 0 240
0 0 248
0 0 240
0 0 242
0 0 237
0 0 237
0 0 238
0 0 240
0 0 242
0 0 233
0 0 236
0 0 240
0 0 236
0 0 234
0 0 246
0 0 233
0 0 242
0 0 234
0 0 233
0 0 236
0 0 228
0 0 228
0 0 226
0 0 231
0 0 234
0 0 228
0 0 212
0 0 230
0 0 218
0 0 228
0 0 224
0 0 224
0 0 221
0 0 226
0 0 223
0 0 226
0 0 212
0 0 207
0 0 218
0 0 201
0 0 203
0 0 204
0 0 198
0 0 212
187 194 231
234 243 255
234 243 255
234 243 255
234 243 255
234 243 255
234 243 255
234 243 255
234 243 255
234 243 255
234 243 255
234 243 255
234 243 255
234 243 255
234 243 255
234 243 255
234 243 255
234 243 255
234 243 255
234 243 255
234 243 255
234 243 255
234 243 255
234 243 255
234 243 255
221 203 214
195 0 0
189 0 0
185 0 0
191 0 0
194 0 0
187 0 0
204 0 0
199 0 0
206 0 0
197 0 0
196 0 0
204 0 0
200 0 0
201 0 0
206 0 0
212 0 0
208 0 0
210 0 0
216 0 0
212 0 0
211 0 0
214 0 0
209 0 0
215 0 0
215 0 0
207 0 0
215 0 0
216 0 0
215 0 0
213 0 0
210 0 0
218 0 0
202 0 0
204 0 0
214 0 0
216 0 0
216 0 0
205 0 0
213 0 0
209 0 0
216 0 0
220 0 0
210 0 0
212 0 0
216 0 0
210 0 0
213 0 0
221 0 0
203 0 0
218 0 0
220 0 0
224 0 0
218 0 0
219 0 0
215 0 0
227 0 0
221 0 0
217 0 0
224 0 0
215 0 0
216 0 0
218 0 0
220 0 0
225 0 0
222 0 0
226 0 0
221 0 0
221 0 0
219 0 0
221 0 0
215 0 0
222 0 0
218 0 0
216 0 0
220 0 0
224 0 0
223 0 0
220 0 0
226 0 0
215 0 0
219 0 0
226 0 0
224 0 0
221 0 0
221 0 0
225 0 0
215 0 0
225 0 0
224 0 0
221 0 0
218 0 0
221 0 0
222 0 0
223 0 0
226 0 0
223 0 0
222 0 0
220 0 0
224 0 0
227 0 0
227 0 0
221 0 0
218 0 0
224 0 0
224 0 0
225 0 0
225 0 0
224 0 0
226 0 0
220 0 0
226 0 0
222 0 0
221 0 0
223 0 0
217 0 0
227 0 0
225 0 0
219 0 0
228 0 0
221 0 0
222 0 0
224 0 0
225 0 0
223 0 0
224 0 0
224 0 0
221 0 0
224 0 0
230 0 0
225 0 0
226 0 0
225 0 0
223 0 0
226 0 0
222 0 0
226 0 0
225 0 0
223 0 0
224 0 0
222 0 0
221 0 0
226 0 0
223 0 0
225 0 0
223 0 0
221 0 0
225 0 0
220 0 0
224 0 0
226 0 0
227 0 0
227 0 0
227 0 0
230 0 0
225 0 0
225 0 0
226 0 0
226 0 0
227 0 0
227 0 0
224 0 0
224 0 0
223 0 0
225 0 0
218 0 0
225 0 0
224 0 0
227 0 0
224 0 0
226 0 0
226 0 0
225 0 0
227 0 0
227 0 0
227 0 0
225 0 0
224 0 0
227 0 0
222 0 0
223 0 0
227 0 0
225 0 0
226 0 0
225 0 0
228 0 0
226 0 0
225 0 0
0 0 255
0 0 255
0 0 254
0 0 253
0 0 254
0 0 254
0 0 254
0 0 255
0 0 255
0 0 255
0 0 254
0 0 254
0 0 255
0 0 255
0 0 255
0 0 255
0 0 255
0 0 254
0 0 252
0 0 255
0 0 254
0 0 253
0 0 254
0 0 253
0 0 255
0 0 255
0 0 253
0 0 254
0 0 255
0 0 254
0 0 254
0 0 254
0 0 254
0 0 253
0 0 255
0 0 255
0 0 254
0 0 254
0 0 255
0 0 255
0 0 253
0 0 255
0 0 253
0 0 253
0 0 252
0 0 254
0 0 255
0 0 255
0 0 253
0 0 255
0 0 255
0 0 254
0 0 254
0 0 252
0 0 253
0 0 252
0 0 254
0 0 254
0 0 254
0 0 253
0 0 253
0 0 250
0 0 255
0 0 254
0 0 254
0 0 253
0 0 255
0 0 250
0 0 252
0 0 254
0 0 250
0 0 253
0 0 255
0 0 254
0 0 253
0 0 250
0 0 253
0 0 255
0 0 250
0 0 252
0 0 254
0 0 253
0 0 249
0 0 252
0 0 249
0 0 250
0 0 246
0 0 254
0 0 253
0 0 253
0 0 253
0 0 250
0 0 252
0 0 248
0 0 254
0 0 250
0 0 253
0 0 246
0 0 244
0 0 248
0 0 248
0 0 250
0 0 250
0 0 250
0 0 250
0 0 245
0 0 252
0 0 250
0 0 248
0 0 242
0 0 246
0 0 249
0 0 248
0 0 253
0 0 246
0 0 240
0 0 246
0 0 250
0 0 246
0 0 248
0 0 253
0 0 250
0 0 237
0 0 249
0 0 241
0 0 248
0 0 244
0 0 240
0 0 246
0 0 242
0 0 242
0 0 246
0 0 249
0 0 245
0 0 245
0 0 242
0 0 234
0 0 250
0 0 244
0 0 241
0 0 241
0 0 241
0 0 249
0 0 236
0 0 244
0 0 242
0 0 238
0 0 238
0 0 245
0 0 245
0 0 236
0 0 238
0 0 242
0 0 242
0 0 244
0 0 240
0 0 237
0 0 241
0 0 233
0 0 234
0 0 227
0 0 217
0 0 224
0 0 237
0 0 231
0 0 227
0 0 224
0 0 227
0 0 221
0 0 207
0 0 207
0 0 226
0 0 231
0 0 226
0 0 224
0 0 221
0 0 227
0 0 227
0 0 228
0 0 203
0 0 215
0 0 218
0 0 201
0 0 214
0 0 207
0 0 201
115 119 220
234 243 255
234 243 255
234 243 255
234 243 255
234 243 255
234 243 255
235 243 255
235 243 255
235 243 255
235 243 255
235 243 255
235 243 255
235 243 255
235 243 255
235 243 255
235 243 255
235 243 255
235 243 255
235 243 255
235 243 255
234 243 255
234 243 255
234 243 255
234 243 255
234 243 255
234 243 255
205 121 128
184 0 0
188 0 0
199 0 0
208 0 0
190 0 0
203 0 0
199 0 0
194 0 0
196 0 0
203 0 0
205 0 0
202 0 0
201 0 0
193 0 0
188 0 0
216 0 0
210 0 0
216 0 0
204 0 0
215 0 0
210 0 0
217 0 0
205 0 0
207 0 0
206 0 0
215 0 0
213 0 0
208 0 0
205 0 0
211 0 0
212 0 0
209 0 0
210 0 0
217 0 0
210 0 0
216 0 0
204 0 0
217 0 0
215 0 0
209 0 0
222 0 0
217 0 0
210 0 0
217 0 0
224 0 0
219 0 0
209 0 0
220 0 0
212 0 0
215 0 0
218 0 0
218 0 0
221 0 0
214 0 0
216 0 0
220 0 0
220 0 0
218 0 0
222 0 0
215 0 0
220 0 0
220 0 0
220 0 0
226 0 0
222 0 0
218 0 0
219 0 0
226 0 0
221 0 0
220 0 0
222 0 0
220 0 0
221 0 0
222 0 0
220 0 0
225 0 0
223 0 0
217 0 0
223 0 0
222 0 0
224 0 0
222 0 0
215 0 0
225 0 0
220 0 0
225 0 0
226 0 0
225 0 0
221 0 0
224 0 0
225 0 0
222 0 0
218 0 0
218 0 0
226 0 0
219 0 0
219 0 0
224 0 0
219 0 0
222 0 0
224 0 0
222 0 0
224 0 0
224 0 0
226 0 0
226 0 0
217 0 0
224 0 0
222 0 0
227 0 0
224 0 0
223 0 0
227 0 0
225 0 0
224 0 0
224 0 0
222 0 0
225 0 0
221 0 0
221 0 0
220 0 0
221 0 0
223 0 0
222 0 0
227 0 0
223 0 0
222 0 0
223 0 0
226 0 0
221 0 0
225 0 0
228 0 0
224 0 0
225 0 0
224 0 0
224 0 0
227 0 0
226 0 0
221 0 0
226 0 0
223 0 0
225 0 0
223 0 0
224 0 0
224 0 0
227 0 0
225 0 0
223 0 0
228 0 0
222 0 0
226 0 0
225 0 0
218 0 0
224 0 0
227 0 0
227 0 0
227 0 0
226 0 0
226 0 0
227 0 0
227 0 0
222 0 0
226 0 0
225 0 0
229 0 0
225 0 0
230 0 0
225 0 0
222 0 0
226 0 0
227 0 0
224 0 0
223 0 0
228 0 0
226 0 0
225 0 0
226 0 0
224 0 0
223 0 0
225 0 0
230 0 0
227 0 0
224 0 0
226 0 0
226 0 0
227 0 0
0 0 255
0 0 255
0 0 254
0 0 255
0 0 255
0 0 254
0 0 255
0 0 255
0 0 254
0 0 255
0 0 255
0 0 255
0 0 255
0 0 253
0 0 254
0 0 255
0 0 255
0 0 255
0 0 253
0 0 254
0 0 255
0 0 255
0 0 254
0 0 255
0 0 254
0 0 254
0 0 254
0 0 255
0 0 254
0 0 255
0 0 253
0 0 254
0 0 255
0 0 254
0 0 254
0 0 254
0 0 253
0 0 254
0 0 255
0 0 253
0 0 255
0 0 255
0 0 254
0 0 255
0 0 252
0 0 253
0 0 254
0 0 255
0 0 254
0 0 254
0 0 252
0 0 254
0 0 255
0 0 252
0 0 254
0 0 253
0 0 254
0 0 253
0 0 254
0 0 254
0 0 254
0 0 253
0 0 255
0 0 253
0 0 254
0 0 250
0 0 250
0 0 254
0 0 252
0 0 254
0 0 253
0 0 250
0 0 250
0 0 252
0 0 250
0 0 253
0 0 250
0 0 250
0 0 250
0 0 255
0 0 252
0 0 245
0 0 255
0 0 253
0 0 253
0 0 249
0 0 254
0 0 248
0 0 252
0 0 250
0 0 248
0 0 253
0 0 250
0 0 249
0 0 253
0 0 254
0 0 250
0 0 252
0 0 249
0 0 244
0 0 250
0 0 249
0 0 253
0 0 252
0 0 248
0 0 248
0 0 253
0 0 249
0 0 246
0 0 253
0 0 254
0 0 252
0 0 244
0 0 248
0 0 250
0 0 252
0 0 244
0 0 246
0 0 240
0 0 244
0 0 248
0 0 246
0 0 249
0 0 245
0 0 246
0 0 242
0 0 249
0 0 241
0 0 242
0 0 244
0 0 242
0 0 248
0 0 245
0 0 244
0 0 244
0 0 241
0 0 238
0 0 240
0 0 245
0 0 240
0 0 237
0 0 242
0 0 244
0 0 242
0 0 237
0 0 240
0 0 236
0 0 245
0 0 233
0 0 238
0 0 236
0 0 234
0 0 236
0 0 241
0 0 237
0 0 234
0 0 233
0 0 238
0 0 234
0 0 234
0 0 230
0 0 230
0 0 244
0 0 230
0 0 234
0 0 230
0 0 228
0 0 215
0 0 236
0 0 221
0 0 214
0 0 227
0 0 223
0 0 215
0 0 220
0 0 218
0 0 220
0 0 227
0 0 215
0 0 215
0 0 218
0 0 207
0 0 211
0 0 209
0 0 215
57 59 214
223 231 249
235 243 255
235 243 255
235 243 255
235 243 255
235 243 255
235 243 255
235 243 255
235 243 255
235 243 255
235 243 255
235 243 255
235 243 255
235 243 255
235 243 255
235 243 255
235 243 255
235 243 255
235 243 255
235 243 255
235 243 255
235 243 255
235 243 255
235 243 255
235 243 255
235 243 255
235 243 255
231 219 230
185 54 57
196 0 0
186 0 0
194 0 0
201 0 0
202 0 0
195 0 0
191 0 0
204 0 0
201 0 0
203 0 0
201 0 0
200 0 0
202 0 0
209 0 0
212 0 0
206 0 0
205 0 0
208 0 0
202 0 0
208 0 0
204 0 0
204 0 0
210 0 0
196 0 0
206 0 0
210 0 0
214 0 0
212 0 0
216 0 0
210 0 0
215 0 0
215 0 0
212 0 0
215 0 0
225 0 0
212 0 0
210 0 0
206 0 0
221 0 0
218 0 0
208 0 0
214 0 0
218 0 0
214 0 0
220 0 0
211 0 0
227 0 0
219 0 0
218 0 0
219 0 0
225 0 0
215 0 0
226 0 0
211 0 0
214 0 0
218 0 0
219 0 0
225 0 0
221 0 0
224 0 0
217 0 0
229 0 0
216 0 0
222 0 0
225 0 0
219 0 0
217 0 0
221 0 0
216 0 0
224 0 0
216 0 0
224 0 0
221 0 0
225 0 0
219 0 0
227 0 0
223 0 0
222 0 0
217 0 0
221 0 0
218 0 0
218 0 0
219 0 0
225 0 0
223 0 0
221 0 0
228 0 0
227 0 0
224 0 0
222 0 0
225 0 0
227 0 0
221 0 0
226 0 0
221 0 0
225 0 0
227 0 0
224 0 0
222 0 0
223 0 0
224 0 0
222 0 0
219 0 0
225 0 0
219 0 0
226 0 0
226 0 0
224 0 0
223 0 0
223 0 0
223 0 0
225 0 0
224 0 0
224 0 0
216 0 0
223 0 0
227 0 0
222 0 0
223 0 0
225 0 0
221 0 0
226 0 0
222 0 0
226 0 0
225 0 0
222 0 0
221 0 0
224 0 0
224 0 0
224 0 0
231 0 0
224 0 0
229 0 0
227 0 0
224 0 0
224 0 0
223 0 0
225 0 0
227 0 0
229 0 0
225 0 0
224 0 0
226 0 0
227 0 0
227 0 0
226 0 0
223 0 0
225 0 0
222 0 0
230 0 0
221 0 0
225 0 0
224 0 0
228 0 0
225 0 0
225 0 0
227 0 0
225 0 0
223 0 0
228 0 0
222 0 0
223 0 0
225 0 0
224 0 0
223 0 0
225 0 0
224 0 0
221 0 0
225 0 0
225 0 0
224 0 0
225 0 0
229 0 0
227 0 0
228 0 0
227 0 0
225 0 0
224 0 0
225 0 0
221 0 0
230 0 0
228 0 0
224 0 0
225 0 0
229 0 0
0 0 255
0 0 255
0 0 255
0 0 255
0 0 255
0 0 254
0 0 255
0 0 255
0 0 255
0 0 255
0 0 254
0 0 252
0 0 254
0 0 255
0 0 255
0 0 254
0 0 254
0 0 255
0 0 254
0 0 255
0 0 253
0 0 254
0 0 254
0 0 255
0 0 254
0 0 255
0 0 254
0 0 255
0 0 255
0 0 253
0 0 254
0 0 254
0 0 254
0 0 254
0 0 253
0 0 255
0 0 255
0 0 254
0 0 255
0 0 253
0 0 255
0 0 254
0 0 254
0 0 255
0 0 254
0 0 253
0 0 254
0 0 254
0 0 254
0 0 255
0 0 254
0 0 255
0 0 252
0 0 253
0 0 253
0 0 252
0 0 252
0 0 254
0 0 250
0 0 254
0 0 254
0 0 250
0 0 253
0 0 254
0 0 253
0 0 253
0 0 253
0 0 253
0 0 252
0 0 252
0 0 252
0 0 254
0 0 248
0 0 252
0 0 253
0 0 250
0 0 254
0 0 250
0 0 252
0 0 252
0 0 253
0 0 254
0 0 254
0 0 253
0 0 253
0 0 253
0 0 248
0 0 252
0 0 253
0 0 250
0 0 246
0 0 245
0 0 255
0 0 248
0 0 249
0 0 244
0 0 250
0 0 250
0 0 249
0 0 252
0 0 246
0 0 252
0 0 249
0 0 253
0 0 246
0 0 250
0 0 248
0 0 249
0 0 252
0 0 252
0 0 242
0 0 246
0 0 248
0 0 249
0 0 246
0 0 238
0 0 248
0 0 245
0 0 250
0 0 248
0 0 250
0 0 241
0 0 249
0 0 233
0 0 249
0 0 250
0 0 245
0 0 250
0 0 246
0 0 245
0 0 240
0 0 246
0 0 246
0 0 242
0 0 249
0 0 245
0 0 246
0 0 241
0 0 244
0 0 242
0 0 237
0 0 238
0 0 248
0 0 238
0 0 240
0 0 236
0 0 238
0 0 242
0 0 244
0 0 236
0 0 246
0 0 237
0 0 241
0 0 241
0 0 241
0 0 221
0 0 233
0 0 231
0 0 237
0 0 236
0 0 230
0 0 224
0 0 217
0 0 241
0 0 236
0 0 236
0 0 230
0 0 227
0 0 221
0 0 220
0 0 227
0 0 227
0 0 227
0 0 228
0 0 228
0 0 215
0 0 223
0 0 224
0 0 217
0 0 204
0 0 221
0 0 201
0 0 198
0 0 215
0 0 211
177 184 237
235 243 255
235 243 255
235 243 255
235 243 255
235 243 255
235 243 255
235 243 255
235 243 255
235 243 255
235 243 255
235 243 255
235 243 255
235 243 255
235 243 255
235 243 255
235 243 255
235 243 255
235 243 255
235 243 255
235 243 255
235 243 255
235 243 255
235 243 255
235 243 255
235 243 255
235 243 255
235 243 255
235 243 255
220 177 186
202 0 0
190 0 0
182 0 0
199 0 0
202 0 0
191 0 0
201 0 0
190 0 0
211 0 0
201 0 0
199 0 0
201 0 0
200 0 0
212 0 0
205 0 0
208 0 0
211 0 0
211 0 0
211 0 0
216 0 0
213 0 0
210 0 0
222 0 0
209 0 0
212 0 0
217 0 0
210 0 0
215 0 0
212 0 0
203 0 0
214 0 0
216 0 0
213 0 0
221 0 0
218 0 0
209 0 0
209 0 0
206 0 0
221 0 0
218 0 0
215 0 0
218 0 0
216 0 0
211 0 0
213 0 0
219 0 0
220 0 0
223 0 0
220 0 0
214 0 0
217 0 0
217 0 0
221 0 0
221 0 0
215 0 0
216 0 0
219 0 0
221 0 0
218 0 0
228 0 0
220 0 0
221 0 0
216 0 0
220 0 0
219 0 0
221 0 0
220 0 0
219 0 0
220 0 0
218 0 0
222 0 0
228 0 0
223 0 0
224 0 0
225 0 0
217 0 0
219 0 0
221 0 0
218 0 0
226 0 0
222 0 0
221 0 0
219 0 0
220 0 0
226 0 0
225 0 0
228 0 0
225 0 0
225 0 0
223 0 0
218 0 0
223 0 0
223 0 0
220 0 0
224 0 0
218 0 0
217 0 0
221 0 0
220 0 0
224 0 0
222 0 0
226 0 0
225 0 0
223 0 0
223 0 0
221 0 0
224 0 0
226 0 0
224 0 0
226 0 0
226 0 0
225 0 0
227 0 0
226 0 0
222 0 0
224 0 0
225 0 0
225 0 0
224 0 0
224 0 0
225 0 0
228 0 0
224 0 0
226 0 0
221 0 0
226 0 0
227 0 0
228 0 0
224 0 0
225 0 0
229 0 0
224 0 0
224 0 0
229 0 0
226 0 0
225 0 0
227 0 0
221 0 0
227 0 0
225 0 0
225 0 0
223 0 0
223 0 0
221 0 0
226 0 0
224 0 0
223 0 0
225 0 0
224 0 0
222 0 0
226 0 0
227 0 0
227 0 0
227 0 0
225 0 0
227 0 0
223 0 0
226 0 0
224 0 0
225 0 0
228 0 0
226 0 0
226 0 0
226 0 0
226 0 0
223 0 0
225 0 0
227 0 0
227 0 0
230 0 0
226 0 0
227 0 0
229 0 0
225 0 0
226 0 0
224 0 0
226 0 0
223 0 0
227 0 0
224 0 0
224 0 0
227 0 0
223 0 0
225 0 0
226 0 0
0 0 255
0 0 255
0 0 254
0 0 255
0 0 255
0 0 255
0 0 254
0 0 255
0 0 255
0 0 255
0 0 255
0 0 254
0 0 254
0 0 254
0 0 254
0 0 254
0 0 255
0 0 255
0 0 253
0 0 255
0 0 255
0 0 255
0 0 255
0 0 254
0 0 255
0 0 254
0 0 255
0 0 254
0 0 255
0 0 255
0 0 255
0 0 255
0 0 255
0 0 253
0 0 253
0 0 254
0 0 254
0 0 253
0 0 255
0 0 255
0 0 254
0 0 254
0 0 253
0 0 254
0 0 254
0 0 253
0 0 254
0 0 253
0 0 253
0 0 254
0 0 254
0 0 254
0 0 253
0 0 254
0 0 255
0 0 254
0 0 254
0 0 254
0 0 253
0 0 255
0 0 255
0 0 253
0 0 250
0 0 255
0 0 254
0 0 250
0 0 252
0 0 249
0 0 252
0 0 255
0 0 250
0 0 254
0 0 248
0 0 252
0 0 252
0 0 253
0 0 254
0 0 249
0 0 252
0 0 254
0 0 255
0 0 253
0 0 253
0 0 246
0 0 250
0 0 252
0 0 249
0 0 255
0 0 252
0 0 253
0 0 245
0 0 253
0 0 253
0 0 248
0 0 250
0 0 252
0 0 254
0 0 252
0 0 250
0 0 252
0 0 254
0 0 246
0 0 250
0 0 252
0 0 254
0 0 250
0 0 249
0 0 253
0 0 249
0 0 246
0 0 250
0 0 250
0 0 253
0 0 250
0 0 250
0 0 250
0 0 246
0 0 252
0 0 249
0 0 246
0 0 246
0 0 249
0 0 246
0 0 246
0 0 250
0 0 249
0 0 244
0 0 245
0 0 252
0 0 241
0 0 238
0 0 248
0 0 246
0 0 246
0 0 245
0 0 248
0 0 240
0 0 245
0 0 245
0 0 240
0 0 242
0 0 244
0 0 240
0 0 237
0 0 246
0 0 240
0 0 244
0 0 238
0 0 240
0 0 242
0 0 236
0 0 234
0 0 238
0 0 238
0 0 241
0 0 240
0 0 236
0 0 248
0 0 230
0 0 248
0 0 237
0 0 236
0 0 233
0 0 231
0 0 224
0 0 236
0 0 230
0 0 231
0 0 237
0 0 234
0 0 220
0 0 221
0 0 207
0 0 212
0 0 207
0 0 221
0 0 218
0 0 224
0 0 211
0 0 220
0 0 211
0 0 212
0 0 196
0 0 215
94 97 224
234 242 255
235 244 255
235 244 255
235 244 255
235 244 255
235 244 255
235 244 255
235 244 255
235 244 255
235 244 255
235 244 255
235 244 255
235 244 255
235 244 255
235 244 255
235 244 255
235 244 255
235 244 255
235 244 255
235 244 255
235 244 255
235 244 255
235 244 255
235 244 255
235 244 255
235 244 255
235 244 255
235 244 255
235 244 255
235 241 253
212 100 105
190 0 0
192 0 0
195 0 0
195 0 0
189 0 0
201 0 0
210 0 0
201 0 0
201 0 0
202 0 0
204 0 0
210 0 0
204 0 0
216 0 0
208 0 0
188 0 0
216 0 0
210 0 0
219 0 0
213 0 0
214 0 0
211 0 0
218 0 0
209 0 0
211 0 0
219 0 0
198 0 0
213 0 0
214 0 0
216 0 0
214 0 0
218 0 0
214 0 0
219 0 0
216 0 0
217 0 0
215 0 0
216 0 0
213 0 0
217 0 0
216 0 0
218 0 0
218 0 0
211 0 0
218 0 0
224 0 0
214 0 0
217 0 0
222 0 0
217 0 0
218 0 0
219 0 0
224 0 0
226 0 0
219 0 0
224 0 0
225 0 0
221 0 0
213 0 0
221 0 0
219 0 0
224 0 0
224 0 0
215 0 0
219 0 0
213 0 0
218 0 0
228 0 0
221 0 0
215 0 0
216 0 0
224 0 0
217 0 0
222 0 0
223 0 0
221 0 0
219 0 0
221 0 0
226 0 0
227 0 0
224 0 0
218 0 0
226 0 0
220 0 0
223 0 0
223 0 0
222 0 0
220 0 0
220 0 0
220 0 0
222 0 0
223 0 0
224 0 0
221 0 0
222 0 0
223 0 0
225 0 0
219 0 0
225 0 0
225 0 0
224 0 0
226 0 0
224 0 0
224 0 0
229 0 0
227 0 0
222 0 0
219 0 0
222 0 0
227 0 0
227 0 0
223 0 0
223 0 0
223 0 0
224 0 0
219 0 0
223 0 0
226 0 0
227 0 0
227 0 0
226 0 0
224 0 0
222 0 0
226 0 0
227 0 0
222 0 0
224 0 0
223 0 0
225 0 0
224 0 0
226 0 0
225 0 0
225 0 0
223 0 0
228 0 0
227 0 0
222 0 0
225 0 0
226 0 0
222 0 0
225 0 0
227 0 0
224 0 0
226 0 0
225 0 0
226 0 0
224 0 0
218 0 0
222 0 0
224 0 0
228 0 0
223 0 0
225 0 0
222 0 0
227 0 0
227 0 0
221 0 0
228 0 0
223 0 0
221 0 0
224 0 0
222 0 0
226 0 0
226 0 0
224 0 0
222 0 0
225 0 0
226 0 0
223 0 0
226 0 0
225 0 0
226 0 0
222 0 0
226 0 0
225 0 0
222 0 0
225 0 0
228 0 0
226 0 0
229 0 0
223 0 0
229 0 0
226 0 0
228 0 0
0 0 254
0 0 255
0 0 255
0 0 255
0 0 253
0 0 255
0 0 255
0 0 254
0 0 254
0 0 255
0 0 255
0 0 253
0 0 254
0 0 255
0 0 254
0 0 255
0 0 255
0 0 255
0 0 254
0 0 255
0 0 255
0 0 254
0 0 255
0 0 252
0 0 254
0 0 255
0 0 254
0 0 254
0 0 255
0 0 254
0 0 253
0 0 253
0 0 253
0 0 253
0 0 253
0 0 255
0 0 252
0 0 254
0 0 255
0 0 255
0 0 255
0 0 253
0 0 255
0 0 255
0 0 254
0 0 254
0 0 255
0 0 253
0 0 253
0 0 253
0 0 255
0 0 254
0 0 253
0 0 255
0 0 254
0 0 254
0 0 250
0 0 254
0 0 253
0 0 252
0 0 254
0 0 255
0 0 255
0 0 253
0 0 253
0 0 255
0 0 254
0 0 254
0 0 246
0 0 250
0 0 252
0 0 254
0 0 252
0 0 249
0 0 252
0 0 249
0 0 253
0 0 254
0 0 253
0 0 254
0 0 254
0 0 254
0 0 248
0 0 252
0 0 252
0 0 250
0 0 254
0 0 253
0 0 254
0 0 249
0 0 249
0 0 252
0 0 252
0 0 249
0 0 246
0 0 248
0 0 246
0 0 253
0 0 252
0 0 244
0 0 250
0 0 253
0 0 250
0 0 252
0 0 253
0 0 246
0 0 248
0 0 248
0 0 246
0 0 246
0 0 248
0 0 249
0 0 254
0 0 250
0 0 249
0 0 249
0 0 248
0 0 250
0 0 246
0 0 250
0 0 250
0 0 250
0 0 249
0 0 248
0 0 246
0 0 244
0 0 246
0 0 248
0 0 244
0 0 245
0 0 241
0 0 248
0 0 244
0 0 241
0 0 240
0 0 246
0 0 244
0 0 242
0 0 250
0 0 244
0 0 242
0 0 242
0 0 246
0 0 244
0 0 250
0 0 244
0 0 236
0 0 244
0 0 236
0 0 230
0 0 240
0 0 237
0 0 242
0 0 233
0 0 228
0 0 231
0 0 237
0 0 238
0 0 231
0 0 230
0 0 220
0 0 233
0 0 230
0 0 240
0 0 230
0 0 227
0 0 231
0 0 223
0 0 223
0 0 228
0 0 221
0 0 217
0 0 223
0 0 228
0 0 228
0 0 217
0 0 223
0 0 220
0 0 218
0 0 223
0 0 223
0 0 207
0 0 206
33 34 220
218 226 249
235 244 255
235 244 255
235 244 255
235 244 255
235 244 255
235 244 255
235 244 255
235 244 255
235 244 255
235 244 255
235 244 255
235 244 255
235 244 255
236 244 255
236 244 255
236 244 255
236 244 255
235 244 255
236 244 255
235 244 255
235 244 255
235 244 255
235 244 255
235 244 255
235 244 255
235 244 255
235 244 255
235 244 255
235 244 255
235 244 255
231 227 238
205 48 51
196 0 0
204 0 0
212 0 0
192 0 0
209 0 0
204 0 0
204 0 0
202 0 0
205 0 0
202 0 0
202 0 0
215 0 0
212 0 0
208 0 0
213 0 0
212 0 0
214 0 0
211 0 0
209 0 0
210 0 0
199 0 0
221 0 0
220 0 0
210 0 0
219 0 0
211 0 0
210 0 0
215 0 0
215 0 0
214 0 0
222 0 0
212 0 0
220 0 0
223 0 0
217 0 0
219 0 0
210 0 0
219 0 0
218 0 0
217 0 0
218 0 0
205 0 0
212 0 0
208 0 0
216 0 0
218 0 0
223 0 0
221 0 0
219 0 0
220 0 0
220 0 0
221 0 0
226 0 0
216 0 0
224 0 0
219 0 0
215 0 0
218 0 0
218 0 0
223 0 0
215 0 0
222 0 0
218 0 0
221 0 0
217 0 0
218 0 0
223 0 0
219 0 0
221 0 0
219 0 0
222 0 0
226 0 0
213 0 0
222 0 0
221 0 0
225 0 0
220 0 0
221 0 0
223 0 0
219 0 0
221 0 0
222 0 0
225 0 0
221 0 0
227 0 0
223 0 0
222 0 0
228 0 0
221 0 0
225 0 0
225 0 0
225 0 0
224 0 0
222 0 0
224 0 0
222 0 0
224 0 0
224 0 0
220 0 0
219 0 0
222 0 0
220 0 0
226 0 0
224 0 0
223 0 0
222 0 0
222 0 0
222 0 0
223 0 0
228 0 0
223 0 0
225 0 0
225 0 0
224 0 0
226 0 0
225 0 0
221 0 0
224 0 0
225 0 0
223 0 0
227 0 0
227 0 0
222 0 0
225 0 0
228 0 0
222 0 0
226 0 0
225 0 0
227 0 0
223 0 0
228 0 0
223 0 0
225 0 0
223 0 0
221 0 0
224 0 0
224 0 0
230 0 0
224 0 0
224 0 0
227 0 0
229 0 0
225 0 0
223 0 0
225 0 0
225 0 0
223 0 0
226 0 0
226 0 0
229 0 0
223 0 0
225 0 0
224 0 0
226 0 0
224 0 0
225 0 0
227 0 0
225 0 0
225 0 0
225 0 0
227 0 0
227 0 0
223 0 0
225 0 0
222 0 0
224 0 0
230 0 0
227 0 0
223 0 0
227 0 0
224 0 0
222 0 0
229 0 0
223 0 0
222 0 0
225 0 0
225 0 0
227 0 0
225 0 0
227 0 0
227 0 0
225 0 0
224 0 0
0 0 255
0 0 255
0 0 255
0 0 255
0 0 254
0 0 254
0 0 255
0 0 254
0 0 254
0 0 255
0 0 255
0 0 255
0 0 255
0 0 255
0 0 254
0 0 255
0 0 255
0 0 254
0 0 255
0 0 255
0 0 255
0 0 254
0 0 255
0 0 255
0 0 255
0 0 255
0 0 255
0 0 255
0 0 255
0 0 253
0 0 255
0 0 255
0 0 254
0 0 255
0 0 254
0 0 253
0 0 253
0 0 254
0 0 254
0 0 254
0 0 253
0 0 252
0 0 250
0 0 254
0 0 253
0 0 253
0 0 255
0 0 253
0 0 252
0 0 250
0 0 253
0 0 254
0 0 253
0 0 254
0 0 250
0 0 253
0 0 255
0 0 255
0 0 254
0 0 254
0 0 254
0 0 255
0 0 253
0 0 252
0 0 254
0 0 253
0 0 252
0 0 254
0 0 254
0 0 249
0 0 252
0 0 250
0 0 252
0 0 254
0 0 254
0 0 255
0 0 253
0 0 252
0 0 250
0 0 252
0 0 255
0 0 253
0 0 252
0 0 253
0 0 250
0 0 255
0 0 250
0 0 253
0 0 250
0 0 252
0 0 252
0 0 253
0 0 248
0 0 248
0 0 252
0 0 250
0 0 250
0 0 253
0 0 253
0 0 246
0 0 248
0 0 242
0 0 244
0 0 249
0 0 248
0 0 250
0 0 249
0 0 248
0 0 248
0 0 246
0 0 252
0 0 250
0 0 249
0 0 246
0 0 242
0 0 248
0 0 245
0 0 250
0 0 253
0 0 245
0 0 245
0 0 246
0 0 248
0 0 241
0 0 248
0 0 248
0 0 249
0 0 244
0 0 246
0 0 244
0 0 252
0 0 238
0 0 245
0 0 245
0 0 241
0 0 242
0 0 240
0 0 248
0 0 237
0 0 245
0 0 250
0 0 238
0 0 236
0 0 240
0 0 245
0 0 237
0 0 244
0 0 241
0 0 241
0 0 240
0 0 234
0 0 238
0 0 230
0 0 233
0 0 237
0 0 234
0 0 233
0 0 240
0 0 240
0 0 237
0 0 237
0 0 231
0 0 233
0 0 227
0 0 226
0 0 237
0 0 226
0 0 212
0 0 214
0 0 224
0 0 233
0 0 226
0 0 226
0 0 227
0 0 224
0 0 221
0 0 217
0 0 221
0 0 211
0 0 224
0 0 221
0 0 214
0 0 201
166 172 236
236 244 255
236 244 255
236 244 255
236 244 255
236 244 255
236 244 255
236 244 255
236 244 255
236 244 255
236 244 255
236 244 255
236 244 255
236 244 255
236 244 255
236 244 255
236 244 255
236 244 255
236 244 255
236 244 255
236 244 255
236 244 255
236 244 255
236 244 255
236 244 255
236 244 255
236 244 255
236 244 255
236 244 255
236 244 255
236 244 255
236 244 255
236 244 255
224 181 189
201 0 0
195 0 0
192 0 0
198 0 0
201 0 0
217 0 0
206 0 0
205 0 0
202 0 0
207 0 0
198 0 0
207 0 0
217 0 0
206 0 0
206 0 0
218 0 0
207 0 0
218 0 0
213 0 0
197 0 0
218 0 0
203 0 0
207 0 0
211 0 0
216 0 0
211 0 0
221 0 0
213 0 0
218 0 0
221 0 0
216 0 0
210 0 0
217 0 0
216 0 0
211 0 0
220 0 0
214 0 0
214 0 0
211 0 0
221 0 0
226 0 0
215 0 0
216 0 0
219 0 0
216 0 0
219 0 0
218 0 0
221 0 0
220 0 0
221 0 0
222 0 0
219 0 0
213 0 0
220 0 0
218 0 0
220 0 0
224 0 0
222 0 0
226 0 0
221 0 0
218 0 0
223 0 0
225 0 0
222 0 0
215 0 0
222 0 0
226 0 0
222 0 0
225 0 0
221 0 0
224 0 0
222 0 0
222 0 0
224 0 0
226 0 0
223 0 0
224 0 0
230 0 0
222 0 0
220 0 0
224 0 0
227 0 0
222 0 0
223 0 0
225 0 0
223 0 0
224 0 0
223 0 0
223 0 0
225 0 0
222 0 0
223 0 0
223 0 0
227 0 0
226 0 0
225 0 0
223 0 0
226 0 0
223 0 0
222 0 0
223 0 0
225 0 0
224 0 0
229 0 0
226 0 0
223 0 0
224 0 0
221 0 0
224 0 0
224 0 0
227 0 0
220 0 0
224 0 0
223 0 0
223 0 0
228 0 0
223 0 0
221 0 0
225 0 0
227 0 0
223 0 0
225 0 0
225 0 0
224 0 0
225 0 0
222 0 0
223 0 0
224 0 0
223 0 0
228 0 0
229 0 0
225 0 0
227 0 0
225 0 0
227 0 0
227 0 0
228 0 0
223 0 0
224 0 0
229 0 0
225 0 0
224 0 0
226 0 0
227 0 0
223 0 0
228 0 0
229 0 0
226 0 0
226 0 0
222 0 0
225 0 0
227 0 0
223 0 0
223 0 0
222 0 0
228 0 0
228 0 0
229 0 0
224 0 0
224 0 0
228 0 0
223 0 0
224 0 0
225 0 0
224 0 0
224 0 0
221 0 0
226 0 0
226 0 0
227 0 0
224 0 0
224 0 0
227 0 0
224 0 0
226 0 0
230 0 0
229 0 0
226 0 0
225 0 0
228 0 0
229 0 0
225 0 0
226 0 0
0 0 255
0 0 255
0 0 255
0 0 254
0 0 255
0 0 255
0 0 255
0 0 255
0 0 255
0 0 255
0 0 254
0 0 255
0 0 253
0 0 255
0 0 255
0 0 255
0 0 254
0 0 255
0 0 254
0 0 253
0 0 255
0 0 252
0 0 255
0 0 254
0 0 254
0 0 254
0 0 255
0 0 255
0 0 255
0 0 254
0 0 253
0 0 253
0 0 255
0 0 253
0 0 254
0 0 255
0 0 254
0 0 249
0 0 255
0 0 254
0 0 254
0 0 254
0 0 253
0 0 253
0 0 253
0 0 255
0 0 253
0 0 253
0 0 255
0 0 254
0 0 255
0 0 254
0 0 253
0 0 249
0 0 253
0 0 254
0 0 253
0 0 253
0 0 252
0 0 254
0 0 252
0 0 254
0 0 254
0 0 252
0 0 254
0 0 254
0 0 254
0 0 254
0 0 248
0 0 252
0 0 252
0 0 252
0 0 252
0 0 253
0 0 249
0 0 253
0 0 255
0 0 253
0 0 252
0 0 253
0 0 255
0 0 250
0 0 254
0 0 250
0 0 250
0 0 253
0 0 253
0 0 252
0 0 253
0 0 249
0 0 249
0 0 250
0 0 248
0 0 253
0 0 250
0 0 255
0 0 253
0 0 249
0 0 252
0 0 250
0 0 246
0 0 253
0 0 250
0 0 252
0 0 248
0 0 242
0 0 248
0 0 246
0 0 248
0 0 248
0 0 253
0 0 245
0 0 242
0 0 252
0 0 248
0 0 245
0 0 245
0 0 254
0 0 255
0 0 252
0 0 244
0 0 246
0 0 244
0 0 249
0 0 248
0 0 245
0 0 249
0 0 248
0 0 244
0 0 245
0 0 248
0 0 249
0 0 244
0 0 248
0 0 238
0 0 244
0 0 246
0 0 237
0 0 245
0 0 245
0 0 240
0 0 240
0 0 242
0 0 245
0 0 240
0 0 236
0 0 240
0 0 244
0 0 245
0 0 237
0 0 238
0 0 249
0 0 242
0 0 234
0 0 238
0 0 236
0 0 238
0 0 237
0 0 244
0 0 233
0 0 240
0 0 231
0 0 242
0 0 234
0 0 242
0 0 241
0 0 223
0 0 238
0 0 221
0 0 231
0 0 212
0 0 224
0 0 226
0 0 226
0 0 224
0 0 220
0 0 223
0 0 214
0 0 220
0 0 221
0 0 220
0 0 231
129 133 237
236 244 255
236 244 255
236 244 255
236 244 255
236 244 255
236 244 255
236 244 255
236 244 255
236 244 255
236 244 255
236 244 255
236 244 255
236 244 255
236 244 255
236 244 255
236 244 255
236 244 255
236 244 255
236 244 255
236 244 255
236 244 255
236 244 255
236 244 255
236 244 255
236 244 255
236 244 255
236 244 255
236 244 255
236 244 255
236 244 255
236 244 255
236 244 255
236 244 255
236 244 255
216 133 140
197 0 0
195 0 0
202 0 0
211 0 0
213 0 0
203 0 0
203 0 0
200 0 0
204 0 0
201 0 0
207 0 0
205 0 0
208 0 0
215 0 0
211 0 0
201 0 0
211 0 0
212 0 0
213 0 0
214 0 0
212 0 0
203 0 0
221 0 0
211 0 0
217 0 0
217 0 0
223 0 0
219 0 0
223 0 0
215 0 0
213 0 0
220 0 0
217 0 0
216 0 0
220 0 0
213 0 0
225 0 0
220 0 0
214 0 0
222 0 0
219 0 0
221 0 0
218 0 0
218 0 0
216 0 0
213 0 0
222 0 0
218 0 0
220 0 0
218 0 0
221 0 0
216 0 0
223 0 0
219 0 0
219 0 0
217 0 0
220 0 0
223 0 0
223 0 0
220 0 0
218 0 0
224 0 0
220 0 0
224 0 0
224 0 0
224 0 0
223 0 0
223 0 0
220 0 0
223 0 0
220 0 0
225 0 0
226 0 0
224 0 0
222 0 0
222 0 0
222 0 0
228 0 0
219 0 0
219 0 0
218 0 0
221 0 0
228 0 0
225 0 0
226 0 0
225 0 0
219 0 0
223 0 0
220 0 0
225 0 0
226 0 0
221 0 0
220 0 0
222 0 0
225 0 0
228 0 0
225 0 0
227 0 0
224 0 0
227 0 0
226 0 0
228 0 0
224 0 0
223 0 0
222 0 0
224 0 0
226 0 0
223 0 0
227 0 0
226 0 0
223 0 0
227 0 0
226 0 0
225 0 0
224 0 0
226 0 0
224 0 0
227 0 0
226 0 0
225 0 0
223 0 0
226 0 0
226 0 0
229 0 0
227 0 0
225 0 0
228 0 0
226 0 0
223 0 0
227 0 0
227 0 0
224 0 0
230 0 0
224 0 0
229 0 0
225 0 0
225 0 0
224 0 0
227 0 0
226 0 0
229 0 0
227 0 0
225 0 0
229 0 0
224 0 0
223 0 0
225 0 0
224 0 0
228 0 0
230 0 0
225 0 0
227 0 0
224 0 0
224 0 0
225 0 0
227 0 0
229 0 0
226 0 0
226 0 0
229 0 0
230 0 0
225 0 0
226 0 0
226 0 0
225 0 0
222 0 0
225 0 0
228 0 0
229 0 0
228 0 0
227 0 0
225 0 0
225 0 0
223 0 0
224 0 0
225 0 0
226 0 0
226 0 0
226 0 0
225 0 0
225 0 0
224 0 0
0 0 255
0 0 255
0 0 253
0 0 255
0 0 254
0 0 254
0 0 255
0 0 255
0 0 254
0 0 255
0 0 255
0 0 255
0 0 255
0 0 253
0 0 255
0 0 255
0 0 255
0 0 255
0 0 253
0 0 255
0 0 255
0 0 254
0 0 255
0 0 254
0 0 255
0 0 253
0 0 255
0 0 253
0 0 253
0 0 254
0 0 255
0 0 253
0 0 254
0 0 255
0 0 254
0 0 254
0 0 252
0 0 255
0 0 255
0 0 255
0 0 255
0 0 254
0 0 252
0 0 254
0 0 255
0 0 254
0 0 255
0 0 253
0 0 252
0 0 255
0 0 252
0 0 253
0 0 253
0 0 253
0 0 254
0 0 254
0 0 255
0 0 252
0 0 255
0 0 253
0 0 250
0 0 254
0 0 255
0 0 253
0 0 252
0 0 252
0 0 253
0 0 252
0 0 252
0 0 254
0 0 253
0 0 254
0 0 250
0 0 252
0 0 249
0 0 252
0 0 254
0 0 254
0 0 253
0 0 253
0 0 252
0 0 250
0 0 250
0 0 253
0 0 250
0 0 252
0 0 250
0 0 250
0 0 250
0 0 253
0 0 252
0 0 250
0 0 254
0 0 250
0 0 254
0 0 250
0 0 254
0 0 254
0 0 252
0 0 246
0 0 252
0 0 250
0 0 253
0 0 253
0 0 249
0 0 249
0 0 250
0 0 252
0 0 249
0 0 252
0 0 245
0 0 250
0 0 244
0 0 250
0 0 252
0 0 248
0 0 252
0 0 249
0 0 246
0 0 252
0 0 244
0 0 246
0 0 249
0 0 252
0 0 249
0 0 248
0 0 242
0 0 240
0 0 242
0 0 250
0 0 245
0 0 238
0 0 245
0 0 250
0 0 242
0 0 242
0 0 244
0 0 246
0 0 238
0 0 241
0 0 245
0 0 246
0 0 242
0 0 248
0 0 237
0 0 245
0 0 240
0 0 242
0 0 253
0 0 244
0 0 237
0 0 237
0 0 237
0 0 231
0 0 233
0 0 242
0 0 228
0 0 234
0 0 231
0 0 242
0 0 237
0 0 228
0 0 237
0 0 226
0 0 228
0 0 230
0 0 226
0 0 233
0 0 236
0 0 226
0 0 220
0 0 224
0 0 224
0 0 234
0 0 230
0 0 223
0 0 215
0 0 228
0 0 227
0 0 220
0 0 212
88 91 217
224 231 253
236 244 255
236 244 255
236 244 255
236 244 255
236 244 255
236 244 255
236 244 255
236 244 255
236 244 255
236 244 255
236 244 255
236 244 255
236 244 255
236 244 255
236 244 255
236 244 255
236 244 255
236 244 255
236 244 255
236 244 255
236 244 255
236 244 255
236 244 255
236 244 255
236 244 255
236 244 255
236 244 255
236 244 255
236 244 255
236 244 255
236 244 255
236 244 255
236 244 255
236 244 255
232 231 242
207 59 62
204 0 0
208 0 0
202 0 0
206 0 0
202 0 0
211 0 0
209 0 0
206 0 0
204 0 0
208 0 0
208 0 0
215 0 0
215 0 0
210 0 0
208 0 0
205 0 0
214 0 0
204 0 0
211 0 0
212 0 0
216 0 0
214 0 0
213 0 0
210 0 0
204 0 0
204 0 0
213 0 0
218 0 0
214 0 0
217 0 0
215 0 0
212 0 0
217 0 0
219 0 0
214 0 0
226 0 0
216 0 0
214 0 0
222 0 0
220 0 0
223 0 0
221 0 0
226 0 0
222 0 0
221 0 0
224 0 0
221 0 0
211 0 0
219 0 0
222 0 0
220 0 0
222 0 0
221 0 0
212 0 0
224 0 0
221 0 0
222 0 0
223 0 0
221 0 0
219 0 0
220 0 0
226 0 0
225 0 0
219 0 0
218 0 0
221 0 0
223 0 0
222 0 0
228 0 0
220 0 0
225 0 0
222 0 0
223 0 0
215 0 0
227 0 0
223 0 0
224 0 0
224 0 0
223 0 0
226 0 0
227 0 0
226 0 0
223 0 0
223 0 0
228 0 0
224 0 0
224 0 0
222 0 0
223 0 0
227 0 0
221 0 0
224 0 0
220 0 0
225 0 0
225 0 0
224 0 0
226 0 0
222 0 0
226 0 0
220 0 0
228 0 0
224 0 0
225 0 0
223 0 0
225 0 0
225 0 0
225 0 0
226 0 0
225 0 0
224 0 0
227 0 0
225 0 0
226 0 0
223 0 0
226 0 0
227 0 0
220 0 0
227 0 0
220 0 0
225 0 0
229 0 0
228 0 0
227 0 0
225 0 0
228 0 0
227 0 0
220 0 0
225 0 0
224 0 0
225 0 0
227 0 0
226 0 0
229 0 0
226 0 0
223 0 0
226 0 0
226 0 0
227 0 0
223 0 0
225 0 0
224 0 0
228 0 0
227 0 0
224 0 0
227 0 0
225 0 0
224 0 0
224 0 0
224 0 0
226 0 0
225 0 0
222 0 0
224 0 0
224 0 0
228 0 0
225 0 0
226 0 0
227 0 0
228 0 0
226 0 0
226 0 0
227 0 0
223 0 0
229 0 0
224 0 0
229 0 0
223 0 0
225 0 0
224 0 0
225 0 0
226 0 0
229 0 0
224 0 0
227 0 0
227 0 0
229 0 0
225 0 0
225 0 0
227 0 0
227 0 0
228 0 0
0 0 254
0 0 255
0 0 255
0 0 255
0 0 255
0 0 255
0 0 254
0 0 255
0 0 254
0 0 254
0 0 255
0 0 255
0 0 254
0 0 255
0 0 254
0 0 255
0 0 255
0 0 254
0 0 255
0 0 254
0 0 255
0 0 254
0 0 255
0 0 254
0 0 254
0 0 255
0 0 254
0 0 255
0 0 253
0 0 254
0 0 255
0 0 255
0 0 255
0 0 255
0 0 254
0 0 254
0 0 255
0 0 255
0 0 255
0 0 255
0 0 255
0 0 253
0 0 255
0 0 253
0 0 254
0 0 254
0 0 253
0 0 254
0 0 255
0 0 253
0 0 255
0 0 255
0 0 252
0 0 253
0 0 253
0 0 253
0 0 252
0 0 254
0 0 255
0 0 253
0 0 254
0 0 254
0 0 253
0 0 252
0 0 250
0 0 249
0 0 254
0 0 254
0 0 252
0 0 250
0 0 254
0 0 249
0 0 253
0 0 254
0 0 252
0 0 255
0 0 253
0 0 255
0 0 253
0 0 253
0 0 253
0 0 252
0 0 250
0 0 249
0 0 246
0 0 250
0 0 255
0 0 254
0 0 253
0 0 253
0 0 250
0 0 254
0 0 252
0 0 253
0 0 249
0 0 250
0 0 250
0 0 248
0 0 250
0 0 253
0 0 253
0 0 246
0 0 250
0 0 252
0 0 249
0 0 248
0 0 253
0 0 255
0 0 246
0 0 246
0 0 245
0 0 249
0 0 248
0 0 249
0 0 245
0 0 246
0 0 252
0 0 252
0 0 242
0 0 248
0 0 248
0 0 246
0 0 244
0 0 241
0 0 249
0 0 246
0 0 248
0 0 249
0 0 242
0 0 248
0 0 245
0 0 242
0 0 236
0 0 242
0 0 245
0 0 242
0 0 238
0 0 242
0 0 245
0 0 250
0 0 234
0 0 238
0 0 244
0 0 241
0 0 250
0 0 246
0 0 245
0 0 237
0 0 240
0 0 238
0 0 238
0 0 245
0 0 245
0 0 249
0 0 226
0 0 241
0 0 244
0 0 233
0 0 237
0 0 234
0 0 238
0 0 231
0 0 240
0 0 240
0 0 237
0 0 226
0 0 223
0 0 240
0 0 228
0 0 228
0 0 241
0 0 226
0 0 227
0 0 224
0 0 233
0 0 226
0 0 211
0 0 211
0 0 218
0 0 220
23 24 217
214 221 252
236 244 255
236 244 255
236 244 255
236 244 255
236 244 255
236 244 255
236 244 255
236 244 255
236 244 255
236 244 255
236 244 255
236 244 255
236 244 255
236 244 255
236 244 255
236 244 255
236 244 255
236 244 255
236 244 255
236 244 255
236 244 255
236 244 255
236 244 255
236 244 255
236 244 255
236 244 255
236 244 255
236 244 255
236 244 255
236 244 255
236 244 255
236 244 255
236 244 255
236 244 255
236 244 255
236 244 255
231 217 227
205 24 25
203 0 0
203 0 0
196 0 0
202 0 0
210 0 0
214 0 0
209 0 0
203 0 0
213 0 0
206 0 0
206 0 0
207 0 0
221 0 0
205 0 0
204 0 0
218 0 0
217 0 0
220 0 0
217 0 0
210 0 0
213 0 0
219 0 0
222 0 0
219 0 0
210 0 0
216 0 0
218 0 0
207 0 0
214 0 0
221 0 0
214 0 0
224 0 0
219 0 0
219 0 0
209 0 0
213 0 0
222 0 0
225 0 0
217 0 0
216 0 0
204 0 0
211 0 0
213 0 0
216 0 0
224 0 0
221 0 0
214 0 0
211 0 0
221 0 0
225 0 0
220 0 0
225 0 0
226 0 0
217 0 0
218 0 0
221 0 0
217 0 0
226 0 0
227 0 0
225 0 0
218 0 0
221 0 0
222 0 0
222 0 0
219 0 0
219 0 0
219 0 0
223 0 0
224 0 0
224 0 0
219 0 0
226 0 0
223 0 0
222 0 0
224 0 0
224 0 0
228 0 0
227 0 0
223 0 0
220 0 0
225 0 0
225 0 0
220 0 0
224 0 0
229 0 0
223 0 0
224 0 0
227 0 0
223 0 0
221 0 0
226 0 0
223 0 0
224 0 0
222 0 0
223 0 0
225 0 0
221 0 0
223 0 0
224 0 0
226 0 0
223 0 0
229 0 0
227 0 0
228 0 0
226 0 0
228 0 0
225 0 0
225 0 0
225 0 0
223 0 0
225 0 0
230 0 0
226 0 0
225 0 0
224 0 0
225 0 0
225 0 0
226 0 0
225 0 0
226 0 0
221 0 0
223 0 0
224 0 0
227 0 0
227 0 0
226 0 0
226 0 0
232 0 0
224 0 0
222 0 0
228 0 0
230 0 0
226 0 0
226 0 0
227 0 0
224 0 0
223 0 0
228 0 0
225 0 0
227 0 0
229 0 0
225 0 0
225 0 0
227 0 0
225 0 0
226 0 0
229 0 0
224 0 0
229 0 0
227 0 0
226 0 0
225 0 0
225 0 0
226 0 0
225 0 0
227 0 0
226 0 0
226 0 0
225 0 0
223 0 0
223 0 0
226 0 0
220 0 0
227 0 0
227 0 0
227 0 0
228 0 0
226 0 0
226 0 0
228 0 0
226 0 0
228 0 0
227 0 0
229 0 0
227 0 0
228 0 0
227 0 0
228 0 0
226 0 0
226 0 0
0 0 254
0 0 255
0 0 253
0 0 252
0 0 255
0 0 255
0 0 254
0 0 255
0 0 255
0 0 255
0 0 255
0 0 254
0 0 255
0 0 254
0 0 254
0 0 255
0 0 255
0 0 253
0 0 254
0 0 255
0 0 255
0 0 255
0 0 253
0 0 255
0 0 255
0 0 254
0 0 255
0 0 255
0 0 255
0 0 255
0 0 255
0 0 255
0 0 254
0 0 255
0 0 254
0 0 254
0 0 253
0 0 255
0 0 254
0 0 254
0 0 255
0 0 252
0 0 253
0 0 254
0 0 254
0 0 253
0 0 254
0 0 254
0 0 253
0 0 253
0 0 248
0 0 253
0 0 253
0 0 255
0 0 254
0 0 252
0 0 255
0 0 254
0 0 254
0 0 253
0 0 253
0 0 253
0 0 252
0 0 254
0 0 255
0 0 252
0 0 252
0 0 248
0 0 250
0 0 253
0 0 250
0 0 253
0 0 254
0 0 255
0 0 254
0 0 254
0 0 254
0 0 252
0 0 244
0 0 252
0 0 248
0 0 250
0 0 252
0 0 254
0 0 254
0 0 249
0 0 253
0 0 252
0 0 254
0 0 252
0 0 249
0 0 253
0 0 250
0 0 245
0 0 252
0 0 250
0 0 252
0 0 246
0 0 249
0 0 250
0 0 249
0 0 250
0 0 252
0 0 248
0 0 250
0 0 252
0 0 244
0 0 252
0 0 252
0 0 246
0 0 250
0 0 248
0 0 248
0 0 250
0 0 249
0 0 250
0 0 253
0 0 245
0 0 248
0 0 244
0 0 253
0 0 238
0 0 242
0 0 245
0 0 252
0 0 242
0 0 245
0 0 245
0 0 253
0 0 244
0 0 241
0 0 249
0 0 241
0 0 242
0 0 236
0 0 246
0 0 241
0 0 245
0 0 242
0 0 238
0 0 244
0 0 248
0 0 246
0 0 246
0 0 242
0 0 245
0 0 236
0 0 244
0 0 242
0 0 244
0 0 242
0 0 236
0 0 234
0 0 244
0 0 242
0 0 237
0 0 245
0 0 233
0 0 240
0 0 237
0 0 228
0 0 234
0 0 237
0 0 230
0 0 238
0 0 240
0 0 224
0 0 234
0 0 226
0 0 231
0 0 233
0 0 217
0 0 226
0 0 231
0 0 226
0 0 221
0 0 218
0 0 203
0 0 215
0 0 223
175 181 248
236 244 255
237 244 255
237 244 255
237 244 255
237 244 255
237 244 255
237 244 255
237 244 255
237 244 255
237 244 255
237 244 255
237 244 255
237 244 255
237 244 255
237 244 255
237 244 255
237 244 255
237 244 255
237 244 255
237 244 255
237 244 255
237 244 255
237 244 255
237 244 255
237 244 255
237 244 255
237 244 255
237 244 255
237 244 255
237 244 255
237 244 255
237 244 255
237 244 255
237 244 255
237 244 255
237 244 255
237 244 255
236 244 255
221 181 189
208 0 0
195 0 0
209 0 0
213 0 0
205 0 0
206 0 0
216 0 0
211 0 0
218 0 0
215 0 0
208 0 0
222 0 0
203 0 0
207 0 0
213 0 0
215 0 0
208 0 0
214 0 0
213 0 0
216 0 0
218 0 0
212 0 0
217 0 0
221 0 0
219 0 0
218 0 0
212 0 0
217 0 0
211 0 0
206 0 0
222 0 0
220 0 0
218 0 0
218 0 0
217 0 0
216 0 0
214 0 0
222 0 0
223 0 0
213 0 0
214 0 0
221 0 0
203 0 0
219 0 0
222 0 0
219 0 0
222 0 0
222 0 0
217 0 0
224 0 0
221 0 0
223 0 0
220 0 0
223 0 0
227 0 0
220 0 0
221 0 0
220 0 0
217 0 0
225 0 0
225 0 0
225 0 0
228 0 0
224 0 0
221 0 0
222 0 0
225 0 0
222 0 0
225 0 0
227 0 0
228 0 0
225 0 0
224 0 0
218 0 0
221 0 0
222 0 0
222 0 0
226 0 0
223 0 0
225 0 0
227 0 0
219 0 0
221 0 0
215 0 0
223 0 0
219 0 0
225 0 0
224 0 0
228 0 0
224 0 0
225 0 0
227 0 0
224 0 0
224 0 0
225 0 0
227 0 0
225 0 0
228 0 0
225 0 0
224 0 0
229 0 0
221 0 0
220 0 0
224 0 0
226 0 0
226 0 0
227 0 0
226 0 0
224 0 0
223 0 0
225 0 0
221 0 0
226 0 0
221 0 0
224 0 0
223 0 0
225 0 0
227 0 0
228 0 0
225 0 0
229 0 0
223 0 0
226 0 0
226 0 0
221 0 0
224 0 0
224 0 0
227 0 0
228 0 0
225 0 0
222 0 0
225 0 0
227 0 0
227 0 0
225 0 0
226 0 0
227 0 0
226 0 0
224 0 0
224 0 0
226 0 0
225 0 0
222 0 0
225 0 0
228 0 0
227 0 0
225 0 0
224 0 0
225 0 0
226 0 0
227 0 0
227 0 0
225 0 0
222 0 0
229 0 0
227 0 0
223 0 0
226 0 0
228 0 0
224 0 0
225 0 0
223 0 0
229 0 0
226 0 0
228 0 0
229 0 0
223 0 0
226 0 0
221 0 0
226 0 0
227 0 0
224 0 0
228 0 0
224 0 0
222 0 0
227 0 0
227 0 0
228 0 0
227 0 0
228 0 0
0 0 253
0 0 255
0 0 255
0 0 255
0 0 254
0 0 255
0 0 255
0 0 255
0 0 255
0 0 255
0 0 255
0 0 254
0 0 255
0 0 254
0 0 253
0 0 255
0 0 254
0 0 254
0 0 254
0 0 254
0 0 255
0 0 254
0 0 254
0 0 255
0 0 255
0 0 255
0 0 255
0 0 254
0 0 254
0 0 254
0 0 254
0 0 255
0 0 255
0 0 253
0 0 253
0 0 254
0 0 255
0 0 252
0 0 254
0 0 255
0 0 254
0 0 253
0 0 255
0 0 254
0 0 254
0 0 254
0 0 255
0 0 254
0 0 254
0 0 255
0 0 250
0 0 254
0 0 252
0 0 254
0 0 254
0 0 250
0 0 253
0 0 252
0 0 254
0 0 254
0 0 250
0 0 254
0 0 252
0 0 255
0 0 255
0 0 250
0 0 254
0 0 253
0 0 250
0 0 255
0 0 252
0 0 254
0 0 253
0 0 252
0 0 253
0 0 255
0 0 254
0 0 254
0 0 254
0 0 255
0 0 253
0 0 253
0 0 249
0 0 253
0 0 252
0 0 253
0 0 252
0 0 253
0 0 252
0 0 250
0 0 249
0 0 245
0 0 253
0 0 250
0 0 249
0 0 244
0 0 252
0 0 250
0 0 253
0 0 252
0 0 249
0 0 249
0 0 250
0 0 252
0 0 248
0 0 246
0 0 253
0 0 245
0 0 241
0 0 242
0 0 253
0 0 246
0 0 252
0 0 249
0 0 248
0 0 252
0 0 249
0 0 250
0 0 253
0 0 249
0 0 248
0 0 250
0 0 248
0 0 246
0 0 250
0 0 249
0 0 252
0 0 241
0 0 245
0 0 249
0 0 249
0 0 252
0 0 242
0 0 238
0 0 246
0 0 246
0 0 238
0 0 236
0 0 240
0 0 244
0 0 242
0 0 238
0 0 252
0 0 241
0 0 242
0 0 241
0 0 242
0 0 240
0 0 241
0 0 234
0 0 242
0 0 240
0 0 227
0 0 241
0 0 240
0 0 240
0 0 237
0 0 241
0 0 240
0 0 231
0 0 237
0 0 242
0 0 245
0 0 227
0 0 233
0 0 231
0 0 223
0 0 226
0 0 218
0 0 230
0 0 236
0 0 217
0 0 227
0 0 228
0 0 223
0 0 223
0 0 227
0 0 224
0 0 227
144 148 234
234 242 255
237 244 255
237 244 255
237 244 255
237 244 255
237 244 255
237 244 255
237 244 255
237 244 255
237 244 255
237 244 255
237 244 255
237 244 255
237 244 255
237 244 255
237 244 255
237 244 255
237 244 255
237 244 255
237 244 255
237 244 255
237 244 255
237 244 255
237 244 255
237 244 255
237 244 255
237 244 255
237 244 255
237 244 255
237 244 255
237 244 255
237 244 255
237 244 255
237 244 255
237 244 255
237 244 255
237 244 255
237 244 255
237 244 255
237 244 255
213 136 142
218 0 0
218 0 0
201 0 0
209 0 0
198 0 0
214 0 0
216 0 0
210 0 0
219 0 0
217 0 0
213 0 0
223 0 0
212 0 0
220 0 0
212 0 0
211 0 0
218 0 0
209 0 0
216 0 0
216 0 0
212 0 0
224 0 0
211 0 0
212 0 0
214 0 0
218 0 0
215 0 0
221 0 0
221 0 0
220 0 0
227 0 0
218 0 0
226 0 0
217 0 0
223 0 0
219 0 0
218 0 0
219 0 0
219 0 0
221 0 0
218 0 0
223 0 0
220 0 0
220 0 0
216 0 0
217 0 0
214 0 0
223 0 0
217 0 0
228 0 0
220 0 0
225 0 0
224 0 0
222 0 0
219 0 0
227 0 0
225 0 0
221 0 0
224 0 0
215 0 0
228 0 0
224 0 0
224 0 0
226 0 0
220 0 0
223 0 0
218 0 0
225 0 0
225 0 0
227 0 0
224 0 0
221 0 0
222 0 0
224 0 0
221 0 0
222 0 0
218 0 0
218 0 0
220 0 0
222 0 0
224 0 0
228 0 0
228 0 0
226 0 0
226 0 0
227 0 0
220 0 0
226 0 0
220 0 0
226 0 0
225 0 0
227 0 0
223 0 0
226 0 0
226 0 0
225 0 0
223 0 0
226 0 0
222 0 0
223 0 0
220 0 0
230 0 0
222 0 0
224 0 0
219 0 0
224 0 0
225 0 0
220 0 0
224 0 0
221 0 0
224 0 0
225 0 0
226 0 0
227 0 0
225 0 0
229 0 0
226 0 0
227 0 0
226 0 0
224 0 0
226 0 0
227 0 0
224 0 0
222 0 0
219 0 0
225 0 0
224 0 0
228 0 0
222 0 0
227 0 0
222 0 0
227 0 0
227 0 0
228 0 0
229 0 0
224 0 0
224 0 0
226 0 0
227 0 0
227 0 0
224 0 0
228 0 0
226 0 0
226 0 0
225 0 0
227 0 0
228 0 0
226 0 0
228 0 0
225 0 0
226 0 0
228 0 0
223 0 0
227 0 0
224 0 0
226 0 0
227 0 0
223 0 0
227 0 0
224 0 0
224 0 0
227 0 0
225 0 0
225 0 0
229 0 0
225 0 0
227 0 0
226 0 0
227 0 0
223 0 0
224 0 0
223 0 0
223 0 0
227 0 0
227 0 0
222 0 0
226 0 0
229 0 0
227 0 0
0 0 254
0 0 255
0 0 255
0 0 255
0 0 255
0 0 255
0 0 253
0 0 255
0 0 254
0 0 255
0 0 255
0 0 255
0 0 254
0 0 255
0 0 254
0 0 255
0 0 255
0 0 255
0 0 255
0 0 253
0 0 254
0 0 255
0 0 252
0 0 253
0 0 253
0 0 255
0 0 254
0 0 254
0 0 255
0 0 254
0 0 254
0 0 255
0 0 255
0 0 254
0 0 254
0 0 254
0 0 255
0 0 254
0 0 254
0 0 255
0 0 255
0 0 255
0 0 255
0 0 255
0 0 255
0 0 255
0 0 254
0 0 252
0 0 252
0 0 254
0 0 254
0 0 253
0 0 253
0 0 255
0 0 254
0 0 255
0 0 253
0 0 254
0 0 253
0 0 253
0 0 252
0 0 254
0 0 253
0 0 254
0 0 255
0 0 255
0 0 254
0 0 255
0 0 254
0 0 255
0 0 249
0 0 252
0 0 250
0 0 250
0 0 249
0 0 252
0 0 253
0 0 255
0 0 249
0 0 249
0 0 255
0 0 250
0 0 252
0 0 254
0 0 253
0 0 254
0 0 246
0 0 250
0 0 250
0 0 248
0 0 250
0 0 252
0 0 250
0 0 252
0 0 253
0 0 249
0 0 246
0 0 250
0 0 250
0 0 249
0 0 252
0 0 250
0 0 252
0 0 252
0 0 249
0 0 246
0 0 252
0 0 248
0 0 252
0 0 253
0 0 252
0 0 249
0 0 250
0 0 250
0 0 253
0 0 249
0 0 249
0 0 250
0 0 245
0 0 252
0 0 242
0 0 242
0 0 242
0 0 253
0 0 244
0 0 250
0 0 250
0 0 241
0 0 245
0 0 241
0 0 242
0 0 253
0 0 246
0 0 242
0 0 245
0 0 249
0 0 248
0 0 245
0 0 246
0 0 244
0 0 242
0 0 242
0 0 238
0 0 244
0 0 244
0 0 230
0 0 242
0 0 245
0 0 237
0 0 237
0 0 242
0 0 244
0 0 244
0 0 234
0 0 240
0 0 241
0 0 240
0 0 238
0 0 242
0 0 234
0 0 231
0 0 226
0 0 231
0 0 231
0 0 240
0 0 244
0 0 238
0 0 237
0 0 227
0 0 234
0 0 236
0 0 230
0 0 230
0 0 231
0 0 231
0 0 233
0 0 224
0 0 230
88 91 221
227 235 255
237 245 255
237 245 255
237 245 255
237 245 255
237 245 255
237 245 255
237 245 255
237 245 255
237 245 255
237 245 255
237 245 255
237 245 255
237 245 255
237 245 255
237 245 255
237 245 255
237 245 255
237 245 255
237 245 255
237 245 255
237 245 255
237 245 255
237 245 255
237 245 255
237 245 255
237 245 255
237 245 255
237 245 255
237 245 255
237 245 255
237 245 255
237 245 255
237 245 255
237 245 255
237 245 255
237 245 255
237 245 255
237 245 255
237 245 255
237 245 255
237 240 250
226 109 114
217 0 0
206 0 0
217 0 0
219 0 0
216 0 0
209 0 0
222 0 0
222 0 0
213 0 0
211 0 0
217 0 0
210 0 0
214 0 0
209 0 0
217 0 0
216 0 0
210 0 0
205 0 0
219 0 0
207 0 0
208 0 0
214 0 0
207 0 0
219 0 0
213 0 0
221 0 0
221 0 0
223 0 0
217 0 0
218 0 0
220 0 0
219 0 0
218 0 0
215 0 0
223 0 0
214 0 0
223 0 0
221 0 0
224 0 0
224 0 0
219 0 0
222 0 0
226 0 0
226 0 0
222 0 0
220 0 0
219 0 0
220 0 0
219 0 0
227 0 0
218 0 0
217 0 0
222 0 0
218 0 0
223 0 0
218 0 0
229 0 0
218 0 0
223 0 0
224 0 0
227 0 0
223 0 0
224 0 0
219 0 0
224 0 0
227 0 0
229 0 0
220 0 0
227 0 0
227 0 0
221 0 0
224 0 0
216 0 0
225 0 0
223 0 0
221 0 0
223 0 0
224 0 0
222 0 0
223 0 0
226 0 0
224 0 0
229 0 0
226 0 0
223 0 0
222 0 0
226 0 0
226 0 0
223 0 0
225 0 0
225 0 0
224 0 0
227 0 0
221 0 0
215 0 0
226 0 0
226 0 0
227 0 0
224 0 0
223 0 0
228 0 0
218 0 0
227 0 0
228 0 0
226 0 0
226 0 0
224 0 0
230 0 0
227 0 0
228 0 0
221 0 0
225 0 0
224 0 0
223 0 0
224 0 0
224 0 0
227 0 0
225 0 0
228 0 0
227 0 0
222 0 0
226 0 0
225 0 0
224 0 0
225 0 0
222 0 0
224 0 0
227 0 0
219 0 0
227 0 0
227 0 0
230 0 0
226 0 0
223 0 0
223 0 0
226 0 0
224 0 0
222 0 0
226 0 0
224 0 0
227 0 0
222 0 0
227 0 0
228 0 0
222 0 0
225 0 0
225 0 0
227 0 0
227 0 0
226 0 0
226 0 0
231 0 0
229 0 0
226 0 0
227 0 0
227 0 0
223 0 0
226 0 0
223 0 0
230 0 0
225 0 0
226 0 0
227 0 0
225 0 0
226 0 0
228 0 0
228 0 0
230 0 0
227 0 0
227 0 0
229 0 0
227 0 0
226 0 0
226 0 0
226 0 0
227 0 0
226 0 0
228 0 0
0 0 255
0 0 255
0 0 255
0 0 254
0 0 254
0 0 255
0 0 255
0 0 254
0 0 253
0 0 255
0 0 254
0 0 254
0 0 255
0 0 254
0 0 255
0 0 255
0 0 254
0 0 254
0 0 255
0 0 255
0 0 250
0 0 255
0 0 254
0 0 254
0 0 255
0 0 254
0 0 254
0 0 254
0 0 254
0 0 254
0 0 255
0 0 253
0 0 254
0 0 253
0 0 253
0 0 254
0 0 254
0 0 254
0 0 253
0 0 252
0 0 255
0 0 254
0 0 254
0 0 255
0 0 253
0 0 255
0 0 252
0 0 254
0 0 253
0 0 254
0 0 255
0 0 254
0 0 254
0 0 255
0 0 254
0 0 255
0 0 254
0 0 255
0 0 252
0 0 254
0 0 250
0 0 254
0 0 253
0 0 250
0 0 252
0 0 253
0 0 254
0 0 253
0 0 253
0 0 254
0 0 253
0 0 253
0 0 252
0 0 250
0 0 254
0 0 253
0 0 253
0 0 250
0 0 250
0 0 249
0 0 248
0 0 250
0 0 254
0 0 250
0 0 253
0 0 253
0 0 253
0 0 248
0 0 253
0 0 249
0 0 249
0 0 252
0 0 255
0 0 253
0 0 250
0 0 248
0 0 249
0 0 255
0 0 250
0 0 249
0 0 252
0 0 254
0 0 249
0 0 249
0 0 242
0 0 252
0 0 248
0 0 249
0 0 245
0 0 252
0 0 252
0 0 246
0 0 244
0 0 249
0 0 250
0 0 246
0 0 244
0 0 246
0 0 248
0 0 245
0 0 249
0 0 253
0 0 250
0 0 249
0 0 249
0 0 245
0 0 250
0 0 244
0 0 252
0 0 246
0 0 246
0 0 248
0 0 244
0 0 246
0 0 250
0 0 246
0 0 246
0 0 240
0 0 245
0 0 241
0 0 249
0 0 242
0 0 241
0 0 241
0 0 240
0 0 244
0 0 234
0 0 245
0 0 245
0 0 245
0 0 238
0 0 236
0 0 244
0 0 234
0 0 240
0 0 240
0 0 244
0 0 234
0 0 236
0 0 227
0 0 234
0 0 230
0 0 228
0 0 234
0 0 234
0 0 237
0 0 228
0 0 227
0 0 227
0 0 223
0 0 237
0 0 224
0 0 224
0 0 218
0 0 228
0 0 228
0 0 224
67 69 230
222 229 254
237 245 255
237 245 255
237 245 255
237 245 255
237 245 255
237 245 255
237 245 255
237 245 255
237 245 255
237 245 255
237 245 255
237 245 255
237 245 255
237 245 255
237 245 255
237 245 255
237 245 255
237 245 255
237 245 255
237 245 255
237 245 255
237 245 255
237 245 255
237 245 255
237 245 255
237 245 255
237 245 255
237 245 255
237 245 255
237 245 255
237 245 255
237 245 255
237 245 255
237 245 255
237 245 255
237 245 255
237 245 255
237 245 255
237 245 255
237 245 255
237 245 255
237 245 255
235 228 238
219 73 76
214 0 0
213 0 0
212 0 0
200 0 0
198 0 0
213 0 0
209 0 0
204 0 0
212 0 0
220 0 0
213 0 0
212 0 0
214 0 0
212 0 0
220 0 0
208 0 0
217 0 0
215 0 0
217 0 0
222 0 0
222 0 0
223 0 0
213 0 0
217 0 0
221 0 0
213 0 0
218 0 0
217 0 0
217 0 0
224 0 0
215 0 0
224 0 0
223 0 0
218 0 0
220 0 0
210 0 0
215 0 0
222 0 0
219 0 0
219 0 0
221 0 0
216 0 0
225 0 0
227 0 0
226 0 0
217 0 0
222 0 0
228 0 0
218 0 0
218 0 0
225 0 0
222 0 0
221 0 0
221 0 0
221 0 0
224 0 0
215 0 0
223 0 0
227 0 0
219 0 0
221 0 0
223 0 0
220 0 0
229 0 0
226 0 0
224 0 0
226 0 0
226 0 0
222 0 0
224 0 0
225 0 0
223 0 0
224 0 0
223 0 0
226 0 0
225 0 0
221 0 0
221 0 0
219 0 0
224 0 0
222 0 0
222 0 0
230 0 0
227 0 0
225 0 0
221 0 0
225 0 0
226 0 0
224 0 0
228 0 0
225 0 0
224 0 0
224 0 0
224 0 0
222 0 0
225 0 0
224 0 0
229 0 0
228 0 0
223 0 0
227 0 0
227 0 0
227 0 0
225 0 0
228 0 0
223 0 0
227 0 0
224 0 0
228 0 0
225 0 0
221 0 0
224 0 0
227 0 0
225 0 0
226 0 0
228 0 0
229 0 0
225 0 0
228 0 0
227 0 0
226 0 0
227 0 0
228 0 0
230 0 0
228 0 0
223 0 0
227 0 0
225 0 0
225 0 0
224 0 0
227 0 0
221 0 0
225 0 0
229 0 0
224 0 0
222 0 0
229 0 0
227 0 0
224 0 0
226 0 0
228 0 0
225 0 0
229 0 0
228 0 0
226 0 0
226 0 0
227 0 0
227 0 0
225 0 0
227 0 0
225 0 0
227 0 0
225 0 0
226 0 0
221 0 0
222 0 0
226 0 0
228 0 0
227 0 0
229 0 0
227 0 0
228 0 0
229 0 0
226 0 0
227 0 0
228 0 0
227 0 0
224 0 0
227 0 0
226 0 0
229 0 0
226 0 0
225 0 0
230 0 0
228 0 0
226 0 0
222 0 0
0 0 254
0 0 254
0 0 255
0 0 255
0 0 254
0 0 255
0 0 254
0 0 255
0 0 253
0 0 255
0 0 254
0 0 255
0 0 254
0 0 254
0 0 255
0 0 254
0 0 255
0 0 254
0 0 254
0 0 255
0 0 255
0 0 252
0 0 255
0 0 254
0 0 255
0 0 254
0 0 255
0 0 255
0 0 255
0 0 255
0 0 253
0 0 254
0 0 253
0 0 255
0 0 254
0 0 255
0 0 253
0 0 254
0 0 255
0 0 255
0 0 255
0 0 255
0 0 255
0 0 254
0 0 255
0 0 255
0 0 254
0 0 255
0 0 252
0 0 254
0 0 254
0 0 254
0 0 255
0 0 255
0 0 253
0 0 249
0 0 253
0 0 254
0 0 253
0 0 252
0 0 253
0 0 253
0 0 254
0 0 255
0 0 254
0 0 252
0 0 249
0 0 253
0 0 253
0 0 253
0 0 253
0 0 249
0 0 253
0 0 252
0 0 254
0 0 252
0 0 253
0 0 250
0 0 253
0 0 250
0 0 252
0 0 252
0 0 254
0 0 255
0 0 249
0 0 250
0 0 253
0 0 252
0 0 254
0 0 249
0 0 246
0 0 255
0 0 252
0 0 249
0 0 253
0 0 253
0 0 253
0 0 252
0 0 252
0 0 250
0 0 252
0 0 248
0 0 245
0 0 250
0 0 250
0 0 249
0 0 254
0 0 250
0 0 244
0 0 252
0 0 248
0 0 248
0 0 252
0 0 252
0 0 252
0 0 252
0 0 248
0 0 242
0 0 248
0 0 241
0 0 248
0 0 242
0 0 241
0 0 246
0 0 249
0 0 240
0 0 248
0 0 252
0 0 246
0 0 244
0 0 240
0 0 248
0 0 245
0 0 246
0 0 244
0 0 248
0 0 245
0 0 246
0 0 241
0 0 248
0 0 242
0 0 245
0 0 238
0 0 244
0 0 237
0 0 241
0 0 245
0 0 238
0 0 236
0 0 245
0 0 240
0 0 234
0 0 242
0 0 240
0 0 236
0 0 241
0 0 231
0 0 242
0 0 236
0 0 240
0 0 236
0 0 231
0 0 238
0 0 226
0 0 234
0 0 238
0 0 228
0 0 230
0 0 242
0 0 233
0 0 227
0 0 226
0 0 233
0 0 224
0 0 217
0 0 230
58 60 240
201 208 252
237 245 255
237 245 255
237 245 255
237 245 255
237 245 255
237 245 255
237 245 255
237 245 255
237 245 255
237 245 255
237 245 255
237 245 255
237 245 255
238 245 255
238 245 255
238 245 255
238 245 255
238 245 255
238 245 255
238 245 255
238 245 255
238 245 255
238 245 255
238 245 255
238 245 255
238 245 255
238 245 255
238 245 255
238 245 255
238 245 255
237 245 255
237 245 255
237 245 255
237 245 255
237 245 255
237 245 255
237 245 255
237 245 255
237 245 255
237 245 255
237 245 255
237 245 255
237 245 255
237 245 255
233 212 221
209 42 44
207 0 0
217 0 0
202 0 0
217 0 0
214 0 0
218 0 0
213 0 0
208 0 0
214 0 0
209 0 0
214 0 0
211 0 0
214 0 0
217 0 0
208 0 0
219 0 0
223 0 0
205 0 0
218 0 0
214 0 0
218 0 0
206 0 0
214 0 0
220 0 0
223 0 0
221 0 0
215 0 0
225 0 0
216 0 0
225 0 0
218 0 0
218 0 0
228 0 0
219 0 0
221 0 0
224 0 0
226 0 0
223 0 0
220 0 0
224 0 0
216 0 0
223 0 0
219 0 0
228 0 0
221 0 0
216 0 0
217 0 0
226 0 0
219 0 0
226 0 0
218 0 0
228 0 0
222 0 0
219 0 0
225 0 0
222 0 0
225 0 0
227 0 0
225 0 0
226 0 0
218 0 0
223 0 0
220 0 0
224 0 0
223 0 0
227 0 0
225 0 0
224 0 0
222 0 0
224 0 0
224 0 0
226 0 0
227 0 0
225 0 0
224 0 0
223 0 0
224 0 0
230 0 0
226 0 0
225 0 0
225 0 0
223 0 0
229 0 0
227 0 0
223 0 0
228 0 0
222 0 0
223 0 0
222 0 0
222 0 0
222 0 0
227 0 0
222 0 0
227 0 0
226 0 0
226 0 0
224 0 0
225 0 0
226 0 0
226 0 0
225 0 0
226 0 0
224 0 0
224 0 0
226 0 0
229 0 0
224 0 0
225 0 0
226 0 0
227 0 0
226 0 0
227 0 0
229 0 0
226 0 0
227 0 0
226 0 0
225 0 0
227 0 0
224 0 0
225 0 0
228 0 0
223 0 0
229 0 0
227 0 0
226 0 0
223 0 0
224 0 0
224 0 0
226 0 0
228 0 0
228 0 0
224 0 0
229 0 0
224 0 0
223 0 0
227 0 0
226 0 0
225 0 0
230 0 0
229 0 0
226 0 0
223 0 0
228 0 0
228 0 0
226 0 0
226 0 0
227 0 0
228 0 0
226 0 0
228 0 0
228 0 0
224 0 0
227 0 0
228 0 0
225 0 0
226 0 0
227 0 0
229 0 0
225 0 0
225 0 0
226 0 0
227 0 0
226 0 0
231 0 0
228 0 0
230 0 0
227 0 0
225 0 0
226 0 0
227 0 0
229 0 0
227 0 0
227 0 0
227 0 0
226 0 0
228 0 0
0 0 255
0 0 255
0 0 254
0 0 255
0 0 255
0 0 255
0 0 254
0 0 255
0 0 254
0 0 255
0 0 255
0 0 255
0 0 255
0 0 255
0 0 254
0 0 254
0 0 255
0 0 255
0 0 254
0 0 255
0 0 254
0 0 255
0 0 255
0 0 255
0 0 254
0 0 253
0 0 255
0 0 254
0 0 255
0 0 255
0 0 255
0 0 255
0 0 254
0 0 255
0 0 254
0 0 255
0 0 254
0 0 255
0 0 255
0 0 253
0 0 254
0 0 255
0 0 254
0 0 253
0 0 254
0 0 254
0 0 253
0 0 255
0 0 253
0 0 252
0 0 255
0 0 254
0 0 254
0 0 249
0 0 254
0 0 255
0 0 252
0 0 254
0 0 254
0 0 255
0 0 255
0 0 254
0 0 253
0 0 255
0 0 254
0 0 252
0 0 255
0 0 253
0 0 252
0 0 253
0 0 254
0 0 252
0 0 252
0 0 253
0 0 246
0 0 253
0 0 253
0 0 250
0 0 252
0 0 253
0 0 248
0 0 253
0 0 252
0 0 254
0 0 252
0 0 250
0 0 250
0 0 252
0 0 253
0 0 254
0 0 252
0 0 252
0 0 252
0 0 255
0 0 249
0 0 250
0 0 252
0 0 253
0 0 246
0 0 252
0 0 252
0 0 241
0 0 253
0 0 252
0 0 249
0 0 249
0 0 250
0 0 248
0 0 248
0 0 248
0 0 246
0 0 249
0 0 248
0 0 249
0 0 248
0 0 248
0 0 250
0 0 245
0 0 241
0 0 250
0 0 248
0 0 249
0 0 245
0 0 240
0 0 252
0 0 245
0 0 245
0 0 249
0 0 250
0 0 241
0 0 241
0 0 244
0 0 245
0 0 241
0 0 242
0 0 242
0 0 245
0 0 238
0 0 246
0 0 238
0 0 242
0 0 238
0 0 240
0 0 242
0 0 242
0 0 238
0 0 245
0 0 246
0 0 236
0 0 244
0 0 236
0 0 240
0 0 234
0 0 240
0 0 238
0 0 236
0 0 230
0 0 233
0 0 242
0 0 233
0 0 228
0 0 233
0 0 234
0 0 240
0 0 240
0 0 238
0 0 226
0 0 240
0 0 236
0 0 228
0 0 230
0 0 228
0 0 221
0 0 228
0 0 227
0 0 228
184 190 242
238 245 255
238 245 255
238 245 255
238 245 255
238 245 255
238 245 255
238 245 255
238 245 255
238 245 255
238 245 255
238 245 255
238 245 255
238 245 255
238 245 255
238 245 255
238 245 255
238 245 255
238 245 255
238 245 255
238 245 255
238 245 255
238 245 255
238 245 255
238 245 255
238 245 255
238 245 255
238 245 255
238 245 255
238 245 255
238 245 255
238 245 255
238 245 255
238 245 255
238 245 255
238 245 255
238 245 255
238 245 255
238 245 255
238 245 255
238 245 255
238 245 255
238 245 255
238 245 255
238 245 255
238 245 255
238 245 255
229 183 191
214 24 25
211 0 0
209 0 0
210 0 0
218 0 0
207 0 0
220 0 0
207 0 0
211 0 0
215 0 0
218 0 0
207 0 0
221 0 0
215 0 0
224 0 0
217 0 0
227 0 0
217 0 0
214 0 0
212 0 0
211 0 0
209 0 0
213 0 0
210 0 0
224 0 0
221 0 0
220 0 0
221 0 0
222 0 0
216 0 0
225 0 0
220 0 0
220 0 0
221 0 0
219 0 0
221 0 0
225 0 0
223 0 0
217 0 0
215 0 0
222 0 0
223 0 0
220 0 0
213 0 0
229 0 0
217 0 0
223 0 0
217 0 0
225 0 0
223 0 0
221 0 0
228 0 0
225 0 0
223 0 0
224 0 0
223 0 0
225 0 0
226 0 0
223 0 0
221 0 0
223 0 0
228 0 0
227 0 0
228 0 0
220 0 0
224 0 0
227 0 0
223 0 0
226 0 0
226 0 0
226 0 0
222 0 0
230 0 0
228 0 0
227 0 0
227 0 0
227 0 0
224 0 0
230 0 0
224 0 0
228 0 0
224 0 0
230 0 0
224 0 0
223 0 0
228 0 0
227 0 0
226 0 0
227 0 0
224 0 0
227 0 0
224 0 0
229 0 0
221 0 0
224 0 0
223 0 0
225 0 0
226 0 0
229 0 0
227 0 0
225 0 0
226 0 0
221 0 0
224 0 0
222 0 0
225 0 0
222 0 0
226 0 0
228 0 0
223 0 0
228 0 0
227 0 0
225 0 0
222 0 0
224 0 0
226 0 0
227 0 0
226 0 0
226 0 0
227 0 0
226 0 0
226 0 0
227 0 0
226 0 0
228 0 0
227 0 0
226 0 0
223 0 0
225 0 0
227 0 0
226 0 0
231 0 0
225 0 0
230 0 0
227 0 0
226 0 0
226 0 0
226 0 0
228 0 0
227 0 0
229 0 0
227 0 0
223 0 0
226 0 0
228 0 0
223 0 0
227 0 0
225 0 0
224 0 0
229 0 0
224 0 0
226 0 0
229 0 0
224 0 0
228 0 0
224 0 0
228 0 0
230 0 0
228 0 0
230 0 0
230 0 0
225 0 0
226 0 0
223 0 0
228 0 0
226 0 0
228 0 0
224 0 0
228 0 0
227 0 0
226 0 0
230 0 0
227 0 0
228 0 0
228 0 0
223 0 0
0 0 255
0 0 255
0 0 255
0 0 255
0 0 255
0 0 255
0 0 255
0 0 255
0 0 255
0 0 255
0 0 255
0 0 254
0 0 254
0 0 254
0 0 255
0 0 253
0 0 255
0 0 255
0 0 255
0 0 254
0 0 255
0 0 253
0 0 255
0 0 254
0 0 255
0 0 255
0 0 254
0 0 255
0 0 254
0 0 254
0 0 255
0 0 254
0 0 253
0 0 254
0 0 252
0 0 255
0 0 253
0 0 255
0 0 255
0 0 255
0 0 255
0 0 254
0 0 255
0 0 255
0 0 255
0 0 254
0 0 253
0 0 254
0 0 253
0 0 250
0 0 254
0 0 254
0 0 254
0 0 252
0 0 254
0 0 253
0 0 253
0 0 253
0 0 252
0 0 254
0 0 252
0 0 255
0 0 250
0 0 252
0 0 252
0 0 254
0 0 252
0 0 252
0 0 253
0 0 246
0 0 253
0 0 254
0 0 254
0 0 249
0 0 254
0 0 250
0 0 252
0 0 255
0 0 250
0 0 254
0 0 249
0 0 249
0 0 255
0 0 250
0 0 253
0 0 249
0 0 255
0 0 250
0 0 253
0 0 253
0 0 250
0 0 254
0 0 250
0 0 253
0 0 254
0 0 253
0 0 253
0 0 253
0 0 252
0 0 249
0 0 250
0 0 250
0 0 253
0 0 249
0 0 249
0 0 249
0 0 250
0 0 246
0 0 246
0 0 253
0 0 248
0 0 253
0 0 248
0 0 245
0 0 249
0 0 249
0 0 242
0 0 245
0 0 248
0 0 238
0 0 248
0 0 250
0 0 249
0 0 245
0 0 245
0 0 244
0 0 242
0 0 248
0 0 249
0 0 248
0 0 244
0 0 246
0 0 246
0 0 245
0 0 245
0 0 249
0 0 250
0 0 242
0 0 249
0 0 241
0 0 244
0 0 240
0 0 242
0 0 240
0 0 238
0 0 242
0 0 246
0 0 242
0 0 231
0 0 241
0 0 250
0 0 241
0 0 233
0 0 233
0 0 236
0 0 234
0 0 237
0 0 237
0 0 233
0 0 233
0 0 236
0 0 234
0 0 236
0 0 230
0 0 236
0 0 230
0 0 230
0 0 226
0 0 228
0 0 240
0 0 240
0 0 228
0 0 215
0 0 231
0 0 234
175 180 236
238 245 255
238 245 255
238 245 255
238 245 255
238 245 255
238 245 255
238 245 255
238 245 255
238 245 255
238 245 255
238 245 255
238 245 255
238 245 255
238 245 255
238 245 255
238 245 255
238 245 255
238 245 255
238 245 255
238 245 255
238 245 255
238 245 255
238 245 255
238 245 255
238 245 255
238 245 255
238 245 255
238 245 255
238 245 255
238 245 255
238 245 255
238 245 255
238 245 255
238 245 255
238 245 255
238 245 255
238 245 255
238 245 255
238 245 255
238 245 255
238 245 255
238 245 255
238 245 255
238 245 255
238 245 255
238 245 255
238 245 255
238 245 255
224 177 184
214 0 0
213 0 0
211 0 0
212 0 0
218 0 0
212 0 0
215 0 0
214 0 0
215 0 0
215 0 0
212 0 0
213 0 0
219 0 0
225 0 0
221 0 0
223 0 0
222 0 0
212 0 0
219 0 0
222 0 0
219 0 0
220 0 0
221 0 0
223 0 0
227 0 0
219 0 0
217 0 0
223 0 0
216 0 0
212 0 0
212 0 0
213 0 0
217 0 0
214 0 0
223 0 0
224 0 0
223 0 0
222 0 0
220 0 0
222 0 0
225 0 0
224 0 0
228 0 0
227 0 0
224 0 0
212 0 0
228 0 0
222 0 0
224 0 0
223 0 0
224 0 0
226 0 0
219 0 0
223 0 0
229 0 0
222 0 0
220 0 0
226 0 0
223 0 0
220 0 0
221 0 0
222 0 0
226 0 0
226 0 0
218 0 0
223 0 0
225 0 0
222 0 0
226 0 0
225 0 0
227 0 0
228 0 0
225 0 0
227 0 0
223 0 0
223 0 0
230 0 0
223 0 0
223 0 0
224 0 0
224 0 0
227 0 0
225 0 0
225 0 0
225 0 0
224 0 0
224 0 0
224 0 0
225 0 0
224 0 0
227 0 0
221 0 0
226 0 0
226 0 0
227 0 0
227 0 0
224 0 0
224 0 0
227 0 0
227 0 0
224 0 0
226 0 0
226 0 0
231 0 0
228 0 0
225 0 0
223 0 0
227 0 0
222 0 0
226 0 0
225 0 0
223 0 0
230 0 0
229 0 0
225 0 0
225 0 0
227 0 0
224 0 0
227 0 0
224 0 0
229 0 0
230 0 0
226 0 0
227 0 0
224 0 0
226 0 0
223 0 0
227 0 0
229 0 0
226 0 0
226 0 0
228 0 0
226 0 0
229 0 0
226 0 0
228 0 0
227 0 0
226 0 0
226 0 0
226 0 0
228 0 0
230 0 0
227 0 0
228 0 0
227 0 0
228 0 0
226 0 0
229 0 0
227 0 0
226 0 0
226 0 0
226 0 0
230 0 0
226 0 0
228 0 0
226 0 0
224 0 0
229 0 0
226 0 0
223 0 0
227 0 0
230 0 0
226 0 0
228 0 0
224 0 0
228 0 0
224 0 0
227 0 0
226 0 0
229 0 0
229 0 0
227 0 0
229 0 0
227 0 0
226 0 0
0 0 255
0 0 255
0 0 255
0 0 255
0 0 255
0 0 255
0 0 255
0 0 255
0 0 255
0 0 254
0 0 254
0 0 255
0 0 255
0 0 254
0 0 254
0 0 255
0 0 254
0 0 254
0 0 255
0 0 254
0 0 254
0 0 253
0 0 255
0 0 254
0 0 255
0 0 254
0 0 254
0 0 253
0 0 254
0 0 255
0 0 253
0 0 253
0 0 255
0 0 253
0 0 254
0 0 253
0 0 254
0 0 255
0 0 254
0 0 255
0 0 252
0 0 254
0 0 255
0 0 254
0 0 253
0 0 254
0 0 253
0 0 253
0 0 254
0 0 253
0 0 252
0 0 254
0 0 254
0 0 253
0 0 254
0 0 254
0 0 254
0 0 254
0 0 254
0 0 254
0 0 255
0 0 253
0 0 253
0 0 253
0 0 252
0 0 252
0 0 254
0 0 252
0 0 252
0 0 252
0 0 252
0 0 250
0 0 253
0 0 255
0 0 254
0 0 255
0 0 250
0 0 255
0 0 254
0 0 254
0 0 252
0 0 250
0 0 253
0 0 254
0 0 250
0 0 255
0 0 252
0 0 253
0 0 254
0 0 253
0 0 249
0 0 252
0 0 254
0 0 249
0 0 252
0 0 252
0 0 246
0 0 249
0 0 249
0 0 254
0 0 252
0 0 248
0 0 253
0 0 252
0 0 246
0 0 250
0 0 254
0 0 252
0 0 253
0 0 244
0 0 253
0 0 249
0 0 244
0 0 245
0 0 244
0 0 249
0 0 248
0 0 244
0 0 245
0 0 252
0 0 248
0 0 246
0 0 248
0 0 250
0 0 246
0 0 248
0 0 246
0 0 246
0 0 250
0 0 242
0 0 249
0 0 246
0 0 242
0 0 241
0 0 252
0 0 249
0 0 245
0 0 237
0 0 245
0 0 246
0 0 233
0 0 242
0 0 245
0 0 248
0 0 238
0 0 230
0 0 237
0 0 245
0 0 245
0 0 242
0 0 244
0 0 240
0 0 227
0 0 238
0 0 240
0 0 242
0 0 237
0 0 248
0 0 238
0 0 228
0 0 234
0 0 223
0 0 238
0 0 233
0 0 238
0 0 234
0 0 237
0 0 228
0 0 241
0 0 230
0 0 231
0 0 228
0 0 237
0 0 228
146 151 244
238 245 255
238 245 255
238 245 255
238 245 255
238 245 255
238 245 255
238 245 255
238 245 255
238 245 255
238 245 255
238 245 255
238 245 255
238 245 255
238 245 255
238 245 255
238 245 255
238 245 255
238 245 255
238 245 255
238 245 255
238 245 255
238 245 255
238 245 255
238 245 255
238 245 255
238 245 255
238 245 255
238 245 255
238 245 255
238 245 255
238 245 255
238 245 255
238 245 255
238 245 255
238 245 255
238 245 255
238 245 255
238 245 255
238 245 255
238 245 255
238 245 255
238 245 255
238 245 255
238 245 255
238 245 255
238 245 255
238 245 255
238 245 255
238 245 255
238 245 255
228 161 167
209 0 0
221 0 0
216 0 0
218 0 0
219 0 0
217 0 0
213 0 0
213 0 0
217 0 0
217 0 0
216 0 0
218 0 0
212 0 0
217 0 0
214 0 0
215 0 0
211 0 0
219 0 0
218 0 0
216 0 0
225 0 0
218 0 0
228 0 0
222 0 0
221 0 0
217 0 0
226 0 0
218 0 0
218 0 0
221 0 0
220 0 0
219 0 0
225 0 0
220 0 0
216 0 0
226 0 0
219 0 0
225 0 0
225 0 0
219 0 0
224 0 0
223 0 0
225 0 0
220 0 0
227 0 0
219 0 0
227 0 0
223 0 0
226 0 0
218 0 0
222 0 0
221 0 0
219 0 0
223 0 0
228 0 0
226 0 0
225 0 0
223 0 0
221 0 0
221 0 0
227 0 0
232 0 0
220 0 0
223 0 0
225 0 0
224 0 0
225 0 0
227 0 0
223 0 0
220 0 0
223 0 0
223 0 0
228 0 0
226 0 0
232 0 0
226 0 0
225 0 0
221 0 0
226 0 0
220 0 0
231 0 0
222 0 0
223 0 0
224 0 0
230 0 0
228 0 0
223 0 0
229 0 0
223 0 0
221 0 0
222 0 0
226 0 0
227 0 0
224 0 0
225 0 0
230 0 0
229 0 0
227 0 0
224 0 0
227 0 0
225 0 0
227 0 0
225 0 0
224 0 0
227 0 0
227 0 0
228 0 0
226 0 0
228 0 0
228 0 0
222 0 0
226 0 0
228 0 0
229 0 0
227 0 0
228 0 0
223 0 0
228 0 0
226 0 0
225 0 0
230 0 0
226 0 0
228 0 0
230 0 0
230 0 0
226 0 0
229 0 0
224 0 0
226 0 0
225 0 0
229 0 0
225 0 0
231 0 0
226 0 0
226 0 0
228 0 0
227 0 0
227 0 0
229 0 0
225 0 0
226 0 0
229 0 0
225 0 0
229 0 0
228 0 0
228 0 0
225 0 0
222 0 0
227 0 0
227 0 0
228 0 0
228 0 0
224 0 0
227 0 0
228 0 0
226 0 0
225 0 0
226 0 0
228 0 0
222 0 0
227 0 0
226 0 0
226 0 0
223 0 0
228 0 0
221 0 0
225 0 0
230 0 0
224 0 0
227 0 0
229 0 0
228 0 0
227 0 0
226 0 0
0 0 255
0 0 255
0 0 255
0 0 254
0 0 255
0 0 254
0 0 255
0 0 254
0 0 255
0 0 255
0 0 255
0 0 255
0 0 255
0 0 252
0 0 255
0 0 255
0 0 255
0 0 255
0 0 255
0 0 255
0 0 254
0 0 254
0 0 255
0 0 254
0 0 255
0 0 255
0 0 254
0 0 255
0 0 254
0 0 254
0 0 255
0 0 254
0 0 254
0 0 254
0 0 255
0 0 254
0 0 255
0 0 254
0 0 254
0 0 253
0 0 254
0 0 253
0 0 252
0 0 253
0 0 254
0 0 254
0 0 254
0 0 255
0 0 253
0 0 253
0 0 253
0 0 254
0 0 253
0 0 255
0 0 254
0 0 254
0 0 255
0 0 255
0 0 254
0 0 255
0 0 252
0 0 252
0 0 254
0 0 250
0 0 255
0 0 250
0 0 252
0 0 252
0 0 254
0 0 254
0 0 253
0 0 255
0 0 254
0 0 252
0 0 255
0 0 252
0 0 253
0 0 253
0 0 255
0 0 252
0 0 249
0 0 253
0 0 254
0 0 254
0 0 253
0 0 252
0 0 253
0 0 253
0 0 250
0 0 253
0 0 252
0 0 248
0 0 248
0 0 250
0 0 249
0 0 252
0 0 253
0 0 252
0 0 250
0 0 254
0 0 250
0 0 254
0 0 245
0 0 250
0 0 249
0 0 248
0 0 248
0 0 250
0 0 252
0 0 252
0 0 252
0 0 249
0 0 249
0 0 248
0 0 249
0 0 250
0 0 250
0 0 249
0 0 248
0 0 246
0 0 244
0 0 246
0 0 248
0 0 236
0 0 249
0 0 248
0 0 248
0 0 242
0 0 249
0 0 248
0 0 245
0 0 245
0 0 253
0 0 244
0 0 252
0 0 250
0 0 252
0 0 248
0 0 242
0 0 237
0 0 246
0 0 248
0 0 240
0 0 241
0 0 238
0 0 250
0 0 240
0 0 242
0 0 236
0 0 237
0 0 238
0 0 236
0 0 237
0 0 245
0 0 241
0 0 234
0 0 231
0 0 242
0 0 240
0 0 236
0 0 233
0 0 234
0 0 228
0 0 233
0 0 234
0 0 228
0 0 231
0 0 230
0 0 236
0 0 236
0 0 242
0 0 227
0 0 228
126 130 241
238 245 255
238 245 255
238 245 255
238 245 255
238 245 255
238 245 255
238 245 255
238 245 255
238 245 255
238 245 255
238 245 255
238 245 255
238 245 255
238 245 255
238 245 255
238 245 255
238 245 255
238 245 255
238 245 255
238 245 255
238 245 255
238 245 255
238 245 255
238 245 255
238 245 255
238 245 255
238 245 255
238 245 255
238 245 255
238 245 255
238 245 255
238 245 255
238 245 255
238 245 255
238 245 255
238 245 255
238 245 255
238 245 255
238 245 255
238 245 255
238 245 255
238 245 255
238 245 255
238 245 255
238 245 255
238 245 255
238 245 255
238 245 255
238 245 255
238 245 255
238 245 255
238 244 254
221 132 137
208 0 0
213 0 0
222 0 0
218 0 0
225 0 0
208 0 0
214 0 0
221 0 0
215 0 0
210 0 0
215 0 0
217 0 0
223 0 0
219 0 0
226 0 0
208 0 0
219 0 0
221 0 0
222 0 0
218 0 0
214 0 0
224 0 0
223 0 0
220 0 0
213 0 0
216 0 0
218 0 0
215 0 0
225 0 0
223 0 0
217 0 0
222 0 0
227 0 0
227 0 0
219 0 0
217 0 0
225 0 0
225 0 0
228 0 0
229 0 0
222 0 0
216 0 0
226 0 0
226 0 0
225 0 0
221 0 0
226 0 0
228 0 0
224 0 0
216 0 0
222 0 0
220 0 0
225 0 0
218 0 0
227 0 0
225 0 0
227 0 0
226 0 0
227 0 0
229 0 0
223 0 0
225 0 0
222 0 0
225 0 0
223 0 0
223 0 0
227 0 0
226 0 0
230 0 0
224 0 0
229 0 0
225 0 0
231 0 0
223 0 0
226 0 0
223 0 0
225 0 0
225 0 0
225 0 0
224 0 0
223 0 0
226 0 0
228 0 0
225 0 0
226 0 0
229 0 0
227 0 0
221 0 0
222 0 0
225 0 0
224 0 0
222 0 0
227 0 0
227 0 0
227 0 0
225 0 0
224 0 0
225 0 0
226 0 0
225 0 0
229 0 0
228 0 0
222 0 0
230 0 0
230 0 0
225 0 0
228 0 0
226 0 0
226 0 0
226 0 0
231 0 0
229 0 0
227 0 0
231 0 0
226 0 0
224 0 0
228 0 0
228 0 0
226 0 0
227 0 0
230 0 0
223 0 0
229 0 0
231 0 0
225 0 0
227 0 0
225 0 0
226 0 0
226 0 0
225 0 0
224 0 0
221 0 0
228 0 0
228 0 0
224 0 0
226 0 0
228 0 0
228 0 0
230 0 0
229 0 0
225 0 0
226 0 0
229 0 0
226 0 0
230 0 0
226 0 0
224 0 0
231 0 0
227 0 0
226 0 0
230 0 0
225 0 0
231 0 0
230 0 0
225 0 0
230 0 0
229 0 0
225 0 0
230 0 0
224 0 0
225 0 0
231 0 0
230 0 0
224 0 0
228 0 0
229 0 0
225 0 0
226 0 0
227 0 0
228 0 0
225 0 0
228 0 0
228 0 0
0 0 255
0 0 255
0 0 255
0 0 254
0 0 254
0 0 255
0 0 254
0 0 255
0 0 255
0 0 255
0 0 255
0 0 255
0 0 255
0 0 255
0 0 254
0 0 255
0 0 255
0 0 255
0 0 255
0 0 255
0 0 254
0 0 253
0 0 255
0 0 255
0 0 255
0 0 250
0 0 253
0 0 253
0 0 253
0 0 255
0 0 254
0 0 253
0 0 255
0 0 255
0 0 255
0 0 255
0 0 252
0 0 253
0 0 255
0 0 254
0 0 253
0 0 254
0 0 255
0 0 253
0 0 254
0 0 254
0 0 254
0 0 254
0 0 254
0 0 255
0 0 252
0 0 255
0 0 255
0 0 252
0 0 254
0 0 254
0 0 254
0 0 253
0 0 254
0 0 253
0 0 254
0 0 249
0 0 254
0 0 255
0 0 249
0 0 253
0 0 254
0 0 252
0 0 254
0 0 255
0 0 255
0 0 255
0 0 250
0 0 254
0 0 254
0 0 255
0 0 252
0 0 250
0 0 253
0 0 252
0 0 249
0 0 254
0 0 252
0 0 252
0 0 252
0 0 255
0 0 252
0 0 254
0 0 250
0 0 252
0 0 253
0 0 254
0 0 255
0 0 253
0 0 250
0 0 249
0 0 252
0 0 252
0 0 246
0 0 252
0 0 254
0 0 253
0 0 248
0 0 254
0 0 246
0 0 252
0 0 252
0 0 252
0 0 253
0 0 250
0 0 250
0 0 252
0 0 244
0 0 249
0 0 248
0 0 252
0 0 250
0 0 248
0 0 250
0 0 242
0 0 252
0 0 248
0 0 245
0 0 249
0 0 244
0 0 250
0 0 246
0 0 242
0 0 248
0 0 242
0 0 245
0 0 240
0 0 244
0 0 242
0 0 241
0 0 252
0 0 244
0 0 245
0 0 238
0 0 230
0 0 246
0 0 246
0 0 241
0 0 245
0 0 242
0 0 250
0 0 240
0 0 241
0 0 236
0 0 238
0 0 233
0 0 244
0 0 246
0 0 233
0 0 240
0 0 233
0 0 240
0 0 242
0 0 237
0 0 238
0 0 245
0 0 236
0 0 237
0 0 233
0 0 230
0 0 238
0 0 228
0 0 236
0 0 238
0 0 236
0 0 233
0 0 241
121 125 241
233 240 254
238 245 255
238 245 255
238 245 255
238 245 255
238 245 255
238 245 255
238 245 255
238 245 255
238 245 255
238 245 255
238 245 255
238 245 255
238 245 255
238 245 255
239 245 255
239 245 255
239 245 255
239 245 255
239 245 255
239 245 255
239 245 255
239 245 255
239 245 255
239 245 255
239 245 255
239 245 255
239 245 255
239 245 255
239 245 255
239 245 255
239 245 255
239 245 255
239 245 255
239 245 255
239 245 255
239 245 255
239 245 255
239 245 255
238 245 255
238 245 255
238 245 255
238 245 255
238 245 255
238 245 255
238 245 255
238 245 255
238 245 255
238 245 255
238 245 255
238 245 255
238 245 255
238 245 255
238 245 255
227 149 155
224 0 0
215 0 0
216 0 0
216 0 0
222 0 0
216 0 0
211 0 0
226 0 0
219 0 0
212 0 0
222 0 0
223 0 0
217 0 0
213 0 0
213 0 0
215 0 0
222 0 0
222 0 0
221 0 0
226 0 0
213 0 0
219 0 0
224 0 0
218 0 0
220 0 0
220 0 0
224 0 0
219 0 0
226 0 0
225 0 0
222 0 0
227 0 0
224 0 0
219 0 0
223 0 0
219 0 0
223 0 0
218 0 0
225 0 0
222 0 0
222 0 0
219 0 0
222 0 0
217 0 0
220 0 0
223 0 0
227 0 0
224 0 0
223 0 0
224 0 0
226 0 0
226 0 0
225 0 0
223 0 0
227 0 0
221 0 0
224 0 0
224 0 0
227 0 0
227 0 0
225 0 0
224 0 0
225 0 0
223 0 0
227 0 0
227 0 0
226 0 0
224 0 0
225 0 0
225 0 0
226 0 0
224 0 0
226 0 0
226 0 0
225 0 0
224 0 0
225 0 0
229 0 0
229 0 0
227 0 0
228 0 0
223 0 0
226 0 0
225 0 0
225 0 0
224 0 0
227 0 0
230 0 0
227 0 0
228 0 0
223 0 0
225 0 0
229 0 0
231 0 0
226 0 0
229 0 0
231 0 0
224 0 0
228 0 0
223 0 0
226 0 0
226 0 0
229 0 0
228 0 0
227 0 0
227 0 0
228 0 0
230 0 0
230 0 0
227 0 0
226 0 0
226 0 0
225 0 0
227 0 0
228 0 0
228 0 0
223 0 0
224 0 0
222 0 0
225 0 0
229 0 0
227 0 0
229 0 0
227 0 0
224 0 0
227 0 0
233 0 0
225 0 0
228 0 0
223 0 0
226 0 0
228 0 0
229 0 0
227 0 0
226 0 0
226 0 0
230 0 0
225 0 0
231 0 0
229 0 0
229 0 0
226 0 0
225 0 0
227 0 0
228 0 0
224 0 0
228 0 0
231 0 0
229 0 0
230 0 0
226 0 0
227 0 0
226 0 0
226 0 0
224 0 0
225 0 0
228 0 0
228 0 0
228 0 0
229 0 0
229 0 0
228 0 0
226 0 0
225 0 0
227 0 0
226 0 0
228 0 0
229 0 0
227 0 0
227 0 0
228 0 0
227 0 0
0 0 255
0 0 254
0 0 255
0 0 255
0 0 255
0 0 254
0 0 255
0 0 255
0 0 255
0 0 255
0 0 255
0 0 254
0 0 254
0 0 255
0 0 253
0 0 255
0 0 254
0 0 255
0 0 255
0 0 252
0 0 255
0 0 255
0 0 253
0 0 255
0 0 255
0 0 254
0 0 254
0 0 255
0 0 255
0 0 254
0 0 255
0 0 255
0 0 254
0 0 255
0 0 254
0 0 255
0 0 254
0 0 254
0 0 254
0 0 255
0 0 253
0 0 255
0 0 255
0 0 253
0 0 254
0 0 253
0 0 255
0 0 253
0 0 255
0 0 253
0 0 255
0 0 254
0 0 255
0 0 254
0 0 253
0 0 252
0 0 253
0 0 253
0 0 252
0 0 254
0 0 254
0 0 253
0 0 254
0 0 254
0 0 253
0 0 254
0 0 250
0 0 254
0 0 255
0 0 255
0 0 253
0 0 255
0 0 252
0 0 254
0 0 252
0 0 252
0 0 250
0 0 254
0 0 250
0 0 254
0 0 253
0 0 249
0 0 250
0 0 255
0 0 253
0 0 253
0 0 252
0 0 254
0 0 250
0 0 252
0 0 249
0 0 253
0 0 250
0 0 253
0 0 254
0 0 253
0 0 252
0 0 252
0 0 250
0 0 250
0 0 252
0 0 250
0 0 253
0 0 249
0 0 246
0 0 252
0 0 252
0 0 250
0 0 248
0 0 252
0 0 246
0 0 250
0 0 250
0 0 245
0 0 253
0 0 250
0 0 249
0 0 252
0 0 242
0 0 245
0 0 252
0 0 242
0 0 250
0 0 253
0 0 254
0 0 246
0 0 245
0 0 245
0 0 252
0 0 250
0 0 248
0 0 245
0 0 246
0 0 249
0 0 245
0 0 240
0 0 248
0 0 245
0 0 246
0 0 248
0 0 248
0 0 245
0 0 245
0 0 242
0 0 244
0 0 241
0 0 242
0 0 238
0 0 248
0 0 240
0 0 234
0 0 240
0 0 240
0 0 241
0 0 234
0 0 238
0 0 236
0 0 244
0 0 224
0 0 234
0 0 237
0 0 236
0 0 237
0 0 234
0 0 231
0 0 231
0 0 233
0 0 236
0 0 227
0 0 246
0 0 241
124 127 238
234 240 255
238 245 255
238 245 255
238 245 255
239 245 255
239 245 255
239 245 255
239 245 255
239 245 255
239 246 255
239 246 255
239 246 255
239 246 255
239 246 255
239 246 255
239 246 255
239 246 255
239 246 255
239 246 255
239 246 255
239 246 255
239 246 255
239 246 255
239 246 255
239 246 255
239 246 255
239 246 255
239 246 255
239 246 255
239 246 255
239 246 255
239 246 255
239 246 255
239 246 255
239 246 255
239 246 255
239 246 255
239 246 255
239 246 255
239 246 255
239 246 255
239 246 255
239 246 255
239 246 255
239 246 255
239 246 255
239 246 255
239 245 255
239 245 255
239 245 255
239 245 255
239 245 255
238 245 255
238 245 255
238 245 255
237 242 252
222 134 140
220 0 0
216 0 0
222 0 0
217 0 0
221 0 0
222 0 0
219 0 0
213 0 0
219 0 0
216 0 0
217 0 0
220 0 0
216 0 0
218 0 0
220 0 0
217 0 0
215 0 0
220 0 0
217 0 0
221 0 0
226 0 0
220 0 0
219 0 0
223 0 0
223 0 0
219 0 0
216 0 0
212 0 0
222 0 0
221 0 0
226 0 0
220 0 0
227 0 0
227 0 0
223 0 0
229 0 0
218 0 0
228 0 0
226 0 0
223 0 0
221 0 0
222 0 0
224 0 0
228 0 0
227 0 0
219 0 0
228 0 0
228 0 0
223 0 0
218 0 0
223 0 0
223 0 0
227 0 0
228 0 0
220 0 0
228 0 0
224 0 0
224 0 0
225 0 0
226 0 0
220 0 0
224 0 0
226 0 0
225 0 0
225 0 0
226 0 0
222 0 0
223 0 0
224 0 0
222 0 0
229 0 0
221 0 0
226 0 0
223 0 0
227 0 0
227 0 0
228 0 0
228 0 0
227 0 0
225 0 0
225 0 0
227 0 0
226 0 0
225 0 0
226 0 0
227 0 0
227 0 0
231 0 0
231 0 0
230 0 0
226 0 0
222 0 0
231 0 0
224 0 0
225 0 0
224 0 0
229 0 0
224 0 0
223 0 0
227 0 0
224 0 0
225 0 0
228 0 0
227 0 0
232 0 0
226 0 0
226 0 0
225 0 0
226 0 0
226 0 0
226 0 0
227 0 0
225 0 0
227 0 0
229 0 0
228 0 0
229 0 0
227 0 0
225 0 0
230 0 0
225 0 0
226 0 0
227 0 0
226 0 0
228 0 0
225 0 0
227 0 0
224 0 0
222 0 0
229 0 0
229 0 0
225 0 0
227 0 0
229 0 0
227 0 0
230 0 0
229 0 0
226 0 0
225 0 0
225 0 0
229 0 0
227 0 0
227 0 0
227 0 0
228 0 0
227 0 0
230 0 0
227 0 0
228 0 0
221 0 0
228 0 0
228 0 0
227 0 0
228 0 0
226 0 0
228 0 0
228 0 0
232 0 0
224 0 0
229 0 0
227 0 0
227 0 0
229 0 0
226 0 0
226 0 0
230 0 0
229 0 0
228 0 0
224 0 0
230 0 0
230 0 0
0 0 255
0 0 255
0 0 255
0 0 255
0 0 254
0 0 255
0 0 253
0 0 255
0 0 255
0 0 255
0 0 255
0 0 255
0 0 255
0 0 255
0 0 255
0 0 255
0 0 254
0 0 253
0 0 255
0 0 255
0 0 253
0 0 255
0 0 254
0 0 255
0 0 254
0 0 254
0 0 255
0 0 255
0 0 254
0 0 255
0 0 255
0 0 252
0 0 255
0 0 254
0 0 252
0 0 253
0 0 255
0 0 255
0 0 254
0 0 255
0 0 254
0 0 255
0 0 254
0 0 253
0 0 253
0 0 254
0 0 254
0 0 254
0 0 254
0 0 255
0 0 255
0 0 253
0 0 252
0 0 255
0 0 250
0 0 254
0 0 254
0 0 254
0 0 254
0 0 253
0 0 254
0 0 254
0 0 255
0 0 254
0 0 252
0 0 255
0 0 252
0 0 250
0 0 253
0 0 253
0 0 252
0 0 253
0 0 248
0 0 255
0 0 253
0 0 250
0 0 253
0 0 252
0 0 252
0 0 248
0 0 253
0 0 252
0 0 254
0 0 253
0 0 248
0 0 249
0 0 254
0 0 253
0 0 252
0 0 248
0 0 253
0 0 249
0 0 250
0 0 253
0 0 253
0 0 252
0 0 248
0 0 248
0 0 249
0 0 249
0 0 250
0 0 246
0 0 249
0 0 250
0 0 254
0 0 252
0 0 248
0 0 252
0 0 253
0 0 253
0 0 248
0 0 246
0 0 246
0 0 252
0 0 252
0 0 248
0 0 250
0 0 249
0 0 253
0 0 252
0 0 249
0 0 252
0 0 249
0 0 250
0 0 250
0 0 249
0 0 242
0 0 246
0 0 246
0 0 248
0 0 249
0 0 245
0 0 248
0 0 252
0 0 240
0 0 249
0 0 245
0 0 246
0 0 245
0 0 241
0 0 242
0 0 245
0 0 240
0 0 249
0 0 245
0 0 244
0 0 238
0 0 249
0 0 244
0 0 241
0 0 241
0 0 240
0 0 238
0 0 237
0 0 246
0 0 240
0 0 240
0 0 246
0 0 236
0 0 231
0 0 238
0 0 237
0 0 233
0 0 234
0 0 230
0 0 245
0 0 236
0 0 237
0 0 237
0 0 241
130 134 244
235 242 254
239 246 255
239 246 255
239 246 255
239 246 255
239 246 255
239 246 255
239 246 255
239 246 255
239 246 255
239 246 255
239 246 255
239 246 255
239 246 255
239 246 255
239 246 255
239 246 255
239 246 255
239 246 255
239 246 255
239 246 255
239 246 255
239 246 255
239 246 255
239 246 255
239 246 255
239 246 255
239 246 255
239 246 255
239 246 255
239 246 255
239 246 255
239 246 255
239 246 255
239 246 255
239 246 255
239 246 255
239 246 255
239 246 255
239 246 255
239 246 255
239 246 255
239 246 255
239 246 255
239 246 255
239 246 255
239 246 255
239 246 255
239 246 255
239 246 255
239 246 255
239 246 255
239 246 255
239 246 255
239 246 255
239 246 255
239 245 255
238 241 250
229 110 114
232 0 0
224 0 0
219 0 0
223 0 0
218 0 0
217 0 0
219 0 0
219 0 0
223 0 0
218 0 0
217 0 0
226 0 0
221 0 0
222 0 0
220 0 0
226 0 0
220 0 0
219 0 0
221 0 0
228 0 0
222 0 0
225 0 0
219 0 0
229 0 0
228 0 0
224 0 0
221 0 0
223 0 0
228 0 0
219 0 0
224 0 0
222 0 0
222 0 0
220 0 0
223 0 0
229 0 0
215 0 0
219 0 0
223 0 0
225 0 0
229 0 0
224 0 0
228 0 0
225 0 0
229 0 0
223 0 0
222 0 0
230 0 0
227 0 0
224 0 0
219 0 0
223 0 0
223 0 0
226 0 0
223 0 0
228 0 0
229 0 0
227 0 0
224 0 0
226 0 0
224 0 0
226 0 0
224 0 0
226 0 0
224 0 0
226 0 0
226 0 0
225 0 0
229 0 0
220 0 0
225 0 0
229 0 0
229 0 0
221 0 0
228 0 0
225 0 0
228 0 0
226 0 0
228 0 0
225 0 0
227 0 0
227 0 0
222 0 0
226 0 0
226 0 0
229 0 0
225 0 0
226 0 0
223 0 0
227 0 0
227 0 0
225 0 0
227 0 0
230 0 0
230 0 0
227 0 0
226 0 0
226 0 0
229 0 0
222 0 0
223 0 0
224 0 0
225 0 0
226 0 0
231 0 0
231 0 0
225 0 0
228 0 0
227 0 0
230 0 0
229 0 0
226 0 0
228 0 0
228 0 0
226 0 0
223 0 0
227 0 0
224 0 0
226 0 0
229 0 0
226 0 0
228 0 0
227 0 0
227 0 0
225 0 0
224 0 0
225 0 0
229 0 0
226 0 0
225 0 0
229 0 0
227 0 0
227 0 0
229 0 0
225 0 0
226 0 0
228 0 0
229 0 0
228 0 0
225 0 0
228 0 0
225 0 0
226 0 0
233 0 0
226 0 0
226 0 0
227 0 0
229 0 0
226 0 0
232 0 0
231 0 0
230 0 0
230 0 0
230 0 0
224 0 0
228 0 0
229 0 0
228 0 0
228 0 0
229 0 0
227 0 0
226 0 0
227 0 0
226 0 0
229 0 0
228 0 0
227 0 0
228 0 0
230 0 0
229 0 0
0 0 255
0 0 255
0 0 255
0 0 255
0 0 255
0 0 255
0 0 255
0 0 253
0 0 255
0 0 254
0 0 255
0 0 255
0 0 254
0 0 255
0 0 255
0 0 255
0 0 255
0 0 255
0 0 255
0 0 254
0 0 255
0 0 255
0 0 255
0 0 252
0 0 254
0 0 254
0 0 255
0 0 254
0 0 255
0 0 254
0 0 254
0 0 255
0 0 254
0 0 255
0 0 255
0 0 254
0 0 255
0 0 254
0 0 255
0 0 255
0 0 254
0 0 255
0 0 254
0 0 253
0 0 253
0 0 253
0 0 255
0 0 254
0 0 254
0 0 255
0 0 254
0 0 255
0 0 255
0 0 255
0 0 253
0 0 254
0 0 252
0 0 254
0 0 255
0 0 252
0 0 253
0 0 255
0 0 255
0 0 253
0 0 252
0 0 254
0 0 254
0 0 252
0 0 255
0 0 254
0 0 254
0 0 255
0 0 253
0 0 253
0 0 254
0 0 252
0 0 254
0 0 250
0 0 253
0 0 254
0 0 252
0 0 253
0 0 252
0 0 252
0 0 253
0 0 253
0 0 252
0 0 253
0 0 252
0 0 253
0 0 252
0 0 252
0 0 250
0 0 254
0 0 252
0 0 249
0 0 250
0 0 249
0 0 249
0 0 252
0 0 252
0 0 252
0 0 250
0 0 248
0 0 248
0 0 250
0 0 250
0 0 248
0 0 250
0 0 245
0 0 249
0 0 252
0 0 252
0 0 246
0 0 253
0 0 245
0 0 250
0 0 252
0 0 252
0 0 245
0 0 244
0 0 245
0 0 249
0 0 244
0 0 246
0 0 246
0 0 248
0 0 245
0 0 246
0 0 248
0 0 244
0 0 244
0 0 244
0 0 249
0 0 240
0 0 249
0 0 246
0 0 249
0 0 249
0 0 240
0 0 246
0 0 246
0 0 244
0 0 242
0 0 244
0 0 244
0 0 244
0 0 241
0 0 245
0 0 237
0 0 240
0 0 240
0 0 248
0 0 240
0 0 238
0 0 246
0 0 233
0 0 242
0 0 234
0 0 234
0 0 233
0 0 244
0 0 245
0 0 236
0 0 236
0 0 244
0 0 236
0 0 240
0 0 237
133 137 248
235 242 255
239 246 255
239 246 255
239 246 255
239 246 255
239 246 255
239 246 255
239 246 255
239 246 255
239 246 255
239 246 255
239 246 255
239 246 255
239 246 255
239 246 255
239 246 255
239 246 255
239 246 255
239 246 255
239 246 255
239 246 255
239 246 255
239 246 255
239 246 255
239 246 255
239 246 255
239 246 255
239 246 255
239 246 255
239 246 255
239 246 255
239 246 255
239 246 255
239 246 255
239 246 255
239 246 255
239 246 255
239 246 255
239 246 255
239 246 255
239 246 255
239 246 255
239 246 255
239 246 255
239 246 255
239 246 255
239 246 255
239 246 255
239 246 255
239 246 255
239 246 255
239 246 255
239 246 255
239 246 255
239 246 255
239 246 255
239 246 255
239 246 255
239 246 255
236 243 253
226 141 147
226 0 0
219 0 0
218 0 0
215 0 0
218 0 0
222 0 0
218 0 0
218 0 0
219 0 0
218 0 0
217 0 0
227 0 0
223 0 0
224 0 0
216 0 0
221 0 0
223 0 0
228 0 0
221 0 0
225 0 0
224 0 0
228 0 0
219 0 0
225 0 0
223 0 0
223 0 0
220 0 0
226 0 0
219 0 0
220 0 0
220 0 0
224 0 0
223 0 0
219 0 0
223 0 0
229 0 0
223 0 0
225 0 0
225 0 0
228 0 0
221 0 0
219 0 0
225 0 0
232 0 0
230 0 0
227 0 0
228 0 0
228 0 0
226 0 0
228 0 0
225 0 0
227 0 0
228 0 0
225 0 0
225 0 0
219 0 0
224 0 0
227 0 0
225 0 0
228 0 0
226 0 0
220 0 0
227 0 0
225 0 0
228 0 0
226 0 0
226 0 0
225 0 0
227 0 0
231 0 0
230 0 0
230 0 0
226 0 0
229 0 0
227 0 0
230 0 0
227 0 0
230 0 0
226 0 0
228 0 0
223 0 0
225 0 0
227 0 0
228 0 0
227 0 0
226 0 0
224 0 0
229 0 0
230 0 0
224 0 0
224 0 0
228 0 0
221 0 0
228 0 0
227 0 0
230 0 0
226 0 0
228 0 0
228 0 0
233 0 0
230 0 0
225 0 0
226 0 0
228 0 0
224 0 0
222 0 0
227 0 0
229 0 0
229 0 0
226 0 0
226 0 0
227 0 0
227 0 0
227 0 0
227 0 0
228 0 0
232 0 0
227 0 0
227 0 0
233 0 0
224 0 0
229 0 0
226 0 0
226 0 0
229 0 0
229 0 0
227 0 0
226 0 0
224 0 0
229 0 0
227 0 0
226 0 0
228 0 0
227 0 0
226 0 0
227 0 0
227 0 0
231 0 0
232 0 0
228 0 0
227 0 0
226 0 0
229 0 0
227 0 0
230 0 0
225 0 0
224 0 0
226 0 0
227 0 0
231 0 0
225 0 0
224 0 0
226 0 0
224 0 0
228 0 0
231 0 0
228 0 0
226 0 0
228 0 0
229 0 0
229 0 0
228 0 0
230 0 0
228 0 0
228 0 0
227 0 0
226 0 0
224 0 0
227 0 0
0 0 254
0 0 255
0 0 255
0 0 254
0 0 255
0 0 255
0 0 254
0 0 253
0 0 255
0 0 255
0 0 255
0 0 254
0 0 255
0 0 255
0 0 254
0 0 255
0 0 255
0 0 255
0 0 255
0 0 254
0 0 255
0 0 255
0 0 255
0 0 255
0 0 254
0 0 255
0 0 255
0 0 255
0 0 254
0 0 254
0 0 255
0 0 254
0 0 253
0 0 253
0 0 255
0 0 255
0 0 252
0 0 254
0 0 254
0 0 255
0 0 254
0 0 253
0 0 255
0 0 254
0 0 254
0 0 255
0 0 255
0 0 254
0 0 254
0 0 254
0 0 253
0 0 254
0 0 254
0 0 255
0 0 254
0 0 255
0 0 255
0 0 253
0 0 254
0 0 254
0 0 253
0 0 254
0 0 253
0 0 254
0 0 252
0 0 253
0 0 255
0 0 254
0 0 250
0 0 253
0 0 250
0 0 253
0 0 253
0 0 254
0 0 250
0 0 254
0 0 252
0 0 254
0 0 252
0 0 254
0 0 253
0 0 250
0 0 250
0 0 252
0 0 254
0 0 253
0 0 252
0 0 255
0 0 250
0 0 252
0 0 248
0 0 249
0 0 254
0 0 255
0 0 254
0 0 254
0 0 250
0 0 252
0 0 253
0 0 252
0 0 252
0 0 248
0 0 249
0 0 253
0 0 246
0 0 249
0 0 253
0 0 254
0 0 253
0 0 253
0 0 242
0 0 253
0 0 250
0 0 246
0 0 245
0 0 248
0 0 250
0 0 246
0 0 246
0 0 246
0 0 246
0 0 244
0 0 252
0 0 246
0 0 245
0 0 241
0 0 244
0 0 246
0 0 244
0 0 245
0 0 248
0 0 245
0 0 245
0 0 246
0 0 249
0 0 249
0 0 244
0 0 242
0 0 241
0 0 242
0 0 240
0 0 244
0 0 240
0 0 248
0 0 244
0 0 248
0 0 237
0 0 236
0 0 240
0 0 248
0 0 242
0 0 241
0 0 242
0 0 245
0 0 242
0 0 246
0 0 234
0 0 240
0 0 240
0 0 240
0 0 238
0 0 240
0 0 246
0 0 238
0 0 223
0 0 237
0 0 228
0 0 228
137 141 248
237 243 254
239 246 255
239 246 255
239 246 255
239 246 255
239 246 255
239 246 255
239 246 255
239 246 255
239 246 255
239 246 255
239 246 255
239 246 255
239 246 255
239 246 255
239 246 255
239 246 255
239 246 255
239 246 255
239 246 255
239 246 255
239 246 255
239 246 255
239 246 255
239 246 255
239 246 255
239 246 255
239 246 255
239 246 255
239 246 255
239 246 255
239 246 255
239 246 255
239 246 255
239 246 255
239 246 255
239 246 255
239 246 255
239 246 255
239 246 255
239 246 255
239 246 255
239 246 255
239 246 255
239 246 255
239 246 255
239 246 255
239 246 255
239 246 255
239 246 255
239 246 255
239 246 255
239 246 255
239 246 255
239 246 255
239 246 255
239 246 255
239 246 255
239 246 255
239 246 255
239 246 255
239 243 253
225 143 149
215 0 0
225 0 0
216 0 0
221 0 0
221 0 0
221 0 0
227 0 0
224 0 0
222 0 0
217 0 0
217 0 0
228 0 0
224 0 0
216 0 0
222 0 0
222 0 0
219 0 0
224 0 0
226 0 0
223 0 0
224 0 0
224 0 0
223 0 0
219 0 0
224 0 0
225 0 0
222 0 0
223 0 0
227 0 0
228 0 0
225 0 0
226 0 0
231 0 0
221 0 0
224 0 0
226 0 0
231 0 0
223 0 0
227 0 0
224 0 0
229 0 0
227 0 0
224 0 0
228 0 0
221 0 0
230 0 0
222 0 0
227 0 0
226 0 0
230 0 0
231 0 0
225 0 0
229 0 0
223 0 0
227 0 0
230 0 0
219 0 0
223 0 0
228 0 0
225 0 0
227 0 0
223 0 0
224 0 0
224 0 0
223 0 0
224 0 0
226 0 0
229 0 0
227 0 0
228 0 0
228 0 0
226 0 0
227 0 0
227 0 0
227 0 0
229 0 0
228 0 0
224 0 0
224 0 0
229 0 0
228 0 0
224 0 0
223 0 0
224 0 0
228 0 0
224 0 0
223 0 0
225 0 0
227 0 0
226 0 0
224 0 0
225 0 0
229 0 0
227 0 0
230 0 0
229 0 0
227 0 0
229 0 0
229 0 0
230 0 0
225 0 0
228 0 0
230 0 0
230 0 0
227 0 0
227 0 0
228 0 0
225 0 0
225 0 0
226 0 0
225 0 0
227 0 0
227 0 0
226 0 0
227 0 0
226 0 0
228 0 0
230 0 0
227 0 0
225 0 0
230 0 0
225 0 0
228 0 0
230 0 0
230 0 0
230 0 0
228 0 0
225 0 0
229 0 0
229 0 0
226 0 0
230 0 0
226 0 0
228 0 0
228 0 0
224 0 0
229 0 0
225 0 0
228 0 0
226 0 0
228 0 0
228 0 0
229 0 0
224 0 0
227 0 0
227 0 0
227 0 0
227 0 0
228 0 0
226 0 0
229 0 0
228 0 0
227 0 0
230 0 0
226 0 0
229 0 0
229 0 0
227 0 0
230 0 0
226 0 0
230 0 0
228 0 0
228 0 0
227 0 0
228 0 0
225 0 0
230 0 0
229 0 0
0 0 254
0 0 255
0 0 255
0 0 254
0 0 254
0 0 254
0 0 255
0 0 253
0 0 254
0 0 254
0 0 254
0 0 255
0 0 255
0 0 255
0 0 254
0 0 255
0 0 255
0 0 254
0 0 253
0 0 255
0 0 255
0 0 255
0 0 254
0 0 254
0 0 255
0 0 254
0 0 255
0 0 254
0 0 253
0 0 254
0 0 255
0 0 254
0 0 253
0 0 255
0 0 255
0 0 253
0 0 255
0 0 255
0 0 254
0 0 254
0 0 255
0 0 255
0 0 255
0 0 255
0 0 252
0 0 254
0 0 254
0 0 254
0 0 254
0 0 254
0 0 253
0 0 252
0 0 254
0 0 254
0 0 254
0 0 254
0 0 254
0 0 252
0 0 254
0 0 255
0 0 253
0 0 255
0 0 255
0 0 253
0 0 253
0 0 253
0 0 255
0 0 252
0 0 254
0 0 252
0 0 255
0 0 250
0 0 250
0 0 255
0 0 255
0 0 253
0 0 254
0 0 254
0 0 252
0 0 252
0 0 254
0 0 253
0 0 254
0 0 252
0 0 254
0 0 250
0 0 254
0 0 252
0 0 255
0 0 255
0 0 254
0 0 252
0 0 249
0 0 253
0 0 250
0 0 250
0 0 252
0 0 250
0 0 253
0 0 250
0 0 250
0 0 250
0 0 252
0 0 252
0 0 252
0 0 252
0 0 249
0 0 249
0 0 250
0 0 250
0 0 255
0 0 249
0 0 255
0 0 248
0 0 249
0 0 253
0 0 246
0 0 249
0 0 252
0 0 250
0 0 249
0 0 248
0 0 246
0 0 244
0 0 245
0 0 246
0 0 248
0 0 252
0 0 248
0 0 245
0 0 248
0 0 249
0 0 248
0 0 245
0 0 246
0 0 248
0 0 245
0 0 240
0 0 246
0 0 240
0 0 244
0 0 244
0 0 245
0 0 237
0 0 240
0 0 246
0 0 242
0 0 241
0 0 248
0 0 244
0 0 240
0 0 238
0 0 245
0 0 237
0 0 242
0 0 234
0 0 236
0 0 237
0 0 241
0 0 244
0 0 241
0 0 244
0 0 242
0 0 238
0 0 240
0 0 233
0 0 233
139 143 246
239 246 255
239 246 255
239 246 255
239 246 255
239 246 255
239 246 255
239 246 255
239 246 255
239 246 255
239 246 255
239 246 255
239 246 255
239 246 255
239 246 255
239 246 255
239 246 255
239 246 255
239 246 255
239 246 255
239 246 255
239 246 255
240 246 255
240 246 255
240 246 255
240 246 255
240 246 255
240 246 255
240 246 255
240 246 255
240 246 255
240 246 255
240 246 255
240 246 255
240 246 255
240 246 255
240 246 255
240 246 255
240 246 255
240 246 255
240 246 255
240 246 255
240 246 255
239 246 255
239 246 255
239 246 255
239 246 255
239 246 255
239 246 255
239 246 255
239 246 255
239 246 255
239 246 255
239 246 255
239 246 255
239 246 255
239 246 255
239 246 255
239 246 255
239 246 255
239 246 255
239 246 255
239 246 255
239 246 255
239 245 254
222 132 137
231 0 0
217 0 0
224 0 0
221 0 0
223 0 0
223 0 0
223 0 0
221 0 0
220 0 0
216 0 0
231 0 0
223 0 0
225 0 0
222 0 0
229 0 0
226 0 0
224 0 0
223 0 0
221 0 0
228 0 0
219 0 0
219 0 0
230 0 0
228 0 0
223 0 0
223 0 0
227 0 0
223 0 0
223 0 0
217 0 0
224 0 0
225 0 0
231 0 0
218 0 0
224 0 0
222 0 0
224 0 0
222 0 0
223 0 0
226 0 0
230 0 0
222 0 0
223 0 0
230 0 0
226 0 0
227 0 0
227 0 0
222 0 0
229 0 0
221 0 0
226 0 0
226 0 0
228 0 0
224 0 0
229 0 0
227 0 0
232 0 0
221 0 0
233 0 0
226 0 0
225 0 0
228 0 0
221 0 0
225 0 0
220 0 0
223 0 0
227 0 0
226 0 0
227 0 0
226 0 0
221 0 0
229 0 0
226 0 0
233 0 0
226 0 0
227 0 0
226 0 0
226 0 0
224 0 0
229 0 0
231 0 0
228 0 0
229 0 0
227 0 0
234 0 0
229 0 0
228 0 0
231 0 0
223 0 0
232 0 0
227 0 0
226 0 0
227 0 0
227 0 0
225 0 0
229 0 0
225 0 0
228 0 0
228 0 0
220 0 0
231 0 0
226 0 0
227 0 0
221 0 0
230 0 0
226 0 0
232 0 0
227 0 0
229 0 0
227 0 0
229 0 0
230 0 0
229 0 0
230 0 0
228 0 0
230 0 0
226 0 0
228 0 0
226 0 0
228 0 0
226 0 0
225 0 0
227 0 0
230 0 0
228 0 0
226 0 0
227 0 0
226 0 0
225 0 0
227 0 0
229 0 0
230 0 0
229 0 0
227 0 0
228 0 0
227 0 0
232 0 0
226 0 0
230 0 0
227 0 0
229 0 0
229 0 0
233 0 0
227 0 0
231 0 0
224 0 0
228 0 0
228 0 0
227 0 0
229 0 0
230 0 0
230 0 0
224 0 0
225 0 0
229 0 0
229 0 0
233 0 0
228 0 0
226 0 0
229 0 0
230 0 0
226 0 0
228 0 0
228 0 0
227 0 0
226 0 0
231 0 0
0 0 255
0 0 255
0 0 255
0 0 255
0 0 254
0 0 254
0 0 255
0 0 254
0 0 255
0 0 255
0 0 255
0 0 254
0 0 253
0 0 254
0 0 255
0 0 255
0 0 254
0 0 255
0 0 254
0 0 255
0 0 255
0 0 254
0 0 255
0 0 253
0 0 255
0 0 255
0 0 255
0 0 254
0 0 254
0 0 253
0 0 255
0 0 254
0 0 254
0 0 255
0 0 253
0 0 254
0 0 255
0 0 255
0 0 254
0 0 255
0 0 254
0 0 253
0 0 254
0 0 253
0 0 255
0 0 253
0 0 253
0 0 255
0 0 255
0 0 254
0 0 254
0 0 254
0 0 253
0 0 253
0 0 253
0 0 253
0 0 254
0 0 253
0 0 254
0 0 252
0 0 255
0 0 255
0 0 255
0 0 254
0 0 252
0 0 249
0 0 255
0 0 255
0 0 253
0 0 255
0 0 252
0 0 253
0 0 252
0 0 253
0 0 254
0 0 252
0 0 253
0 0 253
0 0 255
0 0 254
0 0 253
0 0 254
0 0 249
0 0 254
0 0 253
0 0 254
0 0 253
0 0 254
0 0 253
0 0 249
0 0 252
0 0 250
0 0 254
0 0 254
0 0 249
0 0 253
0 0 254
0 0 252
0 0 253
0 0 246
0 0 249
0 0 250
0 0 253
0 0 252
0 0 250
0 0 250
0 0 250
0 0 246
0 0 248
0 0 254
0 0 250
0 0 248
0 0 248
0 0 252
0 0 252
0 0 253
0 0 250
0 0 252
0 0 252
0 0 246
0 0 250
0 0 249
0 0 248
0 0 249
0 0 248
0 0 244
0 0 252
0 0 248
0 0 249
0 0 244
0 0 242
0 0 242
0 0 250
0 0 248
0 0 246
0 0 246
0 0 240
0 0 244
0 0 245
0 0 244
0 0 242
0 0 246
0 0 244
0 0 245
0 0 248
0 0 237
0 0 236
0 0 246
0 0 234
0 0 244
0 0 244
0 0 245
0 0 244
0 0 248
0 0 240
0 0 250
0 0 245
0 0 249
0 0 236
0 0 240
0 0 238
0 0 236
0 0 241
0 0 238
0 0 236
0 0 237
153 157 234
238 245 255
239 246 255
239 246 255
239 246 255
239 246 255
239 246 255
239 246 255
239 246 255
239 246 255
239 246 255
239 246 255
240 246 255
240 246 255
240 246 255
240 246 255
240 246 255
240 246 255
240 246 255
240 246 255
240 246 255
240 246 255
240 246 255
240 246 255
240 246 255
240 246 255
240 246 255
240 246 255
240 246 255
240 246 255
240 246 255
240 246 255
240 246 255
240 246 255
240 246 255
240 246 255
240 246 255
240 246 255
240 246 255
240 246 255
240 246 255
240 246 255
240 246 255
240 246 255
240 246 255
240 246 255
240 246 255
240 246 255
240 246 255
240 246 255
240 246 255
240 246 255
240 246 255
240 246 255
240 246 255
240 246 255
239 246 255
239 246 255
239 246 255
239 246 255
239 246 255
239 246 255
239 246 255
239 246 255
239 246 255
239 246 255
239 246 255
234 157 163
214 0 0
222 0 0
223 0 0
223 0 0
225 0 0
225 0 0
223 0 0
221 0 0
222 0 0
221 0 0
222 0 0
220 0 0
222 0 0
225 0 0
227 0 0
224 0 0
222 0 0
220 0 0
220 0 0
228 0 0
217 0 0
224 0 0
227 0 0
222 0 0
222 0 0
226 0 0
220 0 0
224 0 0
221 0 0
224 0 0
223 0 0
225 0 0
226 0 0
230 0 0
220 0 0
223 0 0
225 0 0
226 0 0
226 0 0
226 0 0
227 0 0
225 0 0
224 0 0
225 0 0
221 0 0
219 0 0
225 0 0
226 0 0
226 0 0
229 0 0
220 0 0
221 0 0
222 0 0
229 0 0
224 0 0
229 0 0
223 0 0
228 0 0
227 0 0
224 0 0
228 0 0
227 0 0
226 0 0
224 0 0
221 0 0
229 0 0
226 0 0
224 0 0
229 0 0
230 0 0
229 0 0
228 0 0
229 0 0
225 0 0
224 0 0
228 0 0
226 0 0
229 0 0
225 0 0
226 0 0
231 0 0
226 0 0
228 0 0
229 0 0
229 0 0
228 0 0
225 0 0
226 0 0
224 0 0
230 0 0
233 0 0
228 0 0
228 0 0
229 0 0
230 0 0
227 0 0
225 0 0
228 0 0
231 0 0
230 0 0
226 0 0
224 0 0
223 0 0
226 0 0
231 0 0
227 0 0
227 0 0
227 0 0
228 0 0
227 0 0
226 0 0
227 0 0
225 0 0
228 0 0
227 0 0
230 0 0
228 0 0
232 0 0
227 0 0
229 0 0
229 0 0
232 0 0
225 0 0
227 0 0
229 0 0
229 0 0
228 0 0
231 0 0
224 0 0
229 0 0
228 0 0
229 0 0
226 0 0
229 0 0
224 0 0
228 0 0
229 0 0
226 0 0
228 0 0
228 0 0
229 0 0
229 0 0
225 0 0
226 0 0
231 0 0
227 0 0
228 0 0
225 0 0
226 0 0
227 0 0
230 0 0
231 0 0
229 0 0
230 0 0
231 0 0
225 0 0
233 0 0
229 0 0
229 0 0
229 0 0
228 0 0
229 0 0
233 0 0
229 0 0
228 0 0
230 0 0
0 0 255
0 0 255
0 0 255
0 0 255
0 0 255
0 0 255
0 0 255
0 0 255
0 0 255
0 0 255
0 0 253
0 0 255
0 0 255
0 0 255
0 0 255
0 0 254
0 0 254
0 0 255
0 0 255
0 0 255
0 0 255
0 0 255
0 0 255
0 0 255
0 0 254
0 0 254
0 0 255
0 0 255
0 0 255
0 0 255
0 0 252
0 0 254
0 0 255
0 0 253
0 0 253
0 0 254
0 0 255
0 0 255
0 0 255
0 0 255
0 0 255
0 0 255
0 0 255
0 0 254
0 0 253
0 0 254
0 0 254
0 0 253
0 0 254
0 0 255
0 0 255
0 0 252
0 0 254
0 0 255
0 0 254
0 0 252
0 0 255
0 0 253
0 0 254
0 0 255
0 0 254
0 0 255
0 0 253
0 0 255
0 0 250
0 0 253
0 0 255
0 0 252
0 0 255
0 0 255
0 0 255
0 0 254
0 0 252
0 0 252
0 0 250
0 0 254
0 0 252
0 0 253
0 0 255
0 0 254
0 0 252
0 0 253
0 0 252
0 0 255
0 0 246
0 0 250
0 0 249
0 0 252
0 0 252
0 0 252
0 0 253
0 0 254
0 0 252
0 0 248
0 0 254
0 0 252
0 0 253
0 0 252
0 0 252
0 0 249
0 0 248
0 0 253
0 0 250
0 0 250
0 0 252
0 0 252
0 0 252
0 0 253
0 0 246
0 0 248
0 0 254
0 0 248
0 0 252
0 0 253
0 0 242
0 0 250
0 0 253
0 0 249
0 0 250
0 0 252
0 0 249
0 0 249
0 0 248
0 0 245
0 0 253
0 0 246
0 0 252
0 0 246
0 0 245
0 0 249
0 0 246
0 0 245
0 0 244
0 0 249
0 0 250
0 0 250
0 0 246
0 0 237
0 0 242
0 0 245
0 0 245
0 0 245
0 0 244
0 0 246
0 0 244
0 0 242
0 0 246
0 0 245
0 0 250
0 0 242
0 0 240
0 0 246
0 0 240
0 0 237
0 0 250
0 0 240
0 0 240
0 0 237
0 0 246
0 0 244
0 0 236
0 0 244
0 0 242
0 0 241
23 24 234
197 203 248
239 246 255
239 246 255
239 246 255
239 246 255
240 246 255
240 246 255
240 246 255
240 246 255
240 246 255
240 246 255
240 246 255
240 246 255
240 246 255
240 246 255
240 246 255
240 246 255
240 246 255
240 246 255
240 246 255
240 246 255
240 246 255
240 246 255
240 246 255
240 246 255
240 246 255
240 246 255
240 246 255
240 246 255
240 246 255
240 246 255
240 246 255
240 246 255
240 246 255
240 246 255
240 246 255
240 246 255
240 246 255
240 246 255
240 246 255
240 246 255
240 246 255
240 246 255
240 246 255
240 246 255
240 246 255
240 246 255
240 246 255
240 246 255
240 246 255
240 246 255
240 246 255
240 246 255
240 246 255
240 246 255
240 246 255
240 246 255
240 246 255
240 246 255
240 246 255
240 246 255
240 246 255
240 246 255
240 246 255
240 246 255
239 246 255
239 246 255
239 246 255
239 246 255
230 172 179
228 0 0
225 0 0
225 0 0
227 0 0
221 0 0
217 0 0
225 0 0
224 0 0
224 0 0
224 0 0
225 0 0
226 0 0
226 0 0
216 0 0
215 0 0
222 0 0
222 0 0
225 0 0
217 0 0
223 0 0
224 0 0
225 0 0
222 0 0
217 0 0
221 0 0
228 0 0
220 0 0
223 0 0
227 0 0
226 0 0
229 0 0
225 0 0
225 0 0
228 0 0
228 0 0
228 0 0
230 0 0
223 0 0
228 0 0
226 0 0
222 0 0
227 0 0
223 0 0
224 0 0
229 0 0
226 0 0
223 0 0
225 0 0
230 0 0
229 0 0
231 0 0
227 0 0
227 0 0
229 0 0
230 0 0
231 0 0
228 0 0
223 0 0
223 0 0
222 0 0
228 0 0
230 0 0
227 0 0
226 0 0
223 0 0
225 0 0
229 0 0
231 0 0
224 0 0
225 0 0
226 0 0
228 0 0
232 0 0
230 0 0
225 0 0
225 0 0
231 0 0
226 0 0
230 0 0
225 0 0
224 0 0
228 0 0
234 0 0
231 0 0
227 0 0
232 0 0
223 0 0
223 0 0
229 0 0
226 0 0
229 0 0
226 0 0
225 0 0
229 0 0
230 0 0
228 0 0
225 0 0
227 0 0
225 0 0
231 0 0
227 0 0
229 0 0
228 0 0
227 0 0
232 0 0
229 0 0
227 0 0
231 0 0
228 0 0
225 0 0
231 0 0
227 0 0
227 0 0
229 0 0
227 0 0
227 0 0
232 0 0
227 0 0
230 0 0
230 0 0
230 0 0
227 0 0
225 0 0
229 0 0
227 0 0
228 0 0
227 0 0
228 0 0
229 0 0
224 0 0
228 0 0
230 0 0
228 0 0
228 0 0
226 0 0
230 0 0
228 0 0
226 0 0
229 0 0
231 0 0
227 0 0
229 0 0
229 0 0
231 0 0
230 0 0
229 0 0
225 0 0
228 0 0
228 0 0
228 0 0
229 0 0
227 0 0
229 0 0
229 0 0
230 0 0
225 0 0
228 0 0
225 0 0
229 0 0
229 0 0
230 0 0
227 0 0
231 0 0
227 0 0
227 0 0
0 0 255
0 0 253
0 0 255
0 0 255
0 0 255
0 0 255
0 0 255
0 0 254
0 0 255
0 0 255
0 0 255
0 0 255
0 0 255
0 0 255
0 0 255
0 0 255
0 0 255
0 0 253
0 0 255
0 0 255
0 0 255
0 0 255
0 0 255
0 0 255
0 0 255
0 0 255
0 0 255
0 0 255
0 0 254
0 0 253
0 0 255
0 0 254
0 0 254
0 0 253
0 0 255
0 0 255
0 0 254
0 0 253
0 0 254
0 0 253
0 0 255
0 0 254
0 0 255
0 0 255
0 0 254
0 0 253
0 0 254
0 0 252
0 0 254
0 0 250
0 0 255
0 0 253
0 0 255
0 0 254
0 0 255
0 0 253
0 0 254
0 0 255
0 0 252
0 0 249
0 0 255
0 0 252
0 0 255
0 0 255
0 0 252
0 0 255
0 0 253
0 0 253
0 0 254
0 0 254
0 0 254
0 0 253
0 0 250
0 0 250
0 0 252
0 0 252
0 0 255
0 0 252
0 0 255
0 0 254
0 0 250
0 0 255
0 0 252
0 0 253
0 0 255
0 0 248
0 0 253
0 0 250
0 0 253
0 0 252
0 0 254
0 0 252
0 0 252
0 0 254
0 0 253
0 0 255
0 0 252
0 0 252
0 0 254
0 0 253
0 0 255
0 0 252
0 0 250
0 0 248
0 0 252
0 0 253
0 0 248
0 0 252
0 0 250
0 0 254
0 0 252
0 0 246
0 0 248
0 0 245
0 0 240
0 0 242
0 0 242
0 0 253
0 0 254
0 0 248
0 0 249
0 0 248
0 0 245
0 0 249
0 0 244
0 0 245
0 0 253
0 0 241
0 0 245
0 0 246
0 0 244
0 0 250
0 0 248
0 0 248
0 0 249
0 0 248
0 0 252
0 0 248
0 0 242
0 0 245
0 0 244
0 0 248
0 0 248
0 0 240
0 0 245
0 0 246
0 0 245
0 0 242
0 0 241
0 0 242
0 0 246
0 0 248
0 0 246
0 0 236
0 0 240
0 0 246
0 0 236
0 0 236
0 0 244
0 0 238
0 0 241
0 0 234
0 0 237
41 42 238
193 198 252
240 246 255
240 246 255
240 246 255
240 246 255
240 246 255
240 246 255
240 246 255
240 246 255
240 246 255
240 246 255
240 246 255
240 246 255
240 246 255
240 246 255
240 246 255
240 246 255
240 246 255
240 246 255
240 246 255
240 246 255
240 246 255
240 246 255
240 246 255
240 246 255
240 246 255
240 246 255
240 246 255
240 246 255
240 246 255
240 246 255
240 246 255
240 246 255
240 246 255
240 246 255
240 246 255
240 246 255
240 246 255
240 246 255
240 246 255
240 246 255
240 246 255
240 246 255
240 246 255
240 246 255
240 246 255
240 246 255
240 246 255
240 246 255
240 246 255
240 246 255
240 246 255
240 246 255
240 246 255
240 246 255
240 246 255
240 246 255
240 246 255
240 246 255
240 246 255
240 246 255
240 246 255
240 246 255
240 246 255
240 246 255
240 246 255
240 246 255
240 246 255
240 246 255
240 246 255
240 246 255
238 195 203
218 0 0
228 0 0
214 0 0
223 0 0
225 0 0
225 0 0
225 0 0
224 0 0
218 0 0
226 0 0
224 0 0
221 0 0
223 0 0
226 0 0
229 0 0
225 0 0
219 0 0
225 0 0
225 0 0
221 0 0
231 0 0
219 0 0
226 0 0
223 0 0
233 0 0
221 0 0
225 0 0
227 0 0
230 0 0
229 0 0
230 0 0
225 0 0
228 0 0
229 0 0
227 0 0
221 0 0
232 0 0
221 0 0
224 0 0
228 0 0
223 0 0
224 0 0
229 0 0
224 0 0
224 0 0
227 0 0
224 0 0
222 0 0
226 0 0
230 0 0
227 0 0
222 0 0
224 0 0
228 0 0
228 0 0
234 0 0
228 0 0
227 0 0
231 0 0
226 0 0
227 0 0
229 0 0
223 0 0
221 0 0
223 0 0
224 0 0
230 0 0
225 0 0
226 0 0
230 0 0
225 0 0
230 0 0
226 0 0
226 0 0
224 0 0
226 0 0
224 0 0
228 0 0
222 0 0
231 0 0
229 0 0
227 0 0
225 0 0
227 0 0
227 0 0
226 0 0
227 0 0
222 0 0
228 0 0
228 0 0
225 0 0
228 0 0
229 0 0
230 0 0
226 0 0
228 0 0
229 0 0
230 0 0
227 0 0
225 0 0
230 0 0
228 0 0
226 0 0
229 0 0
232 0 0
233 0 0
228 0 0
231 0 0
226 0 0
229 0 0
227 0 0
227 0 0
231 0 0
229 0 0
230 0 0
228 0 0
226 0 0
225 0 0
229 0 0
228 0 0
224 0 0
227 0 0
227 0 0
228 0 0
231 0 0
231 0 0
227 0 0
230 0 0
232 0 0
226 0 0
228 0 0
224 0 0
231 0 0
228 0 0
228 0 0
230 0 0
228 0 0
225 0 0
229 0 0
230 0 0
227 0 0
227 0 0
232 0 0
230 0 0
227 0 0
225 0 0
229 0 0
228 0 0
229 0 0
227 0 0
230 0 0
229 0 0
225 0 0
225 0 0
230 0 0
230 0 0
229 0 0
229 0 0
228 0 0
226 0 0
226 0 0
227 0 0
228 0 0
229 0 0
0 0 255
0 0 255
0 0 255
0 0 254
0 0 255
0 0 255
0 0 254
0 0 254
0 0 255
0 0 255
0 0 255
0 0 254
0 0 254
0 0 255
0 0 255
0 0 255
0 0 255
0 0 255
0 0 255
0 0 255
0 0 254
0 0 255
0 0 252
0 0 255
0 0 254
0 0 255
0 0 255
0 0 254
0 0 255
0 0 254
0 0 253
0 0 253
0 0 254
0 0 253
0 0 255
0 0 255
0 0 254
0 0 255
0 0 254
0 0 254
0 0 254
0 0 255
0 0 254
0 0 255
0 0 255
0 0 255
0 0 255
0 0 254
0 0 255
0 0 255
0 0 254
0 0 255
0 0 254
0 0 255
0 0 255
0 0 255
0 0 254
0 0 255
0 0 252
0 0 254
0 0 254
0 0 254
0 0 255
0 0 255
0 0 253
0 0 254
0 0 254
0 0 255
0 0 254
0 0 250
0 0 255
0 0 254
0 0 253
0 0 254
0 0 254
0 0 253
0 0 252
0 0 253
0 0 249
0 0 255
0 0 252
0 0 254
0 0 254
0 0 254
0 0 249
0 0 253
0 0 254
0 0 252
0 0 254
0 0 253
0 0 253
0 0 255
0 0 252
0 0 253
0 0 248
0 0 250
0 0 249
0 0 250
0 0 250
0 0 249
0 0 255
0 0 249
0 0 253
0 0 250
0 0 246
0 0 253
0 0 252
0 0 253
0 0 252
0 0 248
0 0 253
0 0 252
0 0 253
0 0 249
0 0 244
0 0 254
0 0 253
0 0 253
0 0 250
0 0 250
0 0 249
0 0 248
0 0 252
0 0 249
0 0 252
0 0 248
0 0 249
0 0 249
0 0 245
0 0 248
0 0 248
0 0 248
0 0 248
0 0 250
0 0 246
0 0 250
0 0 249
0 0 250
0 0 248
0 0 248
0 0 242
0 0 246
0 0 242
0 0 245
0 0 246
0 0 245
0 0 241
0 0 241
0 0 238
0 0 240
0 0 245
0 0 238
0 0 240
0 0 245
0 0 237
0 0 242
0 0 236
0 0 228
0 0 240
0 0 236
0 0 238
0 0 246
58 60 242
205 210 252
240 246 255
240 246 255
240 246 255
240 246 255
240 246 255
240 246 255
240 246 255
240 246 255
240 246 255
240 246 255
240 246 255
240 246 255
240 246 255
240 246 255
240 246 255
240 246 255
240 246 255
240 246 255
240 246 255
240 246 255
240 246 255
240 246 255
240 246 255
240 246 255
240 246 255
240 246 255
240 246 255
240 246 255
240 246 255
240 246 255
240 246 255
240 246 255
240 246 255
240 246 255
240 246 255
240 246 255
240 246 255
240 246 255
240 246 255
240 246 255
240 246 255
240 246 255
240 246 255
240 246 255
240 246 255
240 246 255
240 246 255
240 246 255
240 246 255
240 246 255
240 246 255
240 246 255
240 246 255
240 246 255
240 246 255
240 246 255
240 246 255
240 246 255
240 246 255
240 246 255
240 246 255
240 246 255
240 246 255
240 246 255
240 246 255
240 246 255
240 246 255
240 246 255
240 246 255
240 246 255
240 246 255
240 246 255
235 215 223
229 60 62
231 0 0
223 0 0
219 0 0
231 0 0
225 0 0
225 0 0
224 0 0
228 0 0
224 0 0
222 0 0
229 0 0
225 0 0
227 0 0
218 0 0
226 0 0
227 0 0
226 0 0
225 0 0
226 0 0
223 0 0
224 0 0
213 0 0
230 0 0
227 0 0
228 0 0
225 0 0
224 0 0
226 0 0
228 0 0
224 0 0
224 0 0
226 0 0
227 0 0
225 0 0
228 0 0
225 0 0
225 0 0
230 0 0
226 0 0
227 0 0
228 0 0
223 0 0
225 0 0
225 0 0
226 0 0
227 0 0
221 0 0
226 0 0
224 0 0
224 0 0
224 0 0
226 0 0
231 0 0
227 0 0
226 0 0
224 0 0
232 0 0
223 0 0
231 0 0
226 0 0
225 0 0
228 0 0
224 0 0
227 0 0
225 0 0
229 0 0
228 0 0
226 0 0
226 0 0
229 0 0
223 0 0
231 0 0
226 0 0
226 0 0
229 0 0
230 0 0
227 0 0
228 0 0
231 0 0
225 0 0
224 0 0
226 0 0
230 0 0
230 0 0
226 0 0
232 0 0
233 0 0
230 0 0
228 0 0
231 0 0
227 0 0
227 0 0
230 0 0
224 0 0
232 0 0
228 0 0
231 0 0
231 0 0
227 0 0
228 0 0
230 0 0
227 0 0
225 0 0
226 0 0
228 0 0
230 0 0
227 0 0
229 0 0
225 0 0
229 0 0
227 0 0
227 0 0
230 0 0
223 0 0
227 0 0
228 0 0
230 0 0
229 0 0
229 0 0
231 0 0
226 0 0
229 0 0
226 0 0
227 0 0
227 0 0
229 0 0
228 0 0
229 0 0
230 0 0
226 0 0
230 0 0
226 0 0
226 0 0
227 0 0
230 0 0
230 0 0
227 0 0
224 0 0
227 0 0
228 0 0
225 0 0
227 0 0
228 0 0
229 0 0
227 0 0
227 0 0
226 0 0
228 0 0
228 0 0
226 0 0
228 0 0
226 0 0
229 0 0
228 0 0
231 0 0
230 0 0
227 0 0
233 0 0
229 0 0
231 0 0
228 0 0
227 0 0
0 0 255
0 0 255
0 0 255
0 0 255
0 0 254
0 0 254
0 0 254
0 0 255
0 0 255
0 0 255
0 0 254
0 0 254
0 0 253
0 0 255
0 0 254
0 0 255
0 0 255
0 0 255
0 0 254
0 0 255
0 0 255
0 0 254
0 0 254
0 0 254
0 0 255
0 0 255
0 0 254
0 0 254
0 0 254
0 0 255
0 0 255
0 0 254
0 0 253
0 0 255
0 0 253
0 0 255
0 0 253
0 0 255
0 0 255
0 0 255
0 0 254
0 0 254
0 0 255
0 0 254
0 0 255
0 0 252
0 0 255
0 0 255
0 0 255
0 0 255
0 0 254
0 0 254
0 0 255
0 0 255
0 0 254
0 0 254
0 0 253
0 0 254
0 0 254
0 0 253
0 0 253
0 0 253
0 0 252
0 0 254
0 0 253
0 0 254
0 0 255
0 0 252
0 0 252
0 0 252
0 0 255
0 0 250
0 0 253
0 0 254
0 0 254
0 0 254
0 0 253
0 0 254
0 0 250
0 0 253
0 0 249
0 0 254
0 0 250
0 0 248
0 0 252
0 0 254
0 0 255
0 0 250
0 0 252
0 0 253
0 0 255
0 0 252
0 0 253
0 0 250
0 0 252
0 0 252
0 0 254
0 0 249
0 0 250
0 0 252
0 0 253
0 0 253
0 0 253
0 0 254
0 0 253
0 0 248
0 0 250
0 0 248
0 0 242
0 0 250
0 0 252
0 0 252
0 0 250
0 0 252
0 0 252
0 0 248
0 0 248
0 0 248
0 0 252
0 0 252
0 0 250
0 0 252
0 0 252
0 0 248
0 0 249
0 0 252
0 0 244
0 0 246
0 0 249
0 0 250
0 0 245
0 0 248
0 0 249
0 0 245
0 0 248
0 0 238
0 0 240
0 0 248
0 0 242
0 0 241
0 0 242
0 0 245
0 0 250
0 0 252
0 0 249
0 0 249
0 0 238
0 0 244
0 0 242
0 0 248
0 0 249
0 0 246
0 0 244
0 0 234
0 0 242
0 0 250
0 0 245
0 0 242
0 0 238
0 0 241
0 0 237
104 107 246
220 226 255
240 246 255
240 246 255
240 246 255
240 246 255
240 246 255
240 246 255
240 246 255
240 246 255
240 246 255
240 246 255
240 246 255
240 246 255
240 246 255
240 246 255
240 246 255
240 246 255
240 246 255
240 246 255
240 246 255
240 247 255
240 247 255
240 247 255
240 247 255
240 247 255
240 247 255
240 247 255
240 247 255
240 247 255
240 247 255
240 247 255
240 247 255
240 247 255
240 247 255
240 247 255
240 247 255
240 247 255
240 247 255
240 247 255
240 247 255
240 247 255
240 247 255
240 247 255
240 247 255
240 247 255
240 247 255
240 247 255
240 247 255
240 247 255
240 247 255
240 247 255
240 247 255
240 247 255
240 247 255
240 247 255
240 247 255
240 246 255
240 246 255
240 246 255
240 246 255
240 246 255
240 246 255
240 246 255
240 246 255
240 246 255
240 246 255
240 246 255
240 246 255
240 246 255
240 246 255
240 246 255
240 246 255
240 246 255
240 246 255
240 246 255
236 232 241
233 101 105
234 0 0
227 0 0
224 0 0
223 0 0
222 0 0
226 0 0
227 0 0
220 0 0
222 0 0
222 0 0
223 0 0
225 0 0
229 0 0
225 0 0
232 0 0
219 0 0
228 0 0
223 0 0
222 0 0
227 0 0
225 0 0
222 0 0
230 0 0
222 0 0
231 0 0
222 0 0
227 0 0
225 0 0
221 0 0
219 0 0
226 0 0
228 0 0
227 0 0
231 0 0
229 0 0
226 0 0
232 0 0
227 0 0
228 0 0
224 0 0
222 0 0
223 0 0
223 0 0
227 0 0
232 0 0
226 0 0
227 0 0
223 0 0
227 0 0
220 0 0
226 0 0
224 0 0
230 0 0
226 0 0
231 0 0
228 0 0
229 0 0
228 0 0
228 0 0
226 0 0
228 0 0
229 0 0
219 0 0
229 0 0
228 0 0
226 0 0
225 0 0
229 0 0
224 0 0
227 0 0
223 0 0
227 0 0
229 0 0
227 0 0
225 0 0
229 0 0
228 0 0
228 0 0
228 0 0
227 0 0
225 0 0
226 0 0
226 0 0
229 0 0
223 0 0
229 0 0
231 0 0
224 0 0
228 0 0
229 0 0
226 0 0
230 0 0
227 0 0
229 0 0
229 0 0
229 0 0
225 0 0
229 0 0
230 0 0
224 0 0
230 0 0
228 0 0
229 0 0
229 0 0
227 0 0
228 0 0
231 0 0
231 0 0
227 0 0
230 0 0
230 0 0
229 0 0
231 0 0
228 0 0
230 0 0
229 0 0
233 0 0
229 0 0
230 0 0
227 0 0
228 0 0
227 0 0
230 0 0
227 0 0
230 0 0
229 0 0
225 0 0
228 0 0
223 0 0
228 0 0
229 0 0
232 0 0
224 0 0
227 0 0
228 0 0
229 0 0
229 0 0
230 0 0
227 0 0
227 0 0
228 0 0
231 0 0
230 0 0
231 0 0
230 0 0
226 0 0
230 0 0
228 0 0
228 0 0
228 0 0
229 0 0
229 0 0
229 0 0
229 0 0
229 0 0
228 0 0
226 0 0
229 0 0
229 0 0
225 0 0
227 0 0
0 0 255
0 0 255
0 0 255
0 0 253
0 0 255
0 0 255
0 0 255
0 0 255
0 0 254
0 0 255
0 0 255
0 0 255
0 0 255
0 0 254
0 0 254
0 0 255
0 0 254
0 0 255
0 0 255
0 0 255
0 0 253
0 0 255
0 0 253
0 0 254
0 0 255
0 0 252
0 0 255
0 0 255
0 0 255
0 0 255
0 0 253
0 0 255
0 0 255
0 0 255
0 0 255
0 0 254
0 0 255
0 0 253
0 0 254
0 0 255
0 0 254
0 0 254
0 0 254
0 0 254
0 0 255
0 0 255
0 0 254
0 0 255
0 0 253
0 0 253
0 0 255
0 0 254
0 0 253
0 0 255
0 0 254
0 0 252
0 0 254
0 0 252
0 0 253
0 0 255
0 0 254
0 0 253
0 0 254
0 0 255
0 0 250
0 0 254
0 0 254
0 0 253
0 0 253
0 0 253
0 0 253
0 0 252
0 0 254
0 0 252
0 0 249
0 0 253
0 0 255
0 0 254
0 0 253
0 0 254
0 0 252
0 0 255
0 0 254
0 0 252
0 0 253
0 0 254
0 0 254
0 0 252
0 0 254
0 0 250
0 0 250
0 0 250
0 0 252
0 0 253
0 0 252
0 0 253
0 0 253
0 0 248
0 0 252
0 0 249
0 0 248
0 0 255
0 0 253
0 0 252
0 0 252
0 0 252
0 0 246
0 0 248
0 0 252
0 0 254
0 0 254
0 0 253
0 0 253
0 0 248
0 0 249
0 0 252
0 0 253
0 0 242
0 0 244
0 0 250
0 0 248
0 0 248
0 0 245
0 0 244
0 0 252
0 0 252
0 0 245
0 0 250
0 0 248
0 0 248
0 0 249
0 0 250
0 0 246
0 0 244
0 0 250
0 0 246
0 0 244
0 0 240
0 0 242
0 0 246
0 0 244
0 0 249
0 0 240
0 0 249
0 0 249
0 0 238
0 0 250
0 0 242
0 0 238
0 0 246
0 0 242
0 0 244
0 0 242
0 0 244
0 0 242
0 0 236
0 0 242
0 0 238
0 0 249
0 0 241
110 113 252
231 237 255
240 246 255
240 246 255
240 246 255
240 246 255
240 246 255
240 246 255
240 246 255
240 246 255
240 246 255
240 246 255
240 246 255
240 246 255
240 247 255
240 247 255
240 247 255
240 247 255
240 247 255
240 247 255
240 247 255
240 247 255
240 247 255
241 247 255
241 247 255
241 247 255
241 247 255
241 247 255
241 247 255
241 247 255
241 247 255
241 247 255
241 247 255
241 247 255
241 247 255
241 247 255
241 247 255
241 247 255
241 247 255
241 247 255
241 247 255
241 247 255
241 247 255
241 247 255
241 247 255
241 247 255
241 247 255
241 247 255
241 247 255
241 247 255
241 247 255
241 247 255
241 247 255
241 247 255
241 247 255
241 247 255
241 247 255
241 247 255
240 247 255
240 247 255
240 247 255
240 247 255
240 247 255
240 247 255
240 247 255
240 247 255
240 246 255
240 246 255
240 246 255
240 246 255
240 246 255
240 246 255
240 246 255
240 246 255
240 246 255
240 246 255
240 246 255
240 246 255
240 239 248
234 130 135
230 0 0
226 0 0
221 0 0
223 0 0
228 0 0
226 0 0
220 0 0
221 0 0
228 0 0
228 0 0
212 0 0
226 0 0
227 0 0
221 0 0
223 0 0
228 0 0
224 0 0
225 0 0
231 0 0
221 0 0
228 0 0
230 0 0
230 0 0
229 0 0
226 0 0
225 0 0
226 0 0
225 0 0
228 0 0
227 0 0
231 0 0
224 0 0
226 0 0
225 0 0
226 0 0
224 0 0
225 0 0
227 0 0
229 0 0
231 0 0
229 0 0
233 0 0
228 0 0
226 0 0
220 0 0
231 0 0
226 0 0
227 0 0
233 0 0
232 0 0
223 0 0
222 0 0
232 0 0
224 0 0
232 0 0
226 0 0
225 0 0
231 0 0
225 0 0
227 0 0
230 0 0
228 0 0
228 0 0
231 0 0
230 0 0
232 0 0
229 0 0
224 0 0
229 0 0
232 0 0
228 0 0
228 0 0
230 0 0
228 0 0
227 0 0
228 0 0
230 0 0
227 0 0
230 0 0
228 0 0
230 0 0
229 0 0
229 0 0
226 0 0
226 0 0
225 0 0
228 0 0
229 0 0
230 0 0
227 0 0
228 0 0
231 0 0
222 0 0
226 0 0
228 0 0
229 0 0
227 0 0
229 0 0
224 0 0
228 0 0
230 0 0
230 0 0
227 0 0
229 0 0
226 0 0
234 0 0
226 0 0
228 0 0
227 0 0
229 0 0
226 0 0
227 0 0
228 0 0
232 0 0
231 0 0
230 0 0
229 0 0
228 0 0
231 0 0
229 0 0
228 0 0
230 0 0
229 0 0
231 0 0
231 0 0
229 0 0
230 0 0
224 0 0
226 0 0
232 0 0
229 0 0
231 0 0
231 0 0
230 0 0
230 0 0
228 0 0
226 0 0
228 0 0
226 0 0
228 0 0
229 0 0
225 0 0
225 0 0
226 0 0
230 0 0
232 0 0
229 0 0
229 0 0
227 0 0
229 0 0
230 0 0
231 0 0
231 0 0
229 0 0
229 0 0
229 0 0
230 0 0
230 0 0
228 0 0
227 0 0
0 0 255
0 0 255
0 0 255
0 0 255
0 0 255
0 0 254
0 0 255
0 0 254
0 0 255
0 0 253
0 0 254
0 0 255
0 0 255
0 0 255
0 0 255
0 0 254
0 0 255
0 0 254
0 0 255
0 0 254
0 0 254
0 0 255
0 0 255
0 0 255
0 0 254
0 0 255
0 0 254
0 0 255
0 0 255
0 0 254
0 0 255
0 0 255
0 0 253
0 0 253
0 0 254
0 0 255
0 0 254
0 0 254
0 0 253
0 0 254
0 0 254
0 0 255
0 0 254
0 0 254
0 0 254
0 0 255
0 0 255
0 0 254
0 0 253
0 0 255
0 0 254
0 0 254
0 0 253
0 0 254
0 0 253
0 0 255
0 0 255
0 0 254
0 0 255
0 0 253
0 0 252
0 0 250
0 0 252
0 0 252
0 0 252
0 0 255
0 0 255
0 0 253
0 0 253
0 0 255
0 0 254
0 0 254
0 0 249
0 0 253
0 0 253
0 0 253
0 0 250
0 0 253
0 0 253
0 0 252
0 0 253
0 0 254
0 0 253
0 0 253
0 0 253
0 0 252
0 0 252
0 0 252
0 0 250
0 0 250
0 0 252
0 0 254
0 0 253
0 0 253
0 0 252
0 0 255
0 0 254
0 0 250
0 0 250
0 0 250
0 0 246
0 0 252
0 0 252
0 0 253
0 0 244
0 0 250
0 0 250
0 0 250
0 0 252
0 0 253
0 0 252
0 0 249
0 0 252
0 0 249
0 0 248
0 0 250
0 0 248
0 0 248
0 0 250
0 0 249
0 0 254
0 0 252
0 0 248
0 0 246
0 0 244
0 0 249
0 0 252
0 0 250
0 0 252
0 0 252
0 0 244
0 0 248
0 0 250
0 0 250
0 0 252
0 0 246
0 0 246
0 0 240
0 0 241
0 0 246
0 0 244
0 0 242
0 0 249
0 0 248
0 0 242
0 0 248
0 0 238
0 0 244
0 0 241
0 0 246
0 0 246
0 0 245
0 0 236
0 0 237
0 0 244
0 0 249
0 0 241
0 0 242
24 24 246
175 179 250
240 246 255
240 246 255
240 246 255
240 246 255
240 246 255
240 246 255
240 246 255
240 246 255
240 247 255
240 247 255
240 247 255
240 247 255
240 247 255
240 247 255
241 247 255
241 247 255
241 247 255
241 247 255
241 247 255
241 247 255
241 247 255
241 247 255
241 247 255
241 247 255
241 247 255
241 247 255
241 247 255
241 247 255
241 247 255
241 247 255
241 247 255
241 247 255
241 247 255
241 247 255
241 247 255
241 247 255
241 247 255
241 247 255
241 247 255
241 247 255
241 247 255
241 247 255
241 247 255
241 247 255
241 247 255
241 247 255
241 247 255
241 247 255
241 247 255
241 247 255
241 247 255
241 247 255
241 247 255
241 247 255
241 247 255
241 247 255
241 247 255
241 247 255
241 247 255
241 247 255
241 247 255
241 247 255
241 247 255
241 247 255
241 247 255
241 247 255
240 247 255
240 247 255
240 247 255
240 247 255
240 247 255
240 247 255
240 246 255
240 246 255
240 246 255
240 246 255
240 246 255
240 246 255
240 246 255
240 246 255
238 161 167
226 0 0
223 0 0
225 0 0
228 0 0
227 0 0
227 0 0
222 0 0
227 0 0
226 0 0
226 0 0
212 0 0
232 0 0
225 0 0
224 0 0
220 0 0
223 0 0
220 0 0
224 0 0
226 0 0
229 0 0
226 0 0
232 0 0
225 0 0
229 0 0
232 0 0
218 0 0
226 0 0
223 0 0
229 0 0
229 0 0
228 0 0
233 0 0
228 0 0
224 0 0
232 0 0
228 0 0
221 0 0
222 0 0
229 0 0
228 0 0
223 0 0
226 0 0
229 0 0
226 0 0
226 0 0
228 0 0
227 0 0
231 0 0
230 0 0
230 0 0
226 0 0
223 0 0
226 0 0
225 0 0
225 0 0
226 0 0
229 0 0
228 0 0
227 0 0
226 0 0
226 0 0
229 0 0
227 0 0
230 0 0
230 0 0
232 0 0
232 0 0
225 0 0
228 0 0
228 0 0
231 0 0
231 0 0
229 0 0
228 0 0
229 0 0
227 0 0
230 0 0
225 0 0
230 0 0
225 0 0
226 0 0
228 0 0
230 0 0
223 0 0
227 0 0
229 0 0
228 0 0
228 0 0
231 0 0
230 0 0
230 0 0
225 0 0
228 0 0
226 0 0
225 0 0
230 0 0
230 0 0
228 0 0
227 0 0
223 0 0
230 0 0
226 0 0
229 0 0
227 0 0
230 0 0
230 0 0
231 0 0
232 0 0
231 0 0
229 0 0
231 0 0
228 0 0
227 0 0
230 0 0
229 0 0
232 0 0
231 0 0
229 0 0
229 0 0
230 0 0
230 0 0
229 0 0
226 0 0
225 0 0
230 0 0
230 0 0
228 0 0
227 0 0
232 0 0
229 0 0
227 0 0
231 0 0
232 0 0
227 0 0
226 0 0
228 0 0
229 0 0
230 0 0
230 0 0
228 0 0
226 0 0
227 0 0
229 0 0
228 0 0
230 0 0
226 0 0
230 0 0
231 0 0
230 0 0
230 0 0
229 0 0
228 0 0
230 0 0
227 0 0
226 0 0
229 0 0
227 0 0
229 0 0
228 0 0
0 0 255
0 0 254
0 0 254
0 0 255
0 0 255
0 0 255
0 0 254
0 0 255
0 0 255
0 0 254
0 0 255
0 0 255
0 0 255
0 0 255
0 0 255
0 0 254
0 0 254
0 0 254
0 0 255
0 0 254
0 0 254
0 0 255
0 0 254
0 0 253
0 0 253
0 0 255
0 0 254
0 0 255
0 0 255
0 0 254
0 0 254
0 0 255
0 0 253
0 0 253
0 0 255
0 0 253
0 0 254
0 0 255
0 0 255
0 0 253
0 0 255
0 0 254
0 0 255
0 0 255
0 0 253
0 0 253
0 0 255
0 0 253
0 0 254
0 0 252
0 0 254
0 0 255
0 0 254
0 0 252
0 0 254
0 0 254
0 0 252
0 0 254
0 0 253
0 0 254
0 0 255
0 0 255
0 0 254
0 0 254
0 0 255
0 0 254
0 0 254
0 0 254
0 0 253
0 0 255
0 0 254
0 0 254
0 0 252
0 0 253
0 0 254
0 0 253
0 0 253
0 0 255
0 0 254
0 0 254
0 0 253
0 0 250
0 0 250
0 0 253
0 0 253
0 0 254
0 0 254
0 0 254
0 0 253
0 0 254
0 0 250
0 0 252
0 0 253
0 0 250
0 0 248
0 0 254
0 0 254
0 0 253
0 0 250
0 0 248
0 0 250
0 0 246
0 0 246
0 0 253
0 0 254
0 0 250
0 0 252
0 0 248
0 0 252
0 0 250
0 0 249
0 0 254
0 0 248
0 0 250
0 0 252
0 0 248
0 0 249
0 0 253
0 0 248
0 0 255
0 0 248
0 0 248
0 0 252
0 0 250
0 0 250
0 0 248
0 0 245
0 0 252
0 0 248
0 0 249
0 0 248
0 0 249
0 0 246
0 0 245
0 0 253
0 0 252
0 0 244
0 0 250
0 0 245
0 0 250
0 0 248
0 0 245
0 0 244
0 0 244
0 0 245
0 0 245
0 0 250
0 0 249
0 0 233
0 0 252
0 0 242
0 0 245
0 0 245
0 0 245
0 0 249
0 0 244
0 0 244
63 65 248
198 203 250
240 246 255
240 246 255
240 246 255
240 246 255
240 247 255
240 247 255
240 247 255
240 247 255
240 247 255
241 247 255
241 247 255
241 247 255
241 247 255
241 247 255
241 247 255
241 247 255
241 247 255
241 247 255
241 247 255
241 247 255
241 247 255
241 247 255
241 247 255
241 247 255
241 247 255
241 247 255
241 247 255
241 247 255
241 247 255
241 247 255
241 247 255
241 247 255
241 247 255
241 247 255
241 247 255
241 247 255
241 247 255
241 247 255
241 247 255
241 247 255
241 247 255
241 247 255
241 247 255
241 247 255
241 247 255
241 247 255
241 247 255
241 247 255
241 247 255
241 247 255
241 247 255
241 247 255
241 247 255
241 247 255
241 247 255
241 247 255
241 247 255
241 247 255
241 247 255
241 247 255
241 247 255
241 247 255
241 247 255
241 247 255
241 247 255
241 247 255
241 247 255
241 247 255
241 247 255
241 247 255
241 247 255
241 247 255
241 247 255
240 247 255
240 247 255
240 247 255
240 247 255
240 247 255
240 247 255
240 246 255
240 246 255
240 246 255
239 205 212
235 78 80
232 0 0
226 0 0
228 0 0
225 0 0
224 0 0
220 0 0
226 0 0
225 0 0
227 0 0
229 0 0
225 0 0
219 0 0
234 0 0
230 0 0
216 0 0
232 0 0
223 0 0
228 0 0
221 0 0
226 0 0
231 0 0
222 0 0
227 0 0
225 0 0
220 0 0
228 0 0
222 0 0
228 0 0
222 0 0
227 0 0
227 0 0
231 0 0
228 0 0
225 0 0
233 0 0
223 0 0
226 0 0
228 0 0
223 0 0
225 0 0
226 0 0
227 0 0
225 0 0
223 0 0
228 0 0
223 0 0
235 0 0
227 0 0
230 0 0
227 0 0
230 0 0
233 0 0
225 0 0
226 0 0
227 0 0
225 0 0
227 0 0
229 0 0
230 0 0
229 0 0
226 0 0
230 0 0
225 0 0
231 0 0
226 0 0
229 0 0
230 0 0
227 0 0
231 0 0
228 0 0
225 0 0
230 0 0
234 0 0
229 0 0
232 0 0
230 0 0
227 0 0
228 0 0
227 0 0
228 0 0
227 0 0
230 0 0
228 0 0
224 0 0
232 0 0
231 0 0
232 0 0
227 0 0
228 0 0
229 0 0
229 0 0
228 0 0
232 0 0
226 0 0
228 0 0
231 0 0
229 0 0
225 0 0
226 0 0
228 0 0
225 0 0
230 0 0
230 0 0
230 0 0
229 0 0
233 0 0
230 0 0
229 0 0
225 0 0
225 0 0
228 0 0
231 0 0
230 0 0
225 0 0
229 0 0
229 0 0
230 0 0
233 0 0
233 0 0
228 0 0
229 0 0
231 0 0
231 0 0
227 0 0
230 0 0
230 0 0
231 0 0
230 0 0
231 0 0
228 0 0
229 0 0
225 0 0
231 0 0
233 0 0
231 0 0
230 0 0
230 0 0
232 0 0
227 0 0
227 0 0
227 0 0
229 0 0
227 0 0
233 0 0
231 0 0
232 0 0
231 0 0
228 0 0
228 0 0
229 0 0
228 0 0
229 0 0
230 0 0
226 0 0
224 0 0
230 0 0
229 0 0
0 0 255
0 0 255
0 0 255
0 0 255
0 0 255
0 0 255
0 0 255
0 0 255
0 0 255
0 0 255
0 0 255
0 0 255
0 0 255
0 0 253
0 0 255
0 0 254
0 0 255
0 0 253
0 0 255
0 0 255
0 0 254
0 0 254
0 0 255
0 0 254
0 0 254
0 0 255
0 0 253
0 0 253
0 0 255
0 0 255
0 0 255
0 0 254
0 0 255
0 0 255
0 0 255
0 0 255
0 0 255
0 0 255
0 0 255
0 0 253
0 0 254
0 0 255
0 0 255
0 0 254
0 0 254
0 0 254
0 0 255
0 0 252
0 0 255
0 0 254
0 0 254
0 0 254
0 0 255
0 0 255
0 0 253
0 0 255
0 0 253
0 0 255
0 0 253
0 0 254
0 0 253
0 0 255
0 0 255
0 0 250
0 0 255
0 0 254
0 0 254
0 0 252
0 0 254
0 0 250
0 0 253
0 0 254
0 0 254
0 0 255
0 0 252
0 0 254
0 0 253
0 0 254
0 0 250
0 0 254
0 0 252
0 0 255
0 0 253
0 0 254
0 0 252
0 0 254
0 0 252
0 0 252
0 0 253
0 0 253
0 0 253
0 0 253
0 0 249
0 0 250
0 0 252
0 0 250
0 0 255
0 0 254
0 0 250
0 0 248
0 0 253
0 0 252
0 0 253
0 0 253
0 0 253
0 0 253
0 0 249
0 0 252
0 0 250
0 0 250
0 0 253
0 0 244
0 0 254
0 0 250
0 0 249
0 0 248
0 0 250
0 0 246
0 0 252
0 0 249
0 0 248
0 0 246
0 0 248
0 0 248
0 0 254
0 0 253
0 0 249
0 0 249
0 0 248
0 0 249
0 0 244
0 0 250
0 0 248
0 0 246
0 0 250
0 0 245
0 0 245
0 0 242
0 0 250
0 0 241
0 0 250
0 0 248
0 0 248
0 0 244
0 0 249
0 0 249
0 0 245
0 0 242
0 0 245
0 0 248
0 0 240
0 0 248
0 0 249
0 0 246
0 0 246
0 0 246
115 118 246
220 226 255
240 247 255
240 247 255
240 247 255
240 247 255
240 247 255
241 247 255
241 247 255
241 247 255
241 247 255
241 247 255
241 247 255
241 247 255
241 247 255
241 247 255
241 247 255
241 247 255
241 247 255
241 247 255
241 247 255
241 247 255
241 247 255
241 247 255
241 247 255
241 247 255
241 247 255
241 247 255
241 247 255
241 247 255
241 247 255
241 247 255
241 247 255
241 247 255
241 247 255
241 247 255
241 247 255
241 247 255
241 247 255
241 247 255
241 247 255
241 247 255
241 247 255
241 247 255
241 247 255
241 247 255
241 247 255
241 247 255
241 247 255
241 247 255
241 247 255
241 247 255
241 247 255
241 247 255
241 247 255
241 247 255
241 247 255
241 247 255
241 247 255
241 247 255
241 247 255
241 247 255
241 247 255
241 247 255
241 247 255
241 247 255
241 247 255
241 247 255
241 247 255
241 247 255
241 247 255
241 247 255
241 247 255
241 247 255
241 247 255
241 247 255
241 247 255
241 247 255
241 247 255
241 247 255
241 247 255
240 247 255
240 247 255
240 247 255
240 247 255
240 247 255
239 227 236
235 115 120
236 0 0
236 0 0
227 0 0
225 0 0
226 0 0
230 0 0
230 0 0
235 0 0
227 0 0
228 0 0
230 0 0
229 0 0
230 0 0
230 0 0
228 0 0
230 0 0
224 0 0
235 0 0
228 0 0
224 0 0
229 0 0
222 0 0
224 0 0
227 0 0
229 0 0
226 0 0
228 0 0
227 0 0
229 0 0
225 0 0
227 0 0
227 0 0
228 0 0
224 0 0
235 0 0
230 0 0
231 0 0
222 0 0
226 0 0
230 0 0
228 0 0
232 0 0
225 0 0
224 0 0
231 0 0
223 0 0
228 0 0
229 0 0
234 0 0
228 0 0
229 0 0
230 0 0
230 0 0
230 0 0
228 0 0
227 0 0
229 0 0
229 0 0
227 0 0
229 0 0
227 0 0
231 0 0
227 0 0
229 0 0
223 0 0
225 0 0
227 0 0
230 0 0
231 0 0
232 0 0
228 0 0
230 0 0
227 0 0
230 0 0
231 0 0
231 0 0
236 0 0
231 0 0
232 0 0
227 0 0
231 0 0
230 0 0
227 0 0
227 0 0
233 0 0
230 0 0
229 0 0
233 0 0
227 0 0
227 0 0
232 0 0
232 0 0
228 0 0
228 0 0
229 0 0
231 0 0
230 0 0
228 0 0
229 0 0
226 0 0
229 0 0
230 0 0
229 0 0
226 0 0
230 0 0
228 0 0
228 0 0
229 0 0
228 0 0
232 0 0
229 0 0
228 0 0
230 0 0
227 0 0
230 0 0
231 0 0
225 0 0
229 0 0
231 0 0
230 0 0
230 0 0
231 0 0
229 0 0
227 0 0
228 0 0
228 0 0
228 0 0
232 0 0
229 0 0
230 0 0
230 0 0
228 0 0
228 0 0
229 0 0
232 0 0
226 0 0
231 0 0
227 0 0
226 0 0
229 0 0
230 0 0
230 0 0
233 0 0
228 0 0
227 0 0
230 0 0
231 0 0
230 0 0
229 0 0
231 0 0
225 0 0
228 0 0
228 0 0
231 0 0
233 0 0
229 0 0
0 0 255
0 0 255
0 0 255
0 0 255
0 0 255
0 0 255
0 0 255
0 0 255
0 0 255
0 0 255
0 0 255
0 0 255
0 0 255
0 0 255
0 0 255
0 0 254
0 0 255
0 0 255
0 0 255
0 0 255
0 0 255
0 0 253
0 0 254
0 0 254
0 0 255
0 0 254
0 0 254
0 0 255
0 0 255
0 0 253
0 0 255
0 0 254
0 0 255
0 0 253
0 0 255
0 0 255
0 0 253
0 0 254
0 0 254
0 0 253
0 0 252
0 0 255
0 0 252
0 0 255
0 0 252
0 0 255
0 0 255
0 0 255
0 0 254
0 0 253
0 0 254
0 0 253
0 0 255
0 0 255
0 0 254
0 0 254
0 0 254
0 0 254
0 0 255
0 0 254
0 0 254
0 0 254
0 0 253
0 0 253
0 0 254
0 0 255
0 0 255
0 0 252
0 0 255
0 0 254
0 0 255
0 0 252
0 0 254
0 0 255
0 0 253
0 0 254
0 0 255
0 0 253
0 0 248
0 0 254
0 0 253
0 0 252
0 0 254
0 0 253
0 0 254
0 0 246
0 0 249
0 0 254
0 0 248
0 0 254
0 0 255
0 0 254
0 0 248
0 0 252
0 0 255
0 0 252
0 0 253
0 0 252
0 0 254
0 0 249
0 0 249
0 0 250
0 0 253
0 0 250
0 0 252
0 0 250
0 0 252
0 0 248
0 0 250
0 0 250
0 0 248
0 0 250
0 0 246
0 0 248
0 0 252
0 0 249
0 0 250
0 0 249
0 0 250
0 0 252
0 0 245
0 0 248
0 0 250
0 0 249
0 0 253
0 0 252
0 0 248
0 0 249
0 0 244
0 0 245
0 0 252
0 0 248
0 0 250
0 0 245
0 0 249
0 0 249
0 0 250
0 0 250
0 0 252
0 0 248
0 0 249
0 0 248
0 0 254
0 0 242
0 0 242
0 0 244
0 0 245
0 0 250
0 0 244
0 0 244
0 0 245
0 0 250
0 0 249
0 0 245
0 0 249
178 183 249
240 247 255
240 247 255
241 247 255
241 247 255
241 247 255
241 247 255
241 247 255
241 247 255
241 247 255
241 247 255
241 247 255
241 247 255
241 247 255
241 247 255
241 247 255
241 247 255
241 247 255
241 247 255
241 247 255
241 247 255
241 247 255
241 247 255
241 247 255
241 247 255
241 247 255
241 247 255
241 247 255
241 247 255
241 247 255
241 247 255
241 247 255
241 247 255
241 247 255
241 247 255
241 247 255
241 247 255
241 247 255
241 247 255
241 247 255
241 247 255
241 247 255
241 247 255
241 247 255
241 247 255
241 247 255
241 247 255
241 247 255
241 247 255
241 247 255
241 247 255
241 247 255
241 247 255
241 247 255
241 247 255
241 247 255
241 247 255
241 247 255
241 247 255
241 247 255
241 247 255
241 247 255
241 247 255
241 247 255
241 247 255
241 247 255
241 247 255
241 247 255
241 247 255
241 247 255
241 247 255
241 247 255
241 247 255
241 247 255
241 247 255
241 247 255
241 247 255
241 247 255
241 247 255
241 247 255
241 247 255
241 247 255
241 247 255
241 247 255
241 247 255
241 247 255
241 247 255
240 247 255
241 245 254
237 169 175
232 0 0
237 0 0
228 0 0
231 0 0
230 0 0
228 0 0
236 0 0
231 0 0
224 0 0
225 0 0
233 0 0
230 0 0
224 0 0
228 0 0
230 0 0
229 0 0
223 0 0
225 0 0
223 0 0
229 0 0
223 0 0
230 0 0
229 0 0
221 0 0
226 0 0
230 0 0
224 0 0
228 0 0
227 0 0
232 0 0
227 0 0
221 0 0
228 0 0
229 0 0
229 0 0
229 0 0
226 0 0
229 0 0
224 0 0
224 0 0
228 0 0
229 0 0
227 0 0
225 0 0
226 0 0
230 0 0
229 0 0
228 0 0
230 0 0
232 0 0
232 0 0
227 0 0
229 0 0
228 0 0
223 0 0
229 0 0
230 0 0
224 0 0
230 0 0
229 0 0
232 0 0
228 0 0
229 0 0
231 0 0
229 0 0
232 0 0
229 0 0
231 0 0
226 0 0
233 0 0
231 0 0
231 0 0
229 0 0
228 0 0
229 0 0
231 0 0
229 0 0
229 0 0
225 0 0
228 0 0
231 0 0
227 0 0
229 0 0
227 0 0
230 0 0
228 0 0
230 0 0
228 0 0
230 0 0
231 0 0
229 0 0
231 0 0
230 0 0
224 0 0
230 0 0
229 0 0
226 0 0
225 0 0
230 0 0
229 0 0
229 0 0
230 0 0
230 0 0
229 0 0
229 0 0
228 0 0
230 0 0
234 0 0
227 0 0
230 0 0
231 0 0
230 0 0
230 0 0
233 0 0
231 0 0
228 0 0
228 0 0
229 0 0
230 0 0
224 0 0
231 0 0
230 0 0
231 0 0
232 0 0
229 0 0
230 0 0
231 0 0
230 0 0
228 0 0
228 0 0
228 0 0
230 0 0
230 0 0
229 0 0
229 0 0
229 0 0
231 0 0
230 0 0
228 0 0
228 0 0
231 0 0
229 0 0
231 0 0
231 0 0
230 0 0
228 0 0
232 0 0
229 0 0
233 0 0
225 0 0
228 0 0
228 0 0
230 0 0
227 0 0
230 0 0
0 0 255
0 0 255
0 0 255
0 0 255
0 0 255
0 0 255
0 0 255
0 0 255
0 0 254
0 0 255
0 0 255
0 0 254
0 0 255
0 0 253
0 0 255
0 0 255
0 0 255
0 0 254
0 0 254
0 0 255
0 0 255
0 0 255
0 0 255
0 0 255
0 0 255
0 0 254
0 0 255
0 0 255
0 0 254
0 0 254
0 0 254
0 0 255
0 0 255
0 0 255
0 0 255
0 0 255
0 0 254
0 0 255
0 0 252
0 0 255
0 0 255
0 0 255
0 0 253
0 0 254
0 0 255
0 0 254
0 0 255
0 0 255
0 0 255
0 0 253
0 0 253
0 0 255
0 0 254
0 0 255
0 0 254
0 0 253
0 0 255
0 0 254
0 0 254
0 0 255
0 0 254
0 0 254
0 0 254
0 0 252
0 0 254
0 0 254
0 0 252
0 0 254
0 0 254
0 0 253
0 0 254
0 0 254
0 0 253
0 0 255
0 0 253
0 0 253
0 0 250
0 0 254
0 0 249
0 0 254
0 0 253
0 0 254
0 0 254
0 0 254
0 0 250
0 0 253
0 0 252
0 0 252
0 0 252
0 0 250
0 0 254
0 0 253
0 0 253
0 0 255
0 0 250
0 0 253
0 0 253
0 0 252
0 0 253
0 0 249
0 0 252
0 0 246
0 0 250
0 0 249
0 0 255
0 0 248
0 0 250
0 0 249
0 0 250
0 0 253
0 0 253
0 0 250
0 0 249
0 0 248
0 0 249
0 0 252
0 0 252
0 0 250
0 0 252
0 0 250
0 0 250
0 0 248
0 0 244
0 0 250
0 0 250
0 0 249
0 0 246
0 0 249
0 0 248
0 0 249
0 0 249
0 0 249
0 0 249
0 0 250
0 0 244
0 0 246
0 0 246
0 0 245
0 0 254
0 0 245
0 0 240
0 0 245
0 0 245
0 0 244
0 0 246
0 0 242
0 0 244
0 0 242
0 0 244
0 0 245
0 0 237
0 0 250
0 0 255
72 74 246
205 211 253
241 247 255
241 247 255
241 247 255
241 247 255
241 247 255
241 247 255
241 247 255
241 247 255
241 247 255
241 247 255
241 247 255
241 247 255
241 247 255
241 247 255
241 247 255
241 247 255
241 247 255
241 247 255
241 247 255
241 247 255
241 247 255
241 247 255
241 247 255
241 247 255
241 247 255
241 247 255
241 247 255
241 247 255
241 247 255
241 247 255
241 247 255
241 247 255
241 247 255
241 247 255
241 247 255
241 247 255
241 247 255
241 247 255
241 247 255
241 247 255
241 247 255
241 247 255
242 247 255
242 247 255
242 247 255
242 247 255
242 247 255
242 247 255
242 247 255
241 247 255
241 247 255
241 247 255
241 247 255
241 247 255
241 247 255
241 247 255
241 247 255
241 247 255
241 247 255
241 247 255
241 247 255
241 247 255
241 247 255
241 247 255
241 247 255
241 247 255
241 247 255
241 247 255
241 247 255
241 247 255
241 247 255
241 247 255
241 247 255
241 247 255
241 247 255
241 247 255
241 247 255
241 247 255
241 247 255
241 247 255
241 247 255
241 247 255
241 247 255
241 247 255
241 247 255
241 247 255
241 247 255
241 247 255
241 247 255
241 247 255
238 211 218
233 65 67
232 0 0
230 0 0
229 0 0
234 0 0
233 0 0
227 0 0
230 0 0
230 0 0
229 0 0
227 0 0
226 0 0
225 0 0
230 0 0
228 0 0
224 0 0
223 0 0
222 0 0
224 0 0
228 0 0
230 0 0
232 0 0
234 0 0
226 0 0
230 0 0
227 0 0
229 0 0
228 0 0
230 0 0
224 0 0
230 0 0
225 0 0
228 0 0
227 0 0
229 0 0
227 0 0
233 0 0
228 0 0
230 0 0
229 0 0
234 0 0
228 0 0
230 0 0
232 0 0
223 0 0
232 0 0
227 0 0
231 0 0
228 0 0
229 0 0
233 0 0
229 0 0
229 0 0
229 0 0
229 0 0
228 0 0
230 0 0
226 0 0
231 0 0
230 0 0
231 0 0
223 0 0
227 0 0
230 0 0
231 0 0
225 0 0
222 0 0
230 0 0
229 0 0
226 0 0
228 0 0
233 0 0
235 0 0
231 0 0
229 0 0
229 0 0
231 0 0
228 0 0
229 0 0
228 0 0
229 0 0
225 0 0
233 0 0
229 0 0
226 0 0
231 0 0
232 0 0
233 0 0
231 0 0
229 0 0
228 0 0
231 0 0
227 0 0
231 0 0
230 0 0
229 0 0
231 0 0
229 0 0
227 0 0
228 0 0
226 0 0
227 0 0
228 0 0
229 0 0
225 0 0
228 0 0
229 0 0
230 0 0
230 0 0
232 0 0
229 0 0
230 0 0
229 0 0
231 0 0
229 0 0
228 0 0
229 0 0
230 0 0
229 0 0
230 0 0
229 0 0
228 0 0
229 0 0
230 0 0
231 0 0
227 0 0
229 0 0
227 0 0
233 0 0
230 0 0
229 0 0
228 0 0
232 0 0
231 0 0
232 0 0
230 0 0
230 0 0
227 0 0
229 0 0
230 0 0
229 0 0
228 0 0
228 0 0
231 0 0
227 0 0
229 0 0
231 0 0
229 0 0
228 0 0
227 0 0
228 0 0
230 0 0
230 0 0
232 0 0
0 0 255
0 0 254
0 0 255
0 0 255
0 0 254
0 0 255
0 0 255
0 0 254
0 0 255
0 0 255
0 0 255
0 0 255
0 0 253
0 0 255
0 0 255
0 0 255
0 0 253
0 0 255
0 0 254
0 0 255
0 0 255
0 0 255
0 0 255
0 0 253
0 0 255
0 0 255
0 0 255
0 0 255
0 0 252
0 0 254
0 0 254
0 0 253
0 0 253
0 0 255
0 0 253
0 0 255
0 0 252
0 0 254
0 0 255
0 0 255
0 0 255
0 0 254
0 0 254
0 0 255
0 0 254
0 0 255
0 0 254
0 0 252
0 0 252
0 0 254
0 0 253
0 0 254
0 0 255
0 0 254
0 0 254
0 0 254
0 0 254
0 0 252
0 0 255
0 0 255
0 0 254
0 0 254
0 0 254
0 0 253
0 0 252
0 0 254
0 0 255
0 0 255
0 0 253
0 0 253
0 0 254
0 0 253
0 0 250
0 0 254
0 0 255
0 0 254
0 0 252
0 0 254
0 0 253
0 0 252
0 0 254
0 0 255
0 0 253
0 0 254
0 0 250
0 0 252
0 0 253
0 0 252
0 0 253
0 0 253
0 0 255
0 0 253
0 0 253
0 0 250
0 0 253
0 0 254
0 0 250
0 0 250
0 0 250
0 0 253
0 0 254
0 0 250
0 0 253
0 0 249
0 0 252
0 0 252
0 0 252
0 0 253
0 0 250
0 0 250
0 0 252
0 0 250
0 0 252
0 0 250
0 0 252
0 0 254
0 0 249
0 0 250
0 0 250
0 0 253
0 0 249
0 0 252
0 0 252
0 0 252
0 0 253
0 0 248
0 0 254
0 0 245
0 0 250
0 0 245
0 0 244
0 0 250
0 0 250
0 0 249
0 0 246
0 0 252
0 0 240
0 0 244
0 0 248
0 0 248
0 0 249
0 0 234
0 0 246
0 0 245
0 0 248
0 0 250
0 0 246
0 0 250
0 0 250
0 0 249
0 0 252
0 0 249
154 158 252
238 244 255
241 247 255
241 247 255
241 247 255
241 247 255
241 247 255
241 247 255
241 247 255
241 247 255
241 247 255
241 247 255
241 247 255
241 247 255
241 247 255
241 247 255
241 247 255
241 247 255
241 247 255
241 247 255
241 247 255
241 247 255
241 247 255
241 247 255
241 247 255
241 247 255
241 247 255
241 247 255
241 247 255
241 247 255
242 247 255
242 247 255
242 247 255
242 247 255
242 247 255
242 247 255
242 247 255
242 247 255
242 247 255
242 247 255
242 247 255
242 247 255
242 247 255
242 247 255
242 247 255
242 247 255
242 247 255
242 247 255
242 247 255
242 247 255
242 247 255
242 247 255
242 247 255
242 247 255
242 247 255
242 247 255
242 247 255
242 247 255
242 247 255
242 247 255
242 247 255
242 247 255
242 247 255
242 247 255
242 247 255
242 247 255
241 247 255
241 247 255
241 247 255
241 247 255
241 247 255
241 247 255
241 247 255
241 247 255
241 247 255
241 247 255
241 247 255
241 247 255
241 247 255
241 247 255
241 247 255
241 247 255
241 247 255
241 247 255
241 247 255
241 247 255
241 247 255
241 247 255
241 247 255
241 247 255
241 247 255
241 247 255
241 247 255
241 247 255
240 239 248
229 150 155
229 0 0
233 0 0
226 0 0
230 0 0
228 0 0
230 0 0
228 0 0
229 0 0
228 0 0
225 0 0
233 0 0
229 0 0
225 0 0
226 0 0
232 0 0
227 0 0
234 0 0
235 0 0
222 0 0
228 0 0
233 0 0
230 0 0
226 0 0
228 0 0
231 0 0
230 0 0
234 0 0
230 0 0
229 0 0
233 0 0
226 0 0
228 0 0
228 0 0
231 0 0
227 0 0
225 0 0
232 0 0
229 0 0
229 0 0
228 0 0
232 0 0
228 0 0
230 0 0
226 0 0
231 0 0
221 0 0
229 0 0
227 0 0
227 0 0
226 0 0
229 0 0
231 0 0
227 0 0
230 0 0
228 0 0
226 0 0
232 0 0
225 0 0
230 0 0
229 0 0
230 0 0
229 0 0
230 0 0
230 0 0
228 0 0
224 0 0
232 0 0
227 0 0
227 0 0
232 0 0
230 0 0
225 0 0
231 0 0
227 0 0
225 0 0
227 0 0
229 0 0
231 0 0
227 0 0
229 0 0
229 0 0
229 0 0
234 0 0
229 0 0
226 0 0
231 0 0
228 0 0
228 0 0
229 0 0
231 0 0
231 0 0
232 0 0
231 0 0
230 0 0
231 0 0
225 0 0
230 0 0
228 0 0
230 0 0
225 0 0
230 0 0
232 0 0
227 0 0
228 0 0
229 0 0
229 0 0
234 0 0
229 0 0
227 0 0
229 0 0
227 0 0
231 0 0
227 0 0
226 0 0
228 0 0
231 0 0
225 0 0
228 0 0
229 0 0
229 0 0
230 0 0
228 0 0
229 0 0
230 0 0
229 0 0
231 0 0
227 0 0
228 0 0
229 0 0
230 0 0
231 0 0
230 0 0
224 0 0
229 0 0
228 0 0
228 0 0
230 0 0
229 0 0
229 0 0
229 0 0
229 0 0
227 0 0
229 0 0
232 0 0
225 0 0
230 0 0
231 0 0
232 0 0
231 0 0
229 0 0
234 0 0
230 0 0
0 0 255
0 0 255
0 0 255
0 0 254
0 0 255
0 0 254
0 0 254
0 0 255
0 0 254
0 0 255
0 0 255
0 0 255
0 0 255
0 0 255
0 0 254
0 0 255
0 0 255
0 0 255
0 0 255
0 0 255
0 0 255
0 0 255
0 0 255
0 0 254
0 0 255
0 0 254
0 0 255
0 0 254
0 0 253
0 0 255
0 0 255
0 0 254
0 0 255
0 0 255
0 0 255
0 0 255
0 0 255
0 0 253
0 0 254
0 0 255
0 0 255
0 0 255
0 0 255
0 0 255
0 0 254
0 0 255
0 0 255
0 0 255
0 0 255
0 0 255
0 0 255
0 0 254
0 0 254
0 0 255
0 0 254
0 0 253
0 0 253
0 0 255
0 0 255
0 0 255
0 0 249
0 0 250
0 0 253
0 0 255
0 0 253
0 0 253
0 0 253
0 0 250
0 0 255
0 0 255
0 0 254
0 0 253
0 0 254
0 0 253
0 0 253
0 0 254
0 0 255
0 0 254
0 0 254
0 0 255
0 0 255
0 0 255
0 0 255
0 0 250
0 0 252
0 0 253
0 0 252
0 0 254
0 0 255
0 0 253
0 0 249
0 0 252
0 0 252
0 0 255
0 0 255
0 0 253
0 0 254
0 0 250
0 0 253
0 0 255
0 0 253
0 0 249
0 0 250
0 0 252
0 0 250
0 0 249
0 0 246
0 0 249
0 0 248
0 0 253
0 0 253
0 0 249
0 0 253
0 0 250
0 0 246
0 0 246
0 0 249
0 0 249
0 0 245
0 0 250
0 0 249
0 0 246
0 0 249
0 0 244
0 0 252
0 0 248
0 0 246
0 0 242
0 0 249
0 0 249
0 0 248
0 0 249
0 0 242
0 0 249
0 0 252
0 0 250
0 0 253
0 0 246
0 0 252
0 0 242
0 0 248
0 0 250
0 0 242
0 0 245
0 0 252
0 0 249
0 0 249
0 0 250
0 0 250
0 0 245
48 49 252
197 202 253
240 246 255
241 247 255
241 247 255
241 247 255
241 247 255
241 247 255
241 247 255
241 247 255
241 247 255
241 247 255
241 247 255
241 247 255
241 247 255
241 247 255
241 247 255
241 247 255
241 247 255
241 247 255
241 247 255
241 247 255
241 247 255
241 247 255
242 247 255
242 247 255
242 247 255
242 247 255
242 247 255
242 247 255
242 247 255
242 247 255
242 247 255
242 247 255
242 247 255
242 247 255
242 247 255
242 247 255
242 247 255
242 247 255
242 247 255
242 247 255
242 247 255
242 247 255
242 247 255
242 247 255
242 247 255
242 247 255
242 247 255
242 247 255
242 247 255
242 247 255
242 247 255
242 247 255
242 247 255
242 247 255
242 247 255
242 247 255
242 247 255
242 247 255
242 247 255
242 247 255
242 247 255
242 247 255
242 247 255
242 247 255
242 247 255
242 247 255
242 247 255
242 247 255
242 247 255
242 247 255
242 247 255
242 247 255
242 247 255
242 247 255
241 247 255
241 247 255
241 247 255
241 247 255
241 247 255
241 247 255
241 247 255
241 247 255
241 247 255
241 247 255
241 247 255
241 247 255
241 247 255
241 247 255
241 247 255
241 247 255
241 247 255
241 247 255
241 247 255
241 247 255
241 247 255
241 247 255
236 197 204
230 55 57
227 0 0
229 0 0
235 0 0
234 0 0
232 0 0
225 0 0
228 0 0
233 0 0
230 0 0
232 0 0
231 0 0
224 0 0
231 0 0
234 0 0
228 0 0
232 0 0
231 0 0
227 0 0
228 0 0
224 0 0
224 0 0
231 0 0
227 0 0
229 0 0
225 0 0
229 0 0
230 0 0
228 0 0
226 0 0
229 0 0
230 0 0
227 0 0
229 0 0
232 0 0
230 0 0
229 0 0
231 0 0
228 0 0
228 0 0
231 0 0
231 0 0
229 0 0
227 0 0
227 0 0
228 0 0
230 0 0
227 0 0
229 0 0
229 0 0
232 0 0
228 0 0
230 0 0
228 0 0
229 0 0
233 0 0
232 0 0
228 0 0
228 0 0
227 0 0
227 0 0
225 0 0
231 0 0
230 0 0
232 0 0
227 0 0
231 0 0
232 0 0
233 0 0
227 0 0
229 0 0
230 0 0
232 0 0
229 0 0
229 0 0
227 0 0
231 0 0
233 0 0
222 0 0
233 0 0
228 0 0
228 0 0
231 0 0
234 0 0
232 0 0
232 0 0
229 0 0
228 0 0
228 0 0
229 0 0
231 0 0
231 0 0
226 0 0
230 0 0
232 0 0
232 0 0
230 0 0
228 0 0
230 0 0
230 0 0
230 0 0
230 0 0
231 0 0
229 0 0
231 0 0
229 0 0
229 0 0
227 0 0
228 0 0
230 0 0
229 0 0
230 0 0
230 0 0
231 0 0
232 0 0
232 0 0
228 0 0
229 0 0
230 0 0
234 0 0
227 0 0
229 0 0
232 0 0
227 0 0
231 0 0
229 0 0
229 0 0
231 0 0
231 0 0
230 0 0
228 0 0
228 0 0
230 0 0
230 0 0
229 0 0
228 0 0
229 0 0
230 0 0
231 0 0
229 0 0
232 0 0
229 0 0
231 0 0
228 0 0
228 0 0
229 0 0
227 0 0
231 0 0
227 0 0
227 0 0
231 0 0
0 0 255
0 0 255
0 0 254
0 0 254
0 0 255
0 0 255
0 0 255
0 0 255
0 0 255
0 0 255
0 0 255
0 0 254
0 0 255
0 0 255
0 0 255
0 0 255
0 0 254
0 0 255
0 0 255
0 0 254
0 0 254
0 0 255
0 0 255
0 0 255
0 0 255
0 0 255
0 0 254
0 0 254
0 0 253
0 0 253
0 0 255
0 0 255
0 0 255
0 0 253
0 0 255
0 0 255
0 0 254
0 0 255
0 0 255
0 0 252
0 0 255
0 0 254
0 0 253
0 0 255
0 0 254
0 0 255
0 0 255
0 0 253
0 0 255
0 0 254
0 0 253
0 0 254
0 0 253
0 0 254
0 0 254
0 0 254
0 0 255
0 0 255
0 0 253
0 0 255
0 0 254
0 0 254
0 0 255
0 0 254
0 0 254
0 0 254
0 0 253
0 0 254
0 0 254
0 0 254
0 0 254
0 0 253
0 0 253
0 0 254
0 0 254
0 0 254
0 0 253
0 0 255
0 0 250
0 0 253
0 0 253
0 0 253
0 0 254
0 0 253
0 0 250
0 0 252
0 0 252
0 0 250
0 0 254
0 0 254
0 0 250
0 0 250
0 0 250
0 0 253
0 0 252
0 0 252
0 0 252
0 0 250
0 0 246
0 0 252
0 0 253
0 0 254
0 0 253
0 0 255
0 0 250
0 0 252
0 0 249
0 0 250
0 0 254
0 0 254
0 0 250
0 0 248
0 0 252
0 0 250
0 0 246
0 0 249
0 0 248
0 0 253
0 0 252
0 0 250
0 0 250
0 0 252
0 0 250
0 0 249
0 0 249
0 0 248
0 0 249
0 0 252
0 0 252
0 0 249
0 0 252
0 0 248
0 0 246
0 0 250
0 0 248
0 0 246
0 0 254
0 0 249
0 0 250
0 0 244
0 0 246
0 0 249
0 0 244
0 0 245
0 0 244
0 0 249
0 0 248
0 0 241
0 0 244
105 107 245
232 238 254
241 247 255
241 247 255
241 247 255
241 247 255
241 247 255
241 247 255
241 247 255
241 247 255
241 247 255
241 247 255
241 247 255
241 247 255
241 247 255
241 247 255
241 247 255
241 247 255
241 247 255
241 247 255
242 247 255
242 247 255
242 247 255
242 247 255
242 247 255
242 247 255
242 247 255
242 247 255
242 247 255
242 247 255
242 247 255
242 247 255
242 247 255
242 247 255
242 247 255
242 247 255
242 247 255
242 247 255
242 247 255
242 247 255
242 247 255
242 247 255
242 247 255
242 247 255
242 247 255
242 247 255
242 247 255
242 247 255
242 247 255
242 247 255
242 247 255
242 247 255
242 247 255
242 247 255
242 247 255
242 247 255
242 247 255
242 247 255
242 247 255
242 247 255
242 247 255
242 247 255
242 247 255
242 247 255
242 247 255
242 247 255
242 247 255
242 247 255
242 247 255
242 247 255
242 247 255
242 247 255
242 247 255
242 247 255
242 247 255
242 247 255
242 247 255
242 247 255
242 247 255
242 247 255
242 247 255
242 247 255
242 247 255
241 247 255
241 247 255
241 247 255
241 247 255
241 247 255
241 247 255
241 247 255
241 247 255
241 247 255
241 247 255
241 247 255
241 247 255
241 247 255
241 247 255
241 247 255
241 247 255
241 247 255
241 237 245
237 128 133
233 0 0
233 0 0
231 0 0
233 0 0
233 0 0
228 0 0
236 0 0
232 0 0
228 0 0
229 0 0
233 0 0
228 0 0
231 0 0
228 0 0
231 0 0
233 0 0
231 0 0
233 0 0
229 0 0
226 0 0
223 0 0
228 0 0
228 0 0
235 0 0
230 0 0
229 0 0
224 0 0
230 0 0
229 0 0
231 0 0
234 0 0
228 0 0
231 0 0
226 0 0
233 0 0
234 0 0
230 0 0
227 0 0
229 0 0
229 0 0
224 0 0
227 0 0
227 0 0
230 0 0
231 0 0
227 0 0
230 0 0
224 0 0
224 0 0
225 0 0
231 0 0
229 0 0
230 0 0
231 0 0
229 0 0
227 0 0
234 0 0
228 0 0
228 0 0
229 0 0
227 0 0
230 0 0
228 0 0
229 0 0
233 0 0
230 0 0
227 0 0
225 0 0
230 0 0
229 0 0
226 0 0
227 0 0
228 0 0
231 0 0
231 0 0
229 0 0
230 0 0
231 0 0
229 0 0
226 0 0
232 0 0
231 0 0
232 0 0
230 0 0
230 0 0
231 0 0
231 0 0
230 0 0
232 0 0
232 0 0
230 0 0
231 0 0
228 0 0
230 0 0
231 0 0
230 0 0
224 0 0
232 0 0
231 0 0
228 0 0
231 0 0
228 0 0
226 0 0
227 0 0
230 0 0
233 0 0
231 0 0
232 0 0
227 0 0
230 0 0
229 0 0
234 0 0
230 0 0
227 0 0
229 0 0
230 0 0
231 0 0
229 0 0
231 0 0
229 0 0
232 0 0
232 0 0
230 0 0
228 0 0
231 0 0
230 0 0
230 0 0
228 0 0
231 0 0
228 0 0
229 0 0
231 0 0
231 0 0
232 0 0
230 0 0
232 0 0
225 0 0
230 0 0
232 0 0
230 0 0
229 0 0
232 0 0
229 0 0
230 0 0
229 0 0
228 0 0
230 0 0
230 0 0
230 0 0
0 0 254
0 0 255
0 0 255
0 0 255
0 0 255
0 0 254
0 0 255
0 0 255
0 0 255
0 0 255
0 0 254
0 0 254
0 0 255
0 0 255
0 0 255
0 0 254
0 0 255
0 0 254
0 0 255
0 0 255
0 0 255
0 0 255
0 0 255
0 0 255
0 0 254
0 0 255
0 0 255
0 0 253
0 0 255
0 0 254
0 0 255
0 0 254
0 0 254
0 0 255
0 0 255
0 0 255
0 0 253
0 0 254
0 0 254
0 0 252
0 0 255
0 0 252
0 0 255
0 0 254
0 0 253
0 0 255
0 0 255
0 0 255
0 0 255
0 0 254
0 0 252
0 0 254
0 0 254
0 0 255
0 0 253
0 0 254
0 0 255
0 0 255
0 0 253
0 0 254
0 0 255
0 0 255
0 0 254
0 0 254
0 0 254
0 0 253
0 0 253
0 0 254
0 0 253
0 0 255
0 0 255
0 0 250
0 0 252
0 0 255
0 0 255
0 0 253
0 0 253
0 0 253
0 0 253
0 0 254
0 0 252
0 0 253
0 0 254
0 0 253
0 0 253
0 0 250
0 0 250
0 0 253
0 0 250
0 0 252
0 0 252
0 0 252
0 0 250
0 0 253
0 0 249
0 0 254
0 0 253
0 0 254
0 0 249
0 0 253
0 0 252
0 0 250
0 0 253
0 0 255
0 0 252
0 0 253
0 0 253
0 0 248
0 0 252
0 0 253
0 0 249
0 0 253
0 0 249
0 0 254
0 0 254
0 0 250
0 0 252
0 0 252
0 0 253
0 0 252
0 0 253
0 0 248
0 0 250
0 0 250
0 0 253
0 0 254
0 0 245
0 0 246
0 0 244
0 0 248
0 0 248
0 0 249
0 0 250
0 0 252
0 0 249
0 0 248
0 0 245
0 0 241
0 0 249
0 0 248
0 0 248
0 0 253
0 0 245
0 0 248
0 0 244
0 0 245
0 0 248
63 65 249
190 194 252
240 246 255
241 247 255
241 247 255
241 247 255
241 247 255
241 247 255
241 247 255
241 247 255
241 247 255
241 247 255
241 247 255
241 247 255
241 247 255
241 247 255
242 247 255
242 247 255
242 247 255
242 247 255
242 247 255
242 247 255
242 247 255
242 247 255
242 247 255
242 247 255
242 247 255
242 247 255
242 247 255
242 247 255
242 247 255
242 247 255
242 247 255
242 247 255
242 247 255
242 247 255
242 247 255
242 248 255
242 248 255
242 248 255
242 248 255
242 248 255
242 248 255
242 248 255
242 248 255
242 248 255
242 248 255
242 248 255
242 248 255
242 248 255
242 248 255
242 248 255
242 248 255
242 248 255
242 248 255
242 248 255
242 248 255
242 248 255
242 248 255
242 248 255
242 248 255
242 248 255
242 248 255
242 248 255
242 248 255
242 248 255
242 248 255
242 248 255
242 248 255
242 247 255
242 247 255
242 247 255
242 247 255
242 247 255
242 247 255
242 247 255
242 247 255
242 247 255
242 247 255
242 247 255
242 247 255
242 247 255
242 247 255
242 247 255
242 247 255
242 247 255
242 247 255
242 247 255
242 247 255
241 247 255
241 247 255
241 247 255
241 247 255
241 247 255
241 247 255
241 247 255
241 247 255
241 247 255
241 247 255
241 247 255
241 247 255
241 247 255
241 247 255
241 247 255
240 196 203
232 49 51
233 0 0
231 0 0
234 0 0
236 0 0
236 0 0
233 0 0
230 0 0
228 0 0
232 0 0
230 0 0
228 0 0
229 0 0
230 0 0
232 0 0
233 0 0
228 0 0
228 0 0
234 0 0
232 0 0
229 0 0
233 0 0
231 0 0
230 0 0
229 0 0
232 0 0
230 0 0
231 0 0
231 0 0
225 0 0
229 0 0
228 0 0
227 0 0
228 0 0
229 0 0
225 0 0
227 0 0
228 0 0
231 0 0
229 0 0
227 0 0
230 0 0
227 0 0
227 0 0
229 0 0
231 0 0
229 0 0
229 0 0
231 0 0
229 0 0
232 0 0
231 0 0
229 0 0
234 0 0
230 0 0
234 0 0
235 0 0
234 0 0
229 0 0
231 0 0
231 0 0
224 0 0
230 0 0
228 0 0
227 0 0
233 0 0
229 0 0
231 0 0
229 0 0
229 0 0
229 0 0
229 0 0
227 0 0
230 0 0
228 0 0
231 0 0
225 0 0
230 0 0
229 0 0
234 0 0
232 0 0
233 0 0
227 0 0
228 0 0
226 0 0
232 0 0
231 0 0
231 0 0
226 0 0
231 0 0
230 0 0
231 0 0
231 0 0
229 0 0
228 0 0
224 0 0
230 0 0
223 0 0
227 0 0
234 0 0
227 0 0
229 0 0
229 0 0
228 0 0
231 0 0
230 0 0
230 0 0
228 0 0
227 0 0
232 0 0
230 0 0
230 0 0
229 0 0
231 0 0
231 0 0
229 0 0
228 0 0
234 0 0
229 0 0
229 0 0
231 0 0
228 0 0
231 0 0
231 0 0
232 0 0
232 0 0
231 0 0
228 0 0
230 0 0
233 0 0
229 0 0
231 0 0
227 0 0
230 0 0
232 0 0
230 0 0
226 0 0
230 0 0
232 0 0
231 0 0
229 0 0
230 0 0
233 0 0
229 0 0
229 0 0
234 0 0
228 0 0
230 0 0
0 0 255
0 0 255
0 0 255
0 0 254
0 0 255
0 0 255
0 0 255
0 0 254
0 0 255
0 0 254
0 0 255
0 0 255
0 0 255
0 0 255
0 0 255
0 0 255
0 0 255
0 0 255
0 0 255
0 0 254
0 0 255
0 0 255
0 0 255
0 0 255
0 0 254
0 0 254
0 0 254
0 0 254
0 0 254
0 0 255
0 0 253
0 0 255
0 0 255
0 0 254
0 0 255
0 0 255
0 0 254
0 0 254
0 0 255
0 0 255
0 0 255
0 0 252
0 0 255
0 0 255
0 0 254
0 0 255
0 0 254
0 0 255
0 0 255
0 0 253
0 0 253
0 0 254
0 0 254
0 0 254
0 0 254
0 0 254
0 0 255
0 0 253
0 0 255
0 0 255
0 0 254
0 0 255
0 0 253
0 0 254
0 0 255
0 0 254
0 0 253
0 0 250
0 0 255
0 0 255
0 0 254
0 0 252
0 0 255
0 0 252
0 0 254
0 0 254
0 0 253
0 0 255
0 0 252
0 0 253
0 0 252
0 0 255
0 0 254
0 0 255
0 0 254
0 0 255
0 0 252
0 0 253
0 0 252
0 0 252
0 0 255
0 0 254
0 0 252
0 0 250
0 0 253
0 0 252
0 0 250
0 0 249
0 0 252
0 0 252
0 0 253
0 0 253
0 0 252
0 0 250
0 0 249
0 0 250
0 0 250
0 0 248
0 0 252
0 0 254
0 0 253
0 0 252
0 0 249
0 0 252
0 0 246
0 0 248
0 0 252
0 0 252
0 0 246
0 0 249
0 0 249
0 0 248
0 0 246
0 0 253
0 0 248
0 0 249
0 0 249
0 0 248
0 0 253
0 0 252
0 0 245
0 0 244
0 0 246
0 0 249
0 0 242
0 0 245
0 0 249
0 0 248
0 0 249
0 0 249
0 0 248
0 0 252
0 0 244
0 0 250
0 0 250
0 0 250
136 139 252
232 238 255
241 247 255
241 247 255
241 247 255
241 247 255
241 247 255
241 247 255
241 247 255
241 247 255
241 247 255
241 247 255
241 247 255
242 247 255
242 247 255
242 247 255
242 247 255
242 247 255
242 247 255
242 247 255
242 247 255
242 247 255
242 247 255
242 247 255
242 247 255
242 247 255
242 247 255
242 247 255
242 247 255
242 247 255
242 248 255
242 248 255
242 248 255
242 248 255
242 248 255
242 248 255
242 248 255
242 248 255
242 248 255
242 248 255
242 248 255
242 248 255
242 248 255
242 248 255
242 248 255
242 248 255
242 248 255
242 248 255
242 248 255
242 248 255
242 248 255
242 248 255
242 248 255
242 248 255
242 248 255
242 248 255
242 248 255
242 248 255
242 248 255
242 248 255
242 248 255
242 248 255
242 248 255
242 248 255
242 248 255
242 248 255
242 248 255
242 248 255
242 248 255
242 248 255
242 248 255
242 248 255
242 248 255
242 248 255
242 248 255
242 248 255
242 248 255
242 248 255
242 247 255
242 247 255
242 247 255
242 247 255
242 247 255
242 247 255
242 247 255
242 247 255
242 247 255
242 247 255
242 247 255
242 247 255
242 247 255
242 247 255
242 247 255
242 247 255
242 247 255
241 247 255
241 247 255
241 247 255
241 247 255
241 247 255
241 247 255
241 247 255
241 247 255
241 247 255
241 247 255
241 247 255
240 241 249
235 148 153
234 0 0
238 0 0
228 0 0
228 0 0
230 0 0
227 0 0
225 0 0
231 0 0
232 0 0
234 0 0
233 0 0
231 0 0
226 0 0
228 0 0
226 0 0
232 0 0
229 0 0
232 0 0
232 0 0
227 0 0
235 0 0
227 0 0
228 0 0
230 0 0
228 0 0
228 0 0
231 0 0
223 0 0
232 0 0
221 0 0
232 0 0
230 0 0
229 0 0
230 0 0
232 0 0
226 0 0
233 0 0
225 0 0
230 0 0
234 0 0
229 0 0
233 0 0
229 0 0
232 0 0
232 0 0
229 0 0
232 0 0
227 0 0
228 0 0
233 0 0
226 0 0
226 0 0
231 0 0
227 0 0
231 0 0
233 0 0
229 0 0
227 0 0
229 0 0
226 0 0
232 0 0
230 0 0
232 0 0
230 0 0
229 0 0
229 0 0
230 0 0
226 0 0
232 0 0
230 0 0
233 0 0
229 0 0
231 0 0
232 0 0
229 0 0
231 0 0
231 0 0
232 0 0
230 0 0
229 0 0
231 0 0
233 0 0
232 0 0
232 0 0
231 0 0
231 0 0
227 0 0
232 0 0
233 0 0
230 0 0
227 0 0
230 0 0
231 0 0
232 0 0
235 0 0
230 0 0
232 0 0
230 0 0
231 0 0
230 0 0
228 0 0
230 0 0
225 0 0
230 0 0
230 0 0
231 0 0
229 0 0
237 0 0
230 0 0
230 0 0
229 0 0
228 0 0
229 0 0
229 0 0
235 0 0
232 0 0
230 0 0
231 0 0
229 0 0
229 0 0
229 0 0
232 0 0
231 0 0
229 0 0
230 0 0
228 0 0
228 0 0
231 0 0
233 0 0
229 0 0
228 0 0
229 0 0
228 0 0
228 0 0
231 0 0
231 0 0
230 0 0
230 0 0
231 0 0
231 0 0
230 0 0
231 0 0
229 0 0
229 0 0
232 0 0
227 0 0
0 0 255
0 0 255
0 0 255
0 0 255
0 0 255
0 0 255
0 0 255
0 0 255
0 0 255
0 0 255
0 0 255
0 0 254
0 0 255
0 0 255
0 0 255
0 0 255
0 0 255
0 0 255
0 0 255
0 0 255
0 0 255
0 0 255
0 0 255
0 0 255
0 0 255
0 0 255
0 0 255
0 0 255
0 0 255
0 0 254
0 0 254
0 0 253
0 0 255
0 0 254
0 0 255
0 0 255
0 0 253
0 0 255
0 0 255
0 0 254
0 0 254
0 0 255
0 0 254
0 0 255
0 0 255
0 0 253
0 0 255
0 0 254
0 0 255
0 0 255
0 0 254
0 0 255
0 0 252
0 0 255
0 0 253
0 0 255
0 0 252
0 0 255
0 0 253
0 0 254
0 0 253
0 0 254
0 0 254
0 0 250
0 0 255
0 0 255
0 0 255
0 0 253
0 0 252
0 0 253
0 0 252
0 0 253
0 0 255
0 0 253
0 0 254
0 0 254
0 0 254
0 0 255
0 0 250
0 0 254
0 0 255
0 0 253
0 0 252
0 0 253
0 0 255
0 0 254
0 0 253
0 0 254
0 0 252
0 0 250
0 0 254
0 0 254
0 0 254
0 0 252
0 0 254
0 0 253
0 0 254
0 0 254
0 0 250
0 0 254
0 0 255
0 0 248
0 0 250
0 0 254
0 0 252
0 0 254
0 0 253
0 0 249
0 0 250
0 0 252
0 0 252
0 0 249
0 0 252
0 0 252
0 0 249
0 0 253
0 0 249
0 0 250
0 0 246
0 0 250
0 0 248
0 0 253
0 0 244
0 0 249
0 0 248
0 0 252
0 0 253
0 0 254
0 0 249
0 0 249
0 0 249
0 0 249
0 0 248
0 0 249
0 0 248
0 0 249
0 0 249
0 0 249
0 0 248
0 0 248
0 0 248
0 0 244
0 0 249
0 0 248
83 85 250
210 215 252
241 247 255
241 247 255
241 247 255
241 247 255
241 247 255
241 247 255
241 247 255
241 247 255
241 247 255
242 247 255
242 247 255
242 247 255
242 247 255
242 247 255
242 247 255
242 247 255
242 247 255
242 247 255
242 247 255
242 247 255
242 247 255
242 247 255
242 247 255
242 247 255
242 248 255
242 248 255
242 248 255
242 248 255
242 248 255
242 248 255
242 248 255
242 248 255
242 248 255
242 248 255
242 248 255
242 248 255
242 248 255
242 248 255
242 248 255
242 248 255
242 248 255
242 248 255
242 248 255
242 248 255
242 248 255
242 248 255
242 248 255
242 248 255
242 248 255
242 248 255
242 248 255
242 248 255
242 248 255
242 248 255
242 248 255
242 248 255
242 248 255
242 248 255
242 248 255
242 248 255
242 248 255
242 248 255
242 248 255
242 248 255
242 248 255
242 248 255
242 248 255
242 248 255
242 248 255
242 248 255
242 248 255
242 248 255
242 248 255
242 248 255
242 248 255
242 248 255
242 248 255
242 248 255
242 248 255
242 248 255
242 248 255
242 248 255
242 248 255
242 248 255
242 247 255
242 247 255
242 247 255
242 247 255
242 247 255
242 247 255
242 247 255
242 247 255
242 247 255
242 247 255
242 247 255
242 247 255
242 247 255
242 247 255
242 247 255
241 247 255
241 247 255
241 247 255
241 247 255
241 247 255
241 247 255
241 247 255
241 247 255
241 247 255
239 209 217
237 98 102
234 0 0
236 0 0
238 0 0
232 0 0
232 0 0
231 0 0
234 0 0
231 0 0
233 0 0
233 0 0
224 0 0
230 0 0
234 0 0
226 0 0
231 0 0
233 0 0
227 0 0
229 0 0
225 0 0
231 0 0
233 0 0
235 0 0
231 0 0
233 0 0
231 0 0
231 0 0
233 0 0
229 0 0
230 0 0
232 0 0
226 0 0
226 0 0
232 0 0
229 0 0
229 0 0
234 0 0
230 0 0
231 0 0
231 0 0
232 0 0
231 0 0
228 0 0
231 0 0
232 0 0
228 0 0
227 0 0
227 0 0
230 0 0
231 0 0
235 0 0
228 0 0
229 0 0
230 0 0
233 0 0
229 0 0
230 0 0
233 0 0
232 0 0
231 0 0
232 0 0
234 0 0
226 0 0
232 0 0
232 0 0
229 0 0
230 0 0
226 0 0
230 0 0
232 0 0
229 0 0
229 0 0
226 0 0
228 0 0
230 0 0
231 0 0
229 0 0
234 0 0
232 0 0
225 0 0
230 0 0
232 0 0
234 0 0
233 0 0
228 0 0
232 0 0
231 0 0
230 0 0
234 0 0
227 0 0
232 0 0
231 0 0
228 0 0
229 0 0
229 0 0
230 0 0
229 0 0
231 0 0
227 0 0
229 0 0
230 0 0
229 0 0
227 0 0
231 0 0
231 0 0
231 0 0
228 0 0
229 0 0
229 0 0
233 0 0
229 0 0
232 0 0
232 0 0
230 0 0
233 0 0
229 0 0
230 0 0
229 0 0
231 0 0
234 0 0
228 0 0
231 0 0
229 0 0
232 0 0
231 0 0
228 0 0
230 0 0
231 0 0
229 0 0
231 0 0
229 0 0
231 0 0
227 0 0
231 0 0
232 0 0
230 0 0
230 0 0
231 0 0
230 0 0
233 0 0
233 0 0
229 0 0
232 0 0
232 0 0
229 0 0
0 0 255
0 0 255
0 0 255
0 0 255
0 0 255
0 0 255
0 0 255
0 0 255
0 0 255
0 0 254
0 0 255
0 0 255
0 0 255
0 0 255
0 0 253
0 0 255
0 0 255
0 0 255
0 0 255
0 0 254
0 0 255
0 0 255
0 0 255
0 0 254
0 0 254
0 0 255
0 0 255
0 0 255
0 0 254
0 0 253
0 0 255
0 0 254
0 0 254
0 0 255
0 0 254
0 0 255
0 0 255
0 0 254
0 0 255
0 0 254
0 0 255
0 0 254
0 0 254
0 0 253
0 0 255
0 0 254
0 0 255
0 0 254
0 0 255
0 0 254
0 0 254
0 0 254
0 0 253
0 0 254
0 0 255
0 0 254
0 0 254
0 0 254
0 0 254
0 0 254
0 0 255
0 0 255
0 0 255
0 0 252
0 0 253
0 0 255
0 0 255
0 0 254
0 0 254
0 0 253
0 0 254
0 0 252
0 0 254
0 0 252
0 0 254
0 0 253
0 0 254
0 0 254
0 0 248
0 0 255
0 0 253
0 0 254
0 0 254
0 0 250
0 0 249
0 0 253
0 0 254
0 0 253
0 0 255
0 0 254
0 0 253
0 0 253
0 0 249
0 0 253
0 0 252
0 0 252
0 0 253
0 0 252
0 0 254
0 0 249
0 0 253
0 0 252
0 0 254
0 0 254
0 0 250
0 0 253
0 0 255
0 0 249
0 0 253
0 0 253
0 0 252
0 0 249
0 0 250
0 0 253
0 0 253
0 0 252
0 0 250
0 0 253
0 0 253
0 0 250
0 0 250
0 0 253
0 0 249
0 0 253
0 0 248
0 0 250
0 0 250
0 0 253
0 0 253
0 0 252
0 0 252
0 0 249
0 0 248
0 0 250
0 0 250
0 0 246
0 0 242
0 0 253
0 0 250
0 0 249
0 0 248
0 0 248
41 42 248
179 183 250
231 237 254
241 247 255
241 247 255
241 247 255
241 247 255
241 247 255
241 247 255
242 247 255
242 247 255
242 247 255
242 247 255
242 247 255
242 247 255
242 247 255
242 247 255
242 247 255
242 247 255
242 247 255
242 247 255
242 247 255
242 247 255
242 248 255
242 248 255
242 248 255
242 248 255
242 248 255
242 248 255
242 248 255
242 248 255
242 248 255
242 248 255
242 248 255
242 248 255
242 248 255
242 248 255
242 248 255
242 248 255
242 248 255
242 248 255
242 248 255
242 248 255
242 248 255
243 248 255
243 248 255
243 248 255
243 248 255
243 248 255
243 248 255
243 248 255
243 248 255
243 248 255
243 248 255
243 248 255
243 248 255
243 248 255
243 248 255
243 248 255
243 248 255
243 248 255
243 248 255
243 248 255
243 248 255
243 248 255
243 248 255
243 248 255
243 248 255
243 248 255
243 248 255
243 248 255
243 248 255
243 248 255
242 248 255
242 248 255
242 248 255
242 248 255
242 248 255
242 248 255
242 248 255
242 248 255
242 248 255
242 248 255
242 248 255
242 248 255
242 248 255
242 248 255
242 248 255
242 248 255
242 248 255
242 248 255
242 248 255
242 248 255
242 247 255
242 247 255
242 247 255
242 247 255
242 247 255
242 247 255
242 247 255
242 247 255
242 247 255
242 247 255
242 247 255
242 247 255
242 247 255
242 247 255
241 247 255
241 247 255
241 247 255
241 247 255
241 247 255
241 247 255
241 243 252
240 186 193
232 42 44
231 0 0
237 0 0
231 0 0
233 0 0
231 0 0
228 0 0
236 0 0
234 0 0
233 0 0
230 0 0
236 0 0
232 0 0
232 0 0
227 0 0
230 0 0
233 0 0
235 0 0
231 0 0
231 0 0
234 0 0
236 0 0
233 0 0
228 0 0
230 0 0
236 0 0
231 0 0
226 0 0
232 0 0
233 0 0
231 0 0
233 0 0
232 0 0
232 0 0
228 0 0
230 0 0
230 0 0
228 0 0
233 0 0
234 0 0
229 0 0
234 0 0
233 0 0
234 0 0
230 0 0
232 0 0
234 0 0
230 0 0
231 0 0
229 0 0
229 0 0
234 0 0
229 0 0
232 0 0
232 0 0
231 0 0
229 0 0
229 0 0
230 0 0
231 0 0
231 0 0
229 0 0
230 0 0
235 0 0
232 0 0
231 0 0
229 0 0
234 0 0
230 0 0
228 0 0
232 0 0
231 0 0
226 0 0
228 0 0
231 0 0
232 0 0
227 0 0
232 0 0
231 0 0
230 0 0
234 0 0
232 0 0
230 0 0
231 0 0
231 0 0
230 0 0
235 0 0
230 0 0
229 0 0
232 0 0
225 0 0
233 0 0
232 0 0
233 0 0
229 0 0
232 0 0
231 0 0
231 0 0
231 0 0
231 0 0
228 0 0
230 0 0
231 0 0
230 0 0
230 0 0
232 0 0
227 0 0
230 0 0
229 0 0
230 0 0
229 0 0
231 0 0
233 0 0
229 0 0
229 0 0
228 0 0
228 0 0
230 0 0
229 0 0
231 0 0
230 0 0
232 0 0
228 0 0
230 0 0
227 0 0
228 0 0
231 0 0
230 0 0
235 0 0
230 0 0
231 0 0
231 0 0
230 0 0
233 0 0
232 0 0
231 0 0
231 0 0
233 0 0
230 0 0
228 0 0
232 0 0
229 0 0
229 0 0
0 0 255
0 0 255
0 0 255
0 0 255
0 0 254
0 0 255
0 0 255
0 0 255
0 0 255
0 0 255
0 0 254
0 0 255
0 0 255
0 0 255
0 0 255
0 0 255
0 0 255
0 0 255
0 0 255
0 0 255
0 0 255
0 0 254
0 0 255
0 0 255
0 0 255
0 0 254
0 0 255
0 0 254
0 0 255
0 0 254
0 0 252
0 0 255
0 0 254
0 0 254
0 0 255
0 0 254
0 0 255
0 0 255
0 0 254
0 0 255
0 0 255
0 0 254
0 0 254
0 0 254
0 0 254
0 0 255
0 0 255
0 0 255
0 0 255
0 0 254
0 0 254
0 0 253
0 0 255
0 0 255
0 0 254
0 0 253
0 0 254
0 0 254
0 0 253
0 0 253
0 0 254
0 0 254
0 0 255
0 0 255
0 0 253
0 0 255
0 0 254
0 0 252
0 0 253
0 0 255
0 0 255
0 0 255
0 0 254
0 0 254
0 0 255
0 0 253
0 0 253
0 0 254
0 0 252
0 0 252
0 0 253
0 0 252
0 0 254
0 0 254
0 0 254
0 0 252
0 0 253
0 0 255
0 0 254
0 0 253
0 0 254
0 0 253
0 0 249
0 0 252
0 0 250
0 0 253
0 0 252
0 0 249
0 0 255
0 0 252
0 0 252
0 0 252
0 0 253
0 0 252
0 0 255
0 0 252
0 0 248
0 0 254
0 0 252
0 0 253
0 0 249
0 0 252
0 0 249
0 0 250
0 0 253
0 0 254
0 0 250
0 0 249
0 0 253
0 0 248
0 0 252
0 0 246
0 0 248
0 0 249
0 0 248
0 0 250
0 0 252
0 0 249
0 0 244
0 0 252
0 0 250
0 0 249
0 0 248
0 0 248
0 0 250
0 0 249
0 0 252
0 0 246
0 0 249
0 0 246
0 0 248
138 142 255
231 237 255
241 247 255
241 247 255
241 247 255
241 247 255
241 247 255
242 247 255
242 247 255
242 247 255
242 247 255
242 247 255
242 247 255
242 247 255
242 247 255
242 247 255
242 247 255
242 247 255
242 247 255
242 247 255
242 248 255
242 248 255
242 248 255
242 248 255
242 248 255
242 248 255
242 248 255
242 248 255
242 248 255
242 248 255
242 248 255
242 248 255
242 248 255
242 248 255
242 248 255
242 248 255
243 248 255
243 248 255
243 248 255
243 248 255
243 248 255
243 248 255
243 248 255
243 248 255
243 248 255
243 248 255
243 248 255
243 248 255
243 248 255
243 248 255
243 248 255
243 248 255
243 248 255
243 248 255
243 248 255
243 248 255
243 248 255
243 248 255
243 248 255
243 248 255
243 248 255
243 248 255
243 248 255
243 248 255
243 248 255
243 248 255
243 248 255
243 248 255
243 248 255
243 248 255
243 248 255
243 248 255
243 248 255
243 248 255
243 248 255
243 248 255
243 248 255
243 248 255
243 248 255
243 248 255
243 248 255
243 248 255
242 248 255
242 248 255
242 248 255
242 248 255
242 248 255
242 248 255
242 248 255
242 248 255
242 248 255
242 248 255
242 248 255
242 248 255
242 248 255
242 248 255
242 248 255
242 248 255
242 247 255
242 247 255
242 247 255
242 247 255
242 247 255
242 247 255
242 247 255
242 247 255
242 247 255
242 247 255
242 247 255
242 247 255
242 247 255
241 247 255
241 247 255
241 247 255
241 247 255
241 247 255
240 233 241
239 142 147
238 0 0
235 0 0
233 0 0
232 0 0
231 0 0
236 0 0
232 0 0
235 0 0
235 0 0
230 0 0
227 0 0
230 0 0
234 0 0
234 0 0
229 0 0
231 0 0
232 0 0
228 0 0
231 0 0
231 0 0
237 0 0
231 0 0
228 0 0
232 0 0
233 0 0
233 0 0
227 0 0
231 0 0
232 0 0
226 0 0
229 0 0
230 0 0
232 0 0
232 0 0
234 0 0
230 0 0
234 0 0
233 0 0
237 0 0
229 0 0
233 0 0
224 0 0
230 0 0
228 0 0
232 0 0
232 0 0
229 0 0
226 0 0
229 0 0
228 0 0
231 0 0
230 0 0
232 0 0
235 0 0
231 0 0
226 0 0
225 0 0
230 0 0
233 0 0
234 0 0
235 0 0
233 0 0
230 0 0
232 0 0
234 0 0
230 0 0
235 0 0
226 0 0
232 0 0
231 0 0
228 0 0
233 0 0
229 0 0
233 0 0
231 0 0
229 0 0
230 0 0
230 0 0
232 0 0
229 0 0
231 0 0
229 0 0
232 0 0
228 0 0
232 0 0
231 0 0
230 0 0
229 0 0
231 0 0
231 0 0
234 0 0
229 0 0
230 0 0
231 0 0
232 0 0
231 0 0
231 0 0
231 0 0
229 0 0
230 0 0
229 0 0
230 0 0
228 0 0
230 0 0
234 0 0
230 0 0
233 0 0
232 0 0
230 0 0
232 0 0
233 0 0
231 0 0
229 0 0
231 0 0
234 0 0
229 0 0
232 0 0
232 0 0
234 0 0
231 0 0
232 0 0
231 0 0
228 0 0
228 0 0
231 0 0
230 0 0
233 0 0
232 0 0
227 0 0
234 0 0
232 0 0
232 0 0
229 0 0
228 0 0
231 0 0
231 0 0
234 0 0
231 0 0
232 0 0
229 0 0
231 0 0
0 0 255
0 0 255
0 0 255
0 0 255
0 0 255
0 0 255
0 0 255
0 0 255
0 0 255
0 0 255
0 0 255
0 0 255
0 0 255
0 0 255
0 0 255
0 0 255
0 0 255
0 0 255
0 0 255
0 0 255
0 0 255
0 0 255
0 0 255
0 0 255
0 0 255
0 0 255
0 0 255
0 0 254
0 0 255
0 0 255
0 0 255
0 0 255
0 0 254
0 0 254
0 0 253
0 0 255
0 0 254
0 0 254
0 0 254
0 0 255
0 0 253
0 0 253
0 0 254
0 0 255
0 0 254
0 0 255
0 0 253
0 0 255
0 0 255
0 0 254
0 0 255
0 0 255
0 0 253
0 0 254
0 0 253
0 0 254
0 0 254
0 0 254
0 0 252
0 0 255
0 0 255
0 0 255
0 0 252
0 0 254
0 0 250
0 0 252
0 0 252
0 0 253
0 0 252
0 0 254
0 0 254
0 0 255
0 0 254
0 0 255
0 0 255
0 0 253
0 0 253
0 0 254
0 0 255
0 0 255
0 0 255
0 0 253
0 0 255
0 0 253
0 0 252
0 0 253
0 0 253
0 0 253
0 0 255
0 0 250
0 0 250
0 0 253
0 0 252
0 0 254
0 0 252
0 0 253
0 0 253
0 0 252
0 0 253
0 0 254
0 0 250
0 0 248
0 0 253
0 0 253
0 0 252
0 0 254
0 0 250
0 0 249
0 0 253
0 0 246
0 0 252
0 0 254
0 0 252
0 0 252
0 0 254
0 0 255
0 0 253
0 0 254
0 0 245
0 0 248
0 0 253
0 0 253
0 0 250
0 0 252
0 0 250
0 0 245
0 0 253
0 0 248
0 0 254
0 0 252
0 0 250
0 0 242
0 0 250
0 0 253
0 0 248
0 0 253
0 0 254
0 0 253
0 0 249
113 116 253
206 211 255
241 247 255
241 247 255
241 247 255
241 247 255
242 247 255
242 247 255
242 247 255
242 247 255
242 247 255
242 247 255
242 247 255
242 247 255
242 247 255
242 247 255
242 247 255
242 247 255
242 248 255
242 248 255
242 248 255
242 248 255
242 248 255
242 248 255
242 248 255
242 248 255
242 248 255
242 248 255
242 248 255
242 248 255
242 248 255
242 248 255
243 248 255
243 248 255
243 248 255
243 248 255
243 248 255
243 248 255
243 248 255
243 248 255
243 248 255
243 248 255
243 248 255
243 248 255
243 248 255
243 248 255
243 248 255
243 248 255
243 248 255
243 248 255
243 248 255
243 248 255
243 248 255
243 248 255
243 248 255
243 248 255
243 248 255
243 248 255
243 248 255
243 248 255
243 248 255
243 248 255
243 248 255
243 248 255
243 248 255
243 248 255
243 248 255
243 248 255
243 248 255
243 248 255
243 248 255
243 248 255
243 248 255
243 248 255
243 248 255
243 248 255
243 248 255
243 248 255
243 248 255
243 248 255
243 248 255
243 248 255
243 248 255
243 248 255
243 248 255
243 248 255
243 248 255
243 248 255
243 248 255
243 248 255
242 248 255
242 248 255
242 248 255
242 248 255
242 248 255
242 248 255
242 248 255
242 248 255
242 248 255
242 248 255
242 248 255
242 248 255
242 248 255
242 248 255
242 247 255
242 247 255
242 247 255
242 247 255
242 247 255
242 247 255
242 247 255
242 247 255
242 247 255
242 247 255
242 247 255
242 247 255
241 247 255
241 247 255
241 247 255
241 247 255
239 228 236
236 131 135
236 0 0
229 0 0
232 0 0
232 0 0
237 0 0
233 0 0
240 0 0
233 0 0
235 0 0
227 0 0
236 0 0
236 0 0
234 0 0
230 0 0
232 0 0
234 0 0
233 0 0
233 0 0
226 0 0
229 0 0
233 0 0
226 0 0
231 0 0
234 0 0
233 0 0
229 0 0
227 0 0
236 0 0
233 0 0
230 0 0
232 0 0
235 0 0
233 0 0
232 0 0
231 0 0
228 0 0
228 0 0
231 0 0
227 0 0
228 0 0
231 0 0
229 0 0
229 0 0
228 0 0
230 0 0
229 0 0
231 0 0
230 0 0
230 0 0
232 0 0
234 0 0
231 0 0
234 0 0
228 0 0
232 0 0
232 0 0
227 0 0
230 0 0
231 0 0
227 0 0
230 0 0
231 0 0
229 0 0
232 0 0
230 0 0
234 0 0
230 0 0
233 0 0
232 0 0
231 0 0
231 0 0
233 0 0
229 0 0
232 0 0
231 0 0
231 0 0
228 0 0
229 0 0
229 0 0
232 0 0
228 0 0
229 0 0
231 0 0
227 0 0
231 0 0
231 0 0
232 0 0
233 0 0
232 0 0
230 0 0
231 0 0
227 0 0
234 0 0
226 0 0
228 0 0
233 0 0
230 0 0
232 0 0
234 0 0
234 0 0
233 0 0
234 0 0
230 0 0
229 0 0
231 0 0
229 0 0
230 0 0
231 0 0
231 0 0
231 0 0
230 0 0
232 0 0
233 0 0
234 0 0
235 0 0
231 0 0
230 0 0
228 0 0
231 0 0
233 0 0
231 0 0
233 0 0
233 0 0
231 0 0
230 0 0
229 0 0
228 0 0
231 0 0
229 0 0
230 0 0
232 0 0
229 0 0
229 0 0
228 0 0
230 0 0
229 0 0
229 0 0
231 0 0
233 0 0
0 0 255
0 0 254
0 0 254
0 0 255
0 0 255
0 0 255
0 0 255
0 0 255
0 0 255
0 0 255
0 0 255
0 0 255
0 0 255
0 0 255
0 0 254
0 0 255
0 0 254
0 0 254
0 0 255
0 0 255
0 0 254
0 0 255
0 0 255
0 0 255
0 0 255
0 0 255
0 0 255
0 0 255
0 0 255
0 0 255
0 0 253
0 0 255
0 0 254
0 0 254
0 0 253
0 0 253
0 0 255
0 0 255
0 0 253
0 0 254
0 0 254
0 0 255
0 0 255
0 0 254
0 0 253
0 0 255
0 0 254
0 0 255
0 0 255
0 0 255
0 0 254
0 0 255
0 0 255
0 0 255
0 0 253
0 0 255
0 0 255
0 0 254
0 0 255
0 0 254
0 0 255
0 0 254
0 0 253
0 0 253
0 0 255
0 0 255
0 0 255
0 0 255
0 0 254
0 0 255
0 0 253
0 0 254
0 0 253
0 0 255
0 0 254
0 0 252
0 0 255
0 0 252
0 0 253
0 0 255
0 0 252
0 0 255
0 0 255
0 0 246
0 0 253
0 0 253
0 0 255
0 0 253
0 0 254
0 0 255
0 0 254
0 0 252
0 0 253
0 0 254
0 0 254
0 0 253
0 0 248
0 0 252
0 0 255
0 0 252
0 0 250
0 0 253
0 0 252
0 0 253
0 0 253
0 0 249
0 0 249
0 0 255
0 0 255
0 0 253
0 0 254
0 0 252
0 0 250
0 0 253
0 0 250
0 0 254
0 0 253
0 0 252
0 0 254
0 0 254
0 0 255
0 0 253
0 0 254
0 0 253
0 0 249
0 0 252
0 0 254
0 0 246
0 0 252
0 0 249
0 0 253
0 0 250
0 0 249
0 0 252
0 0 253
0 0 249
0 0 248
87 89 252
205 210 252
241 247 255
241 247 255
242 247 255
242 247 255
242 247 255
242 247 255
242 247 255
242 247 255
242 247 255
242 247 255
242 247 255
242 247 255
242 247 255
242 247 255
242 248 255
242 248 255
242 248 255
242 248 255
242 248 255
242 248 255
242 248 255
242 248 255
242 248 255
242 248 255
242 248 255
242 248 255
242 248 255
243 248 255
243 248 255
243 248 255
243 248 255
243 248 255
243 248 255
243 248 255
243 248 255
243 248 255
243 248 255
243 248 255
243 248 255
243 248 255
243 248 255
243 248 255
243 248 255
243 248 255
243 248 255
243 248 255
243 248 255
243 248 255
243 248 255
243 248 255
243 248 255
243 248 255
243 248 255
243 248 255
243 248 255
243 248 255
243 248 255
243 248 255
243 248 255
243 248 255
243 248 255
243 248 255
243 248 255
243 248 255
243 248 255
243 248 255
243 248 255
243 248 255
243 248 255
243 248 255
243 248 255
243 248 255
243 248 255
243 248 255
243 248 255
243 248 255
243 248 255
243 248 255
243 248 255
243 248 255
243 248 255
243 248 255
243 248 255
243 248 255
243 248 255
243 248 255
243 248 255
243 248 255
243 248 255
243 248 255
243 248 255
243 248 255
243 248 255
243 248 255
243 248 255
242 248 255
242 248 255
242 248 255
242 248 255
242 248 255
242 248 255
242 248 255
242 248 255
242 248 255
242 248 255
242 248 255
242 248 255
242 248 255
242 247 255
242 247 255
242 247 255
242 247 255
242 247 255
242 247 255
242 247 255
242 247 255
242 247 255
242 247 255
242 247 255
241 247 255
241 247 255
241 247 255
241 191 198
230 95 99
238 0 0
232 0 0
236 0 0
233 0 0
239 0 0
232 0 0
236 0 0
236 0 0
236 0 0
233 0 0
234 0 0
224 0 0
233 0 0
235 0 0
233 0 0
236 0 0
231 0 0
233 0 0
236 0 0
230 0 0
233 0 0
230 0 0
231 0 0
230 0 0
233 0 0
232 0 0
237 0 0
232 0 0
229 0 0
233 0 0
232 0 0
235 0 0
227 0 0
229 0 0
230 0 0
228 0 0
233 0 0
236 0 0
232 0 0
231 0 0
232 0 0
232 0 0
231 0 0
232 0 0
230 0 0
232 0 0
227 0 0
230 0 0
231 0 0
226 0 0
229 0 0
228 0 0
226 0 0
232 0 0
232 0 0
234 0 0
231 0 0
234 0 0
229 0 0
232 0 0
233 0 0
233 0 0
232 0 0
231 0 0
233 0 0
230 0 0
230 0 0
231 0 0
229 0 0
229 0 0
230 0 0
230 0 0
229 0 0
231 0 0
229 0 0
233 0 0
233 0 0
229 0 0
232 0 0
230 0 0
228 0 0
234 0 0
232 0 0
228 0 0
235 0 0
228 0 0
235 0 0
231 0 0
231 0 0
231 0 0
233 0 0
234 0 0
230 0 0
231 0 0
232 0 0
229 0 0
230 0 0
230 0 0
235 0 0
230 0 0
232 0 0
231 0 0
232 0 0
233 0 0
232 0 0
235 0 0
232 0 0
230 0 0
231 0 0
233 0 0
230 0 0
234 0 0
231 0 0
230 0 0
230 0 0
229 0 0
231 0 0
231 0 0
232 0 0
230 0 0
230 0 0
230 0 0
227 0 0
231 0 0
231 0 0
229 0 0
230 0 0
230 0 0
233 0 0
230 0 0
230 0 0
230 0 0
230 0 0
231 0 0
229 0 0
231 0 0
230 0 0
0 0 255
0 0 255
0 0 255
0 0 254
0 0 255
0 0 255
0 0 255
0 0 255
0 0 255
0 0 255
0 0 255
0 0 255
0 0 255
0 0 255
0 0 255
0 0 255
0 0 255
0 0 255
0 0 255
0 0 255
0 0 255
0 0 255
0 0 255
0 0 254
0 0 255
0 0 255
0 0 255
0 0 255
0 0 255
0 0 255
0 0 255
0 0 255
0 0 255
0 0 252
0 0 255
0 0 255
0 0 255
0 0 255
0 0 255
0 0 255
0 0 255
0 0 254
0 0 255
0 0 255
0 0 254
0 0 255
0 0 255
0 0 255
0 0 254
0 0 254
0 0 254
0 0 254
0 0 254
0 0 255
0 0 254
0 0 254
0 0 255
0 0 253
0 0 255
0 0 254
0 0 254
0 0 254
0 0 253
0 0 254
0 0 255
0 0 254
0 0 255
0 0 255
0 0 253
0 0 253
0 0 254
0 0 255
0 0 252
0 0 254
0 0 255
0 0 255
0 0 253
0 0 255
0 0 254
0 0 250
0 0 254
0 0 252
0 0 252
0 0 253
0 0 254
0 0 254
0 0 248
0 0 254
0 0 254
0 0 253
0 0 253
0 0 252
0 0 255
0 0 249
0 0 254
0 0 250
0 0 253
0 0 253
0 0 253
0 0 255
0 0 249
0 0 250
0 0 254
0 0 252
0 0 252
0 0 252
0 0 252
0 0 255
0 0 253
0 0 248
0 0 252
0 0 254
0 0 253
0 0 250
0 0 248
0 0 250
0 0 252
0 0 250
0 0 248
0 0 253
0 0 249
0 0 253
0 0 254
0 0 250
0 0 249
0 0 250
0 0 253
0 0 250
0 0 246
0 0 252
0 0 254
0 0 253
0 0 253
0 0 255
0 0 255
48 49 255
179 183 254
240 246 255
242 247 255
242 247 255
242 247 255
242 247 255
242 247 255
242 247 255
242 247 255
242 247 255
242 247 255
242 247 255
242 247 255
242 247 255
242 248 255
242 248 255
242 248 255
242 248 255
242 248 255
242 248 255
242 248 255
242 248 255
242 248 255
242 248 255
242 248 255
242 248 255
243 248 255
243 248 255
243 248 255
243 248 255
243 248 255
243 248 255
243 248 255
243 248 255
243 248 255
243 248 255
243 248 255
243 248 255
243 248 255
243 248 255
243 248 255
243 248 255
243 248 255
243 248 255
243 248 255
243 248 255
243 248 255
243 248 255
243 248 255
243 248 255
243 248 255
243 248 255
243 248 255
243 248 255
243 248 255
243 248 255
243 248 255
243 248 255
243 248 255
243 248 255
243 248 255
243 248 255
243 248 255
243 248 255
243 248 255
243 248 255
243 248 255
243 248 255
243 248 255
243 248 255
243 248 255
243 248 255
243 248 255
243 248 255
243 248 255
243 248 255
243 248 255
243 248 255
243 248 255
243 248 255
243 248 255
243 248 255
243 248 255
243 248 255
243 248 255
243 248 255
243 248 255
243 248 255
243 248 255
243 248 255
243 248 255
243 248 255
243 248 255
243 248 255
243 248 255
243 248 255
243 248 255
243 248 255
243 248 255
243 248 255
243 248 255
243 248 255
242 248 255
242 248 255
242 248 255
242 248 255
242 248 255
242 248 255
242 248 255
242 248 255
242 248 255
242 248 255
242 248 255
242 248 255
242 247 255
242 247 255
242 247 255
242 247 255
242 247 255
242 247 255
242 247 255
242 247 255
242 247 255
242 247 255
242 247 255
242 247 255
242 246 254
242 193 199
235 70 72
233 0 0
236 0 0
235 0 0
230 0 0
234 0 0
233 0 0
234 0 0
234 0 0
238 0 0
236 0 0
232 0 0
237 0 0
233 0 0
232 0 0
232 0 0
231 0 0
233 0 0
229 0 0
234 0 0
230 0 0
229 0 0
237 0 0
232 0 0
232 0 0
233 0 0
233 0 0
235 0 0
232 0 0
225 0 0
233 0 0
234 0 0
235 0 0
234 0 0
238 0 0
228 0 0
234 0 0
232 0 0
232 0 0
232 0 0
233 0 0
234 0 0
234 0 0
231 0 0
232 0 0
227 0 0
226 0 0
232 0 0
234 0 0
232 0 0
233 0 0
232 0 0
227 0 0
232 0 0
233 0 0
232 0 0
232 0 0
232 0 0
231 0 0
230 0 0
233 0 0
233 0 0
233 0 0
231 0 0
234 0 0
228 0 0
232 0 0
231 0 0
233 0 0
234 0 0
230 0 0
230 0 0
232 0 0
232 0 0
232 0 0
231 0 0
230 0 0
230 0 0
229 0 0
233 0 0
230 0 0
234 0 0
233 0 0
232 0 0
231 0 0
234 0 0
232 0 0
233 0 0
230 0 0
231 0 0
230 0 0
228 0 0
231 0 0
232 0 0
230 0 0
230 0 0
230 0 0
228 0 0
231 0 0
229 0 0
231 0 0
228 0 0
233 0 0
234 0 0
231 0 0
231 0 0
232 0 0
230 0 0
228 0 0
229 0 0
231 0 0
226 0 0
233 0 0
230 0 0
231 0 0
231 0 0
231 0 0
231 0 0
231 0 0
230 0 0
233 0 0
234 0 0
231 0 0
235 0 0
231 0 0
231 0 0
231 0 0
230 0 0
230 0 0
232 0 0
225 0 0
230 0 0
232 0 0
228 0 0
231 0 0
234 0 0
0 0 254
0 0 255
0 0 255
0 0 254
0 0 255
0 0 255
0 0 255
0 0 254
0 0 255
0 0 255
0 0 255
0 0 254
0 0 255
0 0 253
0 0 255
0 0 255
0 0 255
0 0 255
0 0 253
0 0 255
0 0 255
0 0 255
0 0 255
0 0 255
0 0 255
0 0 255
0 0 255
0 0 255
0 0 255
0 0 255
0 0 255
0 0 254
0 0 255
0 0 255
0 0 253
0 0 254
0 0 255
0 0 255
0 0 255
0 0 255
0 0 254
0 0 255
0 0 254
0 0 254
0 0 255
0 0 255
0 0 255
0 0 255
0 0 254
0 0 255
0 0 254
0 0 255
0 0 255
0 0 255
0 0 253
0 0 255
0 0 255
0 0 255
0 0 255
0 0 255
0 0 254
0 0 255
0 0 255
0 0 253
0 0 253
0 0 253
0 0 254
0 0 254
0 0 255
0 0 250
0 0 252
0 0 255
0 0 255
0 0 255
0 0 254
0 0 254
0 0 255
0 0 254
0 0 255
0 0 253
0 0 254
0 0 255
0 0 253
0 0 253
0 0 253
0 0 253
0 0 253
0 0 254
0 0 253
0 0 254
0 0 253
0 0 252
0 0 252
0 0 252
0 0 250
0 0 253
0 0 252
0 0 250
0 0 252
0 0 253
0 0 252
0 0 250
0 0 253
0 0 252
0 0 253
0 0 254
0 0 253
0 0 252
0 0 249
0 0 252
0 0 248
0 0 252
0 0 249
0 0 248
0 0 252
0 0 255
0 0 254
0 0 253
0 0 248
0 0 250
0 0 255
0 0 255
0 0 254
0 0 254
0 0 253
0 0 252
0 0 255
0 0 253
0 0 252
0 0 253
0 0 252
0 0 252
0 0 252
54 55 255
169 173 253
234 240 255
242 247 255
242 247 255
242 247 255
242 247 255
242 247 255
242 247 255
242 247 255
242 247 255
242 247 255
242 247 255
242 248 255
242 248 255
242 248 255
242 248 255
242 248 255
242 248 255
242 248 255
242 248 255
242 248 255
242 248 255
242 248 255
242 248 255
243 248 255
243 248 255
243 248 255
243 248 255
243 248 255
243 248 255
243 248 255
243 248 255
243 248 255
243 248 255
243 248 255
243 248 255
243 248 255
243 248 255
243 248 255
243 248 255
243 248 255
243 248 255
243 248 255
243 248 255
243 248 255
243 248 255
243 248 255
243 248 255
243 248 255
243 248 255
243 248 255
243 248 255
243 248 255
243 248 255
243 248 255
243 248 255
243 248 255
243 248 255
243 248 255
243 248 255
243 248 255
243 248 255
243 248 255
243 248 255
243 248 255
243 248 255
243 248 255
243 248 255
243 248 255
243 248 255
243 248 255
243 248 255
243 248 255
243 248 255
243 248 255
243 248 255
243 248 255
243 248 255
243 248 255
243 248 255
243 248 255
243 248 255
243 248 255
243 248 255
243 248 255
243 248 255
243 248 255
243 248 255
243 248 255
243 248 255
243 248 255
243 248 255
243 248 255
243 248 255
243 248 255
243 248 255
243 248 255
243 248 255
243 248 255
243 248 255
243 248 255
243 248 255
243 248 255
243 248 255
243 248 255
243 248 255
243 248 255
243 248 255
242 248 255
242 248 255
242 248 255
242 248 255
242 248 255
242 248 255
242 248 255
242 248 255
242 248 255
242 248 255
242 248 255
242 248 255
242 247 255
242 247 255
242 247 255
242 247 255
242 247 255
242 247 255
242 247 255
242 247 255
242 247 255
242 247 255
241 246 254
240 175 181
235 78 80
236 0 0
236 0 0
232 0 0
232 0 0
232 0 0
236 0 0
238 0 0
234 0 0
234 0 0
233 0 0
230 0 0
232 0 0
228 0 0
230 0 0
233 0 0
231 0 0
229 0 0
232 0 0
236 0 0
231 0 0
228 0 0
234 0 0
236 0 0
235 0 0
227 0 0
235 0 0
233 0 0
230 0 0
231 0 0
227 0 0
231 0 0
232 0 0
236 0 0
235 0 0
232 0 0
232 0 0
232 0 0
227 0 0
232 0 0
232 0 0
231 0 0
230 0 0
235 0 0
232 0 0
228 0 0
229 0 0
231 0 0
234 0 0
236 0 0
232 0 0
235 0 0
227 0 0
230 0 0
233 0 0
231 0 0
229 0 0
231 0 0
229 0 0
231 0 0
233 0 0
229 0 0
232 0 0
233 0 0
232 0 0
230 0 0
233 0 0
233 0 0
230 0 0
232 0 0
232 0 0
235 0 0
236 0 0
235 0 0
232 0 0
234 0 0
233 0 0
233 0 0
234 0 0
231 0 0
231 0 0
230 0 0
233 0 0
233 0 0
232 0 0
233 0 0
234 0 0
232 0 0
231 0 0
232 0 0
231 0 0
231 0 0
231 0 0
233 0 0
236 0 0
234 0 0
233 0 0
232 0 0
231 0 0
234 0 0
234 0 0
229 0 0
232 0 0
233 0 0
234 0 0
231 0 0
228 0 0
230 0 0
226 0 0
229 0 0
233 0 0
233 0 0
231 0 0
230 0 0
231 0 0
230 0 0
226 0 0
231 0 0
230 0 0
232 0 0
228 0 0
230 0 0
230 0 0
232 0 0
229 0 0
231 0 0
230 0 0
231 0 0
235 0 0
231 0 0
232 0 0
231 0 0
232 0 0
230 0 0
0 0 255
0 0 255
0 0 255
0 0 255
0 0 255
0 0 254
0 0 255
0 0 255
0 0 255
0 0 255
0 0 255
0 0 255
0 0 255
0 0 255
0 0 255
0 0 255
0 0 255
0 0 255
0 0 255
0 0 255
0 0 255
0 0 254
0 0 255
0 0 255
0 0 255
0 0 255
0 0 254
0 0 255
0 0 254
0 0 255
0 0 255
0 0 255
0 0 255
0 0 254
0 0 255
0 0 255
0 0 255
0 0 255
0 0 254
0 0 255
0 0 255
0 0 255
0 0 255
0 0 255
0 0 254
0 0 254
0 0 255
0 0 255
0 0 255
0 0 252
0 0 254
0 0 254
0 0 255
0 0 255
0 0 255
0 0 255
0 0 254
0 0 255
0 0 255
0 0 254
0 0 254
0 0 254
0 0 253
0 0 255
0 0 253
0 0 254
0 0 253
0 0 254
0 0 255
0 0 255
0 0 254
0 0 254
0 0 255
0 0 254
0 0 254
0 0 254
0 0 253
0 0 254
0 0 254
0 0 254
0 0 255
0 0 252
0 0 255
0 0 254
0 0 254
0 0 252
0 0 253
0 0 252
0 0 254
0 0 254
0 0 253
0 0 252
0 0 252
0 0 253
0 0 254
0 0 253
0 0 252
0 0 250
0 0 255
0 0 252
0 0 255
0 0 254
0 0 250
0 0 252
0 0 252
0 0 253
0 0 254
0 0 244
0 0 254
0 0 254
0 0 252
0 0 252
0 0 249
0 0 253
0 0 250
0 0 252
0 0 254
0 0 250
0 0 252
0 0 252
0 0 254
0 0 254
0 0 249
0 0 252
0 0 253
0 0 250
0 0 253
0 0 252
0 0 249
0 0 250
0 0 254
83 85 254
172 176 255
234 240 255
242 247 255
242 247 255
242 247 255
242 247 255
242 247 255
242 247 255
242 247 255
242 247 255
242 247 255
242 248 255
242 248 255
242 248 255
242 248 255
242 248 255
242 248 255
242 248 255
242 248 255
242 248 255
242 248 255
242 248 255
243 248 255
243 248 255
243 248 255
243 248 255
243 248 255
243 248 255
243 248 255
243 248 255
243 248 255
243 248 255
243 248 255
243 248 255
243 248 255
243 248 255
243 248 255
243 248 255
243 248 255
243 248 255
243 248 255
243 248 255
243 248 255
243 248 255
243 248 255
243 248 255
243 248 255
243 248 255
243 248 255
243 248 255
243 248 255
243 248 255
243 248 255
243 248 255
243 248 255
243 248 255
243 248 255
243 248 255
243 248 255
243 248 255
243 248 255
243 248 255
243 248 255
243 248 255
243 248 255
243 248 255
243 248 255
243 248 255
243 248 255
243 248 255
243 248 255
243 248 255
243 248 255
243 248 255
243 248 255
243 248 255
243 248 255
243 248 255
243 248 255
243 248 255
243 248 255
243 248 255
243 248 255
243 248 255
243 248 255
243 248 255
243 248 255
243 248 255
243 248 255
243 248 255
243 248 255
243 248 255
243 248 255
243 248 255
243 248 255
243 248 255
243 248 255
243 248 255
243 248 255
243 248 255
243 248 255
243 248 255
243 248 255
243 248 255
243 248 255
243 248 255
243 248 255
243 248 255
243 248 255
243 248 255
243 248 255
243 248 255
243 248 255
242 248 255
242 248 255
242 248 255
242 248 255
242 248 255
242 248 255
242 248 255
242 248 255
242 248 255
242 248 255
242 248 255
242 248 255
242 247 255
242 247 255
242 247 255
242 247 255
242 247 255
242 247 255
242 247 255
242 247 255
242 247 255
241 240 248
241 178 184
240 65 67
233 0 0
240 0 0
233 0 0
235 0 0
232 0 0
237 0 0
234 0 0
236 0 0
230 0 0
236 0 0
230 0 0
231 0 0
239 0 0
231 0 0
234 0 0
231 0 0
234 0 0
232 0 0
224 0 0
234 0 0
232 0 0
232 0 0
230 0 0
231 0 0
236 0 0
231 0 0
230 0 0
233 0 0
230 0 0
237 0 0
229 0 0
230 0 0
232 0 0
233 0 0
233 0 0
234 0 0
232 0 0
227 0 0
231 0 0
232 0 0
230 0 0
230 0 0
233 0 0
228 0 0
228 0 0
231 0 0
232 0 0
226 0 0
231 0 0
230 0 0
230 0 0
231 0 0
233 0 0
232 0 0
232 0 0
231 0 0
232 0 0
227 0 0
236 0 0
232 0 0
232 0 0
235 0 0
230 0 0
234 0 0
232 0 0
230 0 0
232 0 0
231 0 0
233 0 0
234 0 0
234 0 0
231 0 0
232 0 0
235 0 0
232 0 0
233 0 0
230 0 0
228 0 0
232 0 0
234 0 0
232 0 0
233 0 0
230 0 0
233 0 0
234 0 0
232 0 0
232 0 0
233 0 0
228 0 0
231 0 0
231 0 0
232 0 0
233 0 0
231 0 0
230 0 0
226 0 0
229 0 0
235 0 0
230 0 0
233 0 0
228 0 0
232 0 0
233 0 0
236 0 0
232 0 0
229 0 0
231 0 0
229 0 0
232 0 0
232 0 0
234 0 0
234 0 0
232 0 0
230 0 0
231 0 0
232 0 0
232 0 0
232 0 0
234 0 0
233 0 0
230 0 0
234 0 0
232 0 0
232 0 0
231 0 0
235 0 0
232 0 0
229 0 0
229 0 0
231 0 0
231 0 0
0 0 255
0 0 255
0 0 255
0 0 255
0 0 255
0 0 255
0 0 255
0 0 255
0 0 255
0 0 255
0 0 255
0 0 255
0 0 255
0 0 255
0 0 255
0 0 255
0 0 255
0 0 255
0 0 255
0 0 255
0 0 255
0 0 255
0 0 255
0 0 255
0 0 255
0 0 255
0 0 255
0 0 255
0 0 255
0 0 254
0 0 255
0 0 255
0 0 255
0 0 255
0 0 254
0 0 254
0 0 254
0 0 255
0 0 254
0 0 255
0 0 255
0 0 254
0 0 255
0 0 255
0 0 255
0 0 253
0 0 255
0 0 255
0 0 255
0 0 254
0 0 255
0 0 254
0 0 255
0 0 253
0 0 254
0 0 255
0 0 252
0 0 255
0 0 255
0 0 255
0 0 252
0 0 253
0 0 255
0 0 254
0 0 255
0 0 255
0 0 255
0 0 254
0 0 254
0 0 253
0 0 253
0 0 253
0 0 253
0 0 255
0 0 255
0 0 252
0 0 253
0 0 255
0 0 253
0 0 250
0 0 254
0 0 255
0 0 253
0 0 254
0 0 253
0 0 253
0 0 255
0 0 255
0 0 252
0 0 252
0 0 254
0 0 255
0 0 255
0 0 253
0 0 253
0 0 255
0 0 250
0 0 253
0 0 254
0 0 254
0 0 255
0 0 253
0 0 252
0 0 254
0 0 252
0 0 246
0 0 250
0 0 254
0 0 254
0 0 253
0 0 250
0 0 250
0 0 254
0 0 255
0 0 255
0 0 246
0 0 252
0 0 253
0 0 252
0 0 250
0 0 253
0 0 250
0 0 252
0 0 245
0 0 253
0 0 254
0 0 253
0 0 250
0 0 254
76 78 253
169 173 252
234 240 255
242 247 255
242 247 255
242 247 255
242 247 255
242 247 255
242 247 255
242 247 255
242 247 255
242 248 255
242 248 255
242 248 255
242 248 255
242 248 255
242 248 255
242 248 255
242 248 255
242 248 255
242 248 255
242 248 255
243 248 255
243 248 255
243 248 255
243 248 255
243 248 255
243 248 255
243 248 255
243 248 255
243 248 255
243 248 255
243 248 255
243 248 255
243 248 255
243 248 255
243 248 255
243 248 255
243 248 255
243 248 255
243 248 255
243 248 255
243 248 255
243 248 255
243 248 255
243 248 255
243 248 255
243 248 255
243 248 255
243 248 255
243 248 255
243 248 255
243 248 255
243 248 255
243 248 255
243 248 255
244 248 255
244 248 255
244 248 255
244 248 255
244 248 255
244 248 255
244 248 255
244 248 255
244 248 255
244 248 255
244 248 255
244 248 255
244 248 255
244 248 255
244 248 255
244 248 255
244 248 255
244 248 255
244 248 255
244 248 255
244 248 255
244 248 255
244 248 255
244 248 255
244 248 255
244 248 255
244 248 255
244 248 255
244 248 255
244 248 255
243 248 255
243 248 255
243 248 255
243 248 255
243 248 255
243 248 255
243 248 255
243 248 255
243 248 255
243 248 255
243 248 255
243 248 255
243 248 255
243 248 255
243 248 255
243 248 255
243 248 255
243 248 255
243 248 255
243 248 255
243 248 255
243 248 255
243 248 255
243 248 255
243 248 255
243 248 255
243 248 255
243 248 255
243 248 255
243 248 255
243 248 255
243 248 255
243 248 255
243 248 255
242 248 255
242 248 255
242 248 255
242 248 255
242 248 255
242 248 255
242 248 255
242 248 255
242 248 255
242 248 255
242 247 255
242 247 255
242 247 255
242 247 255
242 247 255
242 247 255
242 247 255
242 247 255
242 247 255
241 242 250
242 176 182
237 74 76
228 0 0
235 0 0
236 0 0
235 0 0
237 0 0
236 0 0
231 0 0
235 0 0
233 0 0
238 0 0
241 0 0
233 0 0
235 0 0
237 0 0
233 0 0
228 0 0
232 0 0
233 0 0
230 0 0
236 0 0
230 0 0
236 0 0
230 0 0
230 0 0
231 0 0
227 0 0
232 0 0
233 0 0
230 0 0
234 0 0
229 0 0
232 0 0
231 0 0
229 0 0
231 0 0
236 0 0
235 0 0
235 0 0
236 0 0
236 0 0
232 0 0
230 0 0
235 0 0
234 0 0
233 0 0
234 0 0
233 0 0
232 0 0
231 0 0
236 0 0
232 0 0
234 0 0
234 0 0
233 0 0
231 0 0
231 0 0
233 0 0
229 0 0
231 0 0
232 0 0
234 0 0
232 0 0
231 0 0
237 0 0
231 0 0
230 0 0
234 0 0
230 0 0
233 0 0
233 0 0
229 0 0
230 0 0
230 0 0
231 0 0
231 0 0
232 0 0
233 0 0
228 0 0
231 0 0
230 0 0
229 0 0
233 0 0
230 0 0
233 0 0
232 0 0
229 0 0
230 0 0
234 0 0
231 0 0
233 0 0
232 0 0
233 0 0
229 0 0
231 0 0
229 0 0
233 0 0
230 0 0
229 0 0
233 0 0
229 0 0
229 0 0
232 0 0
232 0 0
231 0 0
234 0 0
232 0 0
231 0 0
232 0 0
232 0 0
235 0 0
230 0 0
230 0 0
230 0 0
232 0 0
230 0 0
232 0 0
232 0 0
233 0 0
232 0 0
234 0 0
228 0 0
233 0 0
230 0 0
229 0 0
231 0 0
232 0 0
229 0 0
232 0 0
233 0 0
0 0 255
0 0 255
0 0 255
0 0 255
0 0 255
0 0 255
0 0 255
0 0 255
0 0 255
0 0 254
0 0 255
0 0 255
0 0 255
0 0 255
0 0 255
0 0 255
0 0 255
0 0 255
0 0 255
0 0 255
0 0 255
0 0 255
0 0 254
0 0 255
0 0 255
0 0 254
0 0 255
0 0 254
0 0 255
0 0 255
0 0 255
0 0 255
0 0 255
0 0 255
0 0 255
0 0 254
0 0 254
0 0 255
0 0 254
0 0 255
0 0 254
0 0 252
0 0 255
0 0 253
0 0 254
0 0 255
0 0 255
0 0 253
0 0 250
0 0 253
0 0 255
0 0 253
0 0 255
0 0 255
0 0 254
0 0 255
0 0 255
0 0 255
0 0 254
0 0 254
0 0 255
0 0 254
0 0 252
0 0 252
0 0 254
0 0 255
0 0 254
0 0 255
0 0 255
0 0 255
0 0 255
0 0 254
0 0 255
0 0 255
0 0 254
0 0 254
0 0 252
0 0 255
0 0 254
0 0 255
0 0 253
0 0 254
0 0 254
0 0 254
0 0 254
0 0 254
0 0 254
0 0 252
0 0 250
0 0 254
0 0 255
0 0 255
0 0 255
0 0 255
0 0 250
0 0 255
0 0 255
0 0 254
0 0 252
0 0 253
0 0 252
0 0 254
0 0 253
0 0 252
0 0 246
0 0 252
0 0 254
0 0 253
0 0 254
0 0 249
0 0 253
0 0 253
0 0 250
0 0 253
0 0 252
0 0 253
0 0 248
0 0 249
0 0 255
0 0 253
0 0 253
0 0 248
0 0 252
0 0 250
0 0 254
0 0 255
0 0 253
87 89 253
190 195 255
238 244 255
242 247 255
242 247 255
242 247 255
242 247 255
242 247 255
242 247 255
242 247 255
242 248 255
242 248 255
242 248 255
242 248 255
242 248 255
242 248 255
242 248 255
242 248 255
242 248 255
242 248 255
242 248 255
243 248 255
243 248 255
243 248 255
243 248 255
243 248 255
243 248 255
243 248 255
243 248 255
243 248 255
243 248 255
243 248 255
243 248 255
243 248 255
243 248 255
243 248 255
243 248 255
243 248 255
243 248 255
243 248 255
243 248 255
243 248 255
243 248 255
243 248 255
243 248 255
243 248 255
243 248 255
243 248 255
243 248 255
243 248 255
244 248 255
244 248 255
244 248 255
244 248 255
244 248 255
244 248 255
244 248 255
244 248 255
244 248 255
244 248 255
244 248 255
244 248 255
244 248 255
244 248 255
244 248 255
244 248 255
244 249 255
244 249 255
244 249 255
244 249 255
244 249 255
244 249 255
244 249 255
244 249 255
244 249 255
244 249 255
244 249 255
244 249 255
244 249 255
244 249 255
244 248 255
244 248 255
244 248 255
244 248 255
244 248 255
244 248 255
244 248 255
244 248 255
244 248 255
244 248 255
244 248 255
244 248 255
244 248 255
244 248 255
244 248 255
243 248 255
243 248 255
243 248 255
243 248 255
243 248 255
243 248 255
243 248 255
243 248 255
243 248 255
243 248 255
243 248 255
243 248 255
243 248 255
243 248 255
243 248 255
243 248 255
243 248 255
243 248 255
243 248 255
243 248 255
243 248 255
243 248 255
243 248 255
243 248 255
243 248 255
243 248 255
243 248 255
243 248 255
243 248 255
243 248 255
242 248 255
242 248 255
242 248 255
242 248 255
242 248 255
242 248 255
242 248 255
242 248 255
242 248 255
242 248 255
242 248 255
242 247 255
242 247 255
242 247 255
242 247 255
242 247 255
242 247 255
242 247 255
242 245 253
238 176 182
242 110 114
234 0 0
237 0 0
236 0 0
232 0 0
238 0 0
236 0 0
235 0 0
231 0 0
233 0 0
232 0 0
237 0 0
228 0 0
235 0 0
236 0 0
234 0 0
228 0 0
232 0 0
236 0 0
231 0 0
237 0 0
231 0 0
226 0 0
236 0 0
233 0 0
238 0 0
233 0 0
238 0 0
234 0 0
231 0 0
229 0 0
231 0 0
230 0 0
232 0 0
235 0 0
233 0 0
231 0 0
235 0 0
231 0 0
234 0 0
233 0 0
231 0 0
233 0 0
232 0 0
231 0 0
232 0 0
236 0 0
230 0 0
232 0 0
229 0 0
231 0 0
232 0 0
230 0 0
231 0 0
234 0 0
233 0 0
230 0 0
233 0 0
234 0 0
233 0 0
233 0 0
233 0 0
233 0 0
232 0 0
233 0 0
229 0 0
230 0 0
230 0 0
234 0 0
230 0 0
231 0 0
231 0 0
232 0 0
231 0 0
232 0 0
231 0 0
234 0 0
231 0 0
234 0 0
228 0 0
234 0 0
233 0 0
234 0 0
234 0 0
229 0 0
232 0 0
232 0 0
228 0 0
228 0 0
234 0 0
232 0 0
236 0 0
232 0 0
231 0 0
233 0 0
231 0 0
233 0 0
233 0 0
232 0 0
233 0 0
232 0 0
231 0 0
233 0 0
230 0 0
232 0 0
232 0 0
233 0 0
232 0 0
234 0 0
229 0 0
232 0 0
231 0 0
234 0 0
230 0 0
230 0 0
232 0 0
230 0 0
230 0 0
228 0 0
230 0 0
230 0 0
233 0 0
231 0 0
231 0 0
232 0 0
233 0 0
232 0 0
234 0 0
0 0 255
0 0 255
0 0 255
0 0 255
0 0 255
0 0 255
0 0 255
0 0 255
0 0 255
0 0 255
0 0 255
0 0 255
0 0 255
0 0 255
0 0 255
0 0 255
0 0 255
0 0 255
0 0 255
0 0 254
0 0 255
0 0 255
0 0 255
0 0 255
0 0 255
0 0 254
0 0 255
0 0 255
0 0 255
0 0 255
0 0 254
0 0 255
0 0 255
0 0 255
0 0 255
0 0 255
0 0 254
0 0 255
0 0 255
0 0 255
0 0 255
0 0 255
0 0 255
0 0 254
0 0 255
0 0 255
0 0 255
0 0 255
0 0 255
0 0 254
0 0 254
0 0 254
0 0 254
0 0 253
0 0 253
0 0 255
0 0 254
0 0 253
0 0 254
0 0 255
0 0 254
0 0 255
0 0 255
0 0 254
0 0 255
0 0 254
0 0 254
0 0 254
0 0 255
0 0 253
0 0 254
0 0 254
0 0 255
0 0 254
0 0 253
0 0 254
0 0 255
0 0 252
0 0 253
0 0 253
0 0 254
0 0 252
0 0 253
0 0 250
0 0 253
0 0 249
0 0 255
0 0 255
0 0 255
0 0 255
0 0 253
0 0 253
0 0 254
0 0 253
0 0 253
0 0 253
0 0 252
0 0 252
0 0 253
0 0 255
0 0 252
0 0 254
0 0 252
0 0 255
0 0 253
0 0 254
0 0 254
0 0 250
0 0 252
0 0 254
0 0 252
0 0 252
0 0 250
0 0 250
0 0 255
0 0 254
0 0 254
0 0 252
0 0 253
0 0 249
0 0 253
0 0 249
0 0 252
0 0 254
0 0 253
136 140 254
187 191 253
236 241 255
242 247 255
242 247 255
242 247 255
242 247 255
242 247 255
242 247 255
242 247 255
242 248 255
242 248 255
242 248 255
242 248 255
242 248 255
242 248 255
242 248 255
242 248 255
242 248 255
242 248 255
243 248 255
243 248 255
243 248 255
243 248 255
243 248 255
243 248 255
243 248 255
243 248 255
243 248 255
243 248 255
243 248 255
243 248 255
243 248 255
243 248 255
243 248 255
243 248 255
243 248 255
243 248 255
243 248 255
243 248 255
243 248 255
243 248 255
243 248 255
243 248 255
243 248 255
243 248 255
243 248 255
244 248 255
244 248 255
244 248 255
244 248 255
244 248 255
244 248 255
244 248 255
244 248 255
244 248 255
244 248 255
244 249 255
244 249 255
244 249 255
244 249 255
244 249 255
244 249 255
244 249 255
244 249 255
244 249 255
244 249 255
244 249 255
244 249 255
244 249 255
244 249 255
244 249 255
244 249 255
244 249 255
244 249 255
244 249 255
244 249 255
244 249 255
244 249 255
244 249 255
244 249 255
244 249 255
244 249 255
244 249 255
244 249 255
244 249 255
244 249 255
244 249 255
244 249 255
244 249 255
244 249 255
244 249 255
244 249 255
244 248 255
244 248 255
244 248 255
244 248 255
244 248 255
244 248 255
244 248 255
244 248 255
244 248 255
244 248 255
243 248 255
243 248 255
243 248 255
243 248 255
243 248 255
243 248 255
243 248 255
243 248 255
243 248 255
243 248 255
243 248 255
243 248 255
243 248 255
243 248 255
243 248 255
243 248 255
243 248 255
243 248 255
243 248 255
243 248 255
243 248 255
243 248 255
243 248 255
243 248 255
243 248 255
243 248 255
243 248 255
242 248 255
242 248 255
242 248 255
242 248 255
242 248 255
242 248 255
242 248 255
242 248 255
242 248 255
242 248 255
242 247 255
242 247 255
242 247 255
242 247 255
242 247 255
242 247 255
242 247 255
242 247 255
238 195 201
236 118 122
235 0 0
238 0 0
236 0 0
235 0 0
234 0 0
238 0 0
239 0 0
238 0 0
232 0 0
236 0 0
234 0 0
232 0 0
236 0 0
232 0 0
237 0 0
234 0 0
233 0 0
233 0 0
231 0 0
234 0 0
234 0 0
233 0 0
234 0 0
234 0 0
233 0 0
236 0 0
236 0 0
237 0 0
229 0 0
232 0 0
230 0 0
234 0 0
234 0 0
236 0 0
231 0 0
229 0 0
234 0 0
234 0 0
234 0 0
235 0 0
234 0 0
233 0 0
233 0 0
233 0 0
230 0 0
234 0 0
234 0 0
235 0 0
235 0 0
231 0 0
234 0 0
234 0 0
233 0 0
230 0 0
235 0 0
234 0 0
230 0 0
234 0 0
234 0 0
232 0 0
232 0 0
230 0 0
230 0 0
235 0 0
231 0 0
235 0 0
227 0 0
233 0 0
236 0 0
233 0 0
237 0 0
231 0 0
234 0 0
227 0 0
235 0 0
231 0 0
232 0 0
230 0 0
234 0 0
236 0 0
232 0 0
235 0 0
231 0 0
232 0 0
229 0 0
231 0 0
231 0 0
228 0 0
233 0 0
232 0 0
229 0 0
233 0 0
230 0 0
233 0 0
229 0 0
231 0 0
233 0 0
234 0 0
231 0 0
233 0 0
232 0 0
233 0 0
232 0 0
232 0 0
230 0 0
235 0 0
231 0 0
232 0 0
229 0 0
229 0 0
231 0 0
232 0 0
229 0 0
232 0 0
230 0 0
231 0 0
232 0 0
231 0 0
231 0 0
234 0 0
232 0 0
231 0 0
229 0 0
233 0 0
232 0 0
0 0 255
0 0 255
0 0 255
0 0 255
0 0 255
0 0 255
0 0 255
0 0 255
0 0 255
0 0 255
0 0 255
0 0 255
0 0 255
0 0 255
0 0 255
0 0 255
0 0 255
0 0 254
0 0 255
0 0 255
0 0 255
0 0 255
0 0 255
0 0 254
0 0 255
0 0 255
0 0 255
0 0 255
0 0 255
0 0 255
0 0 254
0 0 255
0 0 255
0 0 255
0 0 255
0 0 254
0 0 255
0 0 254
0 0 255
0 0 254
0 0 255
0 0 255
0 0 254
0 0 255
0 0 255
0 0 254
0 0 255
0 0 254
0 0 254
0 0 254
0 0 254
0 0 254
0 0 255
0 0 253
0 0 254
0 0 255
0 0 255
0 0 253
0 0 255
0 0 253
0 0 254
0 0 255
0 0 254
0 0 255
0 0 255
0 0 254
0 0 255
0 0 254
0 0 253
0 0 253
0 0 255
0 0 254
0 0 254
0 0 253
0 0 255
0 0 255
0 0 255
0 0 254
0 0 252
0 0 255
0 0 254
0 0 252
0 0 254
0 0 254
0 0 252
0 0 252
0 0 255
0 0 254
0 0 255
0 0 253
0 0 252
0 0 250
0 0 253
0 0 254
0 0 253
0 0 253
0 0 250
0 0 254
0 0 255
0 0 250
0 0 253
0 0 254
0 0 254
0 0 255
0 0 253
0 0 255
0 0 254
0 0 250
0 0 253
0 0 250
0 0 252
0 0 253
0 0 252
0 0 253
0 0 255
0 0 253
0 0 250
0 0 255
0 0 252
0 0 253
0 0 252
0 0 254
54 55 254
128 131 250
217 223 255
242 247 255
242 247 255
242 247 255
242 247 255
242 247 255
242 247 255
242 247 255
242 248 255
242 248 255
242 248 255
242 248 255
242 248 255
242 248 255
242 248 255
242 248 255
242 248 255
242 248 255
243 248 255
243 248 255
243 248 255
243 248 255
243 248 255
243 248 255
243 248 255
243 248 255
243 248 255
243 248 255
243 248 255
243 248 255
243 248 255
243 248 255
243 248 255
243 248 255
243 248 255
243 248 255
243 248 255
243 248 255
243 248 255
243 248 255
243 248 255
243 248 255
243 248 255
244 248 255
244 248 255
244 248 255
244 248 255
244 248 255
244 248 255
244 248 255
244 248 255
244 249 255
244 249 255
244 249 255
244 249 255
244 249 255
244 249 255
244 249 255
244 249 255
244 249 255
244 249 255
244 249 255
244 249 255
244 249 255
244 249 255
244 249 255
244 249 255
244 249 255
244 249 255
244 249 255
244 249 255
244 249 255
244 249 255
244 249 255
244 249 255
244 249 255
244 249 255
244 249 255
244 249 255
244 249 255
244 249 255
244 249 255
244 249 255
244 249 255
244 249 255
244 249 255
244 249 255
244 249 255
244 249 255
244 249 255
244 249 255
244 249 255
244 249 255
244 249 255
244 249 255
244 249 255
244 249 255
244 249 255
244 249 255
244 249 255
244 249 255
244 248 255
244 248 255
244 248 255
244 248 255
244 248 255
244 248 255
244 248 255
243 248 255
243 248 255
243 248 255
243 248 255
243 248 255
243 248 255
243 248 255
243 248 255
243 248 255
243 248 255
243 248 255
243 248 255
243 248 255
243 248 255
243 248 255
243 248 255
243 248 255
243 248 255
243 248 255
243 248 255
243 248 255
243 248 255
243 248 255
243 248 255
243 248 255
243 248 255
242 248 255
242 248 255
242 248 255
242 248 255
242 248 255
242 248 255
242 248 255
242 248 255
242 248 255
242 248 255
242 247 255
242 247 255
242 247 255
242 247 255
242 247 255
242 247 255
242 247 255
241 220 227
237 152 157
239 24 25
235 0 0
237 0 0
235 0 0
237 0 0
235 0 0
240 0 0
239 0 0
233 0 0
232 0 0
236 0 0
239 0 0
234 0 0
236 0 0
238 0 0
237 0 0
233 0 0
234 0 0
232 0 0
236 0 0
237 0 0
230 0 0
236 0 0
233 0 0
232 0 0
232 0 0
237 0 0
231 0 0
234 0 0
230 0 0
231 0 0
232 0 0
234 0 0
234 0 0
233 0 0
234 0 0
236 0 0
231 0 0
232 0 0
232 0 0
235 0 0
231 0 0
233 0 0
228 0 0
231 0 0
231 0 0
234 0 0
234 0 0
232 0 0
237 0 0
234 0 0
234 0 0
233 0 0
233 0 0
230 0 0
234 0 0
232 0 0
234 0 0
234 0 0
235 0 0
231 0 0
233 0 0
230 0 0
231 0 0
230 0 0
231 0 0
235 0 0
234 0 0
233 0 0
234 0 0
236 0 0
228 0 0
231 0 0
230 0 0
231 0 0
236 0 0
230 0 0
233 0 0
236 0 0
230 0 0
233 0 0
232 0 0
231 0 0
230 0 0
230 0 0
234 0 0
231 0 0
232 0 0
232 0 0
231 0 0
231 0 0
233 0 0
230 0 0
233 0 0
230 0 0
232 0 0
234 0 0
232 0 0
231 0 0
231 0 0
234 0 0
231 0 0
233 0 0
229 0 0
231 0 0
234 0 0
231 0 0
232 0 0
230 0 0
232 0 0
233 0 0
233 0 0
233 0 0
231 0 0
231 0 0
232 0 0
233 0 0
233 0 0
236 0 0
232 0 0
233 0 0
233 0 0
230 0 0
0 0 255
0 0 255
0 0 255
0 0 255
0 0 255
0 0 255
0 0 255
0 0 255
0 0 255
0 0 255
0 0 255
0 0 255
0 0 255
0 0 254
0 0 255
0 0 254
0 0 255
0 0 255
0 0 255
0 0 255
0 0 255
0 0 255
0 0 255
0 0 254
0 0 255
0 0 255
0 0 254
0 0 255
0 0 255
0 0 254
0 0 255
0 0 255
0 0 255
0 0 255
0 0 255
0 0 255
0 0 255
0 0 255
0 0 255
0 0 255
0 0 255
0 0 254
0 0 254
0 0 254
0 0 255
0 0 255
0 0 255
0 0 255
0 0 255
0 0 255
0 0 255
0 0 254
0 0 254
0 0 255
0 0 255
0 0 254
0 0 255
0 0 255
0 0 255
0 0 254
0 0 254
0 0 254
0 0 254
0 0 254
0 0 254
0 0 255
0 0 252
0 0 255
0 0 255
0 0 254
0 0 253
0 0 254
0 0 255
0 0 255
0 0 255
0 0 255
0 0 253
0 0 255
0 0 254
0 0 253
0 0 253
0 0 254
0 0 254
0 0 254
0 0 254
0 0 250
0 0 255
0 0 252
0 0 253
0 0 255
0 0 252
0 0 253
0 0 252
0 0 255
0 0 254
0 0 254
0 0 254
0 0 254
0 0 253
0 0 249
0 0 254
0 0 254
0 0 255
0 0 249
0 0 255
0 0 254
0 0 252
0 0 250
0 0 255
0 0 253
0 0 254
0 0 252
0 0 249
0 0 255
0 0 254
0 0 254
0 0 250
0 0 254
0 0 255
0 0 254
80 82 254
147 150 253
224 229 255
242 247 255
242 247 255
242 247 255
242 247 255
242 247 255
242 247 255
242 248 255
242 248 255
242 248 255
242 248 255
242 248 255
242 248 255
242 248 255
242 248 255
242 248 255
242 248 255
243 248 255
243 248 255
243 248 255
243 248 255
243 248 255
243 248 255
243 248 255
243 248 255
243 248 255
243 248 255
243 248 255
243 248 255
243 248 255
243 248 255
243 248 255
243 248 255
243 248 255
243 248 255
243 248 255
243 248 255
243 248 255
243 248 255
243 248 255
243 248 255
244 248 255
244 248 255
244 248 255
244 248 255
244 248 255
244 248 255
244 248 255
244 249 255
244 249 255
244 249 255
244 249 255
244 249 255
244 249 255
244 249 255
244 249 255
244 249 255
244 249 255
244 249 255
244 249 255
244 249 255
244 249 255
244 249 255
244 249 255
244 249 255
244 249 255
244 249 255
244 249 255
244 249 255
244 249 255
244 249 255
244 249 255
244 249 255
244 249 255
244 249 255
244 249 255
244 249 255
244 249 255
244 249 255
244 249 255
244 249 255
244 249 255
244 249 255
244 249 255
244 249 255
244 249 255
244 249 255
244 249 255
244 249 255
244 249 255
244 249 255
244 249 255
244 249 255
244 249 255
244 249 255
244 249 255
244 249 255
244 249 255
244 249 255
244 249 255
244 249 255
244 249 255
244 249 255
244 249 255
244 249 255
244 249 255
244 249 255
244 249 255
244 248 255
244 248 255
244 248 255
244 248 255
244 248 255
244 248 255
244 248 255
243 248 255
243 248 255
243 248 255
243 248 255
243 248 255
243 248 255
243 248 255
243 248 255
243 248 255
243 248 255
243 248 255
243 248 255
243 248 255
243 248 255
243 248 255
243 248 255
243 248 255
243 248 255
243 248 255
243 248 255
243 248 255
243 248 255
243 248 255
243 248 255
242 248 255
242 248 255
242 248 255
242 248 255
242 248 255
242 248 255
242 248 255
242 248 255
242 248 255
242 247 255
242 247 255
242 247 255
242 247 255
242 247 255
242 247 255
242 247 255
242 240 248
240 168 173
240 78 80
236 0 0
235 0 0
239 0 0
234 0 0
239 0 0
235 0 0
236 0 0
230 0 0
238 0 0
237 0 0
237 0 0
231 0 0
236 0 0
233 0 0
234 0 0
234 0 0
236 0 0
233 0 0
234 0 0
235 0 0
237 0 0
233 0 0
235 0 0
237 0 0
234 0 0
235 0 0
232 0 0
230 0 0
236 0 0
233 0 0
233 0 0
235 0 0
229 0 0
235 0 0
232 0 0
233 0 0
233 0 0
235 0 0
235 0 0
236 0 0
232 0 0
236 0 0
234 0 0
232 0 0
233 0 0
233 0 0
236 0 0
237 0 0
236 0 0
235 0 0
234 0 0
234 0 0
231 0 0
233 0 0
232 0 0
230 0 0
232 0 0
232 0 0
236 0 0
233 0 0
230 0 0
233 0 0
232 0 0
234 0 0
235 0 0
234 0 0
235 0 0
229 0 0
231 0 0
233 0 0
231 0 0
229 0 0
233 0 0
234 0 0
234 0 0
233 0 0
229 0 0
232 0 0
231 0 0
232 0 0
233 0 0
231 0 0
232 0 0
231 0 0
231 0 0
231 0 0
229 0 0
235 0 0
231 0 0
233 0 0
232 0 0
230 0 0
230 0 0
235 0 0
232 0 0
229 0 0
229 0 0
233 0 0
232 0 0
234 0 0
234 0 0
233 0 0
232 0 0
231 0 0
231 0 0
230 0 0
232 0 0
232 0 0
234 0 0
232 0 0
233 0 0
234 0 0
231 0 0
233 0 0
235 0 0
234 0 0
233 0 0
232 0 0
232 0 0
234 0 0
0 0 255
0 0 255
0 0 255
0 0 254
0 0 255
0 0 255
0 0 255
0 0 255
0 0 255
0 0 255
0 0 255
0 0 254
0 0 255
0 0 255
0 0 255
0 0 255
0 0 255
0 0 255
0 0 255
0 0 254
0 0 255
0 0 255
0 0 255
0 0 255
0 0 255
0 0 255
0 0 255
0 0 255
0 0 255
0 0 255
0 0 255
0 0 254
0 0 255
0 0 255
0 0 255
0 0 255
0 0 255
0 0 255
0 0 255
0 0 254
0 0 255
0 0 255
0 0 255
0 0 255
0 0 254
0 0 255
0 0 255
0 0 255
0 0 255
0 0 255
0 0 255
0 0 254
0 0 254
0 0 254
0 0 255
0 0 255
0 0 253
0 0 253
0 0 254
0 0 255
0 0 253
0 0 254
0 0 254
0 0 255
0 0 255
0 0 252
0 0 254
0 0 254
0 0 254
0 0 254
0 0 253
0 0 254
0 0 255
0 0 253
0 0 255
0 0 255
0 0 254
0 0 254
0 0 253
0 0 253
0 0 253
0 0 253
0 0 255
0 0 255
0 0 254
0 0 255
0 0 255
0 0 254
0 0 253
0 0 249
0 0 254
0 0 255
0 0 254
0 0 253
0 0 254
0 0 254
0 0 255
0 0 254
0 0 254
0 0 254
0 0 254
0 0 254
0 0 254
0 0 252
0 0 253
0 0 252
0 0 254
0 0 255
0 0 253
0 0 254
0 0 253
0 0 255
0 0 254
0 0 254
0 0 253
0 0 254
0 0 250
0 0 252
128 131 254
195 199 254
239 245 255
242 247 255
242 247 255
242 247 255
242 247 255
242 247 255
242 247 255
242 248 255
242 248 255
242 248 255
242 248 255
242 248 255
242 248 255
242 248 255
242 248 255
242 248 255
243 248 255
243 248 255
243 248 255
243 248 255
243 248 255
243 248 255
243 248 255
243 248 255
243 248 255
243 248 255
243 248 255
243 248 255
243 248 255
243 248 255
243 248 255
243 248 255
243 248 255
243 248 255
243 248 255
243 248 255
243 248 255
243 248 255
243 248 255
243 248 255
244 248 255
244 248 255
244 248 255
244 248 255
244 248 255
244 248 255
244 249 255
244 249 255
244 249 255
244 249 255
244 249 255
244 249 255
244 249 255
244 249 255
244 249 255
244 249 255
244 249 255
244 249 255
244 249 255
244 249 255
244 249 255
244 249 255
244 249 255
244 249 255
244 249 255
244 249 255
244 249 255
244 249 255
244 249 255
244 249 255
244 249 255
244 249 255
244 249 255
244 249 255
244 249 255
244 249 255
244 249 255
244 249 255
244 249 255
244 249 255
244 249 255
244 249 255
244 249 255
244 249 255
244 249 255
244 249 255
244 249 255
244 249 255
244 249 255
244 249 255
244 249 255
244 249 255
244 249 255
244 249 255
244 249 255
244 249 255
244 249 255
244 249 255
244 249 255
244 249 255
244 249 255
244 249 255
244 249 255
244 249 255
244 249 255
244 249 255
244 249 255
244 249 255
244 249 255
244 249 255
244 249 255
244 249 255
244 249 255
244 249 255
244 248 255
244 248 255
244 248 255
244 248 255
244 248 255
244 248 255
244 248 255
243 248 255
243 248 255
243 248 255
243 248 255
243 248 255
243 248 255
243 248 255
243 248 255
243 248 255
243 248 255
243 248 255
243 248 255
243 248 255
243 248 255
243 248 255
243 248 255
243 248 255
243 248 255
243 248 255
243 248 255
243 248 255
243 248 255
243 248 255
242 248 255
242 248 255
242 248 255
242 248 255
242 248 255
242 248 255
242 248 255
242 248 255
242 248 255
242 247 255
242 247 255
242 247 255
242 247 255
242 247 255
242 247 255
241 245 253
241 204 211
236 123 128
237 24 25
236 0 0
239 0 0
240 0 0
238 0 0
236 0 0
238 0 0
233 0 0
235 0 0
234 0 0
236 0 0
236 0 0
236 0 0
231 0 0
237 0 0
235 0 0
236 0 0
237 0 0
235 0 0
229 0 0
236 0 0
229 0 0
239 0 0
234 0 0
231 0 0
232 0 0
234 0 0
233 0 0
239 0 0
234 0 0
233 0 0
231 0 0
236 0 0
232 0 0
232 0 0
237 0 0
236 0 0
232 0 0
232 0 0
234 0 0
232 0 0
230 0 0
233 0 0
236 0 0
235 0 0
234 0 0
232 0 0
232 0 0
234 0 0
231 0 0
234 0 0
238 0 0
233 0 0
233 0 0
232 0 0
232 0 0
233 0 0
232 0 0
231 0 0
235 0 0
235 0 0
232 0 0
233 0 0
236 0 0
231 0 0
233 0 0
236 0 0
234 0 0
232 0 0
232 0 0
236 0 0
235 0 0
232 0 0
230 0 0
232 0 0
234 0 0
234 0 0
235 0 0
231 0 0
233 0 0
232 0 0
234 0 0
233 0 0
232 0 0
231 0 0
232 0 0
232 0 0
231 0 0
232 0 0
234 0 0
235 0 0
231 0 0
233 0 0
234 0 0
231 0 0
234 0 0
232 0 0
230 0 0
229 0 0
234 0 0
233 0 0
231 0 0
233 0 0
233 0 0
235 0 0
233 0 0
231 0 0
231 0 0
232 0 0
230 0 0
233 0 0
234 0 0
233 0 0
232 0 0
231 0 0
234 0 0
234 0 0
227 0 0
0 0 255
0 0 255
0 0 255
0 0 255
0 0 255
0 0 255
0 0 255
0 0 255
0 0 255
0 0 255
0 0 255
0 0 255
0 0 255
0 0 255
0 0 255
0 0 255
0 0 255
0 0 255
0 0 255
0 0 255
0 0 255
0 0 254
0 0 255
0 0 255
0 0 254
0 0 255
0 0 255
0 0 255
0 0 255
0 0 255
0 0 255
0 0 255
0 0 254
0 0 255
0 0 255
0 0 254
0 0 255
0 0 255
0 0 255
0 0 255
0 0 254
0 0 255
0 0 255
0 0 255
0 0 255
0 0 255
0 0 255
0 0 254
0 0 255
0 0 255
0 0 255
0 0 254
0 0 254
0 0 255
0 0 255
0 0 255
0 0 255
0 0 255
0 0 255
0 0 254
0 0 254
0 0 255
0 0 255
0 0 254
0 0 253
0 0 255
0 0 254
0 0 255
0 0 253
0 0 253
0 0 254
0 0 255
0 0 253
0 0 255
0 0 254
0 0 253
0 0 254
0 0 255
0 0 249
0 0 255
0 0 252
0 0 253
0 0 253
0 0 255
0 0 255
0 0 255
0 0 254
0 0 253
0 0 254
0 0 252
0 0 255
0 0 254
0 0 254
0 0 254
0 0 255
0 0 254
0 0 255
0 0 252
0 0 253
0 0 254
0 0 252
0 0 255
0 0 255
0 0 254
0 0 254
0 0 253
0 0 253
0 0 255
0 0 253
0 0 253
0 0 252
0 0 250
0 0 252
0 0 254
0 0 253
87 89 255
171 175 254
228 233 255
242 247 255
242 247 255
242 247 255
242 247 255
242 247 255
242 247 255
242 247 255
242 248 255
242 248 255
242 248 255
242 248 255
242 248 255
242 248 255
242 248 255
242 248 255
242 248 255
243 248 255
243 248 255
243 248 255
243 248 255
243 248 255
243 248 255
243 248 255
243 248 255
243 248 255
243 248 255
243 248 255
243 248 255
243 248 255
243 248 255
243 248 255
243 248 255
243 248 255
243 248 255
243 248 255
243 248 255
243 248 255
243 248 255
244 248 255
244 248 255
244 248 255
244 248 255
244 248 255
244 248 255
244 249 255
244 249 255
244 249 255
244 249 255
244 249 255
244 249 255
244 249 255
244 249 255
244 249 255
244 249 255
244 249 255
244 249 255
244 249 255
244 249 255
244 249 255
244 249 255
244 249 255
244 249 255
244 249 255
244 249 255
244 249 255
244 249 255
244 249 255
244 249 255
244 249 255
244 249 255
244 249 255
244 249 255
244 249 255
244 249 255
244 249 255
244 249 255
244 249 255
244 249 255
244 249 255
244 249 255
244 249 255
244 249 255
244 249 255
244 249 255
244 249 255
244 249 255
244 249 255
244 249 255
244 249 255
244 249 255
244 249 255
244 249 255
244 249 255
244 249 255
244 249 255
244 249 255
244 249 255
244 249 255
244 249 255
244 249 255
244 249 255
244 249 255
244 249 255
244 249 255
244 249 255
244 249 255
244 249 255
244 249 255
244 249 255
244 249 255
244 249 255
244 249 255
244 249 255
244 249 255
244 249 255
244 249 255
244 249 255
244 249 255
244 249 255
244 249 255
244 248 255
244 248 255
244 248 255
244 248 255
244 248 255
244 248 255
243 248 255
243 248 255
243 248 255
243 248 255
243 248 255
243 248 255
243 248 255
243 248 255
243 248 255
243 248 255
243 248 255
243 248 255
243 248 255
243 248 255
243 248 255
243 248 255
243 248 255
243 248 255
243 248 255
243 248 255
243 248 255
243 248 255
242 248 255
242 248 255
242 248 255
242 248 255
242 248 255
242 248 255
242 248 255
242 248 255
242 248 255
242 248 255
242 247 255
242 247 255
242 247 255
242 247 255
242 247 255
242 247 255
241 229 237
241 180 186
240 99 102
238 0 0
239 0 0
238 0 0
235 0 0
238 0 0
232 0 0
236 0 0
236 0 0
237 0 0
235 0 0
234 0 0
238 0 0
235 0 0
233 0 0
233 0 0
238 0 0
237 0 0
231 0 0
234 0 0
234 0 0
234 0 0
234 0 0
236 0 0
234 0 0
229 0 0
236 0 0
232 0 0
233 0 0
237 0 0
235 0 0
236 0 0
232 0 0
235 0 0
235 0 0
235 0 0
232 0 0
235 0 0
231 0 0
234 0 0
231 0 0
234 0 0
233 0 0
234 0 0
236 0 0
232 0 0
233 0 0
230 0 0
232 0 0
235 0 0
235 0 0
236 0 0
233 0 0
233 0 0
233 0 0
236 0 0
235 0 0
235 0 0
234 0 0
234 0 0
231 0 0
232 0 0
232 0 0
229 0 0
232 0 0
235 0 0
236 0 0
230 0 0
232 0 0
235 0 0
235 0 0
233 0 0
231 0 0
233 0 0
234 0 0
234 0 0
231 0 0
231 0 0
231 0 0
231 0 0
232 0 0
235 0 0
231 0 0
231 0 0
232 0 0
231 0 0
232 0 0
234 0 0
234 0 0
233 0 0
234 0 0
234 0 0
234 0 0
234 0 0
231 0 0
232 0 0
232 0 0
233 0 0
234 0 0
232 0 0
233 0 0
232 0 0
234 0 0
233 0 0
234 0 0
234 0 0
232 0 0
237 0 0
232 0 0
231 0 0
234 0 0
233 0 0
232 0 0
231 0 0
233 0 0
231 0 0
0 0 255
0 0 255
0 0 255
0 0 255
0 0 255
0 0 255
0 0 255
0 0 255
0 0 255
0 0 255
0 0 255
0 0 255
0 0 255
0 0 255
0 0 255
0 0 255
0 0 255
0 0 255
0 0 255
0 0 255
0 0 255
0 0 255
0 0 255
0 0 255
0 0 255
0 0 255
0 0 255
0 0 255
0 0 254
0 0 255
0 0 255
0 0 255
0 0 255
0 0 255
0 0 255
0 0 255
0 0 255
0 0 255
0 0 255
0 0 255
0 0 255
0 0 253
0 0 255
0 0 254
0 0 254
0 0 254
0 0 255
0 0 255
0 0 254
0 0 254
0 0 254
0 0 255
0 0 254
0 0 255
0 0 254
0 0 255
0 0 254
0 0 255
0 0 255
0 0 254
0 0 255
0 0 254
0 0 255
0 0 255
0 0 255
0 0 253
0 0 252
0 0 255
0 0 254
0 0 252
0 0 255
0 0 255
0 0 255
0 0 252
0 0 255
0 0 249
0 0 254
0 0 254
0 0 254
0 0 254
0 0 255
0 0 255
0 0 254
0 0 253
0 0 255
0 0 253
0 0 254
0 0 253
0 0 253
0 0 255
0 0 253
0 0 255
0 0 254
0 0 253
0 0 253
0 0 254
0 0 253
0 0 254
0 0 253
0 0 253
0 0 255
0 0 253
0 0 254
0 0 254
0 0 254
0 0 254
0 0 255
0 0 255
0 0 255
0 0 254
0 0 255
0 0 253
68 70 254
155 158 255
216 221 255
240 246 255
242 247 255
242 247 255
242 247 255
242 247 255
242 247 255
242 247 255
242 248 255
242 248 255
242 248 255
242 248 255
242 248 255
242 248 255
242 248 255
242 248 255
242 248 255
243 248 255
243 248 255
243 248 255
243 248 255
243 248 255
243 248 255
243 248 255
243 248 255
243 248 255
243 248 255
243 248 255
243 248 255
243 248 255
243 248 255
243 248 255
243 248 255
243 248 255
243 248 255
243 248 255
243 248 255
243 248 255
243 248 255
244 248 255
244 248 255
244 248 255
244 248 255
244 248 255
244 249 255
244 249 255
244 249 255
244 249 255
244 249 255
244 249 255
244 249 255
244 249 255
244 249 255
244 249 255
244 249 255
244 249 255
244 249 255
244 249 255
244 249 255
244 249 255
244 249 255
244 249 255
244 249 255
244 249 255
244 249 255
244 249 255
244 249 255
244 249 255
244 249 255
244 249 255
244 249 255
244 249 255
244 249 255
244 249 255
244 249 255
244 249 255
244 249 255
244 249 255
244 249 255
245 249 255
245 249 255
245 249 255
245 249 255
245 249 255
245 249 255
245 249 255
245 249 255
245 249 255
245 249 255
245 249 255
245 249 255
245 249 255
244 249 255
244 249 255
244 249 255
244 249 255
244 249 255
244 249 255
244 249 255
244 249 255
244 249 255
244 249 255
244 249 255
244 249 255
244 249 255
244 249 255
244 249 255
244 249 255
244 249 255
244 249 255
244 249 255
244 249 255
244 249 255
244 249 255
244 249 255
244 249 255
244 249 255
244 249 255
244 249 255
244 249 255
244 249 255
244 249 255
244 249 255
244 249 255
244 249 255
244 249 255
244 249 255
244 249 255
244 248 255
244 248 255
244 248 255
244 248 255
244 248 255
243 248 255
243 248 255
243 248 255
243 248 255
243 248 255
243 248 255
243 248 255
243 248 255
243 248 255
243 248 255
243 248 255
243 248 255
243 248 255
243 248 255
243 248 255
243 248 255
243 248 255
243 248 255
243 248 255
243 248 255
243 248 255
243 248 255
242 248 255
242 248 255
242 248 255
242 248 255
242 248 255
242 248 255
242 248 255
242 248 255
242 248 255
242 247 255
242 247 255
242 247 255
242 247 255
242 247 255
242 247 255
242 247 255
242 216 223
238 164 169
240 85 88
239 0 0
238 0 0
238 0 0
235 0 0
235 0 0
237 0 0
238 0 0
237 0 0
236 0 0
236 0 0
237 0 0
233 0 0
239 0 0
238 0 0
235 0 0
235 0 0
234 0 0
236 0 0
234 0 0
234 0 0
234 0 0
237 0 0
237 0 0
236 0 0
233 0 0
234 0 0
235 0 0
236 0 0
231 0 0
235 0 0
234 0 0
236 0 0
235 0 0
236 0 0
233 0 0
238 0 0
235 0 0
237 0 0
236 0 0
236 0 0
234 0 0
236 0 0
236 0 0
233 0 0
237 0 0
232 0 0
230 0 0
234 0 0
235 0 0
237 0 0
234 0 0
234 0 0
236 0 0
234 0 0
234 0 0
237 0 0
234 0 0
231 0 0
234 0 0
232 0 0
232 0 0
232 0 0
233 0 0
232 0 0
232 0 0
234 0 0
235 0 0
235 0 0
232 0 0
235 0 0
233 0 0
233 0 0
232 0 0
235 0 0
234 0 0
235 0 0
234 0 0
232 0 0
233 0 0
233 0 0
233 0 0
234 0 0
234 0 0
234 0 0
232 0 0
234 0 0
230 0 0
233 0 0
231 0 0
233 0 0
233 0 0
234 0 0
233 0 0
232 0 0
235 0 0
233 0 0
233 0 0
232 0 0
231 0 0
234 0 0
234 0 0
233 0 0
234 0 0
232 0 0
236 0 0
237 0 0
232 0 0
231 0 0
231 0 0
231 0 0
229 0 0
231 0 0
0 0 255
0 0 255
0 0 255
0 0 255
0 0 255
0 0 255
0 0 255
0 0 255
0 0 255
0 0 255
0 0 255
0 0 255
0 0 255
0 0 255
0 0 255
0 0 255
0 0 255
0 0 255
0 0 255
0 0 255
0 0 255
0 0 255
0 0 255
0 0 255
0 0 255
0 0 254
0 0 255
0 0 254
0 0 255
0 0 255
0 0 255
0 0 255
0 0 254
0 0 255
0 0 255
0 0 255
0 0 255
0 0 255
0 0 255
0 0 255
0 0 255
0 0 255
0 0 254
0 0 254
0 0 255
0 0 255
0 0 254
0 0 255
0 0 254
0 0 255
0 0 255
0 0 254
0 0 255
0 0 255
0 0 254
0 0 254
0 0 254
0 0 255
0 0 254
0 0 255
0 0 254
0 0 254
0 0 254
0 0 255
0 0 255
0 0 255
0 0 255
0 0 254
0 0 255
0 0 255
0 0 255
0 0 255
0 0 255
0 0 253
0 0 252
0 0 255
0 0 255
0 0 252
0 0 253
0 0 255
0 0 255
0 0 255
0 0 255
0 0 254
0 0 255
0 0 253
0 0 255
0 0 255
0 0 253
0 0 253
0 0 255
0 0 254
0 0 255
0 0 255
0 0 254
0 0 254
0 0 250
0 0 253
0 0 255
0 0 253
0 0 255
0 0 253
0 0 254
0 0 253
0 0 252
0 0 253
0 0 253
0 0 255
0 0 253
34 35 254
139 142 254
208 213 254
238 244 255
242 247 255
242 247 255
242 247 255
242 247 255
242 247 255
242 247 255
242 247 255
242 248 255
242 248 255
242 248 255
242 248 255
242 248 255
242 248 255
242 248 255
242 248 255
242 248 255
243 248 255
243 248 255
243 248 255
243 248 255
243 248 255
243 248 255
243 248 255
243 248 255
243 248 255
243 248 255
243 248 255
243 248 255
243 248 255
243 248 255
243 248 255
243 248 255
243 248 255
243 248 255
243 248 255
243 248 255
243 248 255
244 248 255
244 248 255
244 248 255
244 248 255
244 248 255
244 249 255
244 249 255
244 249 255
244 249 255
244 249 255
244 249 255
244 249 255
244 249 255
244 249 255
244 249 255
244 249 255
244 249 255
244 249 255
244 249 255
244 249 255
244 249 255
244 249 255
244 249 255
244 249 255
244 249 255
244 249 255
244 249 255
244 249 255
244 249 255
244 249 255
244 249 255
244 249 255
245 249 255
245 249 255
245 249 255
245 249 255
245 249 255
245 249 255
245 249 255
245 249 255
245 249 255
245 249 255
245 249 255
245 249 255
245 249 255
245 249 255
245 249 255
245 249 255
245 249 255
245 249 255
245 249 255
245 249 255
245 249 255
245 249 255
245 249 255
245 249 255
245 249 255
245 249 255
245 249 255
245 249 255
245 249 255
245 249 255
245 249 255
245 249 255
245 249 255
245 249 255
245 249 255
245 249 255
244 249 255
244 249 255
244 249 255
244 249 255
244 249 255
244 249 255
244 249 255
244 249 255
244 249 255
244 249 255
244 249 255
244 249 255
244 249 255
244 249 255
244 249 255
244 249 255
244 249 255
244 249 255
244 249 255
244 249 255
244 249 255
244 249 255
244 249 255
244 249 255
244 249 255
244 249 255
244 249 255
244 248 255
244 248 255
244 248 255
244 248 255
244 248 255
244 248 255
243 248 255
243 248 255
243 248 255
243 248 255
243 248 255
243 248 255
243 248 255
243 248 255
243 248 255
243 248 255
243 248 255
243 248 255
243 248 255
243 248 255
243 248 255
243 248 255
243 248 255
243 248 255
243 248 255
243 248 255
242 248 255
242 248 255
242 248 255
242 248 255
242 248 255
242 248 255
242 248 255
242 248 255
242 248 255
242 247 255
242 247 255
242 247 255
242 247 255
242 247 255
242 247 255
242 247 255
242 246 254
241 207 214
238 131 135
240 55 57
241 0 0
236 0 0
235 0 0
238 0 0
236 0 0
238 0 0
237 0 0
235 0 0
238 0 0
238 0 0
236 0 0
240 0 0
235 0 0
235 0 0
232 0 0
238 0 0
234 0 0
235 0 0
238 0 0
238 0 0
233 0 0
235 0 0
236 0 0
238 0 0
233 0 0
238 0 0
236 0 0
233 0 0
236 0 0
234 0 0
236 0 0
236 0 0
233 0 0
238 0 0
235 0 0
232 0 0
236 0 0
233 0 0
235 0 0
233 0 0
231 0 0
234 0 0
234 0 0
234 0 0
231 0 0
235 0 0
235 0 0
234 0 0
236 0 0
233 0 0
235 0 0
234 0 0
233 0 0
234 0 0
234 0 0
235 0 0
234 0 0
236 0 0
234 0 0
235 0 0
234 0 0
234 0 0
233 0 0
233 0 0
234 0 0
231 0 0
234 0 0
234 0 0
234 0 0
231 0 0
236 0 0
235 0 0
234 0 0
233 0 0
233 0 0
233 0 0
234 0 0
233 0 0
232 0 0
232 0 0
232 0 0
234 0 0
233 0 0
235 0 0
234 0 0
233 0 0
232 0 0
231 0 0
232 0 0
235 0 0
234 0 0
232 0 0
235 0 0
234 0 0
232 0 0
236 0 0
234 0 0
231 0 0
231 0 0
232 0 0
232 0 0
234 0 0
233 0 0
234 0 0
234 0 0
235 0 0
232 0 0
233 0 0
235 0 0
0 0 255
0 0 255
0 0 255
0 0 255
0 0 255
0 0 255
0 0 255
0 0 255
0 0 255
0 0 255
0 0 255
0 0 255
0 0 255
0 0 255
0 0 254
0 0 255
0 0 255
0 0 255
0 0 255
0 0 255
0 0 255
0 0 255
0 0 255
0 0 255
0 0 255
0 0 254
0 0 253
0 0 255
0 0 255
0 0 255
0 0 255
0 0 255
0 0 255
0 0 255
0 0 255
0 0 255
0 0 255
0 0 255
0 0 255
0 0 255
0 0 255
0 0 254
0 0 255
0 0 255
0 0 255
0 0 255
0 0 255
0 0 255
0 0 255
0 0 255
0 0 255
0 0 253
0 0 254
0 0 254
0 0 255
0 0 254
0 0 255
0 0 255
0 0 254
0 0 255
0 0 255
0 0 255
0 0 255
0 0 255
0 0 254
0 0 254
0 0 255
0 0 254
0 0 255
0 0 255
0 0 255
0 0 255
0 0 254
0 0 254
0 0 255
0 0 255
0 0 254
0 0 255
0 0 254
0 0 254
0 0 253
0 0 254
0 0 252
0 0 255
0 0 255
0 0 254
0 0 252
0 0 254
0 0 255
0 0 253
0 0 255
0 0 255
0 0 255
0 0 255
0 0 255
0 0 253
0 0 255
0 0 253
0 0 253
0 0 254
0 0 253
0 0 254
0 0 253
0 0 255
0 0 254
0 0 255
59 60 253
134 137 255
206 211 255
235 241 255
242 247 255
242 247 255
242 247 255
242 247 255
242 247 255
242 247 255
242 247 255
242 248 255
242 248 255
242 248 255
242 248 255
242 248 255
242 248 255
242 248 255
242 248 255
242 248 255
243 248 255
243 248 255
243 248 255
243 248 255
243 248 255
243 248 255
243 248 255
243 248 255
243 248 255
243 248 255
243 248 255
243 248 255
243 248 255
243 248 255
243 248 255
243 248 255
243 248 255
243 248 255
243 248 255
243 248 255
243 248 255
244 248 255
244 248 255
244 248 255
244 248 255
244 248 255
244 249 255
244 249 255
244 249 255
244 249 255
244 249 255
244 249 255
244 249 255
244 249 255
244 249 255
244 249 255
244 249 255
244 249 255
244 249 255
244 249 255
244 249 255
244 249 255
244 249 255
244 249 255
244 249 255
244 249 255
244 249 255
244 249 255
244 249 255
244 249 255
245 249 255
245 249 255
245 249 255
245 249 255
245 249 255
245 249 255
245 249 255
245 249 255
245 249 255
245 249 255
245 249 255
245 249 255
245 249 255
245 249 255
245 249 255
245 249 255
245 249 255
245 249 255
245 249 255
245 249 255
245 249 255
245 249 255
245 249 255
245 249 255
245 249 255
245 249 255
245 249 255
245 249 255
245 249 255
245 249 255
245 249 255
245 249 255
245 249 255
245 249 255
245 249 255
245 249 255
245 249 255
245 249 255
245 249 255
245 249 255
245 249 255
245 249 255
245 249 255
245 249 255
245 249 255
245 249 255
245 249 255
245 249 255
244 249 255
244 249 255
244 249 255
244 249 255
244 249 255
244 249 255
244 249 255
244 249 255
244 249 255
244 249 255
244 249 255
244 249 255
244 249 255
244 249 255
244 249 255
244 249 255
244 249 255
244 249 255
244 249 255
244 249 255
244 249 255
244 249 255
244 249 255
244 249 255
244 248 255
244 248 255
244 248 255
244 248 255
244 248 255
243 248 255
243 248 255
243 248 255
243 248 255
243 248 255
243 248 255
243 248 255
243 248 255
243 248 255
243 248 255
243 248 255
243 248 255
243 248 255
243 248 255
243 248 255
243 248 255
243 248 255
243 248 255
243 248 255
243 248 255
243 248 255
242 248 255
242 248 255
242 248 255
242 248 255
242 248 255
242 248 255
242 248 255
242 248 255
242 248 255
242 247 255
242 247 255
242 247 255
242 247 255
242 247 255
242 247 255
242 247 255
242 245 253
241 204 211
239 126 130
238 55 57
240 0 0
236 0 0
238 0 0
233 0 0
237 0 0
236 0 0
238 0 0
239 0 0
239 0 0
236 0 0
236 0 0
238 0 0
236 0 0
237 0 0
235 0 0
238 0 0
234 0 0
236 0 0
236 0 0
236 0 0
235 0 0
235 0 0
234 0 0
235 0 0
236 0 0
240 0 0
236 0 0
231 0 0
235 0 0
234 0 0
234 0 0
235 0 0
233 0 0
240 0 0
235 0 0
235 0 0
234 0 0
235 0 0
234 0 0
235 0 0
236 0 0
234 0 0
231 0 0
233 0 0
236 0 0
232 0 0
232 0 0
237 0 0
233 0 0
235 0 0
234 0 0
232 0 0
236 0 0
236 0 0
233 0 0
233 0 0
234 0 0
234 0 0
237 0 0
235 0 0
235 0 0
234 0 0
235 0 0
233 0 0
234 0 0
232 0 0
234 0 0
232 0 0
234 0 0
235 0 0
235 0 0
234 0 0
234 0 0
234 0 0
236 0 0
234 0 0
236 0 0
232 0 0
232 0 0
236 0 0
234 0 0
234 0 0
232 0 0
232 0 0
232 0 0
232 0 0
236 0 0
237 0 0
232 0 0
235 0 0
233 0 0
236 0 0
232 0 0
232 0 0
232 0 0
235 0 0
236 0 0
233 0 0
232 0 0
235 0 0
233 0 0
236 0 0
235 0 0
234 0 0
232 0 0
232 0 0
0 0 255
0 0 255
0 0 255
0 0 255
0 0 255
0 0 255
0 0 255
0 0 255
0 0 255
0 0 255
0 0 254
0 0 255
0 0 255
0 0 255
0 0 255
0 0 255
0 0 255
0 0 255
0 0 255
0 0 255
0 0 255
0 0 255
0 0 255
0 0 255
0 0 255
0 0 255
0 0 255
0 0 255
0 0 255
0 0 255
0 0 255
0 0 255
0 0 255
0 0 255
0 0 255
0 0 255
0 0 255
0 0 255
0 0 255
0 0 255
0 0 255
0 0 255
0 0 255
0 0 255
0 0 255
0 0 254
0 0 255
0 0 255
0 0 255
0 0 255
0 0 255
0 0 255
0 0 255
0 0 255
0 0 253
0 0 254
0 0 255
0 0 255
0 0 255
0 0 255
0 0 255
0 0 254
0 0 255
0 0 255
0 0 255
0 0 255
0 0 255
0 0 255
0 0 255
0 0 254
0 0 255
0 0 255
0 0 254
0 0 255
0 0 254
0 0 254
0 0 254
0 0 255
0 0 254
0 0 254
0 0 254
0 0 253
0 0 255
0 0 255
0 0 254
0 0 255
0 0 255
0 0 255
0 0 254
0 0 253
0 0 255
0 0 255
0 0 254
0 0 255
0 0 255
0 0 253
0 0 254
0 0 255
0 0 255
0 0 255
0 0 254
0 0 255
0 0 255
68 70 255
136 140 254
189 193 254
237 242 255
242 247 255
242 247 255
242 247 255
242 247 255
242 247 255
242 247 255
242 247 255
242 247 255
242 248 255
242 248 255
242 248 255
242 248 255
242 248 255
242 248 255
242 248 255
242 248 255
242 248 255
243 248 255
243 248 255
243 248 255
243 248 255
243 248 255
243 248 255
243 248 255
243 248 255
243 248 255
243 248 255
243 248 255
243 248 255
243 248 255
243 248 255
243 248 255
243 248 255
243 248 255
243 248 255
243 248 255
243 248 255
244 248 255
244 248 255
244 248 255
244 248 255
244 248 255
244 249 255
244 249 255
244 249 255
244 249 255
244 249 255
244 249 255
244 249 255
244 249 255
244 249 255
244 249 255
244 249 255
244 249 255
244 249 255
244 249 255
244 249 255
244 249 255
244 249 255
244 249 255
244 249 255
244 249 255
244 249 255
244 249 255
245 249 255
245 249 255
245 249 255
245 249 255
245 249 255
245 249 255
245 249 255
245 249 255
245 249 255
245 249 255
245 249 255
245 249 255
245 249 255
245 249 255
245 249 255
245 249 255
245 249 255
245 249 255
245 249 255
245 249 255
245 249 255
245 249 255
245 249 255
245 249 255
245 249 255
245 249 255
245 249 255
245 249 255
245 249 255
245 249 255
245 249 255
245 249 255
245 249 255
245 249 255
245 249 255
245 249 255
245 249 255
245 249 255
245 249 255
245 249 255
245 249 255
245 249 255
245 249 255
245 249 255
245 249 255
245 249 255
245 249 255
245 249 255
245 249 255
245 249 255
245 249 255
245 249 255
245 249 255
245 249 255
245 249 255
245 249 255
245 249 255
245 249 255
244 249 255
244 249 255
244 249 255
244 249 255
244 249 255
244 249 255
244 249 255
244 249 255
244 249 255
244 249 255
244 249 255
244 249 255
244 249 255
244 249 255
244 249 255
244 249 255
244 249 255
244 249 255
244 249 255
244 249 255
244 249 255
244 249 255
244 248 255
244 248 255
244 248 255
244 248 255
244 248 255
243 248 255
243 248 255
243 248 255
243 248 255
243 248 255
243 248 255
243 248 255
243 248 255
243 248 255
243 248 255
243 248 255
243 248 255
243 248 255
243 248 255
243 248 255
243 248 255
243 248 255
243 248 255
243 248 255
243 248 255
242 248 255
242 248 255
242 248 255
242 248 255
242 248 255
242 248 255
242 248 255
242 248 255
242 248 255
242 247 255
242 247 255
242 247 255
242 247 255
242 247 255
242 247 255
242 247 255
242 247 255
241 241 249
241 213 220
239 158 163
235 49 51
236 0 0
240 0 0
239 0 0
241 0 0
239 0 0
240 0 0
238 0 0
236 0 0
235 0 0
240 0 0
238 0 0
235 0 0
234 0 0
239 0 0
234 0 0
238 0 0
237 0 0
237 0 0
237 0 0
234 0 0
235 0 0
237 0 0
237 0 0
236 0 0
235 0 0
232 0 0
234 0 0
234 0 0
233 0 0
234 0 0
233 0 0
233 0 0
234 0 0
237 0 0
239 0 0
237 0 0
233 0 0
237 0 0
233 0 0
234 0 0
233 0 0
235 0 0
235 0 0
237 0 0
235 0 0
238 0 0
236 0 0
234 0 0
233 0 0
232 0 0
235 0 0
235 0 0
235 0 0
232 0 0
233 0 0
233 0 0
234 0 0
235 0 0
232 0 0
231 0 0
235 0 0
233 0 0
233 0 0
232 0 0
233 0 0
234 0 0
234 0 0
233 0 0
235 0 0
233 0 0
235 0 0
235 0 0
234 0 0
235 0 0
234 0 0
235 0 0
234 0 0
234 0 0
235 0 0
236 0 0
235 0 0
236 0 0
234 0 0
237 0 0
235 0 0
234 0 0
234 0 0
234 0 0
234 0 0
233 0 0
234 0 0
235 0 0
229 0 0
232 0 0
232 0 0
236 0 0
234 0 0
234 0 0
232 0 0
232 0 0
233 0 0
231 0 0
235 0 0
0 0 255
0 0 255
0 0 255
0 0 255
0 0 255
0 0 255
0 0 255
0 0 255
0 0 255
0 0 255
0 0 255
0 0 255
0 0 255
0 0 255
0 0 255
0 0 255
0 0 255
0 0 255
0 0 255
0 0 255
0 0 255
0 0 255
0 0 255
0 0 255
0 0 255
0 0 255
0 0 255
0 0 255
0 0 255
0 0 255
0 0 255
0 0 255
0 0 255
0 0 255
0 0 255
0 0 255
0 0 255
0 0 255
0 0 255
0 0 255
0 0 255
0 0 255
0 0 255
0 0 254
0 0 255
0 0 255
0 0 255
0 0 255
0 0 255
0 0 255
0 0 254
0 0 255
0 0 255
0 0 254
0 0 255
0 0 255
0 0 255
0 0 255
0 0 255
0 0 254
0 0 254
0 0 255
0 0 255
0 0 255
0 0 255
0 0 255
0 0 255
0 0 255
0 0 253
0 0 254
0 0 255
0 0 254
0 0 255
0 0 255
0 0 253
0 0 252
0 0 255
0 0 253
0 0 254
0 0 254
0 0 254
0 0 254
0 0 254
0 0 253
0 0 255
0 0 255
0 0 255
0 0 255
0 0 255
0 0 254
0 0 254
0 0 254
0 0 254
0 0 255
0 0 255
0 0 254
0 0 255
0 0 255
0 0 255
0 0 254
123 126 254
184 188 253
212 217 255
239 245 255
242 247 255
242 247 255
242 247 255
242 247 255
242 247 255
242 247 255
242 247 255
242 247 255
242 247 255
242 248 255
242 248 255
242 248 255
242 248 255
242 248 255
242 248 255
242 248 255
242 248 255
243 248 255
243 248 255
243 248 255
243 248 255
243 248 255
243 248 255
243 248 255
243 248 255
243 248 255
243 248 255
243 248 255
243 248 255
243 248 255
243 248 255
243 248 255
243 248 255
243 248 255
243 248 255
243 248 255
243 248 255
244 248 255
244 248 255
244 248 255
244 248 255
244 248 255
244 249 255
244 249 255
244 249 255
244 249 255
244 249 255
244 249 255
244 249 255
244 249 255
244 249 255
244 249 255
244 249 255
244 249 255
244 249 255
244 249 255
244 249 255
244 249 255
244 249 255
244 249 255
244 249 255
244 249 255
244 249 255
245 249 255
245 249 255
245 249 255
245 249 255
245 249 255
245 249 255
245 249 255
245 249 255
245 249 255
245 249 255
245 249 255
245 249 255
245 249 255
245 249 255
245 249 255
245 249 255
245 249 255
245 249 255
245 249 255
245 249 255
245 249 255
245 249 255
245 249 255
245 249 255
245 249 255
245 249 255
245 249 255
245 249 255
245 249 255
245 249 255
245 249 255
245 249 255
245 249 255
245 249 255
245 249 255
245 249 255
245 249 255
245 249 255
245 249 255
245 249 255
245 249 255
245 249 255
245 249 255
245 249 255
245 249 255
245 249 255
245 249 255
245 249 255
245 249 255
245 249 255
245 249 255
245 249 255
245 249 255
245 249 255
245 249 255
245 249 255
245 249 255
245 249 255
245 249 255
245 249 255
245 249 255
245 249 255
245 249 255
245 249 255
245 249 255
245 249 255
244 249 255
244 249 255
244 249 255
244 249 255
244 249 255
244 249 255
244 249 255
244 249 255
244 249 255
244 249 255
244 249 255
244 249 255
244 249 255
244 249 255
244 249 255
244 249 255
244 249 255
244 249 255
244 249 255
244 249 255
244 249 255
244 248 255
244 248 255
244 248 255
244 248 255
244 248 255
243 248 255
243 248 255
243 248 255
243 248 255
243 248 255
243 248 255
243 248 255
243 248 255
243 248 255
243 248 255
243 248 255
243 248 255
243 248 255
243 248 255
243 248 255
243 248 255
243 248 255
243 248 255
243 248 255
243 248 255
242 248 255
242 248 255
242 248 255
242 248 255
242 248 255
242 248 255
242 248 255
242 248 255
242 247 255
242 247 255
242 247 255
242 247 255
242 247 255
242 247 255
242 247 255
242 247 255
242 247 255
241 247 255
241 207 214
239 169 175
240 105 108
239 24 25
238 0 0
239 0 0
239 0 0
237 0 0
235 0 0
236 0 0
235 0 0
236 0 0
238 0 0
233 0 0
235 0 0
235 0 0
236 0 0
237 0 0
239 0 0
235 0 0
236 0 0
239 0 0
236 0 0
235 0 0
240 0 0
235 0 0
236 0 0
236 0 0
233 0 0
236 0 0
234 0 0
234 0 0
235 0 0
232 0 0
235 0 0
234 0 0
233 0 0
236 0 0
236 0 0
232 0 0
234 0 0
233 0 0
235 0 0
235 0 0
235 0 0
235 0 0
233 0 0
233 0 0
235 0 0
235 0 0
234 0 0
231 0 0
233 0 0
232 0 0
233 0 0
231 0 0
233 0 0
236 0 0
234 0 0
233 0 0
234 0 0
232 0 0
234 0 0
235 0 0
235 0 0
235 0 0
232 0 0
233 0 0
233 0 0
235 0 0
234 0 0
234 0 0
231 0 0
230 0 0
233 0 0
233 0 0
235 0 0
230 0 0
234 0 0
232 0 0
233 0 0
234 0 0
236 0 0
232 0 0
232 0 0
235 0 0
233 0 0
233 0 0
233 0 0
233 0 0
234 0 0
234 0 0
232 0 0
231 0 0
235 0 0
232 0 0
234 0 0
233 0 0
231 0 0
234 0 0
233 0 0
235 0 0
234 0 0
0 0 255
0 0 255
0 0 255
0 0 255
0 0 255
0 0 255
0 0 255
0 0 255
0 0 255
0 0 255
0 0 255
0 0 255
0 0 255
0 0 255
0 0 255
0 0 255
0 0 255
0 0 255
0 0 255
0 0 255
0 0 255
0 0 255
0 0 255
0 0 255
0 0 255
0 0 255
0 0 255
0 0 255
0 0 255
0 0 254
0 0 255
0 0 255
0 0 255
0 0 255
0 0 255
0 0 254
0 0 255
0 0 254
0 0 255
0 0 255
0 0 255
0 0 255
0 0 255
0 0 255
0 0 255
0 0 255
0 0 254
0 0 255
0 0 255
0 0 255
0 0 254
0 0 255
0 0 255
0 0 255
0 0 255
0 0 255
0 0 255
0 0 255
0 0 254
0 0 255
0 0 255
0 0 255
0 0 255
0 0 255
0 0 255
0 0 255
0 0 254
0 0 255
0 0 254
0 0 254
0 0 254
0 0 253
0 0 254
0 0 255
0 0 255
0 0 255
0 0 254
0 0 255
0 0 255
0 0 254
0 0 255
0 0 254
0 0 255
0 0 255
0 0 254
0 0 255
0 0 255
0 0 254
0 0 254
0 0 254
0 0 255
0 0 255
0 0 254
0 0 254
0 0 254
0 0 253
93 95 255
151 154 254
206 211 255
234 240 255
241 247 255
242 247 255
242 247 255
242 247 255
242 247 255
242 247 255
242 247 255
242 247 255
242 247 255
242 247 255
242 247 255
242 248 255
242 248 255
242 248 255
242 248 255
242 248 255
242 248 255
242 248 255
242 248 255
243 248 255
243 248 255
243 248 255
243 248 255
243 248 255
243 248 255
243 248 255
243 248 255
243 248 255
243 248 255
243 248 255
243 248 255
243 248 255
243 248 255
243 248 255
243 248 255
243 248 255
243 248 255
243 248 255
243 248 255
244 248 255
244 248 255
244 248 255
244 248 255
244 249 255
244 249 255
244 249 255
244 249 255
244 249 255
244 249 255
244 249 255
244 249 255
244 249 255
244 249 255
244 249 255
244 249 255
244 249 255
244 249 255
244 249 255
244 249 255
244 249 255
244 249 255
244 249 255
244 249 255
245 249 255
245 249 255
245 249 255
245 249 255
245 249 255
245 249 255
245 249 255
245 249 255
245 249 255
245 249 255
245 249 255
245 249 255
245 249 255
245 249 255
245 249 255
245 249 255
245 249 255
245 249 255
245 249 255
245 249 255
245 249 255
245 249 255
245 249 255
245 249 255
245 249 255
245 249 255
245 249 255
245 249 255
245 249 255
245 249 255
245 249 255
245 249 255
245 249 255
245 249 255
245 249 255
245 249 255
245 249 255
245 249 255
245 249 255
245 249 255
245 249 255
245 249 255
245 249 255
245 249 255
245 249 255
245 249 255
245 249 255
245 249 255
245 249 255
245 249 255
245 249 255
245 249 255
245 249 255
245 249 255
245 249 255
245 249 255
245 249 255
245 249 255
245 249 255
245 249 255
245 249 255
245 249 255
245 249 255
245 249 255
245 249 255
245 249 255
245 249 255
245 249 255
245 249 255
245 249 255
245 249 255
245 249 255
245 249 255
245 249 255
244 249 255
244 249 255
244 249 255
244 249 255
244 249 255
244 249 255
244 249 255
244 249 255
244 249 255
244 249 255
244 249 255
244 249 255
244 249 255
244 249 255
244 249 255
244 249 255
244 249 255
244 249 255
244 249 255
244 249 255
244 248 255
244 248 255
244 248 255
244 248 255
243 248 255
243 248 255
243 248 255
243 248 255
243 248 255
243 248 255
243 248 255
243 248 255
243 248 255
243 248 255
243 248 255
243 248 255
243 248 255
243 248 255
243 248 255
243 248 255
243 248 255
243 248 255
243 248 255
243 248 255
242 248 255
242 248 255
242 248 255
242 248 255
242 248 255
242 248 255
242 248 255
242 248 255
242 247 255
242 247 255
242 247 255
242 247 255
242 247 255
242 247 255
242 247 255
242 247 255
242 247 255
242 247 255
241 247 255
241 229 237
240 205 212
239 135 140
243 85 88
240 0 0
235 0 0
238 0 0
235 0 0
237 0 0
236 0 0
236 0 0
238 0 0
236 0 0
236 0 0
238 0 0
235 0 0
237 0 0
235 0 0
237 0 0
236 0 0
235 0 0
235 0 0
238 0 0
239 0 0
235 0 0
237 0 0
237 0 0
235 0 0
235 0 0
235 0 0
233 0 0
235 0 0
233 0 0
233 0 0
232 0 0
237 0 0
237 0 0
235 0 0
235 0 0
236 0 0
236 0 0
236 0 0
235 0 0
236 0 0
235 0 0
236 0 0
235 0 0
237 0 0
235 0 0
234 0 0
235 0 0
235 0 0
234 0 0
237 0 0
236 0 0
237 0 0
232 0 0
235 0 0
234 0 0
233 0 0
235 0 0
233 0 0
231 0 0
236 0 0
235 0 0
234 0 0
233 0 0
235 0 0
231 0 0
234 0 0
234 0 0
233 0 0
232 0 0
233 0 0
233 0 0
234 0 0
235 0 0
234 0 0
232 0 0
234 0 0
234 0 0
234 0 0
234 0 0
232 0 0
235 0 0
234 0 0
232 0 0
232 0 0
235 0 0
231 0 0
233 0 0
235 0 0
235 0 0
236 0 0
236 0 0
234 0 0
234 0 0
233 0 0
235 0 0
235 0 0
0 0 255
0 0 255
0 0 255
0 0 255
0 0 255
0 0 255
0 0 255
0 0 255
0 0 255
0 0 255
0 0 255
0 0 255
0 0 255
0 0 255
0 0 255
0 0 255
0 0 255
0 0 255
0 0 255
0 0 255
0 0 255
0 0 255
0 0 255
0 0 255
0 0 255
0 0 255
0 0 255
0 0 255
0 0 255
0 0 255
0 0 255
0 0 255
0 0 255
0 0 255
0 0 255
0 0 255
0 0 255
0 0 255
0 0 255
0 0 255
0 0 255
0 0 255
0 0 255
0 0 255
0 0 255
0 0 255
0 0 255
0 0 255
0 0 255
0 0 255
0 0 254
0 0 255
0 0 255
0 0 255
0 0 254
0 0 254
0 0 255
0 0 255
0 0 255
0 0 255
0 0 255
0 0 255
0 0 255
0 0 254
0 0 254
0 0 253
0 0 255
0 0 254
0 0 255
0 0 254
0 0 255
0 0 255
0 0 255
0 0 254
0 0 255
0 0 252
0 0 253
0 0 254
0 0 254
0 0 254
0 0 255
0 0 254
0 0 252
0 0 254
0 0 255
0 0 253
0 0 254
0 0 253
0 0 254
0 0 254
0 0 255
0 0 255
63 65 255
134 137 253
177 181 255
225 230 255
241 247 255
241 247 255
241 247 255
242 247 255
242 247 255
242 247 255
242 247 255
242 247 255
242 247 255
242 247 255
242 247 255
242 247 255
242 248 255
242 248 255
242 248 255
242 248 255
242 248 255
242 248 255
242 248 255
242 248 255
242 248 255
243 248 255
243 248 255
243 248 255
243 248 255
243 248 255
243 248 255
243 248 255
243 248 255
243 248 255
243 248 255
243 248 255
243 248 255
243 248 255
243 248 255
243 248 255
243 248 255
243 248 255
243 248 255
243 248 255
244 248 255
244 248 255
244 248 255
244 248 255
244 248 255
244 249 255
244 249 255
244 249 255
244 249 255
244 249 255
244 249 255
244 249 255
244 249 255
244 249 255
244 249 255
244 249 255
244 249 255
244 249 255
244 249 255
244 249 255
244 249 255
244 249 255
244 249 255
244 249 255
245 249 255
245 249 255
245 249 255
245 249 255
245 249 255
245 249 255
245 249 255
245 249 255
245 249 255
245 249 255
245 249 255
245 249 255
245 249 255
245 249 255
245 249 255
245 249 255
245 249 255
245 249 255
245 249 255
245 249 255
245 249 255
245 249 255
245 249 255
245 249 255
245 249 255
245 249 255
245 249 255
245 249 255
245 249 255
245 249 255
245 249 255
245 249 255
245 249 255
245 249 255
245 249 255
245 249 255
245 249 255
245 249 255
245 249 255
245 249 255
245 249 255
245 249 255
245 249 255
245 249 255
245 249 255
245 249 255
245 249 255
245 249 255
245 249 255
245 249 255
245 249 255
245 249 255
245 249 255
245 249 255
245 249 255
245 249 255
245 249 255
245 249 255
245 249 255
245 249 255
245 249 255
245 249 255
245 249 255
245 249 255
245 249 255
245 249 255
245 249 255
245 249 255
245 249 255
245 249 255
245 249 255
245 249 255
245 249 255
245 249 255
245 249 255
245 249 255
245 249 255
245 249 255
245 249 255
245 249 255
244 249 255
244 249 255
244 249 255
244 249 255
244 249 255
244 249 255
244 249 255
244 249 255
244 249 255
244 249 255
244 249 255
244 249 255
244 249 255
244 249 255
244 249 255
244 249 255
244 249 255
244 249 255
244 249 255
244 248 255
244 248 255
244 248 255
244 248 255
244 248 255
243 248 255
243 248 255
243 248 255
243 248 255
243 248 255
243 248 255
243 248 255
243 248 255
243 248 255
243 248 255
243 248 255
243 248 255
243 248 255
243 248 255
243 248 255
243 248 255
243 248 255
243 248 255
243 248 255
242 248 255
242 248 255
242 248 255
242 248 255
242 248 255
242 248 255
242 248 255
242 248 255
242 248 255
242 247 255
242 247 255
242 247 255
242 247 255
242 247 255
242 247 255
242 247 255
242 247 255
242 247 255
241 247 255
241 247 255
241 247 255
241 226 234
241 191 198
240 140 144
239 74 76
237 0 0
239 0 0
237 0 0
241 0 0
241 0 0
239 0 0
235 0 0
238 0 0
236 0 0
237 0 0
237 0 0
235 0 0
237 0 0
237 0 0
236 0 0
237 0 0
234 0 0
236 0 0
236 0 0
236 0 0
238 0 0
237 0 0
232 0 0
236 0 0
239 0 0
237 0 0
239 0 0
235 0 0
236 0 0
236 0 0
235 0 0
236 0 0
236 0 0
235 0 0
238 0 0
235 0 0
235 0 0
238 0 0
235 0 0
234 0 0
238 0 0
235 0 0
233 0 0
237 0 0
237 0 0
234 0 0
235 0 0
233 0 0
237 0 0
233 0 0
235 0 0
234 0 0
233 0 0
232 0 0
237 0 0
233 0 0
233 0 0
234 0 0
237 0 0
236 0 0
231 0 0
236 0 0
235 0 0
234 0 0
234 0 0
232 0 0
235 0 0
237 0 0
237 0 0
237 0 0
234 0 0
237 0 0
236 0 0
234 0 0
234 0 0
236 0 0
235 0 0
234 0 0
232 0 0
232 0 0
232 0 0
233 0 0
236 0 0
236 0 0
233 0 0
235 0 0
236 0 0
234 0 0
232 0 0
236 0 0
234 0 0
235 0 0
0 0 255
0 0 255
0 0 255
0 0 255
0 0 255
0 0 255
0 0 255
0 0 255
0 0 255
0 0 255
0 0 255
0 0 255
0 0 255
0 0 255
0 0 255
0 0 255
0 0 255
0 0 255
0 0 255
0 0 255
0 0 255
0 0 254
0 0 255
0 0 255
0 0 255
0 0 255
0 0 255
0 0 255
0 0 255
0 0 255
0 0 255
0 0 255
0 0 255
0 0 255
0 0 255
0 0 254
0 0 255
0 0 255
0 0 255
0 0 255
0 0 255
0 0 255
0 0 255
0 0 255
0 0 255
0 0 255
0 0 255
0 0 254
0 0 254
0 0 255
0 0 254
0 0 255
0 0 255
0 0 255
0 0 254
0 0 255
0 0 254
0 0 255
0 0 255
0 0 255
0 0 254
0 0 255
0 0 254
0 0 255
0 0 255
0 0 254
0 0 254
0 0 255
0 0 254
0 0 255
0 0 254
0 0 255
0 0 255
0 0 255
0 0 254
0 0 255
0 0 254
0 0 255
0 0 255
0 0 254
0 0 255
0 0 255
0 0 255
0 0 255
0 0 253
0 0 255
0 0 255
0 0 255
115 118 255
152 156 255
191 196 255
222 228 255
241 247 255
241 247 255
241 247 255
241 247 255
241 247 255
242 247 255
242 247 255
242 247 255
242 247 255
242 247 255
242 247 255
242 247 255
242 247 255
242 247 255
242 248 255
242 248 255
242 248 255
242 248 255
242 248 255
242 248 255
242 248 255
242 248 255
242 248 255
243 248 255
243 248 255
243 248 255
243 248 255
243 248 255
243 248 255
243 248 255
243 248 255
243 248 255
243 248 255
243 248 255
243 248 255
243 248 255
243 248 255
243 248 255
243 248 255
243 248 255
243 248 255
243 248 255
244 248 255
244 248 255
244 248 255
244 248 255
244 249 255
244 249 255
244 249 255
244 249 255
244 249 255
244 249 255
244 249 255
244 249 255
244 249 255
244 249 255
244 249 255
244 249 255
244 249 255
244 249 255
244 249 255
244 249 255
244 249 255
244 249 255
245 249 255
245 249 255
245 249 255
245 249 255
245 249 255
245 249 255
245 249 255
245 249 255
245 249 255
245 249 255
245 249 255
245 249 255
245 249 255
245 249 255
245 249 255
245 249 255
245 249 255
245 249 255
245 249 255
245 249 255
245 249 255
245 249 255
245 249 255
245 249 255
245 249 255
245 249 255
245 249 255
245 249 255
245 249 255
245 249 255
245 249 255
245 249 255
245 249 255
245 249 255
245 249 255
245 249 255
245 249 255
245 249 255
245 249 255
245 249 255
245 249 255
245 249 255
245 249 255
245 249 255
245 249 255
245 249 255
245 249 255
245 249 255
245 249 255
245 249 255
245 249 255
245 249 255
245 249 255
245 249 255
245 249 255
245 249 255
245 249 255
245 249 255
245 249 255
245 249 255
245 249 255
245 249 255
245 249 255
245 249 255
245 249 255
245 249 255
245 249 255
245 249 255
245 249 255
245 249 255
245 249 255
245 249 255
245 249 255
245 249 255
245 249 255
245 249 255
245 249 255
245 249 255
245 249 255
245 249 255
245 249 255
245 249 255
245 249 255
245 249 255
245 249 255
245 249 255
245 249 255
244 249 255
244 249 255
244 249 255
244 249 255
244 249 255
244 249 255
244 249 255
244 249 255
244 249 255
244 249 255
244 249 255
244 249 255
244 249 255
244 249 255
244 249 255
244 249 255
244 249 255
244 249 255
244 249 255
244 248 255
244 248 255
244 248 255
244 248 255
243 248 255
243 248 255
243 248 255
243 248 255
243 248 255
243 248 255
243 248 255
243 248 255
243 248 255
243 248 255
243 248 255
243 248 255
243 248 255
243 248 255
243 248 255
243 248 255
243 248 255
243 248 255
243 248 255
242 248 255
242 248 255
242 248 255
242 248 255
242 248 255
242 248 255
242 248 255
242 248 255
242 248 255
242 247 255
242 247 255
242 247 255
242 247 255
242 247 255
242 247 255
242 247 255
242 247 255
242 247 255
241 247 255
241 247 255
241 247 255
241 247 255
241 246 254
240 232 240
240 196 203
239 144 149
241 89 92
237 0 0
238 0 0
237 0 0
237 0 0
238 0 0
235 0 0
239 0 0
238 0 0
238 0 0
237 0 0
238 0 0
239 0 0
239 0 0
233 0 0
236 0 0
238 0 0
234 0 0
238 0 0
237 0 0
236 0 0
235 0 0
239 0 0
232 0 0
237 0 0
236 0 0
236 0 0
237 0 0
236 0 0
236 0 0
237 0 0
234 0 0
235 0 0
237 0 0
238 0 0
236 0 0
235 0 0
234 0 0
235 0 0
234 0 0
238 0 0
235 0 0
235 0 0
235 0 0
234 0 0
236 0 0
236 0 0
235 0 0
237 0 0
235 0 0
236 0 0
236 0 0
233 0 0
234 0 0
234 0 0
235 0 0
234 0 0
236 0 0
237 0 0
237 0 0
235 0 0
235 0 0
234 0 0
231 0 0
238 0 0
234 0 0
233 0 0
235 0 0
237 0 0
235 0 0
236 0 0
234 0 0
235 0 0
231 0 0
234 0 0
236 0 0
239 0 0
233 0 0
232 0 0
234 0 0
233 0 0
234 0 0
234 0 0
236 0 0
232 0 0
233 0 0
236 0 0
237 0 0
236 0 0
0 0 255
0 0 255
0 0 255
0 0 255
0 0 255
0 0 255
0 0 255
0 0 255
0 0 255
0 0 255
0 0 255
0 0 255
0 0 255
0 0 255
0 0 255
0 0 255
0 0 255
0 0 255
0 0 255
0 0 255
0 0 255
0 0 255
0 0 255
0 0 255
0 0 255
0 0 255
0 0 255
0 0 255
0 0 255
0 0 255
0 0 255
0 0 255
0 0 255
0 0 255
0 0 255
0 0 255
0 0 255
0 0 255
0 0 254
0 0 255
0 0 254
0 0 255
0 0 254
0 0 255
0 0 255
0 0 255
0 0 255
0 0 255
0 0 255
0 0 255
0 0 254
0 0 255
0 0 255
0 0 255
0 0 255
0 0 255
0 0 255
0 0 255
0 0 254
0 0 255
0 0 255
0 0 255
0 0 255
0 0 255
0 0 255
0 0 254
0 0 254
0 0 255
0 0 255
0 0 255
0 0 255
0 0 255
0 0 255
0 0 254
0 0 255
0 0 255
0 0 255
0 0 255
0 0 255
0 0 255
0 0 254
0 0 255
0 0 255
72 74 253
127 130 254
174 178 255
203 208 255
231 237 255
241 247 255
241 247 255
241 247 255
241 247 255
241 247 255
241 247 255
241 247 255
242 247 255
242 247 255
242 247 255
242 247 255
242 247 255
242 247 255
242 247 255
242 247 255
242 247 255
242 248 255
242 248 255
242 248 255
242 248 255
242 248 255
242 248 255
242 248 255
242 248 255
242 248 255
243 248 255
243 248 255
243 248 255
243 248 255
243 248 255
243 248 255
243 248 255
243 248 255
243 248 255
243 248 255
243 248 255
243 248 255
243 248 255
243 248 255
243 248 255
243 248 255
243 248 255
243 248 255
244 248 255
244 248 255
244 248 255
244 248 255
244 248 255
244 249 255
244 249 255
244 249 255
244 249 255
244 249 255
244 249 255
244 249 255
244 249 255
244 249 255
244 249 255
244 249 255
244 249 255
244 249 255
244 249 255
244 249 255
244 249 255
244 249 255
245 249 255
245 249 255
245 249 255
245 249 255
245 249 255
245 249 255
245 249 255
245 249 255
245 249 255
245 249 255
245 249 255
245 249 255
245 249 255
245 249 255
245 249 255
245 249 255
245 249 255
245 249 255
245 249 255
245 249 255
245 249 255
245 249 255
245 249 255
245 249 255
245 249 255
245 249 255
245 249 255
245 249 255
245 249 255
245 249 255
245 249 255
245 249 255
245 249 255
245 249 255
245 249 255
245 249 255
245 249 255
245 250 255
245 250 255
245 250 255
245 250 255
245 250 255
245 250 255
245 250 255
245 250 255
245 250 255
245 250 255
245 250 255
245 250 255
245 250 255
245 250 255
245 250 255
245 250 255
245 250 255
245 250 255
245 250 255
245 250 255
245 249 255
245 249 255
245 249 255
245 249 255
245 249 255
245 249 255
245 249 255
245 249 255
245 249 255
245 249 255
245 249 255
245 249 255
245 249 255
245 249 255
245 249 255
245 249 255
245 249 255
245 249 255
245 249 255
245 249 255
245 249 255
245 249 255
245 249 255
245 249 255
245 249 255
245 249 255
245 249 255
245 249 255
245 249 255
245 249 255
245 249 255
245 249 255
245 249 255
245 249 255
245 249 255
245 249 255
244 249 255
244 249 255
244 249 255
244 249 255
244 249 255
244 249 255
244 249 255
244 249 255
244 249 255
244 249 255
244 249 255
244 249 255
244 249 255
244 249 255
244 249 255
244 249 255
244 249 255
244 249 255
244 248 255
244 248 255
244 248 255
244 248 255
244 248 255
243 248 255
243 248 255
243 248 255
243 248 255
243 248 255
243 248 255
243 248 255
243 248 255
243 248 255
243 248 255
243 248 255
243 248 255
243 248 255
243 248 255
243 248 255
243 248 255
243 248 255
243 248 255
242 248 255
242 248 255
242 248 255
242 248 255
242 248 255
242 248 255
242 248 255
242 248 255
242 248 255
242 247 255
242 247 255
242 247 255
242 247 255
242 247 255
242 247 255
242 247 255
242 247 255
242 247 255
241 247 255
241 247 255
241 247 255
241 247 255
241 247 255
241 247 255
241 247 255
241 243 252
239 202 209
240 186 193
239 139 144
239 65 67
238 0 0
239 0 0
239 0 0
240 0 0
237 0 0
234 0 0
240 0 0
238 0 0
235 0 0
237 0 0
238 0 0
234 0 0
237 0 0
237 0 0
237 0 0
237 0 0
238 0 0
236 0 0
236 0 0
238 0 0
237 0 0
238 0 0
235 0 0
235 0 0
237 0 0
235 0 0
236 0 0
237 0 0
235 0 0
235 0 0
237 0 0
237 0 0
237 0 0
235 0 0
235 0 0
234 0 0
233 0 0
236 0 0
235 0 0
236 0 0
237 0 0
236 0 0
235 0 0
235 0 0
235 0 0
235 0 0
235 0 0
232 0 0
235 0 0
237 0 0
238 0 0
234 0 0
233 0 0
234 0 0
236 0 0
238 0 0
235 0 0
234 0 0
236 0 0
234 0 0
235 0 0
237 0 0
234 0 0
236 0 0
236 0 0
237 0 0
233 0 0
235 0 0
234 0 0
236 0 0
234 0 0
235 0 0
234 0 0
236 0 0
233 0 0
235 0 0
234 0 0
236 0 0
235 0 0
235 0 0
233 0 0
232 0 0
234 0 0
180 186 255
170 176 255
125 129 255
100 103 255
0 0 255
0 0 255
0 0 255
0 0 255
0 0 255
0 0 255
0 0 255
0 0 255
0 0 255
0 0 255
0 0 255
0 0 255
0 0 255
0 0 255
0 0 255
0 0 255
0 0 255
0 0 255
0 0 255
0 0 255
0 0 255
0 0 255
0 0 255
0 0 255
0 0 255
0 0 255
0 0 255
0 0 255
0 0 255
0 0 255
0 0 255
0 0 255
0 0 255
0 0 255
0 0 255
0 0 255
0 0 255
0 0 255
0 0 255
0 0 255
0 0 255
0 0 255
0 0 255
0 0 255
0 0 255
0 0 255
0 0 255
0 0 255
0 0 255
0 0 255
0 0 255
0 0 255
0 0 255
0 0 255
0 0 255
0 0 255
0 0 255
0 0 255
0 0 255
0 0 255
0 0 255
0 0 255
0 0 254
0 0 255
0 0 254
0 0 254
0 0 255
0 0 255
0 0 255
0 0 254
0 0 255
0 0 255
0 0 255
41 42 254
80 82 255
168 173 254
163 167 255
217 222 255
227 233 255
241 247 255
241 247 255
241 247 255
241 247 255
241 247 255
241 247 255
241 247 255
241 247 255
241 247 255
241 247 255
242 247 255
242 247 255
242 247 255
242 247 255
242 247 255
242 247 255
242 247 255
242 247 255
242 247 255
242 248 255
242 248 255
242 248 255
242 248 255
242 248 255
242 248 255
242 248 255
242 248 255
243 248 255
243 248 255
243 248 255
243 248 255
243 248 255
243 248 255
243 248 255
243 248 255
243 248 255
243 248 255
243 248 255
243 248 255
243 248 255
243 248 255
243 248 255
243 248 255
243 248 255
243 248 255
243 248 255
244 248 255
244 248 255
244 248 255
244 248 255
244 248 255
244 249 255
244 249 255
244 249 255
244 249 255
244 249 255
244 249 255
244 249 255
244 249 255
244 249 255
244 249 255
244 249 255
244 249 255
244 249 255
244 249 255
244 249 255
244 249 255
244 249 255
245 249 255
245 249 255
245 249 255
245 249 255
245 249 255
245 249 255
245 249 255
245 249 255
245 249 255
245 249 255
245 249 255
245 249 255
245 249 255
245 249 255
245 249 255
245 249 255
245 249 255
245 249 255
245 249 255
245 249 255
245 249 255
245 249 255
245 249 255
245 249 255
245 249 255
245 249 255
245 249 255
245 249 255
245 249 255
245 249 255
245 249 255
245 250 255
245 250 255
245 250 255
245 250 255
245 250 255
245 250 255
246 250 255
246 250 255
246 250 255
246 250 255
246 250 255
246 250 255
246 250 255
246 250 255
246 250 255
246 250 255
246 250 255
246 250 255
246 250 255
246 250 255
246 250 255
246 250 255
246 250 255
246 250 255
246 250 255
246 250 255
246 250 255
246 250 255
246 250 255
246 250 255
246 250 255
245 250 255
245 250 255
245 250 255
245 250 255
245 250 255
245 249 255
245 249 255
245 249 255
245 249 255
245 249 255
245 249 255
245 249 255
245 249 255
245 249 255
245 249 255
245 249 255
245 249 255
245 249 255
245 249 255
245 249 255
245 249 255
245 249 255
245 249 255
245 249 255
245 249 255
245 249 255
245 249 255
245 249 255
245 249 255
245 249 255
245 249 255
245 249 255
245 249 255
245 249 255
245 249 255
245 249 255
244 249 255
244 249 255
244 249 255
244 249 255
244 249 255
244 249 255
244 249 255
244 249 255
244 249 255
244 249 255
244 249 255
244 249 255
244 249 255
244 249 255
244 249 255
244 249 255
244 249 255
244 249 255
244 248 255
244 248 255
244 248 255
244 248 255
243 248 255
243 248 255
243 248 255
243 248 255
243 248 255
243 248 255
243 248 255
243 248 255
243 248 255
243 248 255
243 248 255
243 248 255
243 248 255
243 248 255
243 248 255
243 248 255
243 248 255
243 248 255
243 248 255
242 248 255
242 248 255
242 248 255
242 248 255
242 248 255
242 248 255
242 248 255
242 248 255
242 247 255
242 247 255
242 247 255
242 247 255
242 247 255
242 247 255
242 247 255
242 247 255
242 247 255
241 247 255
241 247 255
241 247 255
241 247 255
241 247 255
241 247 255
241 247 255
241 247 255
241 247 255
241 247 255
241 241 249
241 199 206
241 186 193
239 146 151
240 107 111
236 34 36
238 0 0
237 0 0
241 0 0
237 0 0
237 0 0
237 0 0
235 0 0
238 0 0
239 0 0
240 0 0
238 0 0
238 0 0
237 0 0
236 0 0
235 0 0
237 0 0
236 0 0
235 0 0
240 0 0
238 0 0
236 0 0
236 0 0
236 0 0
235 0 0
238 0 0
235 0 0
236 0 0
237 0 0
234 0 0
236 0 0
235 0 0
236 0 0
237 0 0
236 0 0
236 0 0
235 0 0
237 0 0
233 0 0
234 0 0
236 0 0
235 0 0
236 0 0
236 0 0
236 0 0
234 0 0
237 0 0
236 0 0
235 0 0
234 0 0
233 0 0
234 0 0
235 0 0
235 0 0
234 0 0
238 0 0
234 0 0
236 0 0
234 0 0
237 0 0
234 0 0
238 0 0
234 0 0
236 0 0
235 0 0
233 0 0
235 0 0
236 0 0
238 0 0
232 0 0
234 0 0
236 0 0
235 0 0
238 24 25
236 88 92
237 144 151
236 164 171
235 203 212
237 244 255
237 244 255
237 244 255
237 244 255
231 238 255
212 219 255
209 216 255
161 166 255
148 153 255
100 104 255
67 69 255
0 0 255
0 0 255
0 0 255
0 0 255
0 0 255
0 0 255
0 0 255
0 0 255
0 0 255
0 0 255
0 0 255
0 0 255
0 0 255
0 0 255
0 0 255
0 0 255
0 0 255
0 0 255
0 0 255
0 0 255
0 0 255
0 0 255
0 0 255
0 0 255
0 0 255
0 0 255
0 0 255
0 0 255
0 0 255
0 0 255
0 0 255
0 0 255
0 0 255
0 0 255
0 0 255
0 0 255
0 0 255
0 0 255
0 0 255
0 0 255
0 0 255
0 0 255
0 0 255
0 0 255
0 0 255
0 0 255
0 0 255
0 0 255
0 0 254
0 0 255
0 0 255
0 0 255
0 0 254
0 0 255
0 0 255
0 0 255
0 0 255
0 0 255
0 0 255
0 0 255
63 65 255
118 121 254
159 163 255
180 184 255
197 202 255
223 229 254
241 247 255
241 247 255
241 247 255
241 247 255
241 247 255
241 247 255
241 247 255
241 247 255
241 247 255
241 247 255
241 247 255
241 247 255
241 247 255
241 247 255
242 247 255
242 247 255
242 247 255
242 247 255
242 247 255
242 247 255
242 247 255
242 247 255
242 247 255
242 248 255
242 248 255
242 248 255
242 248 255
242 248 255
242 248 255
242 248 255
242 248 255
243 248 255
243 248 255
243 248 255
243 248 255
243 248 255
243 248 255
243 248 255
243 248 255
243 248 255
243 248 255
243 248 255
243 248 255
243 248 255
243 248 255
243 248 255
243 248 255
243 248 255
243 248 255
243 248 255
244 248 255
244 248 255
244 248 255
244 248 255
244 249 255
244 249 255
244 249 255
244 249 255
244 249 255
244 249 255
244 249 255
244 249 255
244 249 255
244 249 255
244 249 255
244 249 255
244 249 255
244 249 255
244 249 255
244 249 255
244 249 255
245 249 255
245 249 255
245 249 255
245 249 255
245 249 255
245 249 255
245 249 255
245 249 255
245 249 255
245 249 255
245 249 255
245 249 255
245 249 255
245 249 255
245 249 255
245 249 255
245 249 255
245 249 255
245 249 255
245 249 255
245 249 255
245 249 255
245 249 255
245 249 255
245 249 255
245 249 255
245 249 255
245 249 255
245 250 255
245 250 255
245 250 255
245 250 255
246 250 255
246 250 255
246 250 255
246 250 255
246 250 255
246 250 255
246 250 255
246 250 255
246 250 255
246 250 255
246 250 255
246 250 255
246 250 255
246 250 255
246 250 255
246 250 255
246 250 255
246 250 255
246 250 255
246 250 255
246 250 255
246 250 255
246 250 255
246 250 255
246 250 255
246 250 255
246 250 255
246 250 255
246 250 255
246 250 255
246 250 255
246 250 255
246 250 255
246 250 255
246 250 255
246 250 255
246 250 255
246 250 255
246 250 255
246 250 255
245 250 255
245 250 255
245 250 255
245 250 255
245 249 255
245 249 255
245 249 255
245 249 255
245 249 255
245 249 255
245 249 255
245 249 255
245 249 255
245 249 255
245 249 255
245 249 255
245 249 255
245 249 255
245 249 255
245 249 255
245 249 255
245 249 255
245 249 255
245 249 255
245 249 255
245 249 255
245 249 255
245 249 255
245 249 255
245 249 255
245 249 255
245 249 255
244 249 255
244 249 255
244 249 255
244 249 255
244 249 255
244 249 255
244 249 255
244 249 255
244 249 255
244 249 255
244 249 255
244 249 255
244 249 255
244 249 255
244 249 255
244 249 255
244 249 255
244 248 255
244 248 255
244 248 255
244 248 255
243 248 255
243 248 255
243 248 255
243 248 255
243 248 255
243 248 255
243 248 255
243 248 255
243 248 255
243 248 255
243 248 255
243 248 255
243 248 255
243 248 255
243 248 255
243 248 255
243 248 255
243 248 255
243 248 255
242 248 255
242 248 255
242 248 255
242 248 255
242 248 255
242 248 255
242 248 255
242 248 255
242 247 255
242 247 255
242 247 255
242 247 255
242 247 255
242 247 255
242 247 255
242 247 255
242 247 255
241 247 255
241 247 255
241 247 255
241 247 255
241 247 255
241 247 255
241 247 255
241 247 255
241 247 255
241 247 255
241 247 255
241 247 255
241 247 255
241 246 254
241 235 244
239 208 215
241 183 189
239 165 171
240 133 137
239 81 84
235 0 0
237 0 0
238 0 0
237 0 0
236 0 0
238 0 0
238 0 0
237 0 0
235 0 0
237 0 0
237 0 0
239 0 0
238 0 0
237 0 0
238 0 0
238 0 0
236 0 0
235 0 0
237 0 0
235 0 0
236 0 0
238 0 0
237 0 0
236 0 0
237 0 0
238 0 0
237 0 0
236 0 0
236 0 0
239 0 0
234 0 0
236 0 0
234 0 0
237 0 0
235 0 0
237 0 0
235 0 0
236 0 0
234 0 0
236 0 0
237 0 0
236 0 0
236 0 0
234 0 0
235 0 0
235 0 0
237 0 0
238 0 0
233 0 0
235 0 0
236 0 0
236 0 0
237 0 0
236 0 0
237 0 0
238 0 0
236 0 0
237 0 0
234 0 0
234 0 0
236 73 76
238 109 114
239 138 144
238 166 173
236 194 203
237 217 227
237 243 254
237 244 255
237 244 255
237 244 255
237 244 255
237 244 255
237 244 255
237 244 255
237 245 255
237 245 255
237 245 255
237 245 255
237 245 255
237 245 255
237 245 255
237 245 255
225 232 255
211 218 255
196 202 255
179 185 255
150 155 255
132 136 255
103 106 255
95 98 255
47 49 255
0 0 255
0 0 255
0 0 255
0 0 255
0 0 255
0 0 255
0 0 255
0 0 255
0 0 255
0 0 255
0 0 255
0 0 255
0 0 255
0 0 255
0 0 255
0 0 255
0 0 255
0 0 255
0 0 255
0 0 255
0 0 255
0 0 255
0 0 255
0 0 255
0 0 255
0 0 255
0 0 254
0 0 255
0 0 255
0 0 255
0 0 255
0 0 255
0 0 255
0 0 255
0 0 255
0 0 255
0 0 255
0 0 255
0 0 255
0 0 255
0 0 255
0 0 255
34 34 255
90 92 255
110 113 255
134 137 255
166 171 255
186 191 255
197 202 255
223 229 255
237 243 255
240 247 255
241 247 255
241 247 255
241 247 255
241 247 255
241 247 255
241 247 255
241 247 255
241 247 255
241 247 255
241 247 255
241 247 255
241 247 255
241 247 255
241 247 255
241 247 255
241 247 255
241 247 255
242 247 255
242 247 255
242 247 255
242 247 255
242 247 255
242 247 255
242 247 255
242 247 255
242 247 255
242 248 255
242 248 255
242 248 255
242 248 255
242 248 255
242 248 255
242 248 255
242 248 255
243 248 255
243 248 255
243 248 255
243 248 255
243 248 255
243 248 255
243 248 255
243 248 255
243 248 255
243 248 255
243 248 255
243 248 255
243 248 255
243 248 255
243 248 255
243 248 255
243 248 255
243 248 255
243 248 255
244 248 255
244 248 255
244 248 255
244 248 255
244 249 255
244 249 255
244 249 255
244 249 255
244 249 255
244 249 255
244 249 255
244 249 255
244 249 255
244 249 255
244 249 255
244 249 255
244 249 255
244 249 255
244 249 255
244 249 255
245 249 255
245 249 255
245 249 255
245 249 255
245 249 255
245 249 255
245 249 255
245 249 255
245 249 255
245 249 255
245 249 255
245 249 255
245 249 255
245 249 255
245 249 255
245 249 255
245 249 255
245 249 255
245 249 255
245 249 255
245 249 255
245 249 255
245 249 255
245 249 255
245 249 255
245 249 255
245 250 255
245 250 255
245 250 255
245 250 255
246 250 255
246 250 255
246 250 255
246 250 255
246 250 255
246 250 255
246 250 255
246 250 255
246 250 255
246 250 255
246 250 255
246 250 255
246 250 255
246 250 255
246 250 255
246 250 255
246 250 255
246 250 255
246 250 255
246 250 255
246 250 255
246 250 255
246 250 255
246 250 255
246 250 255
246 250 255
246 250 255
246 250 255
246 250 255
246 250 255
246 250 255
246 250 255
246 250 255
246 250 255
246 250 255
246 250 255
246 250 255
246 250 255
246 250 255
246 250 255
246 250 255
246 250 255
246 250 255
246 250 255
246 250 255
246 250 255
246 250 255
246 250 255
246 250 255
246 250 255
245 250 255
245 250 255
245 250 255
245 250 255
245 249 255
245 249 255
245 249 255
245 249 255
245 249 255
245 249 255
245 249 255
245 249 255
245 249 255
245 249 255
245 249 255
245 249 255
245 249 255
245 249 255
245 249 255
245 249 255
245 249 255
245 249 255
245 249 255
245 249 255
245 249 255
245 249 255
245 249 255
245 249 255
245 249 255
245 249 255
244 249 255
244 249 255
244 249 255
244 249 255
244 249 255
244 249 255
244 249 255
244 249 255
244 249 255
244 249 255
244 249 255
244 249 255
244 249 255
244 249 255
244 249 255
244 249 255
244 248 255
244 248 255
244 248 255
244 248 255
244 248 255
243 248 255
243 248 255
243 248 255
243 248 255
243 248 255
243 248 255
243 248 255
243 248 255
243 248 255
243 248 255
243 248 255
243 248 255
243 248 255
243 248 255
243 248 255
243 248 255
243 248 255
243 248 255
242 248 255
242 248 255
242 248 255
242 248 255
242 248 255
242 248 255
242 248 255
242 248 255
242 247 255
242 247 255
242 247 255
242 247 255
242 247 255
242 247 255
242 247 255
242 247 255
242 247 255
241 247 255
241 247 255
241 247 255
241 247 255
241 247 255
241 247 255
241 247 255
241 247 255
241 247 255
241 247 255
241 247 255
241 247 255
241 247 255
241 247 255
241 247 255
241 247 255
241 247 255
240 247 255
240 243 252
240 227 236
239 209 217
237 172 179
240 172 179
237 146 151
238 128 133
239 89 92
238 34 36
236 0 0
236 0 0
238 0 0
237 0 0
238 0 0
239 0 0
237 0 0
239 0 0
238 0 0
239 0 0
235 0 0
238 0 0
240 0 0
238 0 0
236 0 0
236 0 0
234 0 0
239 0 0
238 0 0
234 0 0
238 0 0
240 0 0
235 0 0
235 0 0
234 0 0
238 0 0
239 0 0
238 0 0
235 0 0
238 0 0
235 0 0
237 0 0
238 0 0
234 0 0
234 0 0
236 0 0
235 0 0
237 0 0
239 0 0
239 0 0
237 0 0
236 0 0
237 24 25
237 91 95
237 98 102
234 138 144
237 171 179
235 181 189
238 194 203
237 216 226
238 233 244
237 245 255
237 245 255
237 245 255
237 245 255
237 245 255
237 245 255
237 245 255
237 245 255
237 244 255
237 244 255
237 244 255
237 245 255
237 245 255
237 245 255
237 245 255
237 245 255
237 245 255
237 245 255
237 245 255
237 245 255
237 245 255
237 245 255
237 245 255
237 245 255
238 245 255
238 245 255
238 245 255
238 245 255
238 245 255
238 245 255
238 245 255
227 234 255
214 221 255
203 209 255
199 205 255
189 195 255
167 172 255
170 175 255
149 153 255
145 149 255
124 127 255
121 125 255
86 88 255
95 98 255
95 98 255
89 92 255
53 55 255
53 55 255
23 24 255
0 0 255
41 42 255
0 0 255
0 0 255
23 24 255
33 34 255
47 49 255
71 73 255
58 60 255
71 73 255
104 107 255
71 73 255
115 118 255
122 125 255
137 141 255
146 150 255
144 147 255
153 157 255
176 181 255
198 203 255
205 210 255
204 209 255
223 228 255
230 236 255
240 246 255
240 246 255
240 246 255
240 246 255
240 247 255
240 247 255
240 247 255
241 247 255
241 247 255
241 247 255
241 247 255
241 247 255
241 247 255
241 247 255
241 247 255
241 247 255
241 247 255
241 247 255
241 247 255
241 247 255
241 247 255
241 247 255
241 247 255
241 247 255
241 247 255
242 247 255
242 247 255
242 247 255
242 247 255
242 247 255
242 247 255
242 247 255
242 247 255
242 247 255
242 248 255
242 248 255
242 248 255
242 248 255
242 248 255
242 248 255
242 248 255
242 248 255
243 248 255
243 248 255
243 248 255
243 248 255
243 248 255
243 248 255
243 248 255
243 248 255
243 248 255
243 248 255
243 248 255
243 248 255
243 248 255
243 248 255
243 248 255
243 248 255
243 248 255
243 248 255
244 248 255
244 248 255
244 248 255
244 248 255
244 248 255
244 249 255
244 249 255
244 249 255
244 249 255
244 249 255
244 249 255
244 249 255
244 249 255
244 249 255
244 249 255
244 249 255
244 249 255
244 249 255
244 249 255
244 249 255
244 249 255
245 249 255
245 249 255
245 249 255
245 249 255
245 249 255
245 249 255
245 249 255
245 249 255
245 249 255
245 249 255
245 249 255
245 249 255
245 249 255
245 249 255
245 249 255
245 249 255
245 249 255
245 249 255
245 249 255
245 249 255
245 249 255
245 249 255
245 249 255
245 249 255
245 249 255
245 250 255
245 250 255
245 250 255
246 250 255
246 250 255
246 250 255
246 250 255
246 250 255
246 250 255
246 250 255
246 250 255
246 250 255
246 250 255
246 250 255
246 250 255
246 250 255
246 250 255
246 250 255
246 250 255
246 250 255
246 250 255
246 250 255
246 250 255
246 250 255
246 250 255
246 250 255
246 250 255
246 250 255
246 250 255
246 250 255
246 250 255
246 250 255
246 250 255
246 250 255
246 250 255
246 250 255
246 250 255
246 250 255
246 250 255
246 250 255
246 250 255
246 250 255
246 250 255
246 250 255
246 250 255
246 250 255
246 250 255
246 250 255
246 250 255
246 250 255
246 250 255
246 250 255
246 250 255
246 250 255
246 250 255
246 250 255
246 250 255
246 250 255
246 250 255
246 250 255
246 250 255
246 250 255
245 250 255
245 250 255
245 250 255
245 249 255
245 249 255
245 249 255
245 249 255
245 249 255
245 249 255
245 249 255
245 249 255
245 249 255
245 249 255
245 249 255
245 249 255
245 249 255
245 249 255
245 249 255
245 249 255
245 249 255
245 249 255
245 249 255
245 249 255
245 249 255
245 249 255
245 249 255
245 249 255
244 249 255
244 249 255
244 249 255
244 249 255
244 249 255
244 249 255
244 249 255
244 249 255
244 249 255
244 249 255
244 249 255
244 249 255
244 249 255
244 249 255
244 249 255
244 249 255
244 248 255
244 248 255
244 248 255
244 248 255
244 248 255
243 248 255
243 248 255
243 248 255
243 248 255
243 248 255
243 248 255
243 248 255
243 248 255
243 248 255
243 248 255
243 248 255
243 248 255
243 248 255
243 248 255
243 248 255
243 248 255
243 248 255
243 248 255
242 248 255
242 248 255
242 248 255
242 248 255
242 248 255
242 248 255
242 248 255
242 248 255
242 247 255
242 247 255
242 247 255
242 247 255
242 247 255
242 247 255
242 247 255
242 247 255
242 247 255
241 247 255
241 247 255
241 247 255
241 247 255
241 247 255
241 247 255
241 247 255
241 247 255
241 247 255
241 247 255
241 247 255
241 247 255
241 247 255
241 247 255
241 247 255
241 247 255
241 247 255
240 247 255
240 247 255
240 247 255
240 247 255
240 246 255
240 246 255
240 246 255
240 246 255
240 241 250
239 224 233
240 217 226
239 206 214
240 207 215
240 186 193
240 170 177
240 154 159
238 161 167
238 130 135
237 123 128
239 110 114
240 85 88
237 85 88
237 55 57
236 65 67
239 49 51
239 34 36
240 42 44
238 0 0
237 0 0
234 0 0
239 0 0
238 34 36
237 42 44
237 49 51
239 73 76
236 69 72
238 81 84
236 98 102
238 115 120
238 117 122
239 132 137
237 151 157
236 143 149
238 161 167
237 183 191
237 180 188
238 196 204
238 212 221
239 225 234
238 231 241
238 245 255
238 245 255
238 245 255
238 245 255
238 245 255
238 245 255
238 245 255
237 245 255
237 245 255
237 245 255
237 245 255
237 245 255
237 245 255
237 245 255
237 245 255
237 245 255
237 245 255
237 245 255
237 245 255
237 244 255
