P3
400 225
255
204 226 255
204 226 255
204 226 255
204 226 255
204 226 255
204 226 255
204 226 255
204 226 255
204 226 255
204 226 255
204 226 255
204 226 255
204 226 255
204 226 255
204 226 255
203 226 255
203 226 255
203 226 255
203 226 255
203 226 255
203 226 255
203 226 255
203 226 255
203 225 255
203 225 255
203 225 255
203 225 255
203 225 255
203 225 255
203 225 255
203 225 255
203 225 255
202 225 255
202 225 255
202 225 255
202 225 255
202 225 255
202 225 255
202 225 255
202 225 255
202 225 255
202 225 255
202 225 255
202 225 255
202 225 255
202 225 255
202 225 255
202 225 255
201 225 255
201 225 255
201 225 255
201 225 255
201 225 255
201 224 255
201 224 255
201 224 255
201 224 255
201 224 255
201 224 255
201 224 255
201 224 255
201 224 255
201 224 255
200 224 255
200 224 255
200 224 255
200 224 255
200 224 255
200 224 255
200 224 255
200 224 255
200 224 255
200 224 255
200 224 255
200 224 255
200 224 255
200 224 255
199 224 255
199 224 255
199 224 255
199 223 255
199 223 255
199 223 255
199 223 255
199 223 255
199 223 255
199 223 255
199 223 255
199 223 255
199 223 255
199 223 255
199 223 255
198 223 255
198 223 255
198 223 255
198 223 255
198 223 255
198 223 255
198 223 255
198 223 255
198 223 255
198 223 255
198 223 255
198 223 255
198 223 255
198 223 255
197 223 255
197 222 255
197 222 255
197 222 255
197 222 255
197 222 255
197 222 255
197 222 255
197 222 255
197 222 255
197 222 255
197 222 255
197 222 255
197 222 255
197 222 255
196 222 255
196 222 255
196 222 255
196 222 255
196 222 255
196 222 255
196 222 255
196 222 255
196 222 255
196 222 255
196 222 255
196 222 255
196 222 255
196 222 255
196 221 255
196 221 255
195 221 255
195 221 255
195 221 255
195 221 255
195 221 255
195 221 255
195 221 255
195 221 255
195 221 255
195 221 255
195 221 255
195 221 255
195 221 255
195 221 255
195 221 255
195 221 255
195 221 255
195 221 255
194 221 255
194 221 255
194 221 255
194 221 255
194 221 255
194 221 255
194 221 255
194 221 255
194 221 255
194 221 255
194 221 255
194 221 255
194 221 255
194 221 255
194 221 255
194 221 255
194 221 255
194 221 255
194 221 255
194 221 255
194 221 255
194 221 255
194 220 255
194 220 255
194 220 255
194 220 255
194 220 255
194 220 255
194 220 255
194 220 255
194 220 255
193 220 255
193 220 255
193 220 255
193 220 255
193 220 255
193 220 255
193 220 255
193 220 255
193 220 255
193 220 255
193 220 255
193 220 255
193 220 255
193 220 255
193 220 255
193 220 255
193 220 255
193 220 255
193 220 255
193 220 255
193 220 255
193 220 255
193 220 255
193 220 255
193 220 255
193 220 255
193 220 255
193 220 255
194 220 255
194 220 255
194 220 255
194 220 255
194 220 255
194 220 255
194 220 255
194 220 255
194 220 255
194 221 255
194 221 255
194 221 255
194 221 255
194 221 255
194 221 255
194 221 255
194 221 255
194 221 255
194 221 255
194 221 255
194 221 255
194 221 255
194 221 255
194 221 255
194 221 255
194 221 255
194 221 255
194 221 255
194 221 255
194 221 255
194 221 255
195 221 255
195 221 255
195 221 255
195 221 255
195 221 255
195 221 255
195 221 255
195 221 255
195 221 255
195 221 255
195 221 255
195 221 255
195 221 255
195 221 255
195 221 255
195 221 255
195 221 255
195 221 255
196 221 255
196 221 255
196 222 255
196 222 255
196 222 255
196 222 255
196 222 255
196 222 255
196 222 255
196 222 255
196 222 255
196 222 255
196 222 255
196 222 255
196 222 255
196 222 255
197 222 255
197 222 255
197 222 255
197 222 255
197 222 255
197 222 255
197 222 255
197 222 255
197 222 255
197 222 255
197 222 255
197 222 255
197 222 255
197 222 255
197 222 255
198 223 255
198 223 255
198 223 255
198 223 255
198 223 255
198 223 255
198 223 255
198 223 255
198 223 255
198 223 255
198 223 255
198 223 255
198 223 255
198 223 255
199 223 255
199 223 255
199 223 255
199 223 255
199 223 255
199 223 255
199 223 255
199 223 255
199 223 255
199 223 255
199 223 255
199 223 255
199 224 255
199 224 255
200 224 255
200 224 255
200 224 255
200 224 255
200 224 255
200 224 255
200 224 255
200 224 255
200 224 255
200 224 255
200 224 255
200 224 255
200 224 255
200 224 255
200 224 255
201 224 255
201 224 255
201 224 255
201 224 255
201 224 255
201 224 255
201 224 255
201 224 255
201 224 255
201 224 255
201 224 255
201 225 255
201 225 255
201 225 255
201 225 255
202 225 255
202 225 255
202 225 255
202 225 255
202 225 255
202 225 255
202 225 255
202 225 255
202 225 255
202 225 255
202 225 255
202 225 255
202 225 255
202 225 255
202 225 255
202 225 255
203 225 255
203 225 255
203 225 255
203 225 255
203 225 255
203 225 255
203 225 255
203 225 255
203 225 255
203 226 255
203 226 255
203 226 255
203 226 255
203 226 255
203 226 255
203 226 255
203 226 255
204 226 255
204 226 255
204 226 255
204 226 255
204 226 255
204 226 255
204 226 255
204 226 255
204 226 255
204 226 255
204 226 255
204 226 255
204 226 255
204 226 255
204 226 255
204 226 255
204 226 255
204 226 255
204 226 255
204 226 255
204 226 255
204 226 255
204 226 255
204 226 255
204 226 255
204 226 255
204 226 255
204 226 255
204 226 255
204 226 255
204 226 255
204 226 255
204 226 255
203 226 255
203 226 255
203 226 255
203 226 255
203 226 255
203 226 255
203 226 255
203 225 255
203 225 255
203 225 255
203 225 255
203 225 255
203 225 255
203 225 255
203 225 255
203 225 255
202 225 255
202 225 255
202 225 255
202 225 255
202 225 255
202 225 255
202 225 255
202 225 255
202 225 255
202 225 255
202 225 255
202 225 255
202 225 255
202 225 255
202 225 255
202 225 255
201 225 255
201 225 255
201 225 255
201 225 255
201 225 255
201 224 255
201 224 255
201 224 255
201 224 255
201 224 255
201 224 255
201 224 255
201 224 255
201 224 255
201 224 255
200 224 255
200 224 255
200 224 255
200 224 255
200 224 255
200 224 255
200 224 255
200 224 255
200 224 255
200 224 255
200 224 255
200 224 255
200 224 255
200 224 255
200 224 255
199 224 255
199 224 255
199 223 255
199 223 255
199 223 255
199 223 255
199 223 255
199 223 255
199 223 255
199 223 255
199 223 255
199 223 255
199 223 255
199 223 255
198 223 255
198 223 255
198 223 255
198 223 255
198 223 255
198 223 255
198 223 255
198 223 255
198 223 255
198 223 255
198 223 255
198 223 255
198 223 255
198 223 255
197 223 255
197 222 255
197 222 255
197 222 255
197 222 255
197 222 255
197 222 255
197 222 255
197 222 255
197 222 255
197 222 255
197 222 255
197 222 255
197 222 255
197 222 255
196 222 255
196 222 255
196 222 255
196 222 255
196 222 255
196 222 255
196 222 255
196 222 255
196 222 255
196 222 255
196 222 255
196 222 255
196 222 255
196 222 255
196 222 255
196 221 255
195 221 255
195 221 255
195 221 255
195 221 255
195 221 255
195 221 255
195 221 255
195 221 255
195 221 255
195 221 255
195 221 255
195 221 255
195 221 255
195 221 255
195 221 255
195 221 255
195 221 255
195 221 255
195 221 255
194 221 255
194 221 255
194 221 255
194 221 255
194 221 255
194 221 255
194 221 255
194 221 255
194 221 255
194 221 255
194 221 255
194 221 255
194 221 255
194 221 255
194 221 255
194 221 255
194 221 255
194 221 255
194 221 255
194 221 255
194 221 255
194 221 255
194 221 255
194 221 255
194 221 255
194 220 255
194 220 255
194 220 255
194 220 255
194 220 255
194 220 255
194 220 255
194 220 255
194 220 255
194 220 255
194 220 255
194 220 255
194 220 255
194 220 255
194 220 255
194 220 255
194 220 255
194 220 255
194 220 255
194 220 255
194 220 255
194 220 255
194 220 255
194 220 255
194 220 255
194 220 255
194 220 255
194 220 255
194 220 255
194 220 255
194 220 255
194 220 255
194 220 255
194 220 255
194 221 255
194 221 255
194 221 255
194 221 255
194 221 255
194 221 255
194 221 255
194 221 255
194 221 255
194 221 255
194 221 255
194 221 255
194 221 255
194 221 255
194 221 255
194 221 255
194 221 255
194 221 255
194 221 255
194 221 255
194 221 255
194 221 255
194 221 255
194 221 255
194 221 255
195 221 255
195 221 255
195 221 255
195 221 255
195 221 255
195 221 255
195 221 255
195 221 255
195 221 255
195 221 255
195 221 255
195 221 255
195 221 255
195 221 255
195 221 255
195 221 255
195 221 255
195 221 255
195 221 255
196 221 255
196 222 255
196 222 255
196 222 255
196 222 255
196 222 255
196 222 255
196 222 255
196 222 255
196 222 255
196 222 255
196 222 255
196 222 255
196 222 255
196 222 255
196 222 255
197 222 255
197 222 255
197 222 255
197 222 255
197 222 255
197 222 255
197 222 255
197 222 255
197 222 255
197 222 255
197 222 255
197 222 255
197 222 255
197 222 255
197 223 255
198 223 255
198 223 255
198 223 255
198 223 255
198 223 255
198 223 255
198 223 255
198 223 255
198 223 255
198 223 255
198 223 255
198 223 255
198 223 255
198 223 255
199 223 255
199 223 255
199 223 255
199 223 255
199 223 255
199 223 255
199 223 255
199 223 255
199 223 255
199 223 255
199 223 255
199 223 255
199 224 255
199 224 255
200 224 255
200 224 255
200 224 255
200 224 255
200 224 255
200 224 255
200 224 255
200 224 255
200 224 255
200 224 255
200 224 255
200 224 255
200 224 255
200 224 255
200 224 255
201 224 255
201 224 255
201 224 255
201 224 255
201 224 255
201 224 255
201 224 255
201 224 255
201 224 255
201 224 255
201 225 255
201 225 255
201 225 255
201 225 255
201 225 255
202 225 255
202 225 255
202 225 255
202 225 255
202 225 255
202 225 255
202 225 255
202 225 255
202 225 255
202 225 255
202 225 255
202 225 255
202 225 255
202 225 255
202 225 255
202 225 255
203 225 255
203 225 255
203 225 255
203 225 255
203 225 255
203 225 255
203 225 255
203 225 255
203 225 255
203 226 255
203 226 255
203 226 255
203 226 255
203 226 255
203 226 255
203 226 255
204 226 255
204 226 255
204 226 255
204 226 255
204 226 255
204 226 255
204 226 255
204 226 255
204 226 255
204 226 255
204 226 255
204 226 255
204 226 255
204 226 255
204 226 255
204 226 255
204 226 255
204 226 255
205 226 255
205 226 255
204 226 255
204 226 255
204 226 255
204 226 255
204 226 255
204 226 255
204 226 255
204 226 255
204 226 255
204 226 255
204 226 255
204 226 255
204 226 255
204 226 255
204 226 255
204 226 255
204 226 255
204 226 255
203 226 255
203 226 255
203 226 255
203 226 255
203 226 255
203 226 255
203 226 255
203 225 255
203 225 255
203 225 255
203 225 255
203 225 255
203 225 255
203 225 255
203 225 255
203 225 255
202 225 255
202 225 255
202 225 255
202 225 255
202 225 255
202 225 255
202 225 255
202 225 255
202 225 255
202 225 255
202 225 255
202 225 255
202 225 255
202 225 255
202 225 255
202 225 255
201 225 255
201 225 255
201 225 255
201 225 255
201 225 255
201 224 255
201 224 255
201 224 255
201 224 255
201 224 255
201 224 255
201 224 255
201 224 255
201 224 255
201 224 255
200 224 255
200 224 255
200 224 255
200 224 255
200 224 255
200 224 255
200 224 255
200 224 255
200 224 255
200 224 255
200 224 255
200 224 255
200 224 255
200 224 255
200 224 255
199 224 255
199 224 255
199 223 255
199 223 255
199 223 255
199 223 255
199 223 255
199 223 255
199 223 255
199 223 255
199 223 255
199 223 255
199 223 255
199 223 255
198 223 255
198 223 255
198 223 255
198 223 255
198 223 255
198 223 255
198 223 255
198 223 255
198 223 255
198 223 255
198 223 255
198 223 255
198 223 255
198 223 255
197 223 255
197 222 255
197 222 255
197 222 255
197 222 255
197 222 255
197 222 255
197 222 255
197 222 255
197 222 255
197 222 255
197 222 255
197 222 255
197 222 255
197 222 255
196 222 255
196 222 255
196 222 255
196 222 255
196 222 255
196 222 255
196 222 255
196 222 255
196 222 255
196 222 255
196 222 255
196 222 255
196 222 255
196 222 255
196 222 255
196 221 255
196 221 255
195 221 255
195 221 255
195 221 255
195 221 255
195 221 255
195 221 255
195 221 255
195 221 255
195 221 255
195 221 255
195 221 255
195 221 255
195 221 255
195 221 255
195 221 255
195 221 255
195 221 255
195 221 255
195 221 255
195 221 255
194 221 255
194 221 255
194 221 255
194 221 255
194 221 255
194 221 255
194 221 255
194 221 255
194 221 255
194 221 255
194 221 255
194 221 255
194 221 255
194 221 255
194 221 255
194 221 255
194 221 255
194 221 255
194 221 255
194 221 255
194 221 255
194 221 255
194 221 255
194 221 255
194 221 255
194 221 255
194 221 255
194 221 255
194 221 255
194 221 255
194 221 255
194 220 255
194 220 255
194 220 255
194 220 255
194 220 255
194 220 255
194 220 255
194 220 255
194 220 255
194 220 255
194 220 255
194 220 255
194 220 255
194 220 255
194 221 255
194 221 255
194 221 255
194 221 255
194 221 255
194 221 255
194 221 255
194 221 255
194 221 255
194 221 255
194 221 255
194 221 255
194 221 255
194 221 255
194 221 255
194 221 255
194 221 255
194 221 255
194 221 255
194 221 255
194 221 255
194 221 255
194 221 255
194 221 255
194 221 255
194 221 255
194 221 255
194 221 255
194 221 255
194 221 255
194 221 255
194 221 255
195 221 255
195 221 255
195 221 255
195 221 255
195 221 255
195 221 255
195 221 255
195 221 255
195 221 255
195 221 255
195 221 255
195 221 255
195 221 255
195 221 255
195 221 255
195 221 255
195 221 255
195 221 255
195 221 255
196 221 255
196 221 255
196 222 255
196 222 255
196 222 255
196 222 255
196 222 255
196 222 255
196 222 255
196 222 255
196 222 255
196 222 255
196 222 255
196 222 255
196 222 255
196 222 255
196 222 255
197 222 255
197 222 255
197 222 255
197 222 255
197 222 255
197 222 255
197 222 255
197 222 255
197 222 255
197 222 255
197 222 255
197 222 255
197 222 255
197 222 255
197 223 255
198 223 255
198 223 255
198 223 255
198 223 255
198 223 255
198 223 255
198 223 255
198 223 255
198 223 255
198 223 255
198 223 255
198 223 255
198 223 255
198 223 255
199 223 255
199 223 255
199 223 255
199 223 255
199 223 255
199 223 255
199 223 255
199 223 255
199 223 255
199 223 255
199 223 255
199 223 255
199 224 255
199 224 255
200 224 255
200 224 255
200 224 255
200 224 255
200 224 255
200 224 255
200 224 255
200 224 255
200 224 255
200 224 255
200 224 255
200 224 255
200 224 255
200 224 255
200 224 255
201 224 255
201 224 255
201 224 255
201 224 255
201 224 255
201 224 255
201 224 255
201 224 255
201 224 255
201 224 255
201 225 255
201 225 255
201 225 255
201 225 255
201 225 255
202 225 255
202 225 255
202 225 255
202 225 255
202 225 255
202 225 255
202 225 255
202 225 255
202 225 255
202 225 255
202 225 255
202 225 255
202 225 255
202 225 255
202 225 255
202 225 255
203 225 255
203 225 255
203 225 255
203 225 255
203 225 255
203 225 255
203 225 255
203 225 255
203 225 255
203 226 255
203 226 255
203 226 255
203 226 255
203 226 255
203 226 255
203 226 255
204 226 255
204 226 255
204 226 255
204 226 255
204 226 255
204 226 255
204 226 255
204 226 255
204 226 255
204 226 255
204 226 255
204 226 255
204 226 255
204 226 255
204 226 255
204 226 255
204 226 255
204 226 255
205 226 255
205 226 255
205 226 255
205 226 255
205 226 255
205 226 255
204 226 255
204 226 255
204 226 255
204 226 255
204 226 255
204 226 255
204 226 255
204 226 255
204 226 255
204 226 255
204 226 255
204 226 255
204 226 255
204 226 255
204 226 255
204 226 255
204 226 255
204 226 255
203 226 255
203 226 255
203 226 255
203 226 255
203 226 255
203 226 255
203 226 255
203 226 255
203 225 255
203 225 255
203 225 255
203 225 255
203 225 255
203 225 255
203 225 255
203 225 255
203 225 255
202 225 255
202 225 255
202 225 255
202 225 255
202 225 255
202 225 255
202 225 255
202 225 255
202 225 255
202 225 255
202 225 255
202 225 255
202 225 255
202 225 255
202 225 255
201 225 255
201 225 255
201 225 255
201 225 255
201 225 255
201 224 255
201 224 255
201 224 255
201 224 255
201 224 255
201 224 255
201 224 255
201 224 255
201 224 255
201 224 255
200 224 255
200 224 255
200 224 255
200 224 255
200 224 255
200 224 255
200 224 255
200 224 255
200 224 255
200 224 255
200 224 255
200 224 255
200 224 255
200 224 255
200 224 255
199 224 255
199 224 255
199 223 255
199 223 255
199 223 255
199 223 255
199 223 255
199 223 255
199 223 255
199 223 255
199 223 255
199 223 255
199 223 255
199 223 255
198 223 255
198 223 255
198 223 255
198 223 255
198 223 255
198 223 255
198 223 255
198 223 255
198 223 255
198 223 255
198 223 255
198 223 255
198 223 255
198 223 255
197 223 255
197 222 255
197 222 255
197 222 255
197 222 255
197 222 255
197 222 255
197 222 255
197 222 255
197 222 255
197 222 255
197 222 255
197 222 255
197 222 255
197 222 255
196 222 255
196 222 255
196 222 255
196 222 255
196 222 255
196 222 255
196 222 255
196 222 255
196 222 255
196 222 255
196 222 255
196 222 255
196 222 255
196 222 255
196 222 255
196 222 255
196 221 255
195 221 255
195 221 255
195 221 255
195 221 255
195 221 255
195 221 255
195 221 255
195 221 255
195 221 255
195 221 255
195 221 255
195 221 255
195 221 255
195 221 255
195 221 255
195 221 255
195 221 255
195 221 255
195 221 255
195 221 255
195 221 255
194 221 255
194 221 255
194 221 255
194 221 255
194 221 255
194 221 255
194 221 255
194 221 255
194 221 255
194 221 255
194 221 255
194 221 255
194 221 255
194 221 255
194 221 255
194 221 255
194 221 255
194 221 255
194 221 255
194 221 255
194 221 255
194 221 255
194 221 255
194 221 255
194 221 255
194 221 255
194 221 255
194 221 255
194 221 255
194 221 255
194 221 255
194 221 255
194 221 255
194 221 255
194 221 255
194 221 255
194 221 255
194 221 255
194 221 255
194 221 255
194 221 255
194 221 255
194 221 255
194 221 255
194 221 255
194 221 255
194 221 255
194 221 255
194 221 255
194 221 255
194 221 255
194 221 255
194 221 255
194 221 255
194 221 255
194 221 255
194 221 255
194 221 255
194 221 255
194 221 255
194 221 255
194 221 255
194 221 255
194 221 255
194 221 255
194 221 255
194 221 255
194 221 255
194 221 255
194 221 255
195 221 255
195 221 255
195 221 255
195 221 255
195 221 255
195 221 255
195 221 255
195 221 255
195 221 255
195 221 255
195 221 255
195 221 255
195 221 255
195 221 255
195 221 255
195 221 255
195 221 255
195 221 255
195 221 255
195 221 255
195 221 255
196 221 255
196 222 255
196 222 255
196 222 255
196 222 255
196 222 255
196 222 255
196 222 255
196 222 255
196 222 255
196 222 255
196 222 255
196 222 255
196 222 255
196 222 255
196 222 255
196 222 255
197 222 255
197 222 255
197 222 255
197 222 255
197 222 255
197 222 255
197 222 255
197 222 255
197 222 255
197 222 255
197 222 255
197 222 255
197 222 255
197 222 255
197 223 255
198 223 255
198 223 255
198 223 255
198 223 255
198 223 255
198 223 255
198 223 255
198 223 255
198 223 255
198 223 255
198 223 255
198 223 255
198 223 255
198 223 255
199 223 255
199 223 255
199 223 255
199 223 255
199 223 255
199 223 255
199 223 255
199 223 255
199 223 255
199 223 255
199 223 255
199 223 255
199 224 255
199 224 255
200 224 255
200 224 255
200 224 255
200 224 255
200 224 255
200 224 255
200 224 255
200 224 255
200 224 255
200 224 255
200 224 255
200 224 255
200 224 255
200 224 255
200 224 255
201 224 255
201 224 255
201 224 255
201 224 255
201 224 255
201 224 255
201 224 255
201 224 255
201 224 255
201 224 255
201 225 255
201 225 255
201 225 255
201 225 255
201 225 255
202 225 255
202 225 255
202 225 255
202 225 255
202 225 255
202 225 255
202 225 255
202 225 255
202 225 255
202 225 255
202 225 255
202 225 255
202 225 255
202 225 255
202 225 255
203 225 255
203 225 255
203 225 255
203 225 255
203 225 255
203 225 255
203 225 255
203 225 255
203 225 255
203 226 255
203 226 255
203 226 255
203 226 255
203 226 255
203 226 255
203 226 255
203 226 255
204 226 255
204 226 255
204 226 255
204 226 255
204 226 255
204 226 255
204 226 255
204 226 255
204 226 255
204 226 255
204 226 255
204 226 255
204 226 255
204 226 255
204 226 255
204 226 255
204 226 255
204 226 255
205 226 255
205 226 255
205 226 255
205 226 255
205 226 255
205 226 255
205 226 255
205 226 255
205 226 255
205 226 255
205 226 255
204 226 255
204 226 255
204 226 255
204 226 255
204 226 255
204 226 255
204 226 255
204 226 255
204 226 255
204 226 255
204 226 255
204 226 255
204 226 255
204 226 255
204 226 255
204 226 255
204 226 255
203 226 255
203 226 255
203 226 255
203 226 255
203 226 255
203 226 255
203 226 255
203 226 255
203 225 255
203 225 255
203 225 255
203 225 255
203 225 255
203 225 255
203 225 255
203 225 255
203 225 255
202 225 255
202 225 255
202 225 255
202 225 255
202 225 255
202 225 255
202 225 255
202 225 255
202 225 255
202 225 255
202 225 255
202 225 255
202 225 255
202 225 255
202 225 255
201 225 255
201 225 255
201 225 255
201 225 255
201 225 255
201 224 255
201 224 255
201 224 255
201 224 255
201 224 255
201 224 255
201 224 255
201 224 255
201 224 255
201 224 255
200 224 255
200 224 255
200 224 255
200 224 255
200 224 255
200 224 255
200 224 255
200 224 255
200 224 255
200 224 255
200 224 255
200 224 255
200 224 255
200 224 255
200 224 255
199 224 255
199 224 255
199 223 255
199 223 255
199 223 255
199 223 255
199 223 255
199 223 255
199 223 255
199 223 255
199 223 255
199 223 255
199 223 255
199 223 255
198 223 255
198 223 255
198 223 255
198 223 255
198 223 255
198 223 255
198 223 255
198 223 255
198 223 255
198 223 255
198 223 255
198 223 255
198 223 255
198 223 255
197 223 255
197 222 255
197 222 255
197 222 255
197 222 255
197 222 255
197 222 255
197 222 255
197 222 255
197 222 255
197 222 255
197 222 255
197 222 255
197 222 255
197 222 255
197 222 255
196 222 255
196 222 255
196 222 255
196 222 255
196 222 255
196 222 255
196 222 255
196 222 255
196 222 255
196 222 255
196 222 255
196 222 255
196 222 255
196 222 255
196 222 255
196 221 255
196 221 255
195 221 255
195 221 255
195 221 255
195 221 255
195 221 255
195 221 255
195 221 255
195 221 255
195 221 255
195 221 255
195 221 255
195 221 255
195 221 255
195 221 255
195 221 255
195 221 255
195 221 255
195 221 255
195 221 255
195 221 255
195 221 255
195 221 255
194 221 255
194 221 255
194 221 255
194 221 255
194 221 255
194 221 255
194 221 255
194 221 255
194 221 255
194 221 255
194 221 255
194 221 255
194 221 255
194 221 255
194 221 255
194 221 255
194 221 255
194 221 255
194 221 255
194 221 255
194 221 255
194 221 255
194 221 255
194 221 255
194 221 255
194 221 255
194 221 255
194 221 255
194 221 255
194 221 255
194 221 255
194 221 255
194 221 255
194 221 255
194 221 255
194 221 255
194 221 255
194 221 255
194 221 255
194 221 255
194 221 255
194 221 255
194 221 255
194 221 255
194 221 255
194 221 255
194 221 255
194 221 255
194 221 255
194 221 255
194 221 255
194 221 255
194 221 255
194 221 255
194 221 255
194 221 255
194 221 255
194 221 255
194 221 255
194 221 255
194 221 255
194 221 255
195 221 255
195 221 255
195 221 255
195 221 255
195 221 255
195 221 255
195 221 255
195 221 255
195 221 255
195 221 255
195 221 255
195 221 255
195 221 255
195 221 255
195 221 255
195 221 255
195 221 255
195 221 255
195 221 255
195 221 255
195 221 255
195 221 255
196 221 255
196 221 255
196 222 255
196 222 255
196 222 255
196 222 255
196 222 255
196 222 255
196 222 255
196 222 255
196 222 255
196 222 255
196 222 255
196 222 255
196 222 255
196 222 255
196 222 255
197 222 255
197 222 255
197 222 255
197 222 255
197 222 255
197 222 255
197 222 255
197 222 255
197 222 255
197 222 255
197 222 255
197 222 255
197 222 255
197 222 255
197 222 255
197 223 255
198 223 255
198 223 255
198 223 255
198 223 255
198 223 255
198 223 255
198 223 255
198 223 255
198 223 255
198 223 255
198 223 255
198 223 255
198 223 255
198 223 255
199 223 255
199 223 255
199 223 255
199 223 255
199 223 255
199 223 255
199 223 255
199 223 255
199 223 255
199 223 255
199 223 255
199 223 255
199 224 255
199 224 255
200 224 255
200 224 255
200 224 255
200 224 255
200 224 255
200 224 255
200 224 255
200 224 255
200 224 255
200 224 255
200 224 255
200 224 255
200 224 255
200 224 255
200 224 255
201 224 255
201 224 255
201 224 255
201 224 255
201 224 255
201 224 255
201 224 255
201 224 255
201 224 255
201 224 255
201 225 255
201 225 255
201 225 255
201 225 255
202 225 255
202 225 255
202 225 255
202 225 255
202 225 255
202 225 255
202 225 255
202 225 255
202 225 255
202 225 255
202 225 255
202 225 255
202 225 255
202 225 255
202 225 255
202 225 255
203 225 255
203 225 255
203 225 255
203 225 255
203 225 255
203 225 255
203 225 255
203 225 255
203 225 255
203 226 255
203 226 255
203 226 255
203 226 255
203 226 255
203 226 255
203 226 255
204 226 255
204 226 255
204 226 255
204 226 255
204 226 255
204 226 255
204 226 255
204 226 255
204 226 255
204 226 255
204 226 255
204 226 255
204 226 255
204 226 255
204 226 255
204 226 255
204 226 255
204 226 255
205 226 255
205 226 255
205 226 255
205 226 255
205 226 255
205 226 255
205 226 255
205 227 255
205 227 255
205 226 255
205 226 255
205 226 255
205 226 255
205 226 255
205 226 255
205 226 255
204 226 255
204 226 255
204 226 255
204 226 255
204 226 255
204 226 255
204 226 255
204 226 255
204 226 255
204 226 255
204 226 255
204 226 255
204 226 255
204 226 255
204 226 255
204 226 255
204 226 255
204 226 255
203 226 255
203 226 255
203 226 255
203 226 255
203 226 255
203 226 255
203 226 255
203 225 255
203 225 255
203 225 255
203 225 255
203 225 255
203 225 255
203 225 255
203 225 255
203 225 255
202 225 255
202 225 255
202 225 255
202 225 255
202 225 255
202 225 255
202 225 255
202 225 255
202 225 255
202 225 255
202 225 255
202 225 255
202 225 255
202 225 255
202 225 255
202 225 255
201 225 255
201 225 255
201 225 255
201 225 255
201 224 255
201 224 255
201 224 255
201 224 255
201 224 255
201 224 255
201 224 255
201 224 255
201 224 255
201 224 255
200 224 255
200 224 255
200 224 255
200 224 255
200 224 255
200 224 255
200 224 255
200 224 255
200 224 255
200 224 255
200 224 255
200 224 255
200 224 255
200 224 255
200 224 255
199 224 255
199 224 255
199 223 255
199 223 255
199 223 255
199 223 255
199 223 255
199 223 255
199 223 255
199 223 255
199 223 255
199 223 255
199 223 255
199 223 255
198 223 255
198 223 255
198 223 255
198 223 255
198 223 255
198 223 255
198 223 255
198 223 255
198 223 255
198 223 255
198 223 255
198 223 255
198 223 255
198 223 255
198 223 255
197 222 255
197 222 255
197 222 255
197 222 255
197 222 255
197 222 255
197 222 255
197 222 255
197 222 255
197 222 255
197 222 255
197 222 255
197 222 255
197 222 255
197 222 255
196 222 255
196 222 255
196 222 255
196 222 255
196 222 255
196 222 255
196 222 255
196 222 255
196 222 255
196 222 255
196 222 255
196 222 255
196 222 255
196 222 255
196 222 255
196 222 255
196 221 255
195 221 255
195 221 255
195 221 255
195 221 255
195 221 255
195 221 255
195 221 255
195 221 255
195 221 255
195 221 255
195 221 255
195 221 255
195 221 255
195 221 255
195 221 255
195 221 255
195 221 255
195 221 255
195 221 255
195 221 255
195 221 255
195 221 255
195 221 255
195 221 255
194 221 255
194 221 255
194 221 255
194 221 255
194 221 255
194 221 255
194 221 255
194 221 255
194 221 255
194 221 255
194 221 255
194 221 255
194 221 255
194 221 255
194 221 255
194 221 255
194 221 255
194 221 255
194 221 255
194 221 255
194 221 255
194 221 255
194 221 255
194 221 255
194 221 255
194 221 255
194 221 255
194 221 255
194 221 255
194 221 255
194 221 255
194 221 255
194 221 255
194 221 255
194 221 255
194 221 255
194 221 255
194 221 255
194 221 255
194 221 255
194 221 255
194 221 255
194 221 255
194 221 255
194 221 255
194 221 255
194 221 255
194 221 255
194 221 255
194 221 255
194 221 255
194 221 255
194 221 255
194 221 255
195 221 255
195 221 255
195 221 255
195 221 255
195 221 255
195 221 255
195 221 255
195 221 255
195 221 255
195 221 255
195 221 255
195 221 255
195 221 255
195 221 255
195 221 255
195 221 255
195 221 255
195 221 255
195 221 255
195 221 255
195 221 255
195 221 255
195 221 255
195 221 255
196 221 255
196 222 255
196 222 255
196 222 255
196 222 255
196 222 255
196 222 255
196 222 255
196 222 255
196 222 255
196 222 255
196 222 255
196 222 255
196 222 255
196 222 255
196 222 255
196 222 255
197 222 255
197 222 255
197 222 255
197 222 255
197 222 255
197 222 255
197 222 255
197 222 255
197 222 255
197 222 255
197 222 255
197 222 255
197 222 255
197 222 255
197 222 255
198 223 255
198 223 255
198 223 255
198 223 255
198 223 255
198 223 255
198 223 255
198 223 255
198 223 255
198 223 255
198 223 255
198 223 255
198 223 255
198 223 255
198 223 255
199 223 255
199 223 255
199 223 255
199 223 255
199 223 255
199 223 255
199 223 255
199 223 255
199 223 255
199 223 255
199 223 255
199 223 255
199 224 255
199 224 255
200 224 255
200 224 255
200 224 255
200 224 255
200 224 255
200 224 255
200 224 255
200 224 255
200 224 255
200 224 255
200 224 255
200 224 255
200 224 255
200 224 255
200 224 255
201 224 255
201 224 255
201 224 255
201 224 255
201 224 255
201 224 255
201 224 255
201 224 255
201 224 255
201 224 255
201 225 255
201 225 255
201 225 255
201 225 255
202 225 255
202 225 255
202 225 255
202 225 255
202 225 255
202 225 255
202 225 255
202 225 255
202 225 255
202 225 255
202 225 255
202 225 255
202 225 255
202 225 255
202 225 255
202 225 255
203 225 255
203 225 255
203 225 255
203 225 255
203 225 255
203 225 255
203 225 255
203 225 255
203 225 255
203 226 255
203 226 255
203 226 255
203 226 255
203 226 255
203 226 255
203 226 255
204 226 255
204 226 255
204 226 255
204 226 255
204 226 255
204 226 255
204 226 255
204 226 255
204 226 255
204 226 255
204 226 255
204 226 255
204 226 255
204 226 255
204 226 255
204 226 255
204 226 255
204 226 255
205 226 255
205 226 255
205 226 255
205 226 255
205 226 255
205 226 255
205 226 255
205 227 255
205 227 255
205 227 255
205 227 255
205 227 255
205 227 255
205 226 255
205 226 255
205 226 255
205 226 255
205 226 255
205 226 255
205 226 255
204 226 255
204 226 255
204 226 255
204 226 255
204 226 255
204 226 255
204 226 255
204 226 255
204 226 255
204 226 255
204 226 255
204 226 255
204 226 255
204 226 255
204 226 255
204 226 255
204 226 255
204 226 255
203 226 255
203 226 255
203 226 255
203 226 255
203 226 255
203 226 255
203 226 255
203 225 255
203 225 255
203 225 255
203 225 255
203 225 255
203 225 255
203 225 255
203 225 255
203 225 255
202 225 255
202 225 255
202 225 255
202 225 255
202 225 255
202 225 255
202 225 255
202 225 255
202 225 255
202 225 255
202 225 255
202 225 255
202 225 255
202 225 255
202 225 255
202 225 255
201 225 255
201 225 255
201 225 255
201 225 255
201 224 255
201 224 255
201 224 255
201 224 255
201 224 255
201 224 255
201 224 255
201 224 255
201 224 255
201 224 255
200 224 255
200 224 255
200 224 255
200 224 255
200 224 255
200 224 255
200 224 255
200 224 255
200 224 255
200 224 255
200 224 255
200 224 255
200 224 255
200 224 255
200 224 255
199 224 255
199 224 255
199 223 255
199 223 255
199 223 255
199 223 255
199 223 255
199 223 255
199 223 255
199 223 255
199 223 255
199 223 255
199 223 255
199 223 255
198 223 255
198 223 255
198 223 255
198 223 255
198 223 255
198 223 255
198 223 255
198 223 255
198 223 255
198 223 255
198 223 255
198 223 255
198 223 255
198 223 255
198 223 255
197 222 255
197 222 255
197 222 255
197 222 255
197 222 255
197 222 255
197 222 255
197 222 255
197 222 255
197 222 255
197 222 255
197 222 255
197 222 255
197 222 255
197 222 255
196 222 255
196 222 255
196 222 255
196 222 255
196 222 255
196 222 255
196 222 255
196 222 255
196 222 255
196 222 255
196 222 255
196 222 255
196 222 255
196 222 255
196 222 255
196 222 255
196 222 255
196 221 255
195 221 255
195 221 255
195 221 255
195 221 255
195 221 255
195 221 255
195 221 255
195 221 255
195 221 255
195 221 255
195 221 255
195 221 255
195 221 255
195 221 255
195 221 255
195 221 255
195 221 255
195 221 255
195 221 255
195 221 255
195 221 255
195 221 255
195 221 255
195 221 255
195 221 255
195 221 255
194 221 255
194 221 255
194 221 255
194 221 255
194 221 255
194 221 255
194 221 255
194 221 255
194 221 255
194 221 255
194 221 255
194 221 255
194 221 255
194 221 255
194 221 255
194 221 255
194 221 255
194 221 255
194 221 255
194 221 255
194 221 255
194 221 255
194 221 255
194 221 255
194 221 255
194 221 255
194 221 255
194 221 255
194 221 255
194 221 255
194 221 255
194 221 255
194 221 255
194 221 255
194 221 255
194 221 255
194 221 255
194 221 255
194 221 255
194 221 255
194 221 255
194 221 255
194 221 255
194 221 255
195 221 255
195 221 255
195 221 255
195 221 255
195 221 255
195 221 255
195 221 255
195 221 255
195 221 255
195 221 255
195 221 255
195 221 255
195 221 255
195 221 255
195 221 255
195 221 255
195 221 255
195 221 255
195 221 255
195 221 255
195 221 255
195 221 255
195 221 255
195 221 255
195 221 255
195 221 255
196 221 255
196 222 255
196 222 255
196 222 255
196 222 255
196 222 255
196 222 255
196 222 255
196 222 255
196 222 255
196 222 255
196 222 255
196 222 255
196 222 255
196 222 255
196 222 255
196 222 255
196 222 255
197 222 255
197 222 255
197 222 255
197 222 255
197 222 255
197 222 255
197 222 255
197 222 255
197 222 255
197 222 255
197 222 255
197 222 255
197 222 255
197 222 255
197 222 255
198 223 255
198 223 255
198 223 255
198 223 255
198 223 255
198 223 255
198 223 255
198 223 255
198 223 255
198 223 255
198 223 255
198 223 255
198 223 255
198 223 255
198 223 255
199 223 255
199 223 255
199 223 255
199 223 255
199 223 255
199 223 255
199 223 255
199 223 255
199 223 255
199 223 255
199 223 255
199 223 255
199 224 255
199 224 255
200 224 255
200 224 255
200 224 255
200 224 255
200 224 255
200 224 255
200 224 255
200 224 255
200 224 255
200 224 255
200 224 255
200 224 255
200 224 255
200 224 255
201 224 255
201 224 255
201 224 255
201 224 255
201 224 255
201 224 255
201 224 255
201 224 255
201 224 255
201 224 255
201 224 255
201 225 255
201 225 255
201 225 255
201 225 255
202 225 255
202 225 255
202 225 255
202 225 255
202 225 255
202 225 255
202 225 255
202 225 255
202 225 255
202 225 255
202 225 255
202 225 255
202 225 255
202 225 255
202 225 255
202 225 255
203 225 255
203 225 255
203 225 255
203 225 255
203 225 255
203 225 255
203 225 255
203 225 255
203 225 255
203 226 255
203 226 255
203 226 255
203 226 255
203 226 255
203 226 255
203 226 255
204 226 255
204 226 255
204 226 255
204 226 255
204 226 255
204 226 255
204 226 255
204 226 255
204 226 255
204 226 255
204 226 255
204 226 255
204 226 255
204 226 255
204 226 255
204 226 255
204 226 255
205 226 255
205 226 255
205 226 255
205 226 255
205 226 255
205 226 255
205 226 255
205 226 255
205 227 255
205 227 255
205 227 255
205 227 255
205 227 255
205 227 255
205 227 255
205 227 255
205 227 255
205 227 255
205 227 255
205 226 255
205 226 255
205 226 255
205 226 255
205 226 255
205 226 255
205 226 255
204 226 255
204 226 255
204 226 255
204 226 255
204 226 255
204 226 255
204 226 255
204 226 255
204 226 255
204 226 255
204 226 255
204 226 255
204 226 255
204 226 255
204 226 255
204 226 255
204 226 255
203 226 255
203 226 255
203 226 255
203 226 255
203 226 255
203 226 255
203 226 255
203 226 255
203 225 255
203 225 255
203 225 255
203 225 255
203 225 255
203 225 255
203 225 255
203 225 255
203 225 255
202 225 255
202 225 255
202 225 255
202 225 255
202 225 255
202 225 255
202 225 255
202 225 255
202 225 255
202 225 255
202 225 255
202 225 255
202 225 255
202 225 255
202 225 255
201 225 255
201 225 255
201 225 255
201 225 255
201 224 255
201 224 255
201 224 255
201 224 255
201 224 255
201 224 255
201 224 255
201 224 255
201 224 255
201 224 255
201 224 255
200 224 255
200 224 255
200 224 255
200 224 255
200 224 255
200 224 255
200 224 255
200 224 255
200 224 255
200 224 255
200 224 255
200 224 255
200 224 255
200 224 255
199 224 255
199 224 255
199 223 255
199 223 255
199 223 255
199 223 255
199 223 255
199 223 255
199 223 255
199 223 255
199 223 255
199 223 255
199 223 255
199 223 255
198 223 255
198 223 255
198 223 255
198 223 255
198 223 255
198 223 255
198 223 255
198 223 255
198 223 255
198 223 255
198 223 255
198 223 255
198 223 255
198 223 255
198 223 255
197 223 255
197 222 255
197 222 255
197 222 255
197 222 255
197 222 255
197 222 255
197 222 255
197 222 255
197 222 255
197 222 255
197 222 255
197 222 255
197 222 255
197 222 255
197 222 255
196 222 255
196 222 255
196 222 255
196 222 255
196 222 255
196 222 255
196 222 255
196 222 255
196 222 255
196 222 255
196 222 255
196 222 255
196 222 255
196 222 255
196 222 255
196 222 255
196 222 255
196 221 255
195 221 255
195 221 255
195 221 255
195 221 255
195 221 255
195 221 255
195 221 255
195 221 255
195 221 255
195 221 255
195 221 255
195 221 255
195 221 255
195 221 255
195 221 255
195 221 255
195 221 255
195 221 255
195 221 255
195 221 255
195 221 255
195 221 255
195 221 255
195 221 255
195 221 255
195 221 255
195 221 255
195 221 255
195 221 255
195 221 255
194 221 255
194 221 255
194 221 255
194 221 255
194 221 255
194 221 255
194 221 255
194 221 255
194 221 255
194 221 255
194 221 255
194 221 255
194 221 255
194 221 255
194 221 255
194 221 255
194 221 255
194 221 255
194 221 255
194 221 255
194 221 255
194 221 255
194 221 255
194 221 255
194 221 255
194 221 255
194 221 255
194 221 255
194 221 255
194 221 255
195 221 255
195 221 255
195 221 255
195 221 255
195 221 255
195 221 255
195 221 255
195 221 255
195 221 255
195 221 255
195 221 255
195 221 255
195 221 255
195 221 255
195 221 255
195 221 255
195 221 255
195 221 255
195 221 255
195 221 255
195 221 255
195 221 255
195 221 255
195 221 255
195 221 255
195 221 255
195 221 255
195 221 255
195 221 255
195 221 255
196 221 255
196 222 255
196 222 255
196 222 255
196 222 255
196 222 255
196 222 255
196 222 255
196 222 255
196 222 255
196 222 255
196 222 255
196 222 255
196 222 255
196 222 255
196 222 255
196 222 255
196 222 255
197 222 255
197 222 255
197 222 255
197 222 255
197 222 255
197 222 255
197 222 255
197 222 255
197 222 255
197 222 255
197 222 255
197 222 255
197 222 255
197 222 255
197 222 255
197 222 255
198 223 255
198 223 255
198 223 255
198 223 255
198 223 255
198 223 255
198 223 255
198 223 255
198 223 255
198 223 255
198 223 255
198 223 255
198 223 255
198 223 255
198 223 255
199 223 255
199 223 255
199 223 255
199 223 255
199 223 255
199 223 255
199 223 255
199 223 255
199 223 255
199 223 255
199 223 255
199 223 255
199 224 255
199 224 255
200 224 255
200 224 255
200 224 255
200 224 255
200 224 255
200 224 255
200 224 255
200 224 255
200 224 255
200 224 255
200 224 255
200 224 255
200 224 255
200 224 255
201 224 255
201 224 255
201 224 255
201 224 255
201 224 255
201 224 255
201 224 255
201 224 255
201 224 255
201 224 255
201 224 255
201 225 255
201 225 255
201 225 255
201 225 255
202 225 255
202 225 255
202 225 255
202 225 255
202 225 255
202 225 255
202 225 255
202 225 255
202 225 255
202 225 255
202 225 255
202 225 255
202 225 255
202 225 255
202 225 255
203 225 255
203 225 255
203 225 255
203 225 255
203 225 255
203 225 255
203 225 255
203 225 255
203 225 255
203 226 255
203 226 255
203 226 255
203 226 255
203 226 255
203 226 255
203 226 255
204 226 255
204 226 255
204 226 255
204 226 255
204 226 255
204 226 255
204 226 255
204 226 255
204 226 255
204 226 255
204 226 255
204 226 255
204 226 255
204 226 255
204 226 255
204 226 255
204 226 255
204 226 255
205 226 255
205 226 255
205 226 255
205 226 255
205 226 255
205 226 255
205 226 255
205 227 255
205 227 255
205 227 255
205 227 255
205 227 255
205 227 255
205 227 255
205 227 255
205 227 255
205 227 255
205 227 255
205 227 255
205 227 255
205 227 255
205 227 255
205 227 255
205 226 255
205 226 255
205 226 255
205 226 255
205 226 255
205 226 255
205 226 255
205 226 255
204 226 255
204 226 255
204 226 255
204 226 255
204 226 255
204 226 255
204 226 255
204 226 255
204 226 255
204 226 255
204 226 255
204 226 255
204 226 255
204 226 255
204 226 255
204 226 255
204 226 255
203 226 255
203 226 255
203 226 255
203 226 255
203 226 255
203 226 255
203 226 255
203 225 255
203 225 255
203 225 255
203 225 255
203 225 255
203 225 255
203 225 255
203 225 255
203 225 255
202 225 255
202 225 255
202 225 255
202 225 255
202 225 255
202 225 255
202 225 255
202 225 255
202 225 255
202 225 255
202 225 255
202 225 255
202 225 255
202 225 255
202 225 255
201 225 255
201 225 255
201 225 255
201 225 255
201 225 255
201 224 255
201 224 255
201 224 255
201 224 255
201 224 255
201 224 255
201 224 255
201 224 255
201 224 255
201 224 255
200 224 255
200 224 255
200 224 255
200 224 255
200 224 255
200 224 255
200 224 255
200 224 255
200 224 255
200 224 255
200 224 255
200 224 255
200 224 255
200 224 255
199 224 255
199 224 255
199 223 255
199 223 255
199 223 255
199 223 255
199 223 255
199 223 255
199 223 255
199 223 255
199 223 255
199 223 255
199 223 255
199 223 255
199 223 255
198 223 255
198 223 255
198 223 255
198 223 255
198 223 255
198 223 255
198 223 255
198 223 255
198 223 255
198 223 255
198 223 255
198 223 255
198 223 255
198 223 255
197 223 255
197 222 255
197 222 255
197 222 255
197 222 255
197 222 255
197 222 255
197 222 255
197 222 255
197 222 255
197 222 255
197 222 255
197 222 255
197 222 255
197 222 255
197 222 255
196 222 255
196 222 255
196 222 255
196 222 255
196 222 255
196 222 255
196 222 255
196 222 255
196 222 255
196 222 255
196 222 255
196 222 255
196 222 255
196 222 255
196 222 255
196 222 255
196 222 255
196 222 255
196 221 255
196 221 255
195 221 255
195 221 255
195 221 255
195 221 255
195 221 255
195 221 255
195 221 255
195 221 255
195 221 255
195 221 255
195 221 255
195 221 255
195 221 255
195 221 255
195 221 255
195 221 255
195 221 255
195 221 255
195 221 255
195 221 255
195 221 255
195 221 255
195 221 255
195 221 255
195 221 255
195 221 255
195 221 255
195 221 255
195 221 255
195 221 255
195 221 255
195 221 255
195 221 255
195 221 255
195 221 255
195 221 255
195 221 255
195 221 255
195 221 255
195 221 255
195 221 255
195 221 255
195 221 255
195 221 255
195 221 255
195 221 255
195 221 255
195 221 255
195 221 255
195 221 255
195 221 255
195 221 255
195 221 255
195 221 255
195 221 255
195 221 255
195 221 255
195 221 255
195 221 255
195 221 255
195 221 255
195 221 255
195 221 255
195 221 255
195 221 255
195 221 255
195 221 255
195 221 255
195 221 255
195 221 255
195 221 255
195 221 255
195 221 255
195 221 255
195 221 255
195 221 255
195 221 255
195 221 255
195 221 255
195 221 255
195 221 255
195 221 255
196 221 255
196 221 255
196 222 255
196 222 255
196 222 255
196 222 255
196 222 255
196 222 255
196 222 255
196 222 255
196 222 255
196 222 255
196 222 255
196 222 255
196 222 255
196 222 255
196 222 255
196 222 255
196 222 255
196 222 255
197 222 255
197 222 255
197 222 255
197 222 255
197 222 255
197 222 255
197 222 255
197 222 255
197 222 255
197 222 255
197 222 255
197 222 255
197 222 255
197 222 255
197 222 255
197 223 255
198 223 255
198 223 255
198 223 255
198 223 255
198 223 255
198 223 255
198 223 255
198 223 255
198 223 255
198 223 255
198 223 255
198 223 255
198 223 255
198 223 255
199 223 255
199 223 255
199 223 255
199 223 255
199 223 255
199 223 255
199 223 255
199 223 255
199 223 255
199 223 255
199 223 255
199 223 255
199 224 255
199 224 255
199 224 255
200 224 255
200 224 255
200 224 255
200 224 255
200 224 255
200 224 255
200 224 255
200 224 255
200 224 255
200 224 255
200 224 255
200 224 255
200 224 255
200 224 255
201 224 255
201 224 255
201 224 255
201 224 255
201 224 255
201 224 255
201 224 255
201 224 255
201 224 255
201 224 255
201 224 255
201 225 255
201 225 255
201 225 255
201 225 255
202 225 255
202 225 255
202 225 255
202 225 255
202 225 255
202 225 255
202 225 255
202 225 255
202 225 255
202 225 255
202 225 255
202 225 255
202 225 255
202 225 255
202 225 255
203 225 255
203 225 255
203 225 255
203 225 255
203 225 255
203 225 255
203 225 255
203 225 255
203 225 255
203 226 255
203 226 255
203 226 255
203 226 255
203 226 255
203 226 255
203 226 255
204 226 255
204 226 255
204 226 255
204 226 255
204 226 255
204 226 255
204 226 255
204 226 255
204 226 255
204 226 255
204 226 255
204 226 255
204 226 255
204 226 255
204 226 255
204 226 255
204 226 255
205 226 255
205 226 255
205 226 255
205 226 255
205 226 255
205 226 255
205 226 255
205 226 255
205 227 255
205 227 255
205 227 255
205 227 255
205 227 255
205 227 255
205 227 255
205 227 255
205 227 255
205 227 255
205 227 255
205 227 255
205 227 255
205 227 255
205 227 255
205 227 255
205 227 255
205 227 255
205 227 255
205 227 255
205 226 255
205 226 255
205 226 255
205 226 255
205 226 255
205 226 255
205 226 255
205 226 255
204 226 255
204 226 255
204 226 255
204 226 255
204 226 255
204 226 255
204 226 255
204 226 255
204 226 255
204 226 255
204 226 255
204 226 255
204 226 255
204 226 255
204 226 255
204 226 255
204 226 255
203 226 255
203 226 255
203 226 255
203 226 255
203 226 255
203 226 255
203 226 255
203 225 255
203 225 255
203 225 255
203 225 255
203 225 255
203 225 255
203 225 255
203 225 255
203 225 255
202 225 255
202 225 255
202 225 255
202 225 255
202 225 255
202 225 255
202 225 255
202 225 255
202 225 255
202 225 255
202 225 255
202 225 255
202 225 255
202 225 255
202 225 255
202 225 255
201 225 255
201 225 255
201 225 255
201 225 255
201 224 255
201 224 255
201 224 255
201 224 255
201 224 255
201 224 255
201 224 255
201 224 255
201 224 255
201 224 255
200 224 255
200 224 255
200 224 255
200 224 255
200 224 255
200 224 255
200 224 255
200 224 255
200 224 255
200 224 255
200 224 255
200 224 255
200 224 255
200 224 255
199 224 255
199 224 255
199 224 255
199 223 255
199 223 255
199 223 255
199 223 255
199 223 255
199 223 255
199 223 255
199 223 255
199 223 255
199 223 255
199 223 255
199 223 255
198 223 255
198 223 255
198 223 255
198 223 255
198 223 255
198 223 255
198 223 255
198 223 255
198 223 255
198 223 255
198 223 255
198 223 255
198 223 255
198 223 255
198 223 255
197 222 255
197 222 255
197 222 255
197 222 255
197 222 255
197 222 255
197 222 255
197 222 255
197 222 255
197 222 255
197 222 255
197 222 255
197 222 255
197 222 255
197 222 255
197 222 255
196 222 255
196 222 255
196 222 255
196 222 255
196 222 255
196 222 255
196 222 255
196 222 255
196 222 255
196 222 255
196 222 255
196 222 255
196 222 255
196 222 255
196 222 255
196 222 255
196 222 255
196 222 255
196 221 255
196 221 255
195 221 255
195 221 255
195 221 255
195 221 255
195 221 255
195 221 255
195 221 255
195 221 255
195 221 255
195 221 255
195 221 255
195 221 255
195 221 255
195 221 255
195 221 255
195 221 255
195 221 255
195 221 255
195 221 255
195 221 255
195 221 255
195 221 255
195 221 255
195 221 255
195 221 255
195 221 255
195 221 255
195 221 255
195 221 255
195 221 255
195 221 255
195 221 255
195 221 255
195 221 255
195 221 255
195 221 255
195 221 255
195 221 255
195 221 255
195 221 255
195 221 255
195 221 255
195 221 255
195 221 255
195 221 255
195 221 255
195 221 255
195 221 255
195 221 255
195 221 255
195 221 255
195 221 255
195 221 255
195 221 255
195 221 255
195 221 255
195 221 255
195 221 255
195 221 255
195 221 255
195 221 255
195 221 255
195 221 255
195 221 255
195 221 255
195 221 255
195 221 255
195 221 255
195 221 255
195 221 255
195 221 255
195 221 255
195 221 255
195 221 255
195 221 255
195 221 255
196 221 255
196 221 255
196 222 255
196 222 255
196 222 255
196 222 255
196 222 255
196 222 255
196 222 255
196 222 255
196 222 255
196 222 255
196 222 255
196 222 255
196 222 255
196 222 255
196 222 255
196 222 255
196 222 255
196 222 255
197 222 255
197 222 255
197 222 255
197 222 255
197 222 255
197 222 255
197 222 255
197 222 255
197 222 255
197 222 255
197 222 255
197 222 255
197 222 255
197 222 255
197 222 255
197 222 255
198 223 255
198 223 255
198 223 255
198 223 255
198 223 255
198 223 255
198 223 255
198 223 255
198 223 255
198 223 255
198 223 255
198 223 255
198 223 255
198 223 255
198 223 255
199 223 255
199 223 255
199 223 255
199 223 255
199 223 255
199 223 255
199 223 255
199 223 255
199 223 255
199 223 255
199 223 255
199 223 255
199 224 255
199 224 255
199 224 255
200 224 255
200 224 255
200 224 255
200 224 255
200 224 255
200 224 255
200 224 255
200 224 255
200 224 255
200 224 255
200 224 255
200 224 255
200 224 255
200 224 255
201 224 255
201 224 255
201 224 255
201 224 255
201 224 255
201 224 255
201 224 255
201 224 255
201 224 255
201 224 255
201 225 255
201 225 255
201 225 255
201 225 255
201 225 255
202 225 255
202 225 255
202 225 255
202 225 255
202 225 255
202 225 255
202 225 255
202 225 255
202 225 255
202 225 255
202 225 255
202 225 255
202 225 255
202 225 255
202 225 255
203 225 255
203 225 255
203 225 255
203 225 255
203 225 255
203 225 255
203 225 255
203 225 255
203 225 255
203 226 255
203 226 255
203 226 255
203 226 255
203 226 255
203 226 255
203 226 255
204 226 255
204 226 255
204 226 255
204 226 255
204 226 255
204 226 255
204 226 255
204 226 255
204 226 255
204 226 255
204 226 255
204 226 255
204 226 255
204 226 255
204 226 255
204 226 255
204 226 255
205 226 255
205 226 255
205 226 255
205 226 255
205 226 255
205 226 255
205 226 255
205 227 255
205 227 255
205 227 255
205 227 255
205 227 255
205 227 255
205 227 255
205 227 255
205 227 255
205 227 255
205 227 255
206 227 255
206 227 255
206 227 255
206 227 255
205 227 255
205 227 255
205 227 255
205 227 255
205 227 255
205 227 255
205 227 255
205 227 255
205 227 255
205 227 255
205 227 255
205 226 255
205 226 255
205 226 255
205 226 255
205 226 255
205 226 255
205 226 255
204 226 255
204 226 255
204 226 255
204 226 255
204 226 255
204 226 255
204 226 255
204 226 255
204 226 255
204 226 255
204 226 255
204 226 255
204 226 255
204 226 255
204 226 255
204 226 255
204 226 255
203 226 255
203 226 255
203 226 255
203 226 255
203 226 255
203 226 255
203 226 255
203 226 255
203 225 255
203 225 255
203 225 255
203 225 255
203 225 255
203 225 255
203 225 255
203 225 255
202 225 255
202 225 255
202 225 255
202 225 255
202 225 255
202 225 255
202 225 255
202 225 255
202 225 255
202 225 255
202 225 255
202 225 255
202 225 255
202 225 255
202 225 255
202 225 255
201 225 255
201 225 255
201 225 255
201 225 255
201 224 255
201 224 255
201 224 255
201 224 255
201 224 255
201 224 255
201 224 255
201 224 255
201 224 255
201 224 255
200 224 255
200 224 255
200 224 255
200 224 255
200 224 255
200 224 255
200 224 255
200 224 255
200 224 255
200 224 255
200 224 255
200 224 255
200 224 255
200 224 255
200 224 255
199 224 255
199 224 255
199 223 255
199 223 255
199 223 255
199 223 255
199 223 255
199 223 255
199 223 255
199 223 255
199 223 255
199 223 255
199 223 255
199 223 255
198 223 255
198 223 255
198 223 255
198 223 255
198 223 255
198 223 255
198 223 255
198 223 255
198 223 255
198 223 255
198 223 255
198 223 255
198 223 255
198 223 255
198 223 255
197 223 255
197 222 255
197 222 255
197 222 255
197 222 255
197 222 255
197 222 255
197 222 255
197 222 255
197 222 255
197 222 255
197 222 255
197 222 255
197 222 255
197 222 255
197 222 255
197 222 255
196 222 255
196 222 255
196 222 255
196 222 255
196 222 255
196 222 255
196 222 255
196 222 255
196 222 255
196 222 255
196 222 255
196 222 255
196 222 255
196 222 255
196 222 255
196 222 255
196 222 255
196 222 255
196 222 255
196 221 255
196 221 255
195 221 255
195 221 255
195 221 255
195 221 255
195 221 255
195 221 255
195 221 255
195 221 255
195 221 255
195 221 255
195 221 255
195 221 255
195 221 255
195 221 255
195 221 255
195 221 255
195 221 255
195 221 255
195 221 255
195 221 255
195 221 255
195 221 255
195 221 255
195 221 255
195 221 255
195 221 255
195 221 255
195 221 255
195 221 255
195 221 255
195 221 255
195 221 255
195 221 255
195 221 255
195 221 255
195 221 255
195 221 255
195 221 255
195 221 255
195 221 255
195 221 255
195 221 255
195 221 255
195 221 255
195 221 255
195 221 255
195 221 255
195 221 255
195 221 255
195 221 255
195 221 255
195 221 255
195 221 255
195 221 255
195 221 255
195 221 255
195 221 255
195 221 255
195 221 255
195 221 255
195 221 255
195 221 255
195 221 255
195 221 255
195 221 255
195 221 255
195 221 255
195 221 255
196 221 255
196 221 255
196 222 255
196 222 255
196 222 255
196 222 255
196 222 255
196 222 255
196 222 255
196 222 255
196 222 255
196 222 255
196 222 255
196 222 255
196 222 255
196 222 255
196 222 255
196 222 255
196 222 255
196 222 255
196 222 255
197 222 255
197 222 255
197 222 255
197 222 255
197 222 255
197 222 255
197 222 255
197 222 255
197 222 255
197 222 255
197 222 255
197 222 255
197 222 255
197 222 255
197 222 255
197 222 255
197 223 255
198 223 255
198 223 255
198 223 255
198 223 255
198 223 255
198 223 255
198 223 255
198 223 255
198 223 255
198 223 255
198 223 255
198 223 255
198 223 255
198 223 255
198 223 255
199 223 255
199 223 255
199 223 255
199 223 255
199 223 255
199 223 255
199 223 255
199 223 255
199 223 255
199 223 255
199 223 255
199 223 255
199 224 255
199 224 255
200 224 255
200 224 255
200 224 255
200 224 255
200 224 255
200 224 255
200 224 255
200 224 255
200 224 255
200 224 255
200 224 255
200 224 255
200 224 255
200 224 255
200 224 255
201 224 255
201 224 255
201 224 255
201 224 255
201 224 255
201 224 255
201 224 255
201 224 255
201 224 255
201 224 255
201 225 255
201 225 255
201 225 255
201 225 255
202 225 255
202 225 255
202 225 255
202 225 255
202 225 255
202 225 255
202 225 255
202 225 255
202 225 255
202 225 255
202 225 255
202 225 255
202 225 255
202 225 255
202 225 255
202 225 255
203 225 255
203 225 255
203 225 255
203 225 255
203 225 255
203 225 255
203 225 255
203 225 255
203 225 255
203 226 255
203 226 255
203 226 255
203 226 255
203 226 255
203 226 255
203 226 255
204 226 255
204 226 255
204 226 255
204 226 255
204 226 255
204 226 255
204 226 255
204 226 255
204 226 255
204 226 255
204 226 255
204 226 255
204 226 255
204 226 255
204 226 255
204 226 255
204 226 255
205 226 255
205 226 255
205 226 255
205 226 255
205 226 255
205 226 255
205 226 255
205 227 255
205 227 255
205 227 255
205 227 255
205 227 255
205 227 255
205 227 255
205 227 255
205 227 255
205 227 255
205 227 255
206 227 255
206 227 255
206 227 255
206 227 255
206 227 255
206 227 255
206 227 255
206 227 255
205 227 255
205 227 255
205 227 255
205 227 255
205 227 255
205 227 255
205 227 255
205 227 255
205 227 255
205 227 255
205 227 255
205 227 255
205 226 255
205 226 255
205 226 255
205 226 255
205 226 255
205 226 255
205 226 255
204 226 255
204 226 255
204 226 255
204 226 255
204 226 255
204 226 255
204 226 255
204 226 255
204 226 255
204 226 255
204 226 255
204 226 255
204 226 255
204 226 255
204 226 255
204 226 255
204 226 255
203 226 255
203 226 255
203 226 255
203 226 255
203 226 255
203 226 255
203 226 255
203 225 255
203 225 255
203 225 255
203 225 255
203 225 255
203 225 255
203 225 255
203 225 255
203 225 255
202 225 255
202 225 255
202 225 255
202 225 255
202 225 255
202 225 255
202 225 255
202 225 255
202 225 255
202 225 255
202 225 255
202 225 255
202 225 255
202 225 255
202 225 255
201 225 255
201 225 255
201 225 255
201 225 255
201 224 255
201 224 255
201 224 255
201 224 255
201 224 255
201 224 255
201 224 255
201 224 255
201 224 255
201 224 255
200 224 255
200 224 255
200 224 255
200 224 255
200 224 255
200 224 255
200 224 255
200 224 255
200 224 255
200 224 255
200 224 255
200 224 255
200 224 255
200 224 255
200 224 255
199 224 255
199 224 255
199 223 255
199 223 255
199 223 255
199 223 255
199 223 255
199 223 255
199 223 255
199 223 255
199 223 255
199 223 255
199 223 255
199 223 255
198 223 255
198 223 255
198 223 255
198 223 255
198 223 255
198 223 255
198 223 255
198 223 255
198 223 255
198 223 255
198 223 255
198 223 255
198 223 255
198 223 255
198 223 255
198 223 255
197 222 255
197 222 255
197 222 255
197 222 255
197 222 255
197 222 255
197 222 255
197 222 255
197 222 255
197 222 255
197 222 255
197 222 255
197 222 255
197 222 255
197 222 255
197 222 255
197 222 255
196 222 255
196 222 255
196 222 255
196 222 255
196 222 255
196 222 255
196 222 255
196 222 255
196 222 255
196 222 255
196 222 255
196 222 255
196 222 255
196 222 255
196 222 255
196 222 255
196 222 255
196 222 255
196 222 255
196 222 255
196 221 255
196 221 255
195 221 255
195 221 255
195 221 255
195 221 255
195 221 255
195 221 255
195 221 255
195 221 255
195 221 255
195 221 255
195 221 255
195 221 255
195 221 255
195 221 255
195 221 255
195 221 255
195 221 255
195 221 255
195 221 255
195 221 255
195 221 255
195 221 255
195 221 255
195 221 255
195 221 255
195 221 255
195 221 255
195 221 255
195 221 255
195 221 255
195 221 255
195 221 255
195 221 255
195 221 255
195 221 255
195 221 255
195 221 255
195 221 255
195 221 255
195 221 255
195 221 255
195 221 255
195 221 255
195 221 255
195 221 255
195 221 255
195 221 255
195 221 255
195 221 255
195 221 255
195 221 255
195 221 255
195 221 255
195 221 255
195 221 255
195 221 255
195 221 255
195 221 255
195 221 255
195 221 255
196 221 255
196 221 255
196 222 255
196 222 255
196 222 255
196 222 255
196 222 255
196 222 255
196 222 255
196 222 255
196 222 255
196 222 255
196 222 255
196 222 255
196 222 255
196 222 255
196 222 255
196 222 255
196 222 255
196 222 255
196 222 255
196 222 255
197 222 255
197 222 255
197 222 255
197 222 255
197 222 255
197 222 255
197 222 255
197 222 255
197 222 255
197 222 255
197 222 255
197 222 255
197 222 255
197 222 255
197 222 255
197 222 255
197 222 255
197 223 255
198 223 255
198 223 255
198 223 255
198 223 255
198 223 255
198 223 255
198 223 255
198 223 255
198 223 255
198 223 255
198 223 255
198 223 255
198 223 255
198 223 255
198 223 255
199 223 255
199 223 255
199 223 255
199 223 255
199 223 255
199 223 255
199 223 255
199 223 255
199 223 255
199 223 255
199 223 255
199 223 255
199 224 255
199 224 255
200 224 255
200 224 255
200 224 255
200 224 255
200 224 255
200 224 255
200 224 255
200 224 255
200 224 255
200 224 255
200 224 255
200 224 255
200 224 255
200 224 255
200 224 255
201 224 255
201 224 255
201 224 255
201 224 255
201 224 255
201 224 255
201 224 255
201 224 255
201 224 255
201 224 255
201 225 255
201 225 255
201 225 255
201 225 255
202 225 255
202 225 255
202 225 255
202 225 255
202 225 255
202 225 255
202 225 255
202 225 255
202 225 255
202 225 255
202 225 255
202 225 255
202 225 255
202 225 255
202 225 255
203 225 255
203 225 255
203 225 255
203 225 255
203 225 255
203 225 255
203 225 255
203 225 255
203 225 255
203 226 255
203 226 255
203 226 255
203 226 255
203 226 255
203 226 255
203 226 255
204 226 255
204 226 255
204 226 255
204 226 255
204 226 255
204 226 255
204 226 255
204 226 255
204 226 255
204 226 255
204 226 255
204 226 255
204 226 255
204 226 255
204 226 255
204 226 255
204 226 255
205 226 255
205 226 255
205 226 255
205 226 255
205 226 255
205 226 255
205 226 255
205 227 255
205 227 255
205 227 255
205 227 255
205 227 255
205 227 255
205 227 255
205 227 255
205 227 255
205 227 255
205 227 255
205 227 255
206 227 255
206 227 255
206 227 255
206 227 255
206 227 255
206 227 255
206 227 255
206 227 255
206 227 255
206 227 255
206 227 255
206 227 255
206 227 255
205 227 255
205 227 255
205 227 255
205 227 255
205 227 255
205 227 255
205 227 255
205 227 255
205 227 255
205 227 255
205 227 255
205 226 255
205 226 255
205 226 255
205 226 255
205 226 255
205 226 255
205 226 255
204 226 255
204 226 255
204 226 255
204 226 255
204 226 255
204 226 255
204 226 255
204 226 255
204 226 255
204 226 255
204 226 255
204 226 255
204 226 255
204 226 255
204 226 255
204 226 255
204 226 255
203 226 255
203 226 255
203 226 255
203 226 255
203 226 255
203 226 255
203 226 255
203 225 255
203 225 255
203 225 255
203 225 255
203 225 255
203 225 255
203 225 255
203 225 255
203 225 255
202 225 255
202 225 255
202 225 255
202 225 255
202 225 255
202 225 255
202 225 255
202 225 255
202 225 255
202 225 255
202 225 255
202 225 255
202 225 255
202 225 255
202 225 255
201 225 255
201 225 255
201 225 255
201 225 255
201 225 255
201 224 255
201 224 255
201 224 255
201 224 255
201 224 255
201 224 255
201 224 255
201 224 255
201 224 255
201 224 255
200 224 255
200 224 255
200 224 255
200 224 255
200 224 255
200 224 255
200 224 255
200 224 255
200 224 255
200 224 255
200 224 255
200 224 255
200 224 255
200 224 255
199 224 255
199 224 255
199 223 255
199 223 255
199 223 255
199 223 255
199 223 255
199 223 255
199 223 255
199 223 255
199 223 255
199 223 255
199 223 255
199 223 255
199 223 255
198 223 255
198 223 255
198 223 255
198 223 255
198 223 255
198 223 255
198 223 255
198 223 255
198 223 255
198 223 255
198 223 255
198 223 255
198 223 255
198 223 255
198 223 255
197 223 255
197 222 255
197 222 255
197 222 255
197 222 255
197 222 255
197 222 255
197 222 255
197 222 255
197 222 255
197 222 255
197 222 255
197 222 255
197 222 255
197 222 255
197 222 255
197 222 255
197 222 255
196 222 255
196 222 255
196 222 255
196 222 255
196 222 255
196 222 255
196 222 255
196 222 255
196 222 255
196 222 255
196 222 255
196 222 255
196 222 255
196 222 255
196 222 255
196 222 255
196 222 255
196 222 255
196 222 255
196 222 255
196 222 255
196 221 255
196 221 255
196 221 255
195 221 255
195 221 255
195 221 255
195 221 255
195 221 255
195 221 255
195 221 255
195 221 255
195 221 255
195 221 255
195 221 255
195 221 255
195 221 255
195 221 255
195 221 255
195 221 255
195 221 255
195 221 255
195 221 255
195 221 255
195 221 255
195 221 255
195 221 255
195 221 255
195 221 255
195 221 255
195 221 255
195 221 255
195 221 255
195 221 255
195 221 255
195 221 255
195 221 255
195 221 255
195 221 255
195 221 255
195 221 255
195 221 255
195 221 255
195 221 255
195 221 255
195 221 255
195 221 255
195 221 255
195 221 255
195 221 255
195 221 255
195 221 255
195 221 255
195 221 255
196 221 255
196 221 255
196 221 255
196 222 255
196 222 255
196 222 255
196 222 255
196 222 255
196 222 255
196 222 255
196 222 255
196 222 255
196 222 255
196 222 255
196 222 255
196 222 255
196 222 255
196 222 255
196 222 255
196 222 255
196 222 255
196 222 255
196 222 255
196 222 255
197 222 255
197 222 255
197 222 255
197 222 255
197 222 255
197 222 255
197 222 255
197 222 255
197 222 255
197 222 255
197 222 255
197 222 255
197 222 255
197 222 255
197 222 255
197 222 255
197 222 255
197 223 255
198 223 255
198 223 255
198 223 255
198 223 255
198 223 255
198 223 255
198 223 255
198 223 255
198 223 255
198 223 255
198 223 255
198 223 255
198 223 255
198 223 255
198 223 255
199 223 255
199 223 255
199 223 255
199 223 255
199 223 255
199 223 255
199 223 255
199 223 255
199 223 255
199 223 255
199 223 255
199 223 255
199 223 255
199 224 255
199 224 255
200 224 255
200 224 255
200 224 255
200 224 255
200 224 255
200 224 255
200 224 255
200 224 255
200 224 255
200 224 255
200 224 255
200 224 255
200 224 255
200 224 255
201 224 255
201 224 255
201 224 255
201 224 255
201 224 255
201 224 255
201 224 255
201 224 255
201 224 255
201 224 255
201 224 255
201 225 255
201 225 255
201 225 255
201 225 255
202 225 255
202 225 255
202 225 255
202 225 255
202 225 255
202 225 255
202 225 255
202 225 255
202 225 255
202 225 255
202 225 255
202 225 255
202 225 255
202 225 255
202 225 255
203 225 255
203 225 255
203 225 255
203 225 255
203 225 255
203 225 255
203 225 255
203 225 255
203 225 255
203 226 255
203 226 255
203 226 255
203 226 255
203 226 255
203 226 255
203 226 255
204 226 255
204 226 255
204 226 255
204 226 255
204 226 255
204 226 255
204 226 255
204 226 255
204 226 255
204 226 255
204 226 255
204 226 255
204 226 255
204 226 255
204 226 255
204 226 255
204 226 255
205 226 255
205 226 255
205 226 255
205 226 255
205 226 255
205 226 255
205 226 255
205 227 255
205 227 255
205 227 255
205 227 255
205 227 255
205 227 255
205 227 255
205 227 255
205 227 255
205 227 255
205 227 255
206 227 255
206 227 255
206 227 255
206 227 255
206 227 255
206 227 255
206 227 255
206 227 255
206 227 255
206 227 255
206 227 255
206 227 255
206 227 255
206 227 255
206 227 255
206 227 255
206 227 255
206 227 255
206 227 255
205 227 255
205 227 255
205 227 255
205 227 255
205 227 255
205 227 255
205 227 255
205 227 255
205 227 255
205 227 255
205 227 255
205 226 255
205 226 255
205 226 255
205 226 255
205 226 255
205 226 255
205 226 255
204 226 255
204 226 255
204 226 255
204 226 255
204 226 255
204 226 255
204 226 255
204 226 255
204 226 255
204 226 255
204 226 255
204 226 255
204 226 255
204 226 255
204 226 255
204 226 255
203 226 255
203 226 255
203 226 255
203 226 255
203 226 255
203 226 255
203 226 255
203 226 255
203 225 255
203 225 255
203 225 255
203 225 255
203 225 255
203 225 255
203 225 255
203 225 255
202 225 255
202 225 255
202 225 255
202 225 255
202 225 255
202 225 255
202 225 255
202 225 255
202 225 255
202 225 255
202 225 255
202 225 255
202 225 255
202 225 255
202 225 255
201 225 255
201 225 255
201 225 255
201 225 255
201 225 255
201 224 255
201 224 255
201 224 255
201 224 255
201 224 255
201 224 255
201 224 255
201 224 255
201 224 255
201 224 255
200 224 255
200 224 255
200 224 255
200 224 255
200 224 255
200 224 255
200 224 255
200 224 255
200 224 255
200 224 255
200 224 255
200 224 255
200 224 255
200 224 255
199 224 255
199 224 255
199 224 255
199 223 255
199 223 255
199 223 255
199 223 255
199 223 255
199 223 255
199 223 255
199 223 255
199 223 255
199 223 255
199 223 255
199 223 255
198 223 255
198 223 255
198 223 255
198 223 255
198 223 255
198 223 255
198 223 255
198 223 255
198 223 255
198 223 255
198 223 255
198 223 255
198 223 255
198 223 255
198 223 255
198 223 255
197 222 255
197 222 255
197 222 255
197 222 255
197 222 255
197 222 255
197 222 255
197 222 255
197 222 255
197 222 255
197 222 255
197 222 255
197 222 255
197 222 255
197 222 255
197 222 255
197 222 255
197 222 255
196 222 255
196 222 255
196 222 255
196 222 255
196 222 255
196 222 255
196 222 255
196 222 255
196 222 255
196 222 255
196 222 255
196 222 255
196 222 255
196 222 255
196 222 255
196 222 255
196 222 255
196 222 255
196 222 255
196 222 255
196 222 255
196 222 255
196 222 255
196 221 255
196 221 255
196 221 255
196 221 255
195 221 255
195 221 255
195 221 255
195 221 255
195 221 255
195 221 255
195 221 255
195 221 255
195 221 255
195 221 255
195 221 255
195 221 255
195 221 255
195 221 255
195 221 255
195 221 255
195 221 255
195 221 255
195 221 255
195 221 255
195 221 255
195 221 255
195 221 255
195 221 255
195 221 255
195 221 255
195 221 255
195 221 255
195 221 255
195 221 255
195 221 255
195 221 255
195 221 255
195 221 255
195 221 255
195 221 255
195 221 255
195 221 255
196 221 255
196 221 255
196 221 255
196 222 255
196 222 255
196 222 255
196 222 255
196 222 255
196 222 255
196 222 255
196 222 255
196 222 255
196 222 255
196 222 255
196 222 255
196 222 255
196 222 255
196 222 255
196 222 255
196 222 255
196 222 255
196 222 255
196 222 255
196 222 255
196 222 255
196 222 255
196 222 255
197 222 255
197 222 255
197 222 255
197 222 255
197 222 255
197 222 255
197 222 255
197 222 255
197 222 255
197 222 255
197 222 255
197 222 255
197 222 255
197 222 255
197 222 255
197 222 255
197 222 255
197 222 255
198 223 255
198 223 255
198 223 255
198 223 255
198 223 255
198 223 255
198 223 255
198 223 255
198 223 255
198 223 255
198 223 255
198 223 255
198 223 255
198 223 255
198 223 255
198 223 255
199 223 255
199 223 255
199 223 255
199 223 255
199 223 255
199 223 255
199 223 255
199 223 255
199 223 255
199 223 255
199 223 255
199 223 255
199 224 255
199 224 255
199 224 255
200 224 255
200 224 255
200 224 255
200 224 255
200 224 255
200 224 255
200 224 255
200 224 255
200 224 255
200 224 255
200 224 255
200 224 255
200 224 255
200 224 255
201 224 255
201 224 255
201 224 255
201 224 255
201 224 255
201 224 255
201 224 255
201 224 255
201 224 255
201 224 255
201 225 255
201 225 255
201 225 255
201 225 255
201 225 255
202 225 255
202 225 255
202 225 255
202 225 255
202 225 255
202 225 255
202 225 255
202 225 255
202 225 255
202 225 255
202 225 255
202 225 255
202 225 255
202 225 255
202 225 255
203 225 255
203 225 255
203 225 255
203 225 255
203 225 255
203 225 255
203 225 255
203 225 255
203 226 255
203 226 255
203 226 255
203 226 255
203 226 255
203 226 255
203 226 255
204 226 255
204 226 255
204 226 255
204 226 255
204 226 255
204 226 255
204 226 255
204 226 255
204 226 255
204 226 255
204 226 255
204 226 255
204 226 255
204 226 255
204 226 255
204 226 255
204 226 255
205 226 255
205 226 255
205 226 255
205 226 255
205 226 255
205 226 255
205 226 255
205 226 255
205 227 255
205 227 255
205 227 255
205 227 255
205 227 255
205 227 255
205 227 255
205 227 255
205 227 255
205 227 255
206 227 255
206 227 255
206 227 255
206 227 255
206 227 255
206 227 255
206 227 255
206 227 255
206 227 255
206 227 255
206 227 255
206 227 255
206 227 255
206 227 255
206 227 255
206 227 255
206 227 255
206 227 255
206 227 255
206 227 255
206 227 255
206 227 255
206 227 255
206 227 255
205 227 255
205 227 255
205 227 255
205 227 255
205 227 255
205 227 255
205 227 255
205 227 255
205 227 255
205 227 255
205 227 255
205 226 255
205 226 255
205 226 255
205 226 255
205 226 255
205 226 255
205 226 255
204 226 255
204 226 255
204 226 255
204 226 255
204 226 255
204 226 255
204 226 255
204 226 255
204 226 255
204 226 255
204 226 255
204 226 255
204 226 255
204 226 255
204 226 255
204 226 255
204 226 255
203 226 255
203 226 255
203 226 255
203 226 255
203 226 255
203 226 255
203 226 255
203 225 255
203 225 255
203 225 255
203 225 255
203 225 255
203 225 255
203 225 255
203 225 255
203 225 255
202 225 255
202 225 255
202 225 255
202 225 255
202 225 255
202 225 255
202 225 255
202 225 255
202 225 255
202 225 255
202 225 255
202 225 255
202 225 255
202 225 255
202 225 255
201 225 255
201 225 255
201 225 255
201 225 255
201 224 255
201 224 255
201 224 255
201 224 255
201 224 255
201 224 255
201 224 255
201 224 255
201 224 255
201 224 255
200 224 255
200 224 255
200 224 255
200 224 255
200 224 255
200 224 255
200 224 255
200 224 255
200 224 255
200 224 255
200 224 255
200 224 255
200 224 255
200 224 255
200 224 255
199 224 255
199 224 255
199 223 255
199 223 255
199 223 255
199 223 255
199 223 255
199 223 255
199 223 255
199 223 255
199 223 255
199 223 255
199 223 255
199 223 255
199 223 255
198 223 255
198 223 255
198 223 255
198 223 255
198 223 255
198 223 255
198 223 255
198 223 255
198 223 255
198 223 255
198 223 255
198 223 255
198 223 255
198 223 255
198 223 255
197 223 255
197 222 255
197 222 255
197 222 255
197 222 255
197 222 255
197 222 255
197 222 255
197 222 255
197 222 255
197 222 255
197 222 255
197 222 255
197 222 255
197 222 255
197 222 255
197 222 255
197 222 255
197 222 255
196 222 255
196 222 255
196 222 255
196 222 255
196 222 255
196 222 255
196 222 255
196 222 255
196 222 255
196 222 255
196 222 255
196 222 255
196 222 255
196 222 255
196 222 255
196 222 255
196 222 255
196 222 255
196 222 255
196 222 255
196 222 255
196 222 255
196 222 255
196 222 255
196 222 255
196 222 255
196 222 255
196 221 255
196 221 255
196 221 255
196 221 255
196 221 255
195 221 255
195 221 255
195 221 255
195 221 255
195 221 255
195 221 255
195 221 255
195 221 255
195 221 255
195 221 255
195 221 255
195 221 255
195 221 255
195 221 255
195 221 255
195 221 255
195 221 255
195 221 255
195 221 255
195 221 255
195 221 255
195 221 255
196 221 255
196 221 255
196 221 255
196 221 255
196 222 255
196 222 255
196 222 255
196 222 255
196 222 255
196 222 255
196 222 255
196 222 255
196 222 255
196 222 255
196 222 255
196 222 255
196 222 255
196 222 255
196 222 255
196 222 255
196 222 255
196 222 255
196 222 255
196 222 255
196 222 255
196 222 255
196 222 255
196 222 255
196 222 255
196 222 255
196 222 255
196 222 255
197 222 255
197 222 255
197 222 255
197 222 255
197 222 255
197 222 255
197 222 255
197 222 255
197 222 255
197 222 255
197 222 255
197 222 255
197 222 255
197 222 255
197 222 255
197 222 255
197 222 255
197 222 255
198 223 255
198 223 255
198 223 255
198 223 255
198 223 255
198 223 255
198 223 255
198 223 255
198 223 255
198 223 255
198 223 255
198 223 255
198 223 255
198 223 255
198 223 255
198 223 255
199 223 255
199 223 255
199 223 255
199 223 255
199 223 255
199 223 255
199 223 255
199 223 255
199 223 255
199 223 255
199 223 255
199 223 255
199 223 255
199 224 255
199 224 255
200 224 255
200 224 255
200 224 255
200 224 255
200 224 255
200 224 255
200 224 255
200 224 255
200 224 255
200 224 255
200 224 255
200 224 255
200 224 255
200 224 255
200 224 255
201 224 255
201 224 255
201 224 255
201 224 255
201 224 255
201 224 255
201 224 255
201 224 255
201 224 255
201 224 255
201 225 255
201 225 255
201 225 255
201 225 255
202 225 255
202 225 255
202 225 255
202 225 255
202 225 255
202 225 255
202 225 255
202 225 255
202 225 255
202 225 255
202 225 255
202 225 255
202 225 255
202 225 255
202 225 255
203 225 255
203 225 255
203 225 255
203 225 255
203 225 255
203 225 255
203 225 255
203 225 255
203 225 255
203 226 255
203 226 255
203 226 255
203 226 255
203 226 255
203 226 255
203 226 255
204 226 255
204 226 255
204 226 255
204 226 255
204 226 255
204 226 255
204 226 255
204 226 255
204 226 255
204 226 255
204 226 255
204 226 255
204 226 255
204 226 255
204 226 255
204 226 255
204 226 255
205 226 255
205 226 255
205 226 255
205 226 255
205 226 255
205 226 255
205 226 255
205 227 255
205 227 255
205 227 255
205 227 255
205 227 255
205 227 255
205 227 255
205 227 255
205 227 255
205 227 255
205 227 255
206 227 255
206 227 255
206 227 255
206 227 255
206 227 255
206 227 255
206 227 255
206 227 255
206 227 255
206 227 255
206 227 255
206 227 255
206 227 255
206 227 255
206 227 255
206 227 255
206 227 255
206 227 255
206 227 255
206 227 255
206 227 255
206 227 255
206 227 255
206 227 255
206 227 255
206 227 255
206 227 255
206 227 255
206 227 255
205 227 255
205 227 255
205 227 255
205 227 255
205 227 255
205 227 255
205 227 255
205 227 255
205 227 255
205 227 255
205 227 255
205 226 255
205 226 255
205 226 255
205 226 255
205 226 255
205 226 255
205 226 255
204 226 255
204 226 255
204 226 255
204 226 255
204 226 255
204 226 255
204 226 255
204 226 255
204 226 255
204 226 255
204 226 255
204 226 255
204 226 255
204 226 255
204 226 255
204 226 255
203 226 255
203 226 255
203 226 255
203 226 255
203 226 255
203 226 255
203 226 255
203 225 255
203 225 255
203 225 255
203 225 255
203 225 255
203 225 255
203 225 255
203 225 255
203 225 255
202 225 255
202 225 255
202 225 255
202 225 255
202 225 255
202 225 255
202 225 255
202 225 255
202 225 255
202 225 255
202 225 255
202 225 255
202 225 255
202 225 255
202 225 255
201 225 255
201 225 255
201 225 255
201 225 255
201 224 255
201 224 255
201 224 255
201 224 255
201 224 255
201 224 255
201 224 255
201 224 255
201 224 255
201 224 255
201 224 255
200 224 255
200 224 255
200 224 255
200 224 255
200 224 255
200 224 255
200 224 255
200 224 255
200 224 255
200 224 255
200 224 255
200 224 255
200 224 255
200 224 255
199 224 255
199 224 255
199 223 255
199 223 255
199 223 255
199 223 255
199 223 255
199 223 255
199 223 255
199 223 255
199 223 255
199 223 255
199 223 255
199 223 255
199 223 255
198 223 255
198 223 255
198 223 255
198 223 255
198 223 255
198 223 255
198 223 255
198 223 255
198 223 255
198 223 255
198 223 255
198 223 255
198 223 255
198 223 255
198 223 255
198 223 255
197 223 255
197 222 255
197 222 255
197 222 255
197 222 255
197 222 255
197 222 255
197 222 255
197 222 255
197 222 255
197 222 255
197 222 255
197 222 255
197 222 255
197 222 255
197 222 255
197 222 255
197 222 255
197 222 255
197 222 255
196 222 255
196 222 255
196 222 255
196 222 255
196 222 255
196 222 255
196 222 255
196 222 255
196 222 255
196 222 255
196 222 255
196 222 255
196 222 255
196 222 255
196 222 255
196 222 255
196 222 255
196 222 255
196 222 255
196 222 255
196 222 255
196 222 255
196 222 255
196 222 255
196 222 255
196 222 255
196 222 255
196 222 255
196 222 255
196 222 255
196 222 255
196 222 255
196 222 255
196 222 255
196 222 255
196 222 255
196 222 255
196 222 255
196 222 255
196 222 255
196 222 255
196 222 255
196 222 255
196 222 255
196 222 255
196 222 255
196 222 255
196 222 255
196 222 255
196 222 255
196 222 255
196 222 255
196 222 255
196 222 255
196 222 255
196 222 255
196 222 255
196 222 255
196 222 255
196 222 255
196 222 255
196 222 255
196 222 255
196 222 255
196 222 255
196 222 255
196 222 255
196 222 255
196 222 255
196 222 255
196 222 255
196 222 255
196 222 255
196 222 255
196 222 255
196 222 255
196 222 255
196 222 255
197 222 255
197 222 255
197 222 255
197 222 255
197 222 255
197 222 255
197 222 255
197 222 255
197 222 255
197 222 255
197 222 255
197 222 255
197 222 255
197 222 255
197 222 255
197 222 255
197 222 255
197 222 255
197 222 255
197 223 255
198 223 255
198 223 255
198 223 255
198 223 255
198 223 255
198 223 255
198 223 255
198 223 255
198 223 255
198 223 255
198 223 255
198 223 255
198 223 255
198 223 255
198 223 255
198 223 255
199 223 255
199 223 255
199 223 255
199 223 255
199 223 255
199 223 255
199 223 255
199 223 255
199 223 255
199 223 255
199 223 255
199 223 255
199 223 255
199 224 255
199 224 255
200 224 255
200 224 255
200 224 255
200 224 255
200 224 255
200 224 255
200 224 255
200 224 255
200 224 255
200 224 255
200 224 255
200 224 255
200 224 255
200 224 255
201 224 255
201 224 255
201 224 255
201 224 255
201 224 255
201 224 255
201 224 255
201 224 255
201 224 255
201 224 255
201 224 255
201 225 255
201 225 255
201 225 255
201 225 255
202 225 255
202 225 255
202 225 255
202 225 255
202 225 255
202 225 255
202 225 255
202 225 255
202 225 255
202 225 255
202 225 255
202 225 255
202 225 255
202 225 255
202 225 255
203 225 255
203 225 255
203 225 255
203 225 255
203 225 255
203 225 255
203 225 255
203 225 255
203 225 255
203 226 255
203 226 255
203 226 255
203 226 255
203 226 255
203 226 255
203 226 255
204 226 255
204 226 255
204 226 255
204 226 255
204 226 255
204 226 255
204 226 255
204 226 255
204 226 255
204 226 255
204 226 255
204 226 255
204 226 255
204 226 255
204 226 255
204 226 255
205 226 255
205 226 255
205 226 255
205 226 255
205 226 255
205 226 255
205 226 255
205 227 255
205 227 255
205 227 255
205 227 255
205 227 255
205 227 255
205 227 255
205 227 255
205 227 255
205 227 255
205 227 255
206 227 255
206 227 255
206 227 255
206 227 255
206 227 255
206 227 255
206 227 255
206 227 255
206 227 255
206 227 255
206 227 255
206 227 255
206 227 255
206 227 255
206 227 255
206 227 255
206 227 255
206 227 255
206 227 255
206 227 255
206 227 255
206 227 255
206 227 255
206 227 255
206 227 255
206 227 255
206 227 255
206 227 255
206 227 255
206 227 255
206 227 255
206 227 255
206 227 255
206 227 255
205 227 255
205 227 255
205 227 255
205 227 255
205 227 255
205 227 255
205 227 255
205 227 255
205 227 255
205 227 255
205 227 255
205 226 255
205 226 255
205 226 255
205 226 255
205 226 255
205 226 255
205 226 255
204 226 255
204 226 255
204 226 255
204 226 255
204 226 255
204 226 255
204 226 255
204 226 255
204 226 255
204 226 255
204 226 255
204 226 255
204 226 255
204 226 255
204 226 255
204 226 255
204 226 255
203 226 255
203 226 255
203 226 255
203 226 255
203 226 255
203 226 255
203 226 255
203 225 255
203 225 255
203 225 255
203 225 255
203 225 255
203 225 255
203 225 255
203 225 255
202 225 255
202 225 255
202 225 255
202 225 255
202 225 255
202 225 255
202 225 255
202 225 255
202 225 255
202 225 255
202 225 255
202 225 255
202 225 255
202 225 255
202 225 255
201 225 255
201 225 255
201 225 255
201 225 255
201 225 255
201 224 255
201 224 255
201 224 255
201 224 255
201 224 255
201 224 255
201 224 255
201 224 255
201 224 255
201 224 255
200 224 255
200 224 255
200 224 255
200 224 255
200 224 255
200 224 255
200 224 255
200 224 255
200 224 255
200 224 255
200 224 255
200 224 255
200 224 255
200 224 255
199 224 255
199 224 255
199 224 255
199 223 255
199 223 255
199 223 255
199 223 255
199 223 255
199 223 255
199 223 255
199 223 255
199 223 255
199 223 255
199 223 255
199 223 255
199 223 255
198 223 255
198 223 255
198 223 255
198 223 255
198 223 255
198 223 255
198 223 255
198 223 255
198 223 255
198 223 255
198 223 255
198 223 255
198 223 255
198 223 255
198 223 255
198 223 255
197 223 255
197 222 255
197 222 255
197 222 255
197 222 255
197 222 255
197 222 255
197 222 255
197 222 255
197 222 255
197 222 255
197 222 255
197 222 255
197 222 255
197 222 255
197 222 255
197 222 255
197 222 255
197 222 255
197 222 255
197 222 255
196 222 255
196 222 255
196 222 255
196 222 255
196 222 255
196 222 255
196 222 255
196 222 255
196 222 255
196 222 255
196 222 255
196 222 255
196 222 255
196 222 255
196 222 255
196 222 255
196 222 255
196 222 255
196 222 255
196 222 255
196 222 255
196 222 255
196 222 255
196 222 255
196 222 255
196 222 255
196 222 255
196 222 255
196 222 255
196 222 255
196 222 255
196 222 255
196 222 255
196 222 255
196 222 255
196 222 255
196 222 255
196 222 255
196 222 255
196 222 255
196 222 255
196 222 255
196 222 255
196 222 255
196 222 255
196 222 255
196 222 255
196 222 255
196 222 255
196 222 255
196 222 255
196 222 255
196 222 255
196 222 255
196 222 255
196 222 255
196 222 255
196 222 255
196 222 255
196 222 255
196 222 255
196 222 255
196 222 255
196 222 255
196 222 255
196 222 255
196 222 255
196 222 255
196 222 255
196 222 255
197 222 255
197 222 255
197 222 255
197 222 255
197 222 255
197 222 255
197 222 255
197 222 255
197 222 255
197 222 255
197 222 255
197 222 255
197 222 255
197 222 255
197 222 255
197 222 255
197 222 255
197 222 255
197 222 255
197 222 255
197 223 255
198 223 255
198 223 255
198 223 255
198 223 255
198 223 255
198 223 255
198 223 255
198 223 255
198 223 255
198 223 255
198 223 255
198 223 255
198 223 255
198 223 255
198 223 255
198 223 255
199 223 255
199 223 255
199 223 255
199 223 255
199 223 255
199 223 255
199 223 255
199 223 255
199 223 255
199 223 255
199 223 255
199 223 255
199 223 255
199 224 255
199 224 255
200 224 255
200 224 255
200 224 255
200 224 255
200 224 255
200 224 255
200 224 255
200 224 255
200 224 255
200 224 255
200 224 255
200 224 255
200 224 255
200 224 255
200 224 255
201 224 255
201 224 255
201 224 255
201 224 255
201 224 255
201 224 255
201 224 255
201 224 255
201 224 255
201 224 255
201 225 255
201 225 255
201 225 255
201 225 255
201 225 255
202 225 255
202 225 255
202 225 255
202 225 255
202 225 255
202 225 255
202 225 255
202 225 255
202 225 255
202 225 255
202 225 255
202 225 255
202 225 255
202 225 255
202 225 255
203 225 255
203 225 255
203 225 255
203 225 255
203 225 255
203 225 255
203 225 255
203 225 255
203 226 255
203 226 255
203 226 255
203 226 255
203 226 255
203 226 255
203 226 255
204 226 255
204 226 255
204 226 255
204 226 255
204 226 255
204 226 255
204 226 255
204 226 255
204 226 255
204 226 255
204 226 255
204 226 255
204 226 255
204 226 255
204 226 255
204 226 255
204 226 255
205 226 255
205 226 255
205 226 255
205 226 255
205 226 255
205 226 255
205 226 255
205 227 255
205 227 255
205 227 255
205 227 255
205 227 255
205 227 255
205 227 255
205 227 255
205 227 255
205 227 255
205 227 255
206 227 255
206 227 255
206 227 255
206 227 255
206 227 255
206 227 255
206 227 255
206 227 255
206 227 255
206 227 255
206 227 255
206 227 255
206 227 255
206 227 255
206 227 255
206 227 255
206 227 255
206 227 255
207 227 255
207 227 255
206 227 255
206 227 255
206 227 255
206 227 255
206 227 255
206 227 255
206 227 255
206 227 255
206 227 255
206 227 255
206 227 255
206 227 255
206 227 255
206 227 255
206 227 255
206 227 255
206 227 255
206 227 255
206 227 255
205 227 255
205 227 255
205 227 255
205 227 255
205 227 255
205 227 255
205 227 255
205 227 255
205 227 255
205 227 255
205 227 255
205 226 255
205 226 255
205 226 255
205 226 255
205 226 255
205 226 255
205 226 255
204 226 255
204 226 255
204 226 255
204 226 255
204 226 255
204 226 255
204 226 255
204 226 255
204 226 255
204 226 255
204 226 255
204 226 255
204 226 255
204 226 255
204 226 255
204 226 255
203 226 255
203 226 255
203 226 255
203 226 255
203 226 255
203 226 255
203 226 255
203 225 255
203 225 255
203 225 255
203 225 255
203 225 255
203 225 255
203 225 255
203 225 255
203 225 255
202 225 255
202 225 255
202 225 255
202 225 255
202 225 255
202 225 255
202 225 255
202 225 255
202 225 255
202 225 255
202 225 255
202 225 255
202 225 255
202 225 255
202 225 255
201 225 255
201 225 255
201 225 255
201 225 255
201 224 255
201 224 255
201 224 255
201 224 255
201 224 255
201 224 255
201 224 255
201 224 255
201 224 255
201 224 255
200 224 255
200 224 255
200 224 255
200 224 255
200 224 255
200 224 255
200 224 255
200 224 255
200 224 255
200 224 255
200 224 255
200 224 255
200 224 255
200 224 255
200 224 255
199 224 255
199 224 255
199 223 255
199 223 255
199 223 255
199 223 255
199 223 255
199 223 255
199 223 255
199 223 255
199 223 255
199 223 255
199 223 255
199 223 255
199 223 255
198 223 255
198 223 255
198 223 255
198 223 255
198 223 255
198 223 255
198 223 255
198 223 255
198 223 255
198 223 255
198 223 255
198 223 255
198 223 255
198 223 255
198 223 255
198 223 255
198 223 255
197 223 255
197 222 255
197 222 255
197 222 255
197 222 255
197 222 255
197 222 255
197 222 255
197 222 255
197 222 255
197 222 255
197 222 255
197 222 255
197 222 255
197 222 255
197 222 255
197 222 255
197 222 255
197 222 255
197 222 255
197 222 255
197 222 255
196 222 255
196 222 255
196 222 255
196 222 255
196 222 255
196 222 255
196 222 255
196 222 255
196 222 255
196 222 255
196 222 255
196 222 255
196 222 255
196 222 255
196 222 255
196 222 255
196 222 255
196 222 255
196 222 255
196 222 255
196 222 255
196 222 255
196 222 255
196 222 255
196 222 255
196 222 255
196 222 255
196 222 255
196 222 255
196 222 255
196 222 255
196 222 255
196 222 255
196 222 255
196 222 255
196 222 255
196 222 255
196 222 255
196 222 255
196 222 255
196 222 255
196 222 255
196 222 255
196 222 255
196 222 255
196 222 255
196 222 255
196 222 255
196 222 255
196 222 255
196 222 255
196 222 255
196 222 255
196 222 255
196 222 255
196 222 255
196 222 255
196 222 255
196 222 255
196 222 255
196 222 255
196 222 255
197 222 255
197 222 255
197 222 255
197 222 255
197 222 255
197 222 255
197 222 255
197 222 255
197 222 255
197 222 255
197 222 255
197 222 255
197 222 255
197 222 255
197 222 255
197 222 255
197 222 255
197 222 255
197 222 255
197 222 255
197 222 255
197 223 255
198 223 255
198 223 255
198 223 255
198 223 255
198 223 255
198 223 255
198 223 255
198 223 255
198 223 255
198 223 255
198 223 255
198 223 255
198 223 255
198 223 255
198 223 255
198 223 255
198 223 255
199 223 255
199 223 255
199 223 255
199 223 255
199 223 255
199 223 255
199 223 255
199 223 255
199 223 255
199 223 255
199 223 255
199 223 255
199 223 255
199 224 255
199 224 255
200 224 255
200 224 255
200 224 255
200 224 255
200 224 255
200 224 255
200 224 255
200 224 255
200 224 255
200 224 255
200 224 255
200 224 255
200 224 255
200 224 255
200 224 255
201 224 255
201 224 255
201 224 255
201 224 255
201 224 255
201 224 255
201 224 255
201 224 255
201 224 255
201 224 255
201 225 255
201 225 255
201 225 255
201 225 255
202 225 255
202 225 255
202 225 255
202 225 255
202 225 255
202 225 255
202 225 255
202 225 255
202 225 255
202 225 255
202 225 255
202 225 255
202 225 255
202 225 255
202 225 255
203 225 255
203 225 255
203 225 255
203 225 255
203 225 255
203 225 255
203 225 255
203 225 255
203 225 255
203 226 255
203 226 255
203 226 255
203 226 255
203 226 255
203 226 255
203 226 255
204 226 255
204 226 255
204 226 255
204 226 255
204 226 255
204 226 255
204 226 255
204 226 255
204 226 255
204 226 255
204 226 255
204 226 255
204 226 255
204 226 255
204 226 255
204 226 255
205 226 255
205 226 255
205 226 255
205 226 255
205 226 255
205 226 255
205 226 255
205 227 255
205 227 255
205 227 255
205 227 255
205 227 255
205 227 255
205 227 255
205 227 255
205 227 255
205 227 255
205 227 255
206 227 255
206 227 255
206 227 255
206 227 255
206 227 255
206 227 255
206 227 255
206 227 255
206 227 255
206 227 255
206 227 255
206 227 255
206 227 255
206 227 255
206 227 255
206 227 255
206 227 255
206 227 255
206 227 255
207 227 255
207 227 255
207 227 255
207 227 255
207 227 255
207 227 255
206 227 255
206 227 255
206 227 255
206 227 255
206 227 255
206 227 255
206 227 255
206 227 255
206 227 255
206 227 255
206 227 255
206 227 255
206 227 255
206 227 255
206 227 255
206 227 255
206 227 255
206 227 255
206 227 255
206 227 255
205 227 255
205 227 255
205 227 255
205 227 255
205 227 255
205 227 255
205 227 255
205 227 255
205 227 255
205 227 255
205 226 255
205 226 255
205 226 255
205 226 255
205 226 255
205 226 255
205 226 255
204 226 255
204 226 255
204 226 255
204 226 255
204 226 255
204 226 255
204 226 255
204 226 255
204 226 255
204 226 255
204 226 255
204 226 255
204 226 255
204 226 255
204 226 255
204 226 255
204 226 255
203 226 255
203 226 255
203 226 255
203 226 255
203 226 255
203 226 255
203 225 255
203 225 255
203 225 255
203 225 255
203 225 255
203 225 255
203 225 255
203 225 255
203 225 255
202 225 255
202 225 255
202 225 255
202 225 255
202 225 255
202 225 255
202 225 255
202 225 255
202 225 255
202 225 255
202 225 255
202 225 255
202 225 255
202 225 255
202 225 255
201 225 255
201 225 255
201 225 255
201 225 255
201 224 255
201 224 255
201 224 255
201 224 255
201 224 255
201 224 255
201 224 255
201 224 255
201 224 255
201 224 255
201 224 255
200 224 255
200 224 255
200 224 255
200 224 255
200 224 255
200 224 255
200 224 255
200 224 255
200 224 255
200 224 255
200 224 255
200 224 255
200 224 255
200 224 255
199 224 255
199 224 255
199 224 255
199 223 255
199 223 255
199 223 255
199 223 255
199 223 255
199 223 255
199 223 255
199 223 255
199 223 255
199 223 255
199 223 255
199 223 255
199 223 255
198 223 255
198 223 255
198 223 255
198 223 255
198 223 255
198 223 255
198 223 255
198 223 255
198 223 255
198 223 255
198 223 255
198 223 255
198 223 255
198 223 255
198 223 255
198 223 255
198 223 255
197 223 255
197 222 255
197 222 255
197 222 255
197 222 255
197 222 255
197 222 255
197 222 255
197 222 255
197 222 255
197 222 255
197 222 255
197 222 255
197 222 255
197 222 255
197 222 255
197 222 255
197 222 255
197 222 255
197 222 255
197 222 255
197 222 255
197 222 255
197 222 255
196 222 255
196 222 255
196 222 255
196 222 255
196 222 255
196 222 255
196 222 255
196 222 255
196 222 255
196 222 255
196 222 255
196 222 255
196 222 255
196 222 255
196 222 255
196 222 255
196 222 255
196 222 255
196 222 255
196 222 255
196 222 255
196 222 255
196 222 255
196 222 255
196 222 255
196 222 255
196 222 255
196 222 255
196 222 255
196 222 255
196 222 255
196 222 255
196 222 255
196 222 255
196 222 255
196 222 255
196 222 255
196 222 255
196 222 255
196 222 255
196 222 255
196 222 255
196 222 255
196 222 255
196 222 255
196 222 255
196 222 255
196 222 255
196 222 255
196 222 255
196 222 255
196 222 255
197 222 255
197 222 255
197 222 255
197 222 255
197 222 255
197 222 255
197 222 255
197 222 255
197 222 255
197 222 255
197 222 255
197 222 255
197 222 255
197 222 255
197 222 255
197 222 255
197 222 255
197 222 255
197 222 255
197 222 255
197 222 255
197 222 255
197 222 255
197 223 255
198 223 255
198 223 255
198 223 255
198 223 255
198 223 255
198 223 255
198 223 255
198 223 255
198 223 255
198 223 255
198 223 255
198 223 255
198 223 255
198 223 255
198 223 255
198 223 255
198 223 255
199 223 255
199 223 255
199 223 255
199 223 255
199 223 255
199 223 255
199 223 255
199 223 255
199 223 255
199 223 255
199 223 255
199 223 255
199 223 255
199 224 255
199 224 255
199 224 255
200 224 255
200 224 255
200 224 255
200 224 255
200 224 255
200 224 255
200 224 255
200 224 255
200 224 255
200 224 255
200 224 255
200 224 255
200 224 255
200 224 255
201 224 255
201 224 255
201 224 255
201 224 255
201 224 255
201 224 255
201 224 255
201 224 255
201 224 255
201 224 255
201 224 255
201 225 255
201 225 255
201 225 255
201 225 255
202 225 255
202 225 255
202 225 255
202 225 255
202 225 255
202 225 255
202 225 255
202 225 255
202 225 255
202 225 255
202 225 255
202 225 255
202 225 255
202 225 255
202 225 255
203 225 255
203 225 255
203 225 255
203 225 255
203 225 255
203 225 255
203 225 255
203 225 255
203 226 255
203 226 255
203 226 255
203 226 255
203 226 255
203 226 255
203 226 255
204 226 255
204 226 255
204 226 255
204 226 255
204 226 255
204 226 255
204 226 255
204 226 255
204 226 255
204 226 255
204 226 255
204 226 255
204 226 255
204 226 255
204 226 255
204 226 255
204 226 255
205 226 255
205 226 255
205 226 255
205 226 255
205 226 255
205 226 255
205 226 255
205 227 255
205 227 255
205 227 255
205 227 255
205 227 255
205 227 255
205 227 255
205 227 255
205 227 255
205 227 255
206 227 255
206 227 255
206 227 255
206 227 255
206 227 255
206 227 255
206 227 255
206 227 255
206 227 255
206 227 255
206 227 255
206 227 255
206 227 255
206 227 255
206 227 255
206 227 255
206 227 255
206 227 255
206 227 255
207 227 255
207 227 255
207 227 255
207 227 255
207 227 255
207 228 255
207 228 255
207 227 255
207 227 255
207 227 255
207 227 255
207 227 255
206 227 255
206 227 255
206 227 255
206 227 255
206 227 255
206 227 255
206 227 255
206 227 255
206 227 255
206 227 255
206 227 255
206 227 255
206 227 255
206 227 255
206 227 255
206 227 255
206 227 255
206 227 255
206 227 255
205 227 255
205 227 255
205 227 255
205 227 255
205 227 255
205 227 255
205 227 255
205 227 255
205 227 255
205 227 255
205 227 255
205 226 255
205 226 255
205 226 255
205 226 255
205 226 255
205 226 255
205 226 255
204 226 255
204 226 255
204 226 255
204 226 255
204 226 255
204 226 255
204 226 255
204 226 255
204 226 255
204 226 255
204 226 255
204 226 255
204 226 255
204 226 255
204 226 255
204 226 255
203 226 255
203 226 255
203 226 255
203 226 255
203 226 255
203 226 255
203 226 255
203 225 255
203 225 255
203 225 255
203 225 255
203 225 255
203 225 255
203 225 255
203 225 255
203 225 255
202 225 255
202 225 255
202 225 255
202 225 255
202 225 255
202 225 255
202 225 255
202 225 255
202 225 255
202 225 255
202 225 255
202 225 255
202 225 255
202 225 255
201 225 255
201 225 255
201 225 255
201 225 255
201 225 255
201 224 255
201 224 255
201 224 255
201 224 255
201 224 255
201 224 255
201 224 255
201 224 255
201 224 255
201 224 255
200 224 255
200 224 255
200 224 255
200 224 255
200 224 255
200 224 255
200 224 255
200 224 255
200 224 255
200 224 255
200 224 255
200 224 255
200 224 255
200 224 255
200 224 255
199 224 255
199 224 255
199 223 255
199 223 255
199 223 255
199 223 255
199 223 255
199 223 255
199 223 255
199 223 255
199 223 255
199 223 255
199 223 255
199 223 255
199 223 255
199 223 255
198 223 255
198 223 255
198 223 255
198 223 255
198 223 255
198 223 255
198 223 255
198 223 255
198 223 255
198 223 255
198 223 255
198 223 255
198 223 255
198 223 255
198 223 255
198 223 255
198 223 255
197 223 255
197 222 255
197 222 255
197 222 255
197 222 255
197 222 255
197 222 255
197 222 255
197 222 255
197 222 255
197 222 255
197 222 255
197 222 255
197 222 255
197 222 255
197 222 255
197 222 255
197 222 255
197 222 255
197 222 255
197 222 255
197 222 255
197 222 255
197 222 255
197 222 255
197 222 255
197 222 255
196 222 255
196 222 255
196 222 255
196 222 255
196 222 255
196 222 255
196 222 255
196 222 255
196 222 255
196 222 255
196 222 255
196 222 255
196 222 255
196 222 255
196 222 255
196 222 255
196 222 255
196 222 255
196 222 255
196 222 255
196 222 255
196 222 255
196 222 255
196 222 255
196 222 255
196 222 255
196 222 255
196 222 255
196 222 255
196 222 255
196 222 255
196 222 255
196 222 255
196 222 255
196 222 255
196 222 255
196 222 255
196 222 255
196 222 255
196 222 255
197 222 255
197 222 255
197 222 255
197 222 255
197 222 255
197 222 255
197 222 255
197 222 255
197 222 255
197 222 255
197 222 255
197 222 255
197 222 255
197 222 255
197 222 255
197 222 255
197 222 255
197 222 255
197 222 255
197 222 255
197 222 255
197 222 255
197 222 255
197 222 255
197 222 255
197 222 255
198 223 255
198 223 255
198 223 255
198 223 255
198 223 255
198 223 255
198 223 255
198 223 255
198 223 255
198 223 255
198 223 255
198 223 255
198 223 255
198 223 255
198 223 255
198 223 255
198 223 255
198 223 255
199 223 255
199 223 255
199 223 255
199 223 255
199 223 255
199 223 255
199 223 255
199 223 255
199 223 255
199 223 255
199 223 255
199 223 255
199 223 255
199 223 255
199 224 255
199 224 255
200 224 255
200 224 255
200 224 255
200 224 255
200 224 255
200 224 255
200 224 255
200 224 255
200 224 255
200 224 255
200 224 255
200 224 255
200 224 255
200 224 255
200 224 255
201 224 255
201 224 255
201 224 255
201 224 255
201 224 255
201 224 255
201 224 255
201 224 255
201 224 255
201 224 255
201 225 255
201 225 255
201 225 255
201 225 255
201 225 255
202 225 255
202 225 255
202 225 255
202 225 255
202 225 255
202 225 255
202 225 255
202 225 255
202 225 255
202 225 255
202 225 255
202 225 255
202 225 255
202 225 255
202 225 255
203 225 255
203 225 255
203 225 255
203 225 255
203 225 255
203 225 255
203 225 255
203 225 255
203 226 255
203 226 255
203 226 255
203 226 255
203 226 255
203 226 255
203 226 255
204 226 255
204 226 255
204 226 255
204 226 255
204 226 255
204 226 255
204 226 255
204 226 255
204 226 255
204 226 255
204 226 255
204 226 255
204 226 255
204 226 255
204 226 255
204 226 255
205 226 255
205 226 255
205 226 255
205 226 255
205 226 255
205 226 255
205 226 255
205 227 255
205 227 255
205 227 255
205 227 255
205 227 255
205 227 255
205 227 255
205 227 255
205 227 255
205 227 255
205 227 255
206 227 255
206 227 255
206 227 255
206 227 255
206 227 255
206 227 255
206 227 255
206 227 255
206 227 255
206 227 255
206 227 255
206 227 255
206 227 255
206 227 255
206 227 255
206 227 255
206 227 255
206 227 255
206 227 255
207 227 255
207 227 255
207 227 255
207 227 255
207 227 255
207 228 255
207 228 255
207 228 255
207 228 255
207 228 255
207 228 255
207 228 255
207 227 255
207 227 255
207 227 255
207 227 255
207 227 255
206 227 255
206 227 255
206 227 255
206 227 255
206 227 255
206 227 255
206 227 255
206 227 255
206 227 255
206 227 255
206 227 255
206 227 255
206 227 255
206 227 255
206 227 255
206 227 255
206 227 255
206 227 255
206 227 255
205 227 255
205 227 255
205 227 255
205 227 255
205 227 255
205 227 255
205 227 255
205 227 255
205 227 255
205 227 255
205 226 255
205 226 255
205 226 255
205 226 255
205 226 255
205 226 255
205 226 255
204 226 255
204 226 255
204 226 255
204 226 255
204 226 255
204 226 255
204 226 255
204 226 255
204 226 255
204 226 255
204 226 255
204 226 255
204 226 255
204 226 255
204 226 255
204 226 255
204 226 255
203 226 255
203 226 255
203 226 255
203 226 255
203 226 255
203 226 255
203 225 255
203 225 255
203 225 255
203 225 255
203 225 255
203 225 255
203 225 255
203 225 255
203 225 255
202 225 255
202 225 255
202 225 255
202 225 255
202 225 255
202 225 255
202 225 255
202 225 255
202 225 255
202 225 255
202 225 255
202 225 255
202 225 255
202 225 255
202 225 255
201 225 255
201 225 255
201 225 255
201 225 255
201 224 255
201 224 255
201 224 255
201 224 255
201 224 255
201 224 255
201 224 255
201 224 255
201 224 255
201 224 255
201 224 255
200 224 255
200 224 255
200 224 255
200 224 255
200 224 255
200 224 255
200 224 255
200 224 255
200 224 255
200 224 255
200 224 255
200 224 255
200 224 255
200 224 255
200 224 255
199 224 255
199 224 255
199 223 255
199 223 255
199 223 255
199 223 255
199 223 255
199 223 255
199 223 255
199 223 255
199 223 255
199 223 255
199 223 255
199 223 255
199 223 255
198 223 255
198 223 255
198 223 255
198 223 255
198 223 255
198 223 255
198 223 255
198 223 255
198 223 255
198 223 255
198 223 255
198 223 255
198 223 255
198 223 255
198 223 255
198 223 255
198 223 255
198 223 255
198 223 255
197 223 255
197 222 255
197 222 255
197 222 255
197 222 255
197 222 255
197 222 255
197 222 255
197 222 255
197 222 255
197 222 255
197 222 255
197 222 255
197 222 255
197 222 255
197 222 255
197 222 255
197 222 255
197 222 255
197 222 255
197 222 255
197 222 255
197 222 255
197 222 255
197 222 255
197 222 255
197 222 255
197 222 255
197 222 255
197 222 255
197 222 255
196 222 255
196 222 255
196 222 255
196 222 255
196 222 255
196 222 255
196 222 255
196 222 255
196 222 255
196 222 255
196 222 255
196 222 255
196 222 255
196 222 255
196 222 255
196 222 255
196 222 255
196 222 255
196 222 255
196 222 255
196 222 255
196 222 255
196 222 255
197 222 255
197 222 255
197 222 255
197 222 255
197 222 255
197 222 255
197 222 255
197 222 255
197 222 255
197 222 255
197 222 255
197 222 255
197 222 255
197 222 255
197 222 255
197 222 255
197 222 255
197 222 255
197 222 255
197 222 255
197 222 255
197 222 255
197 222 255
197 222 255
197 222 255
197 222 255
197 222 255
197 222 255
197 222 255
197 222 255
197 222 255
197 223 255
198 223 255
198 223 255
198 223 255
198 223 255
198 223 255
198 223 255
198 223 255
198 223 255
198 223 255
198 223 255
198 223 255
198 223 255
198 223 255
198 223 255
198 223 255
198 223 255
198 223 255
198 223 255
198 223 255
199 223 255
199 223 255
199 223 255
199 223 255
199 223 255
199 223 255
199 223 255
199 223 255
199 223 255
199 223 255
199 223 255
199 223 255
199 223 255
199 224 255
199 224 255
200 224 255
200 224 255
200 224 255
200 224 255
200 224 255
200 224 255
200 224 255
200 224 255
200 224 255
200 224 255
200 224 255
200 224 255
200 224 255
200 224 255
200 224 255
201 224 255
201 224 255
201 224 255
201 224 255
201 224 255
201 224 255
201 224 255
201 224 255
201 224 255
201 224 255
201 224 255
201 225 255
201 225 255
201 225 255
201 225 255
202 225 255
202 225 255
202 225 255
202 225 255
202 225 255
202 225 255
202 225 255
202 225 255
202 225 255
202 225 255
202 225 255
202 225 255
202 225 255
202 225 255
202 225 255
203 225 255
203 225 255
203 225 255
203 225 255
203 225 255
203 225 255
203 225 255
203 225 255
203 225 255
203 226 255
203 226 255
203 226 255
203 226 255
203 226 255
203 226 255
203 226 255
204 226 255
204 226 255
204 226 255
204 226 255
204 226 255
204 226 255
204 226 255
204 226 255
204 226 255
204 226 255
204 226 255
204 226 255
204 226 255
204 226 255
204 226 255
204 226 255
205 226 255
205 226 255
205 226 255
205 226 255
205 226 255
205 226 255
205 227 255
205 227 255
205 227 255
205 227 255
205 227 255
205 227 255
205 227 255
205 227 255
205 227 255
205 227 255
205 227 255
206 227 255
206 227 255
206 227 255
206 227 255
206 227 255
206 227 255
206 227 255
206 227 255
206 227 255
206 227 255
206 227 255
206 227 255
206 227 255
206 227 255
206 227 255
206 227 255
206 227 255
206 227 255
206 227 255
207 227 255
207 227 255
207 227 255
207 227 255
207 227 255
207 228 255
207 228 255
207 228 255
207 228 255
207 228 255
207 228 255
207 228 255
207 228 255
207 228 255
207 228 255
207 228 255
207 228 255
207 228 255
207 227 255
207 227 255
207 227 255
207 227 255
207 227 255
206 227 255
206 227 255
206 227 255
206 227 255
206 227 255
206 227 255
206 227 255
206 227 255
206 227 255
206 227 255
206 227 255
206 227 255
206 227 255
206 227 255
206 227 255
206 227 255
206 227 255
206 227 255
206 227 255
205 227 255
205 227 255
205 227 255
205 227 255
205 227 255
205 227 255
205 227 255
205 227 255
205 227 255
205 227 255
205 226 255
205 226 255
205 226 255
205 226 255
205 226 255
205 226 255
205 226 255
204 226 255
204 226 255
204 226 255
204 226 255
204 226 255
204 226 255
204 226 255
204 226 255
204 226 255
204 226 255
204 226 255
204 226 255
204 226 255
204 226 255
204 226 255
204 226 255
203 226 255
203 226 255
203 226 255
203 226 255
203 226 255
203 226 255
203 226 255
203 225 255
203 225 255
203 225 255
203 225 255
203 225 255
203 225 255
203 225 255
203 225 255
202 225 255
202 225 255
202 225 255
202 225 255
202 225 255
202 225 255
202 225 255
202 225 255
202 225 255
202 225 255
202 225 255
202 225 255
202 225 255
202 225 255
202 225 255
201 225 255
201 225 255
201 225 255
201 225 255
201 225 255
201 224 255
201 224 255
201 224 255
201 224 255
201 224 255
201 224 255
201 224 255
201 224 255
201 224 255
201 224 255
200 224 255
200 224 255
200 224 255
200 224 255
200 224 255
200 224 255
200 224 255
200 224 255
200 224 255
200 224 255
200 224 255
200 224 255
200 224 255
200 224 255
200 224 255
199 224 255
199 224 255
199 224 255
199 223 255
199 223 255
199 223 255
199 223 255
199 223 255
199 223 255
199 223 255
199 223 255
199 223 255
199 223 255
199 223 255
199 223 255
199 223 255
199 223 255
198 223 255
198 223 255
198 223 255
198 223 255
198 223 255
198 223 255
198 223 255
198 223 255
198 223 255
198 223 255
198 223 255
198 223 255
198 223 255
198 223 255
198 223 255
198 223 255
198 223 255
198 223 255
198 223 255
197 223 255
197 222 255
197 222 255
197 222 255
197 222 255
197 222 255
197 222 255
197 222 255
197 222 255
197 222 255
197 222 255
197 222 255
197 222 255
197 222 255
197 222 255
197 222 255
197 222 255
197 222 255
197 222 255
197 222 255
197 222 255
197 222 255
197 222 255
197 222 255
197 222 255
197 222 255
197 222 255
197 222 255
197 222 255
197 222 255
197 222 255
197 222 255
197 222 255
197 222 255
197 222 255
197 222 255
197 222 255
197 222 255
197 222 255
197 222 255
197 222 255
197 222 255
197 222 255
197 222 255
197 222 255
197 222 255
197 222 255
197 222 255
197 222 255
197 222 255
197 222 255
197 222 255
197 222 255
197 222 255
197 222 255
197 222 255
197 222 255
197 222 255
197 222 255
197 222 255
197 222 255
197 222 255
197 222 255
197 222 255
197 222 255
197 222 255
197 222 255
197 222 255
197 222 255
197 222 255
197 222 255
197 222 255
197 222 255
197 222 255
197 222 255
197 222 255
197 222 255
197 223 255
198 223 255
198 223 255
198 223 255
198 223 255
198 223 255
198 223 255
198 223 255
198 223 255
198 223 255
198 223 255
198 223 255
198 223 255
198 223 255
198 223 255
198 223 255
198 223 255
198 223 255
198 223 255
198 223 255
198 223 255
199 223 255
199 223 255
199 223 255
199 223 255
199 223 255
199 223 255
199 223 255
199 223 255
199 223 255
199 223 255
199 223 255
199 223 255
199 223 255
199 224 255
199 224 255
199 224 255
200 224 255
200 224 255
200 224 255
200 224 255
200 224 255
200 224 255
200 224 255
200 224 255
200 224 255
200 224 255
200 224 255
200 224 255
200 224 255
200 224 255
200 224 255
201 224 255
201 224 255
201 224 255
201 224 255
201 224 255
201 224 255
201 224 255
201 224 255
201 224 255
201 224 255
201 225 255
201 225 255
201 225 255
201 225 255
201 225 255
202 225 255
202 225 255
202 225 255
202 225 255
202 225 255
202 225 255
202 225 255
202 225 255
202 225 255
202 225 255
202 225 255
202 225 255
202 225 255
202 225 255
202 225 255
203 225 255
203 225 255
203 225 255
203 225 255
203 225 255
203 225 255
203 225 255
203 225 255
203 226 255
203 226 255
203 226 255
203 226 255
203 226 255
203 226 255
203 226 255
204 226 255
204 226 255
204 226 255
204 226 255
204 226 255
204 226 255
204 226 255
204 226 255
204 226 255
204 226 255
204 226 255
204 226 255
204 226 255
204 226 255
204 226 255
204 226 255
205 226 255
205 226 255
205 226 255
205 226 255
205 226 255
205 226 255
205 226 255
205 227 255
205 227 255
205 227 255
205 227 255
205 227 255
205 227 255
205 227 255
205 227 255
205 227 255
205 227 255
205 227 255
206 227 255
206 227 255
206 227 255
206 227 255
206 227 255
206 227 255
206 227 255
206 227 255
206 227 255
206 227 255
206 227 255
206 227 255
206 227 255
206 227 255
206 227 255
206 227 255
206 227 255
206 227 255
207 227 255
207 227 255
207 227 255
207 227 255
207 227 255
207 228 255
207 228 255
207 228 255
207 228 255
207 228 255
207 228 255
207 228 255
207 228 255
207 228 255
207 228 255
207 228 255
207 228 255
207 228 255
207 228 255
207 228 255
207 228 255
207 228 255
207 228 255
207 228 255
207 227 255
207 227 255
207 227 255
207 227 255
207 227 255
206 227 255
206 227 255
206 227 255
206 227 255
206 227 255
206 227 255
206 227 255
206 227 255
206 227 255
206 227 255
206 227 255
206 227 255
206 227 255
206 227 255
206 227 255
206 227 255
206 227 255
206 227 255
205 227 255
205 227 255
205 227 255
205 227 255
205 227 255
205 227 255
205 227 255
205 227 255
205 227 255
205 227 255
205 227 255
205 226 255
205 226 255
205 226 255
205 226 255
205 226 255
205 226 255
205 226 255
204 226 255
204 226 255
204 226 255
204 226 255
204 226 255
204 226 255
204 226 255
204 226 255
204 226 255
204 226 255
204 226 255
204 226 255
204 226 255
204 226 255
204 226 255
203 226 255
203 226 255
203 226 255
203 226 255
203 226 255
203 226 255
203 226 255
203 225 255
203 225 255
203 225 255
203 225 255
203 225 255
203 225 255
203 225 255
203 225 255
203 225 255
202 225 255
202 225 255
202 225 255
202 225 255
202 225 255
202 225 255
202 225 255
202 225 255
202 225 255
202 225 255
202 225 255
202 225 255
202 225 255
202 225 255
202 225 255
201 225 255
201 225 255
201 225 255
201 225 255
201 224 255
201 224 255
201 224 255
201 224 255
201 224 255
201 224 255
201 224 255
201 224 255
201 224 255
201 224 255
201 224 255
200 224 255
200 224 255
200 224 255
200 224 255
200 224 255
200 224 255
200 224 255
200 224 255
200 224 255
200 224 255
200 224 255
200 224 255
200 224 255
200 224 255
200 224 255
199 224 255
199 224 255
199 223 255
199 223 255
199 223 255
199 223 255
199 223 255
199 223 255
199 223 255
199 223 255
199 223 255
199 223 255
199 223 255
199 223 255
199 223 255
199 223 255
198 223 255
198 223 255
198 223 255
198 223 255
198 223 255
198 223 255
198 223 255
198 223 255
198 223 255
198 223 255
198 223 255
198 223 255
198 223 255
198 223 255
198 223 255
198 223 255
198 223 255
198 223 255
198 223 255
198 223 255
198 223 255
197 223 255
197 222 255
197 222 255
197 222 255
197 222 255
197 222 255
197 222 255
197 222 255
197 222 255
197 222 255
197 222 255
197 222 255
197 222 255
197 222 255
197 222 255
197 222 255
197 222 255
197 222 255
197 222 255
197 222 255
197 222 255
197 222 255
197 222 255
197 222 255
197 222 255
197 222 255
197 222 255
197 222 255
197 222 255
197 222 255
197 222 255
197 222 255
197 222 255
197 222 255
197 222 255
197 222 255
197 222 255
197 222 255
197 222 255
197 222 255
197 222 255
197 222 255
197 222 255
197 222 255
197 222 255
197 222 255
197 222 255
197 222 255
197 222 255
197 222 255
197 222 255
197 222 255
197 222 255
197 222 255
197 222 255
197 222 255
197 222 255
197 222 255
197 222 255
197 222 255
197 222 255
197 222 255
197 222 255
197 222 255
197 222 255
197 222 255
197 222 255
197 222 255
197 222 255
197 223 255
198 223 255
198 223 255
198 223 255
198 223 255
198 223 255
198 223 255
198 223 255
198 223 255
198 223 255
198 223 255
198 223 255
198 223 255
198 223 255
198 223 255
198 223 255
198 223 255
198 223 255
198 223 255
198 223 255
198 223 255
198 223 255
199 223 255
199 223 255
199 223 255
199 223 255
199 223 255
199 223 255
199 223 255
199 223 255
199 223 255
199 223 255
199 223 255
199 223 255
199 223 255
199 224 255
199 224 255
199 224 255
200 224 255
200 224 255
200 224 255
200 224 255
200 224 255
200 224 255
200 224 255
200 224 255
200 224 255
200 224 255
200 224 255
200 224 255
200 224 255
200 224 255
200 224 255
201 224 255
201 224 255
201 224 255
201 224 255
201 224 255
201 224 255
201 224 255
201 224 255
201 224 255
201 224 255
201 224 255
201 225 255
201 225 255
201 225 255
201 225 255
202 225 255
202 225 255
202 225 255
202 225 255
202 225 255
202 225 255
202 225 255
202 225 255
202 225 255
202 225 255
202 225 255
202 225 255
202 225 255
202 225 255
202 225 255
203 225 255
203 225 255
203 225 255
203 225 255
203 225 255
203 225 255
203 225 255
203 225 255
203 225 255
203 226 255
203 226 255
203 226 255
203 226 255
203 226 255
203 226 255
204 226 255
204 226 255
204 226 255
204 226 255
204 226 255
204 226 255
204 226 255
204 226 255
204 226 255
204 226 255
204 226 255
204 226 255
204 226 255
204 226 255
204 226 255
204 226 255
204 226 255
205 226 255
205 226 255
205 226 255
205 226 255
205 226 255
205 226 255
205 227 255
205 227 255
205 227 255
205 227 255
205 227 255
205 227 255
205 227 255
205 227 255
205 227 255
205 227 255
205 227 255
206 227 255
206 227 255
206 227 255
206 227 255
206 227 255
206 227 255
206 227 255
206 227 255
206 227 255
206 227 255
206 227 255
206 227 255
206 227 255
206 227 255
206 227 255
206 227 255
206 227 255
206 227 255
207 227 255
207 227 255
207 227 255
207 227 255
207 227 255
207 228 255
207 228 255
207 228 255
207 228 255
207 228 255
207 228 255
207 228 255
207 228 255
207 228 255
207 228 255
207 228 255
207 228 255
207 228 255
207 228 255
207 228 255
207 228 255
207 228 255
207 228 255
207 228 255
207 228 255
207 228 255
207 228 255
207 228 255
207 228 255
207 228 255
207 227 255
207 227 255
207 227 255
207 227 255
207 227 255
206 227 255
206 227 255
206 227 255
206 227 255
206 227 255
206 227 255
206 227 255
206 227 255
206 227 255
206 227 255
206 227 255
206 227 255
206 227 255
206 227 255
206 227 255
206 227 255
206 227 255
206 227 255
205 227 255
205 227 255
205 227 255
205 227 255
205 227 255
205 227 255
205 227 255
205 227 255
205 227 255
205 227 255
205 226 255
205 226 255
205 226 255
205 226 255
205 226 255
205 226 255
205 226 255
204 226 255
204 226 255
204 226 255
204 226 255
204 226 255
204 226 255
204 226 255
204 226 255
204 226 255
204 226 255
204 226 255
204 226 255
204 226 255
204 226 255
204 226 255
204 226 255
203 226 255
203 226 255
203 226 255
203 226 255
203 226 255
203 226 255
203 226 255
203 225 255
203 225 255
203 225 255
203 225 255
203 225 255
203 225 255
203 225 255
203 225 255
202 225 255
202 225 255
202 225 255
202 225 255
202 225 255
202 225 255
202 225 255
202 225 255
202 225 255
202 225 255
202 225 255
202 225 255
202 225 255
202 225 255
202 225 255
201 225 255
201 225 255
201 225 255
201 225 255
201 225 255
201 224 255
201 224 255
201 224 255
201 224 255
201 224 255
201 224 255
201 224 255
201 224 255
201 224 255
201 224 255
200 224 255
200 224 255
200 224 255
200 224 255
200 224 255
200 224 255
200 224 255
200 224 255
200 224 255
200 224 255
200 224 255
200 224 255
200 224 255
200 224 255
200 224 255
200 224 255
199 224 255
199 224 255
199 223 255
199 223 255
199 223 255
199 223 255
199 223 255
199 223 255
199 223 255
199 223 255
199 223 255
199 223 255
199 223 255
199 223 255
199 223 255
199 223 255
199 223 255
198 223 255
198 223 255
198 223 255
198 223 255
198 223 255
198 223 255
198 223 255
198 223 255
198 223 255
198 223 255
198 223 255
198 223 255
198 223 255
198 223 255
198 223 255
198 223 255
198 223 255
198 223 255
198 223 255
198 223 255
198 223 255
198 223 255
197 223 255
197 222 255
197 222 255
197 222 255
197 222 255
197 222 255
197 222 255
197 222 255
197 222 255
197 222 255
197 222 255
197 222 255
197 222 255
197 222 255
197 222 255
197 222 255
197 222 255
197 222 255
197 222 255
197 222 255
197 222 255
197 222 255
197 222 255
197 222 255
197 222 255
197 222 255
197 222 255
197 222 255
197 222 255
197 222 255
197 222 255
197 222 255
197 222 255
197 222 255
197 222 255
197 222 255
197 222 255
197 222 255
197 222 255
197 222 255
197 222 255
197 222 255
197 222 255
197 222 255
197 222 255
197 222 255
197 222 255
197 222 255
197 222 255
197 222 255
197 222 255
197 222 255
197 222 255
197 222 255
197 222 255
197 222 255
197 222 255
197 222 255
197 222 255
197 223 255
198 223 255
198 223 255
198 223 255
198 223 255
198 223 255
198 223 255
198 223 255
198 223 255
198 223 255
198 223 255
198 223 255
198 223 255
198 223 255
198 223 255
198 223 255
198 223 255
198 223 255
198 223 255
198 223 255
198 223 255
198 223 255
198 223 255
199 223 255
199 223 255
199 223 255
199 223 255
199 223 255
199 223 255
199 223 255
199 223 255
199 223 255
199 223 255
199 223 255
199 223 255
199 223 255
199 223 255
199 223 255
199 224 255
199 224 255
200 224 255
200 224 255
200 224 255
200 224 255
200 224 255
200 224 255
200 224 255
200 224 255
200 224 255
200 224 255
200 224 255
200 224 255
200 224 255
200 224 255
200 224 255
200 224 255
201 224 255
201 224 255
201 224 255
201 224 255
201 224 255
201 224 255
201 224 255
201 224 255
201 224 255
201 224 255
201 225 255
201 225 255
201 225 255
201 225 255
201 225 255
202 225 255
202 225 255
202 225 255
202 225 255
202 225 255
202 225 255
202 225 255
202 225 255
202 225 255
202 225 255
202 225 255
202 225 255
202 225 255
202 225 255
203 225 255
203 225 255
203 225 255
203 225 255
203 225 255
203 225 255
203 225 255
203 225 255
203 225 255
203 226 255
203 226 255
203 226 255
203 226 255
203 226 255
203 226 255
203 226 255
204 226 255
204 226 255
204 226 255
204 226 255
204 226 255
204 226 255
204 226 255
204 226 255
204 226 255
204 226 255
204 226 255
204 226 255
204 226 255
204 226 255
204 226 255
204 226 255
205 226 255
205 226 255
205 226 255
205 226 255
205 226 255
205 226 255
205 226 255
205 227 255
205 227 255
205 227 255
205 227 255
205 227 255
205 227 255
205 227 255
205 227 255
205 227 255
205 227 255
206 227 255
206 227 255
206 227 255
206 227 255
206 227 255
206 227 255
206 227 255
206 227 255
206 227 255
206 227 255
206 227 255
206 227 255
206 227 255
206 227 255
206 227 255
206 227 255
206 227 255
206 227 255
206 227 255
207 227 255
207 227 255
207 227 255
207 227 255
207 228 255
207 228 255
207 228 255
207 228 255
207 228 255
207 228 255
207 228 255
207 228 255
207 228 255
207 228 255
207 228 255
207 228 255
207 228 255
207 228 255
208 228 255
207 228 255
207 228 255
207 228 255
207 228 255
207 228 255
207 228 255
207 228 255
207 228 255
207 228 255
207 228 255
207 228 255
207 228 255
207 228 255
207 228 255
207 228 255
207 227 255
207 227 255
207 227 255
207 227 255
207 227 255
206 227 255
206 227 255
206 227 255
206 227 255
206 227 255
206 227 255
206 227 255
206 227 255
206 227 255
206 227 255
206 227 255
206 227 255
206 227 255
206 227 255
206 227 255
206 227 255
206 227 255
206 227 255
206 227 255
205 227 255
205 227 255
205 227 255
205 227 255
205 227 255
205 227 255
205 227 255
205 227 255
205 227 255
205 227 255
205 226 255
205 226 255
205 226 255
205 226 255
205 226 255
205 226 255
205 226 255
204 226 255
204 226 255
204 226 255
204 226 255
204 226 255
204 226 255
204 226 255
204 226 255
204 226 255
204 226 255
204 226 255
204 226 255
204 226 255
204 226 255
204 226 255
204 226 255
203 226 255
203 226 255
203 226 255
203 226 255
203 226 255
203 226 255
203 226 255
203 225 255
203 225 255
203 225 255
203 225 255
203 225 255
203 225 255
203 225 255
203 225 255
202 225 255
202 225 255
202 225 255
202 225 255
202 225 255
202 225 255
202 225 255
202 225 255
202 225 255
202 225 255
202 225 255
202 225 255
202 225 255
202 225 255
202 225 255
201 225 255
201 225 255
201 225 255
201 225 255
201 224 255
201 224 255
201 224 255
201 224 255
201 224 255
201 224 255
201 224 255
201 224 255
201 224 255
201 224 255
201 224 255
200 224 255
200 224 255
200 224 255
200 224 255
200 224 255
200 224 255
200 224 255
200 224 255
200 224 255
200 224 255
200 224 255
200 224 255
200 224 255
200 224 255
200 224 255
199 224 255
199 224 255
199 224 255
199 223 255
199 223 255
199 223 255
199 223 255
199 223 255
199 223 255
199 223 255
199 223 255
199 223 255
199 223 255
199 223 255
199 223 255
199 223 255
199 223 255
199 223 255
198 223 255
198 223 255
198 223 255
198 223 255
198 223 255
198 223 255
198 223 255
198 223 255
198 223 255
198 223 255
198 223 255
198 223 255
198 223 255
198 223 255
198 223 255
198 223 255
198 223 255
198 223 255
198 223 255
198 223 255
198 223 255
198 223 255
198 223 255
198 223 255
197 223 255
197 222 255
197 222 255
197 222 255
197 222 255
197 222 255
197 222 255
197 222 255
197 222 255
197 222 255
197 222 255
197 222 255
197 222 255
197 222 255
197 222 255
197 222 255
197 222 255
197 222 255
197 222 255
197 222 255
197 222 255
197 222 255
197 222 255
197 222 255
197 222 255
197 222 255
197 222 255
197 222 255
197 222 255
197 222 255
197 222 255
197 222 255
197 222 255
197 222 255
197 222 255
197 222 255
197 222 255
197 222 255
197 222 255
197 222 255
197 222 255
197 222 255
197 222 255
197 222 255
197 222 255
197 222 255
197 222 255
197 222 255
197 222 255
198 223 255
198 223 255
198 223 255
198 223 255
198 223 255
198 223 255
198 223 255
198 223 255
198 223 255
198 223 255
198 223 255
198 223 255
198 223 255
198 223 255
198 223 255
198 223 255
198 223 255
198 223 255
198 223 255
198 223 255
198 223 255
198 223 255
198 223 255
198 223 255
198 223 255
199 223 255
199 223 255
199 223 255
199 223 255
199 223 255
199 223 255
199 223 255
199 223 255
199 223 255
199 223 255
199 223 255
199 223 255
199 223 255
199 223 255
199 223 255
199 224 255
199 224 255
200 224 255
200 224 255
200 224 255
200 224 255
200 224 255
200 224 255
200 224 255
200 224 255
200 224 255
200 224 255
200 224 255
200 224 255
200 224 255
200 224 255
200 224 255
200 224 255
201 224 255
201 224 255
201 224 255
201 224 255
201 224 255
201 224 255
201 224 255
201 224 255
201 224 255
201 224 255
201 224 255
201 225 255
201 225 255
201 225 255
201 225 255
202 225 255
202 225 255
202 225 255
202 225 255
202 225 255
202 225 255
202 225 255
202 225 255
202 225 255
202 225 255
202 225 255
202 225 255
202 225 255
202 225 255
202 225 255
203 225 255
203 225 255
203 225 255
203 225 255
203 225 255
203 225 255
203 225 255
203 225 255
203 226 255
203 226 255
203 226 255
203 226 255
203 226 255
203 226 255
203 226 255
204 226 255
204 226 255
204 226 255
204 226 255
204 226 255
204 226 255
204 226 255
204 226 255
204 226 255
204 226 255
204 226 255
204 226 255
204 226 255
204 226 255
204 226 255
204 226 255
205 226 255
205 226 255
205 226 255
205 226 255
205 226 255
205 226 255
205 226 255
205 227 255
205 227 255
205 227 255
205 227 255
205 227 255
205 227 255
205 227 255
205 227 255
205 227 255
205 227 255
206 227 255
206 227 255
206 227 255
206 227 255
206 227 255
206 227 255
206 227 255
206 227 255
206 227 255
206 227 255
206 227 255
206 227 255
206 227 255
206 227 255
206 227 255
206 227 255
206 227 255
206 227 255
206 227 255
207 227 255
207 227 255
207 227 255
207 227 255
207 228 255
207 228 255
207 228 255
207 228 255
207 228 255
207 228 255
207 228 255
207 228 255
207 228 255
207 228 255
207 228 255
207 228 255
207 228 255
207 228 255
207 228 255
207 228 255
208 228 255
208 228 255
208 228 255
208 228 255
208 228 255
207 228 255
207 228 255
207 228 255
207 228 255
207 228 255
207 228 255
207 228 255
207 228 255
207 228 255
207 228 255
207 228 255
207 228 255
207 228 255
207 228 255
207 228 255
207 228 255
207 227 255
207 227 255
207 227 255
207 227 255
206 227 255
206 227 255
206 227 255
206 227 255
206 227 255
206 227 255
206 227 255
206 227 255
206 227 255
206 227 255
206 227 255
206 227 255
206 227 255
206 227 255
206 227 255
206 227 255
206 227 255
206 227 255
205 227 255
205 227 255
205 227 255
205 227 255
205 227 255
205 227 255
205 227 255
205 227 255
205 227 255
205 227 255
205 227 255
205 226 255
205 226 255
205 226 255
205 226 255
205 226 255
205 226 255
204 226 255
204 226 255
204 226 255
204 226 255
204 226 255
204 226 255
204 226 255
204 226 255
204 226 255
204 226 255
204 226 255
204 226 255
204 226 255
204 226 255
204 226 255
204 226 255
203 226 255
203 226 255
203 226 255
203 226 255
203 226 255
203 226 255
203 226 255
203 225 255
203 225 255
203 225 255
203 225 255
203 225 255
203 225 255
203 225 255
203 225 255
203 225 255
202 225 255
202 225 255
202 225 255
202 225 255
202 225 255
202 225 255
202 225 255
202 225 255
202 225 255
202 225 255
202 225 255
202 225 255
202 225 255
202 225 255
201 225 255
201 225 255
201 225 255
201 225 255
201 225 255
201 224 255
201 224 255
201 224 255
201 224 255
201 224 255
201 224 255
201 224 255
201 224 255
201 224 255
201 224 255
201 224 255
200 224 255
200 224 255
200 224 255
200 224 255
200 224 255
200 224 255
200 224 255
200 224 255
200 224 255
200 224 255
200 224 255
200 224 255
200 224 255
200 224 255
200 224 255
200 224 255
199 224 255
199 224 255
199 223 255
199 223 255
199 223 255
199 223 255
199 223 255
199 223 255
199 223 255
199 223 255
199 223 255
199 223 255
199 223 255
199 223 255
199 223 255
199 223 255
199 223 255
199 223 255
198 223 255
198 223 255
198 223 255
198 223 255
198 223 255
198 223 255
198 223 255
198 223 255
198 223 255
198 223 255
198 223 255
198 223 255
198 223 255
198 223 255
198 223 255
198 223 255
198 223 255
198 223 255
198 223 255
198 223 255
198 223 255
198 223 255
198 223 255
198 223 255
198 223 255
198 223 255
198 223 255
198 223 255
197 223 255
197 222 255
197 222 255
197 222 255
197 222 255
197 222 255
197 222 255
197 222 255
197 222 255
197 222 255
197 222 255
197 222 255
197 222 255
197 222 255
197 222 255
197 222 255
197 222 255
197 222 255
197 222 255
197 222 255
197 222 255
197 222 255
197 222 255
197 222 255
197 222 255
197 222 255
197 222 255
197 222 255
197 222 255
197 222 255
197 222 255
197 222 255
197 222 255
197 223 255
197 223 255
198 223 255
198 223 255
198 223 255
198 223 255
198 223 255
198 223 255
198 223 255
198 223 255
198 223 255
198 223 255
198 223 255
198 223 255
198 223 255
198 223 255
198 223 255
198 223 255
198 223 255
198 223 255
198 223 255
198 223 255
198 223 255
198 223 255
198 223 255
198 223 255
198 223 255
198 223 255
198 223 255
199 223 255
199 223 255
199 223 255
199 223 255
199 223 255
199 223 255
199 223 255
199 223 255
199 223 255
199 223 255
199 223 255
199 223 255
199 223 255
199 223 255
199 223 255
199 223 255
199 224 255
199 224 255
200 224 255
200 224 255
200 224 255
200 224 255
200 224 255
200 224 255
200 224 255
200 224 255
200 224 255
200 224 255
200 224 255
200 224 255
200 224 255
200 224 255
200 224 255
200 224 255
201 224 255
201 224 255
201 224 255
201 224 255
201 224 255
201 224 255
201 224 255
201 224 255
201 224 255
201 224 255
201 224 255
201 225 255
201 225 255
201 225 255
201 225 255
201 225 255
202 225 255
202 225 255
202 225 255
202 225 255
202 225 255
202 225 255
202 225 255
202 225 255
202 225 255
202 225 255
202 225 255
202 225 255
202 225 255
202 225 255
203 225 255
203 225 255
203 225 255
203 225 255
203 225 255
203 225 255
203 225 255
203 225 255
203 225 255
203 226 255
203 226 255
203 226 255
203 226 255
203 226 255
203 226 255
203 226 255
204 226 255
204 226 255
204 226 255
204 226 255
204 226 255
204 226 255
204 226 255
204 226 255
204 226 255
204 226 255
204 226 255
204 226 255
204 226 255
204 226 255
204 226 255
204 226 255
205 226 255
205 226 255
205 226 255
205 226 255
205 226 255
205 226 255
205 227 255
205 227 255
205 227 255
205 227 255
205 227 255
205 227 255
205 227 255
205 227 255
205 227 255
205 227 255
206 227 255
206 227 255
206 227 255
206 227 255
206 227 255
206 227 255
206 227 255
206 227 255
206 227 255
206 227 255
206 227 255
206 227 255
206 227 255
206 227 255
206 227 255
206 227 255
206 227 255
206 227 255
206 227 255
207 227 255
207 227 255
207 227 255
207 227 255
207 228 255
207 228 255
207 228 255
207 228 255
207 228 255
207 228 255
207 228 255
207 228 255
207 228 255
207 228 255
207 228 255
207 228 255
207 228 255
207 228 255
207 228 255
207 228 255
208 228 255
208 228 255
208 228 255
208 228 255
208 228 255
208 228 255
208 228 255
208 228 255
208 228 255
208 228 255
208 228 255
207 228 255
207 228 255
207 228 255
207 228 255
207 228 255
207 228 255
207 228 255
207 228 255
207 228 255
207 228 255
207 228 255
207 228 255
207 228 255
207 228 255
207 228 255
207 227 255
207 227 255
207 227 255
207 227 255
207 227 255
206 227 255
206 227 255
206 227 255
206 227 255
206 227 255
206 227 255
206 227 255
206 227 255
206 227 255
206 227 255
206 227 255
206 227 255
206 227 255
206 227 255
206 227 255
206 227 255
206 227 255
206 227 255
205 227 255
205 227 255
205 227 255
205 227 255
205 227 255
205 227 255
205 227 255
205 227 255
205 227 255
205 227 255
205 226 255
205 226 255
205 226 255
205 226 255
205 226 255
205 226 255
205 226 255
204 226 255
204 226 255
204 226 255
204 226 255
204 226 255
204 226 255
204 226 255
204 226 255
204 226 255
204 226 255
204 226 255
204 226 255
204 226 255
204 226 255
204 226 255
204 226 255
203 226 255
203 226 255
203 226 255
203 226 255
203 226 255
203 226 255
203 226 255
203 225 255
203 225 255
203 225 255
203 225 255
203 225 255
203 225 255
203 225 255
203 225 255
202 225 255
202 225 255
202 225 255
202 225 255
202 225 255
202 225 255
202 225 255
202 225 255
202 225 255
202 225 255
202 225 255
202 225 255
202 225 255
202 225 255
202 225 255
201 225 255
201 225 255
201 225 255
201 225 255
201 225 255
201 224 255
201 224 255
201 224 255
201 224 255
201 224 255
201 224 255
201 224 255
201 224 255
201 224 255
201 224 255
200 224 255
200 224 255
200 224 255
200 224 255
200 224 255
200 224 255
200 224 255
200 224 255
200 224 255
200 224 255
200 224 255
200 224 255
200 224 255
200 224 255
200 224 255
200 224 255
200 224 255
199 224 255
199 224 255
199 223 255
199 223 255
199 223 255
199 223 255
199 223 255
199 223 255
199 223 255
199 223 255
199 223 255
199 223 255
199 223 255
199 223 255
199 223 255
199 223 255
199 223 255
199 223 255
199 223 255
198 223 255
198 223 255
198 223 255
198 223 255
198 223 255
198 223 255
198 223 255
198 223 255
198 223 255
198 223 255
198 223 255
198 223 255
198 223 255
198 223 255
198 223 255
198 223 255
198 223 255
198 223 255
198 223 255
198 223 255
198 223 255
198 223 255
198 223 255
198 223 255
198 223 255
198 223 255
198 223 255
198 223 255
198 223 255
198 223 255
198 223 255
198 223 255
198 223 255
198 223 255
198 223 255
198 223 255
198 223 255
198 223 255
198 223 255
197 223 255
197 223 255
197 223 255
197 223 255
197 223 255
198 223 255
198 223 255
198 223 255
198 223 255
198 223 255
198 223 255
198 223 255
198 223 255
198 223 255
198 223 255
198 223 255
198 223 255
198 223 255
198 223 255
198 223 255
198 223 255
198 223 255
198 223 255
198 223 255
198 223 255
198 223 255
198 223 255
198 223 255
198 223 255
198 223 255
198 223 255
198 223 255
198 223 255
198 223 255
198 223 255
198 223 255
198 223 255
198 223 255
198 223 255
198 223 255
198 223 255
198 223 255
198 223 255
199 223 255
199 223 255
199 223 255
199 223 255
199 223 255
199 223 255
199 223 255
199 223 255
199 223 255
199 223 255
199 223 255
199 223 255
199 223 255
199 223 255
199 223 255
199 223 255
199 223 255
199 224 255
199 224 255
200 224 255
200 224 255
200 224 255
200 224 255
200 224 255
200 224 255
200 224 255
200 224 255
200 224 255
200 224 255
200 224 255
200 224 255
200 224 255
200 224 255
200 224 255
200 224 255
200 224 255
201 224 255
201 224 255
201 224 255
201 224 255
201 224 255
201 224 255
201 224 255
201 224 255
201 224 255
201 224 255
201 225 255
201 225 255
201 225 255
201 225 255
201 225 255
202 225 255
202 225 255
202 225 255
202 225 255
202 225 255
202 225 255
202 225 255
202 225 255
202 225 255
202 225 255
202 225 255
202 225 255
202 225 255
202 225 255
202 225 255
203 225 255
203 225 255
203 225 255
203 225 255
203 225 255
203 225 255
203 225 255
203 225 255
203 226 255
203 226 255
203 226 255
203 226 255
203 226 255
203 226 255
203 226 255
204 226 255
204 226 255
204 226 255
204 226 255
204 226 255
204 226 255
204 226 255
204 226 255
204 226 255
204 226 255
204 226 255
204 226 255
204 226 255
204 226 255
204 226 255
204 226 255
205 226 255
205 226 255
205 226 255
205 226 255
205 226 255
205 226 255
205 226 255
205 227 255
205 227 255
205 227 255
205 227 255
205 227 255
205 227 255
205 227 255
205 227 255
205 227 255
205 227 255
206 227 255
206 227 255
206 227 255
206 227 255
206 227 255
206 227 255
206 227 255
206 227 255
206 227 255
206 227 255
206 227 255
206 227 255
206 227 255
206 227 255
206 227 255
206 227 255
206 227 255
206 227 255
207 227 255
207 227 255
207 227 255
207 227 255
207 227 255
207 228 255
207 228 255
207 228 255
207 228 255
207 228 255
207 228 255
207 228 255
207 228 255
207 228 255
207 228 255
207 228 255
207 228 255
207 228 255
207 228 255
207 228 255
208 228 255
208 228 255
208 228 255
208 228 255
208 228 255
208 228 255
208 228 255
208 228 255
208 228 255
208 228 255
208 228 255
208 228 255
208 228 255
208 228 255
208 228 255
208 228 255
208 228 255
207 228 255
207 228 255
207 228 255
207 228 255
207 228 255
207 228 255
207 228 255
207 228 255
207 228 255
207 228 255
207 228 255
207 228 255
207 228 255
207 228 255
207 228 255
207 227 255
207 227 255
207 227 255
207 227 255
207 227 255
206 227 255
206 227 255
206 227 255
206 227 255
206 227 255
206 227 255
206 227 255
206 227 255
206 227 255
206 227 255
206 227 255
206 227 255
206 227 255
206 227 255
206 227 255
206 227 255
206 227 255
206 227 255
205 227 255
205 227 255
205 227 255
205 227 255
205 227 255
205 227 255
205 227 255
205 227 255
205 227 255
205 227 255
205 226 255
205 226 255
205 226 255
205 226 255
205 226 255
205 226 255
205 226 255
204 226 255
204 226 255
204 226 255
204 226 255
204 226 255
204 226 255
204 226 255
204 226 255
204 226 255
204 226 255
204 226 255
204 226 255
204 226 255
204 226 255
204 226 255
204 226 255
203 226 255
203 226 255
203 226 255
203 226 255
203 226 255
203 226 255
203 225 255
203 225 255
203 225 255
203 225 255
203 225 255
203 225 255
203 225 255
203 225 255
203 225 255
202 225 255
202 225 255
202 225 255
202 225 255
202 225 255
202 225 255
202 225 255
202 225 255
202 225 255
202 225 255
202 225 255
202 225 255
202 225 255
202 225 255
202 225 255
201 225 255
201 225 255
201 225 255
201 225 255
201 224 255
201 224 255
201 224 255
201 224 255
201 224 255
201 224 255
201 224 255
201 224 255
201 224 255
201 224 255
201 224 255
200 224 255
200 224 255
200 224 255
200 224 255
200 224 255
200 224 255
200 224 255
200 224 255
200 224 255
200 224 255
200 224 255
200 224 255
200 224 255
200 224 255
200 224 255
200 224 255
200 224 255
199 224 255
199 224 255
199 224 255
199 223 255
199 223 255
199 223 255
199 223 255
199 223 255
199 223 255
199 223 255
199 223 255
199 223 255
199 223 255
199 223 255
199 223 255
199 223 255
199 223 255
199 223 255
199 223 255
199 223 255
198 223 255
198 223 255
198 223 255
198 223 255
198 223 255
198 223 255
198 223 255
198 223 255
198 223 255
198 223 255
198 223 255
198 223 255
198 223 255
198 223 255
198 223 255
198 223 255
198 223 255
198 223 255
198 223 255
198 223 255
198 223 255
198 223 255
198 223 255
198 223 255
198 223 255
198 223 255
198 223 255
198 223 255
198 223 255
198 223 255
198 223 255
198 223 255
198 223 255
198 223 255
198 223 255
198 223 255
198 223 255
198 223 255
198 223 255
198 223 255
198 223 255
198 223 255
198 223 255
198 223 255
198 223 255
198 223 255
198 223 255
198 223 255
198 223 255
198 223 255
198 223 255
198 223 255
198 223 255
198 223 255
198 223 255
198 223 255
198 223 255
198 223 255
198 223 255
198 223 255
198 223 255
198 223 255
198 223 255
198 223 255
198 223 255
198 223 255
198 223 255
198 223 255
198 223 255
198 223 255
198 223 255
198 223 255
198 223 255
198 223 255
199 223 255
199 223 255
199 223 255
199 223 255
199 223 255
199 223 255
199 223 255
199 223 255
199 223 255
199 223 255
199 223 255
199 223 255
199 223 255
199 223 255
199 223 255
199 223 255
199 223 255
199 224 255
199 224 255
199 224 255
200 224 255
200 224 255
200 224 255
200 224 255
200 224 255
200 224 255
200 224 255
200 224 255
200 224 255
200 224 255
200 224 255
200 224 255
200 224 255
200 224 255
200 224 255
200 224 255
200 224 255
201 224 255
201 224 255
201 224 255
201 224 255
201 224 255
201 224 255
201 224 255
201 224 255
201 224 255
201 224 255
201 224 255
201 225 255
201 225 255
201 225 255
201 225 255
202 225 255
202 225 255
202 225 255
202 225 255
202 225 255
202 225 255
202 225 255
202 225 255
202 225 255
202 225 255
202 225 255
202 225 255
202 225 255
202 225 255
202 225 255
203 225 255
203 225 255
203 225 255
203 225 255
203 225 255
203 225 255
203 225 255
203 225 255
203 225 255
203 226 255
203 226 255
203 226 255
203 226 255
203 226 255
203 226 255
204 226 255
204 226 255
204 226 255
204 226 255
204 226 255
204 226 255
204 226 255
204 226 255
204 226 255
204 226 255
204 226 255
204 226 255
204 226 255
204 226 255
204 226 255
204 226 255
205 226 255
205 226 255
205 226 255
205 226 255
205 226 255
205 226 255
205 226 255
205 227 255
205 227 255
205 227 255
205 227 255
205 227 255
205 227 255
205 227 255
205 227 255
205 227 255
205 227 255
206 227 255
206 227 255
206 227 255
206 227 255
206 227 255
206 227 255
206 227 255
206 227 255
206 227 255
206 227 255
206 227 255
206 227 255
206 227 255
206 227 255
206 227 255
206 227 255
206 227 255
206 227 255
207 227 255
207 227 255
207 227 255
207 227 255
207 227 255
207 228 255
207 228 255
207 228 255
207 228 255
207 228 255
207 228 255
207 228 255
207 228 255
207 228 255
207 228 255
207 228 255
207 228 255
207 228 255
207 228 255
207 228 255
208 228 255
208 228 255
208 228 255
208 228 255
208 228 255
208 228 255
208 228 255
208 228 255
208 228 255
208 228 255
208 228 255
208 228 255
208 228 255
208 228 255
208 228 255
208 228 255
208 228 255
208 228 255
208 228 255
208 228 255
208 228 255
208 228 255
208 228 255
207 228 255
207 228 255
207 228 255
207 228 255
207 228 255
207 228 255
207 228 255
207 228 255
207 228 255
207 228 255
207 228 255
207 228 255
207 228 255
207 228 255
207 228 255
207 227 255
207 227 255
207 227 255
207 227 255
207 227 255
206 227 255
206 227 255
206 227 255
206 227 255
206 227 255
206 227 255
206 227 255
206 227 255
206 227 255
206 227 255
206 227 255
206 227 255
206 227 255
206 227 255
206 227 255
206 227 255
206 227 255
206 227 255
205 227 255
205 227 255
205 227 255
205 227 255
205 227 255
205 227 255
205 227 255
205 227 255
205 227 255
205 227 255
205 226 255
205 226 255
205 226 255
205 226 255
205 226 255
205 226 255
204 226 255
204 226 255
204 226 255
204 226 255
204 226 255
204 226 255
204 226 255
204 226 255
204 226 255
204 226 255
204 226 255
204 226 255
204 226 255
204 226 255
204 226 255
204 226 255
203 226 255
203 226 255
203 226 255
203 226 255
203 226 255
203 226 255
203 226 255
203 225 255
203 225 255
203 225 255
203 225 255
203 225 255
203 225 255
203 225 255
203 225 255
202 225 255
202 225 255
202 225 255
202 225 255
202 225 255
202 225 255
202 225 255
202 225 255
202 225 255
202 225 255
202 225 255
202 225 255
202 225 255
202 225 255
202 225 255
201 225 255
201 225 255
201 225 255
201 225 255
201 225 255
201 224 255
201 224 255
201 224 255
201 224 255
201 224 255
201 224 255
201 224 255
201 224 255
201 224 255
201 224 255
201 224 255
200 224 255
200 224 255
200 224 255
200 224 255
200 224 255
200 224 255
200 224 255
200 224 255
200 224 255
200 224 255
200 224 255
200 224 255
200 224 255
200 224 255
200 224 255
200 224 255
200 224 255
199 224 255
199 224 255
199 224 255
199 223 255
199 223 255
199 223 255
199 223 255
199 223 255
199 223 255
199 223 255
199 223 255
199 223 255
199 223 255
199 223 255
199 223 255
199 223 255
199 223 255
199 223 255
199 223 255
199 223 255
199 223 255
199 223 255
198 223 255
198 223 255
198 223 255
198 223 255
198 223 255
198 223 255
198 223 255
198 223 255
198 223 255
198 223 255
198 223 255
198 223 255
198 223 255
198 223 255
198 223 255
198 223 255
198 223 255
198 223 255
198 223 255
198 223 255
198 223 255
198 223 255
198 223 255
198 223 255
198 223 255
198 223 255
198 223 255
198 223 255
198 223 255
198 223 255
198 223 255
198 223 255
198 223 255
198 223 255
198 223 255
198 223 255
198 223 255
198 223 255
198 223 255
198 223 255
198 223 255
198 223 255
198 223 255
198 223 255
198 223 255
198 223 255
198 223 255
198 223 255
198 223 255
198 223 255
198 223 255
198 223 255
198 223 255
198 223 255
198 223 255
198 223 255
198 223 255
198 223 255
198 223 255
198 223 255
198 223 255
198 223 255
198 223 255
198 223 255
199 223 255
199 223 255
199 223 255
199 223 255
199 223 255
199 223 255
199 223 255
199 223 255
199 223 255
199 223 255
199 223 255
199 223 255
199 223 255
199 223 255
199 223 255
199 223 255
199 223 255
199 223 255
199 223 255
199 224 255
199 224 255
199 224 255
200 224 255
200 224 255
200 224 255
200 224 255
200 224 255
200 224 255
200 224 255
200 224 255
200 224 255
200 224 255
200 224 255
200 224 255
200 224 255
200 224 255
200 224 255
200 224 255
200 224 255
201 224 255
201 224 255
201 224 255
201 224 255
201 224 255
201 224 255
201 224 255
201 224 255
201 224 255
201 224 255
201 224 255
201 225 255
201 225 255
201 225 255
201 225 255
201 225 255
202 225 255
202 225 255
202 225 255
202 225 255
202 225 255
202 225 255
202 225 255
202 225 255
202 225 255
202 225 255
202 225 255
202 225 255
202 225 255
202 225 255
202 225 255
203 225 255
203 225 255
203 225 255
203 225 255
203 225 255
203 225 255
203 225 255
203 225 255
203 226 255
203 226 255
203 226 255
203 226 255
203 226 255
203 226 255
203 226 255
204 226 255
204 226 255
204 226 255
204 226 255
204 226 255
204 226 255
204 226 255
204 226 255
204 226 255
204 226 255
204 226 255
204 226 255
204 226 255
204 226 255
204 226 255
204 226 255
205 226 255
205 226 255
205 226 255
205 226 255
205 226 255
205 226 255
205 227 255
205 227 255
205 227 255
205 227 255
205 227 255
205 227 255
205 227 255
205 227 255
205 227 255
205 227 255
206 227 255
206 227 255
206 227 255
206 227 255
206 227 255
206 227 255
206 227 255
206 227 255
206 227 255
206 227 255
206 227 255
206 227 255
206 227 255
206 227 255
206 227 255
206 227 255
206 227 255
206 227 255
207 227 255
207 227 255
207 227 255
207 227 255
207 227 255
207 228 255
207 228 255
207 228 255
207 228 255
207 228 255
207 228 255
207 228 255
207 228 255
207 228 255
207 228 255
207 228 255
207 228 255
207 228 255
207 228 255
207 228 255
208 228 255
208 228 255
208 228 255
208 228 255
208 228 255
208 228 255
208 228 255
208 228 255
208 228 255
208 228 255
208 228 255
208 228 255
208 228 255
208 228 255
208 228 255
208 228 255
208 228 255
208 228 255
208 228 255
208 228 255
208 228 255
208 228 255
208 228 255
208 228 255
208 228 255
208 228 255
208 228 255
208 228 255
208 228 255
207 228 255
207 228 255
207 228 255
207 228 255
207 228 255
207 228 255
207 228 255
207 228 255
207 228 255
207 228 255
207 228 255
207 228 255
207 228 255
207 228 255
207 228 255
207 227 255
207 227 255
207 227 255
207 227 255
207 227 255
206 227 255
206 227 255
206 227 255
206 227 255
206 227 255
206 227 255
206 227 255
206 227 255
206 227 255
206 227 255
206 227 255
206 227 255
206 227 255
206 227 255
206 227 255
206 227 255
206 227 255
205 227 255
205 227 255
205 227 255
205 227 255
205 227 255
205 227 255
205 227 255
205 227 255
205 227 255
205 227 255
205 227 255
205 226 255
205 226 255
205 226 255
205 226 255
205 226 255
205 226 255
204 226 255
204 226 255
204 226 255
204 226 255
204 226 255
204 226 255
204 226 255
204 226 255
204 226 255
204 226 255
204 226 255
204 226 255
204 226 255
204 226 255
204 226 255
204 226 255
203 226 255
203 226 255
203 226 255
203 226 255
203 226 255
203 226 255
203 226 255
203 225 255
203 225 255
203 225 255
203 225 255
203 225 255
203 225 255
203 225 255
203 225 255
202 225 255
202 225 255
202 225 255
202 225 255
202 225 255
202 225 255
202 225 255
202 225 255
202 225 255
202 225 255
202 225 255
202 225 255
202 225 255
202 225 255
202 225 255
201 225 255
201 225 255
201 225 255
201 225 255
201 225 255
201 224 255
201 224 255
201 224 255
201 224 255
201 224 255
201 224 255
201 224 255
201 224 255
201 224 255
201 224 255
201 224 255
200 224 255
200 224 255
200 224 255
200 224 255
200 224 255
200 224 255
200 224 255
200 224 255
200 224 255
200 224 255
200 224 255
200 224 255
200 224 255
200 224 255
200 224 255
200 224 255
200 224 255
200 224 255
199 224 255
199 224 255
199 224 255
199 223 255
199 223 255
199 223 255
199 223 255
199 223 255
199 223 255
199 223 255
199 223 255
199 223 255
199 223 255
199 223 255
199 223 255
199 223 255
199 223 255
199 223 255
199 223 255
199 223 255
199 223 255
199 223 255
199 223 255
198 223 255
198 223 255
198 223 255
198 223 255
198 223 255
198 223 255
198 223 255
198 223 255
198 223 255
198 223 255
198 223 255
198 223 255
198 223 255
198 223 255
198 223 255
198 223 255
198 223 255
198 223 255
198 223 255
198 223 255
198 223 255
198 223 255
198 223 255
198 223 255
198 223 255
198 223 255
198 223 255
198 223 255
198 223 255
198 223 255
198 223 255
198 223 255
198 223 255
198 223 255
198 223 255
198 223 255
198 223 255
198 223 255
198 223 255
198 223 255
198 223 255
198 223 255
198 223 255
198 223 255
198 223 255
198 223 255
198 223 255
198 223 255
198 223 255
198 223 255
198 223 255
198 223 255
198 223 255
198 223 255
199 223 255
199 223 255
199 223 255
199 223 255
199 223 255
199 223 255
199 223 255
199 223 255
199 223 255
199 223 255
199 223 255
199 223 255
199 223 255
199 223 255
199 223 255
199 223 255
199 223 255
199 223 255
199 223 255
199 223 255
199 224 255
199 224 255
199 224 255
200 224 255
200 224 255
200 224 255
200 224 255
200 224 255
200 224 255
200 224 255
200 224 255
200 224 255
200 224 255
200 224 255
200 224 255
200 224 255
200 224 255
200 224 255
200 224 255
200 224 255
200 224 255
201 224 255
201 224 255
201 224 255
201 224 255
201 224 255
201 224 255
201 224 255
201 224 255
201 224 255
201 224 255
201 224 255
201 225 255
201 225 255
201 225 255
201 225 255
201 225 255
202 225 255
202 225 255
202 225 255
202 225 255
202 225 255
202 225 255
202 225 255
202 225 255
202 225 255
202 225 255
202 225 255
202 225 255
202 225 255
202 225 255
202 225 255
203 225 255
203 225 255
203 225 255
203 225 255
203 225 255
203 225 255
203 225 255
203 225 255
203 226 255
203 226 255
203 226 255
203 226 255
203 226 255
203 226 255
203 226 255
204 226 255
204 226 255
204 226 255
204 226 255
204 226 255
204 226 255
204 226 255
204 226 255
204 226 255
204 226 255
204 226 255
204 226 255
204 226 255
204 226 255
204 226 255
204 226 255
205 226 255
205 226 255
205 226 255
205 226 255
205 226 255
205 226 255
205 227 255
205 227 255
205 227 255
205 227 255
205 227 255
205 227 255
205 227 255
205 227 255
205 227 255
205 227 255
205 227 255
206 227 255
206 227 255
206 227 255
206 227 255
206 227 255
206 227 255
206 227 255
206 227 255
206 227 255
206 227 255
206 227 255
206 227 255
206 227 255
206 227 255
206 227 255
206 227 255
206 227 255
207 227 255
207 227 255
207 227 255
207 227 255
207 227 255
207 228 255
207 228 255
207 228 255
207 228 255
207 228 255
207 228 255
207 228 255
207 228 255
207 228 255
207 228 255
207 228 255
207 228 255
207 228 255
207 228 255
207 228 255
208 228 255
208 228 255
208 228 255
208 228 255
208 228 255
208 228 255
208 228 255
208 228 255
208 228 255
208 228 255
208 228 255
208 228 255
208 228 255
208 228 255
208 228 255
208 228 255
208 228 255
208 228 255
208 228 255
208 228 255
208 228 255
208 228 255
208 228 255
208 228 255
208 228 255
208 228 255
208 228 255
208 228 255
208 228 255
208 228 255
208 228 255
208 228 255
208 228 255
208 228 255
208 228 255
207 228 255
207 228 255
207 228 255
207 228 255
207 228 255
207 228 255
207 228 255
207 228 255
207 228 255
207 228 255
207 228 255
207 228 255
207 228 255
207 228 255
207 228 255
207 227 255
207 227 255
207 227 255
207 227 255
207 227 255
206 227 255
206 227 255
206 227 255
206 227 255
206 227 255
206 227 255
206 227 255
206 227 255
206 227 255
206 227 255
206 227 255
206 227 255
206 227 255
206 227 255
206 227 255
206 227 255
206 227 255
205 227 255
205 227 255
205 227 255
205 227 255
205 227 255
205 227 255
205 227 255
205 227 255
205 227 255
205 227 255
205 226 255
205 226 255
205 226 255
205 226 255
205 226 255
205 226 255
205 226 255
204 226 255
204 226 255
204 226 255
204 226 255
204 226 255
204 226 255
204 226 255
204 226 255
204 226 255
204 226 255
204 226 255
204 226 255
204 226 255
204 226 255
204 226 255
204 226 255
203 226 255
203 226 255
203 226 255
203 226 255
203 226 255
203 226 255
203 225 255
203 225 255
203 225 255
203 225 255
203 225 255
203 225 255
203 225 255
203 225 255
203 225 255
202 225 255
202 225 255
202 225 255
202 225 255
202 225 255
202 225 255
202 225 255
202 225 255
202 225 255
202 225 255
202 225 255
202 225 255
202 225 255
202 225 255
202 225 255
201 225 255
201 225 255
201 225 255
201 225 255
201 225 255
201 224 255
201 224 255
201 224 255
201 224 255
201 224 255
201 224 255
201 224 255
201 224 255
201 224 255
201 224 255
201 224 255
200 224 255
200 224 255
200 224 255
200 224 255
200 224 255
200 224 255
200 224 255
200 224 255
200 224 255
200 224 255
200 224 255
200 224 255
200 224 255
200 224 255
200 224 255
200 224 255
200 224 255
200 224 255
199 224 255
199 224 255
199 224 255
199 224 255
199 223 255
199 223 255
199 223 255
199 223 255
199 223 255
199 223 255
199 223 255
199 223 255
199 223 255
199 223 255
199 223 255
199 223 255
199 223 255
199 223 255
199 223 255
199 223 255
199 223 255
199 223 255
199 223 255
199 223 255
199 223 255
199 223 255
199 223 255
198 223 255
198 223 255
198 223 255
198 223 255
198 223 255
198 223 255
198 223 255
198 223 255
198 223 255
198 223 255
198 223 255
198 223 255
198 223 255
198 223 255
198 223 255
198 223 255
198 223 255
198 223 255
198 223 255
198 223 255
198 223 255
198 223 255
198 223 255
198 223 255
198 223 255
198 223 255
198 223 255
198 223 255
198 223 255
198 223 255
198 223 255
198 223 255
198 223 255
198 223 255
198 223 255
198 223 255
198 223 255
198 223 255
198 223 255
198 223 255
199 223 255
199 223 255
199 223 255
199 223 255
199 223 255
199 223 255
199 223 255
199 223 255
199 223 255
199 223 255
199 223 255
199 223 255
199 223 255
199 223 255
199 223 255
199 223 255
199 223 255
199 223 255
199 223 255
199 223 255
199 223 255
199 223 255
199 223 255
199 224 255
199 224 255
199 224 255
199 224 255
200 224 255
200 224 255
200 224 255
200 224 255
200 224 255
200 224 255
200 224 255
200 224 255
200 224 255
200 224 255
200 224 255
200 224 255
200 224 255
200 224 255
200 224 255
200 224 255
200 224 255
200 224 255
201 224 255
201 224 255
201 224 255
201 224 255
201 224 255
201 224 255
201 224 255
201 224 255
201 224 255
201 224 255
201 224 255
201 225 255
201 225 255
201 225 255
201 225 255
201 225 255
202 225 255
202 225 255
202 225 255
202 225 255
202 225 255
202 225 255
202 225 255
202 225 255
202 225 255
202 225 255
202 225 255
202 225 255
202 225 255
202 225 255
202 225 255
203 225 255
203 225 255
203 225 255
203 225 255
203 225 255
203 225 255
203 225 255
203 225 255
203 225 255
203 226 255
203 226 255
203 226 255
203 226 255
203 226 255
203 226 255
204 226 255
204 226 255
204 226 255
204 226 255
204 226 255
204 226 255
204 226 255
204 226 255
204 226 255
204 226 255
204 226 255
204 226 255
204 226 255
204 226 255
204 226 255
204 226 255
205 226 255
205 226 255
205 226 255
205 226 255
205 226 255
205 226 255
205 226 255
205 227 255
205 227 255
205 227 255
205 227 255
205 227 255
205 227 255
205 227 255
205 227 255
205 227 255
205 227 255
206 227 255
206 227 255
206 227 255
206 227 255
206 227 255
206 227 255
206 227 255
206 227 255
206 227 255
206 227 255
206 227 255
206 227 255
206 227 255
206 227 255
206 227 255
206 227 255
206 227 255
207 227 255
207 227 255
207 227 255
207 227 255
207 227 255
207 228 255
207 228 255
207 228 255
207 228 255
207 228 255
207 228 255
207 228 255
207 228 255
207 228 255
207 228 255
207 228 255
207 228 255
207 228 255
207 228 255
207 228 255
208 228 255
208 228 255
208 228 255
208 228 255
208 228 255
208 228 255
208 228 255
208 228 255
208 228 255
208 228 255
208 228 255
208 228 255
208 228 255
208 228 255
208 228 255
208 228 255
208 228 255
208 228 255
208 228 255
209 228 255
208 228 255
208 228 255
208 228 255
208 228 255
208 228 255
208 228 255
208 228 255
208 228 255
208 228 255
208 228 255
208 228 255
208 228 255
208 228 255
208 228 255
208 228 255
208 228 255
208 228 255
208 228 255
208 228 255
208 228 255
208 228 255
207 228 255
207 228 255
207 228 255
207 228 255
207 228 255
207 228 255
207 228 255
207 228 255
207 228 255
207 228 255
207 228 255
207 228 255
207 228 255
207 228 255
207 228 255
207 227 255
207 227 255
207 227 255
207 227 255
207 227 255
206 227 255
206 227 255
206 227 255
206 227 255
206 227 255
206 227 255
206 227 255
206 227 255
206 227 255
206 227 255
206 227 255
206 227 255
206 227 255
206 227 255
206 227 255
206 227 255
206 227 255
205 227 255
205 227 255
205 227 255
205 227 255
205 227 255
205 227 255
205 227 255
205 227 255
205 227 255
205 227 255
205 226 255
205 226 255
205 226 255
205 226 255
205 226 255
205 226 255
205 226 255
204 226 255
204 226 255
204 226 255
204 226 255
204 226 255
204 226 255
204 226 255
204 226 255
204 226 255
204 226 255
204 226 255
204 226 255
204 226 255
204 226 255
204 226 255
203 226 255
203 226 255
203 226 255
203 226 255
203 226 255
203 226 255
203 226 255
203 225 255
203 225 255
203 225 255
203 225 255
203 225 255
203 225 255
203 225 255
203 225 255
203 225 255
202 225 255
202 225 255
202 225 255
202 225 255
202 225 255
202 225 255
202 225 255
202 225 255
202 225 255
202 225 255
202 225 255
202 225 255
202 225 255
202 225 255
202 225 255
201 225 255
201 225 255
201 225 255
201 225 255
201 225 255
201 224 255
201 224 255
201 224 255
201 224 255
201 224 255
201 224 255
201 224 255
201 224 255
201 224 255
201 224 255
201 224 255
201 224 255
200 224 255
200 224 255
200 224 255
200 224 255
200 224 255
200 224 255
200 224 255
200 224 255
200 224 255
200 224 255
200 224 255
200 224 255
200 224 255
200 224 255
200 224 255
200 224 255
200 224 255
200 224 255
200 224 255
199 224 255
199 224 255
199 224 255
199 223 255
199 223 255
199 223 255
199 223 255
199 223 255
199 223 255
199 223 255
199 223 255
199 223 255
199 223 255
199 223 255
199 223 255
199 223 255
199 223 255
199 223 255
199 223 255
199 223 255
199 223 255
199 223 255
199 223 255
199 223 255
199 223 255
199 223 255
199 223 255
199 223 255
199 223 255
199 223 255
199 223 255
199 223 255
199 223 255
198 223 255
198 223 255
198 223 255
198 223 255
198 223 255
198 223 255
198 223 255
198 223 255
198 223 255
198 223 255
198 223 255
198 223 255
198 223 255
198 223 255
198 223 255
198 223 255
198 223 255
198 223 255
199 223 255
199 223 255
199 223 255
199 223 255
199 223 255
199 223 255
199 223 255
199 223 255
199 223 255
199 223 255
199 223 255
199 223 255
199 223 255
199 223 255
199 223 255
199 223 255
199 223 255
199 223 255
199 223 255
199 223 255
199 223 255
199 223 255
199 223 255
199 223 255
199 223 255
199 223 255
199 223 255
199 223 255
199 223 255
199 223 255
199 224 255
199 224 255
199 224 255
200 224 255
200 224 255
200 224 255
200 224 255
200 224 255
200 224 255
200 224 255
200 224 255
200 224 255
200 224 255
200 224 255
200 224 255
200 224 255
200 224 255
200 224 255
200 224 255
200 224 255
200 224 255
200 224 255
201 224 255
201 224 255
201 224 255
201 224 255
201 224 255
201 224 255
201 224 255
201 224 255
201 224 255
201 224 255
201 224 255
201 224 255
201 225 255
201 225 255
201 225 255
201 225 255
201 225 255
202 225 255
202 225 255
202 225 255
202 225 255
202 225 255
202 225 255
202 225 255
202 225 255
202 225 255
202 225 255
202 225 255
202 225 255
202 225 255
202 225 255
202 225 255
203 225 255
203 225 255
203 225 255
203 225 255
203 225 255
203 225 255
203 225 255
203 225 255
203 225 255
203 226 255
203 226 255
203 226 255
203 226 255
203 226 255
203 226 255
203 226 255
204 226 255
204 226 255
204 226 255
204 226 255
204 226 255
204 226 255
204 226 255
204 226 255
204 226 255
204 226 255
204 226 255
204 226 255
204 226 255
204 226 255
204 226 255
205 226 255
205 226 255
205 226 255
205 226 255
205 226 255
205 226 255
205 226 255
205 227 255
205 227 255
205 227 255
205 227 255
205 227 255
205 227 255
205 227 255
205 227 255
205 227 255
205 227 255
206 227 255
206 227 255
206 227 255
206 227 255
206 227 255
206 227 255
206 227 255
206 227 255
206 227 255
206 227 255
206 227 255
206 227 255
206 227 255
206 227 255
206 227 255
206 227 255
206 227 255
207 227 255
207 227 255
207 227 255
207 227 255
207 227 255
207 228 255
207 228 255
207 228 255
207 228 255
207 228 255
207 228 255
207 228 255
207 228 255
207 228 255
207 228 255
207 228 255
207 228 255
207 228 255
207 228 255
207 228 255
208 228 255
208 228 255
208 228 255
208 228 255
208 228 255
208 228 255
208 228 255
208 228 255
208 228 255
208 228 255
208 228 255
208 228 255
208 228 255
208 228 255
208 228 255
208 228 255
208 228 255
208 228 255
208 228 255
208 228 255
208 228 255
209 228 255
209 229 255
209 229 255
209 228 255
209 228 255
208 228 255
208 228 255
208 228 255
208 228 255
208 228 255
208 228 255
208 228 255
208 228 255
208 228 255
208 228 255
208 228 255
208 228 255
208 228 255
208 228 255
208 228 255
208 228 255
208 228 255
208 228 255
208 228 255
208 228 255
208 228 255
207 228 255
207 228 255
207 228 255
207 228 255
207 228 255
207 228 255
207 228 255
207 228 255
207 228 255
207 228 255
207 228 255
207 228 255
207 228 255
207 228 255
207 228 255
207 227 255
207 227 255
207 227 255
207 227 255
206 227 255
206 227 255
206 227 255
206 227 255
206 227 255
206 227 255
206 227 255
206 227 255
206 227 255
206 227 255
206 227 255
206 227 255
206 227 255
206 227 255
206 227 255
206 227 255
206 227 255
206 227 255
205 227 255
205 227 255
205 227 255
205 227 255
205 227 255
205 227 255
205 227 255
205 227 255
205 227 255
205 227 255
205 226 255
205 226 255
205 226 255
205 226 255
205 226 255
205 226 255
205 226 255
204 226 255
204 226 255
204 226 255
204 226 255
204 226 255
204 226 255
204 226 255
204 226 255
204 226 255
204 226 255
204 226 255
204 226 255
204 226 255
204 226 255
204 226 255
203 226 255
203 226 255
203 226 255
203 226 255
203 226 255
203 226 255
203 226 255
203 225 255
203 225 255
203 225 255
203 225 255
203 225 255
203 225 255
203 225 255
203 225 255
203 225 255
202 225 255
202 225 255
202 225 255
202 225 255
202 225 255
202 225 255
202 225 255
202 225 255
202 225 255
202 225 255
202 225 255
202 225 255
202 225 255
202 225 255
202 225 255
201 225 255
201 225 255
201 225 255
201 225 255
201 225 255
201 224 255
201 224 255
201 224 255
201 224 255
201 224 255
201 224 255
201 224 255
201 224 255
201 224 255
201 224 255
201 224 255
201 224 255
200 224 255
200 224 255
200 224 255
200 224 255
200 224 255
200 224 255
200 224 255
200 224 255
200 224 255
200 224 255
200 224 255
200 224 255
200 224 255
200 224 255
200 224 255
200 224 255
200 224 255
200 224 255
200 224 255
200 224 255
199 224 255
199 224 255
199 224 255
199 224 255
199 223 255
199 223 255
199 223 255
199 223 255
199 223 255
199 223 255
199 223 255
199 223 255
199 223 255
199 223 255
199 223 255
199 223 255
199 223 255
199 223 255
199 223 255
199 223 255
199 223 255
199 223 255
199 223 255
199 223 255
199 223 255
199 223 255
199 223 255
199 223 255
199 223 255
199 223 255
199 223 255
199 223 255
199 223 255
199 223 255
199 223 255
199 223 255
199 223 255
199 223 255
199 223 255
199 223 255
199 223 255
199 223 255
199 223 255
199 223 255
199 223 255
199 223 255
199 223 255
199 223 255
199 223 255
199 223 255
199 223 255
199 223 255
199 223 255
199 223 255
199 223 255
199 223 255
199 223 255
199 223 255
199 223 255
199 223 255
199 223 255
199 223 255
199 223 255
199 223 255
199 223 255
199 223 255
199 223 255
199 223 255
199 223 255
199 223 255
199 223 255
199 223 255
199 224 255
199 224 255
199 224 255
199 224 255
200 224 255
200 224 255
200 224 255
200 224 255
200 224 255
200 224 255
200 224 255
200 224 255
200 224 255
200 224 255
200 224 255
200 224 255
200 224 255
200 224 255
200 224 255
200 224 255
200 224 255
200 224 255
200 224 255
200 224 255
201 224 255
201 224 255
201 224 255
201 224 255
201 224 255
201 224 255
201 224 255
201 224 255
201 224 255
201 224 255
201 224 255
201 224 255
201 225 255
201 225 255
201 225 255
201 225 255
201 225 255
202 225 255
202 225 255
202 225 255
202 225 255
202 225 255
202 225 255
202 225 255
202 225 255
202 225 255
202 225 255
202 225 255
202 225 255
202 225 255
202 225 255
202 225 255
202 225 255
203 225 255
203 225 255
203 225 255
203 225 255
203 225 255
203 225 255
203 225 255
203 225 255
203 226 255
203 226 255
203 226 255
203 226 255
203 226 255
203 226 255
203 226 255
204 226 255
204 226 255
204 226 255
204 226 255
204 226 255
204 226 255
204 226 255
204 226 255
204 226 255
204 226 255
204 226 255
204 226 255
204 226 255
204 226 255
204 226 255
204 226 255
205 226 255
205 226 255
205 226 255
205 226 255
205 226 255
205 226 255
205 227 255
205 227 255
205 227 255
205 227 255
205 227 255
205 227 255
205 227 255
205 227 255
205 227 255
205 227 255
206 227 255
206 227 255
206 227 255
206 227 255
206 227 255
206 227 255
206 227 255
206 227 255
206 227 255
206 227 255
206 227 255
206 227 255
206 227 255
206 227 255
206 227 255
206 227 255
206 227 255
207 227 255
207 227 255
207 227 255
207 227 255
207 227 255
207 228 255
207 228 255
207 228 255
207 228 255
207 228 255
207 228 255
207 228 255
207 228 255
207 228 255
207 228 255
207 228 255
207 228 255
207 228 255
207 228 255
207 228 255
208 228 255
208 228 255
208 228 255
208 228 255
208 228 255
208 228 255
208 228 255
208 228 255
208 228 255
208 228 255
208 228 255
208 228 255
208 228 255
208 228 255
208 228 255
208 228 255
208 228 255
208 228 255
208 228 255
208 228 255
208 228 255
209 228 255
209 228 255
209 229 255
209 229 255
209 229 255
209 229 255
209 229 255
209 229 255
209 229 255
209 229 255
209 228 255
208 228 255
208 228 255
208 228 255
208 228 255
208 228 255
208 228 255
208 228 255
208 228 255
208 228 255
208 228 255
208 228 255
208 228 255
208 228 255
208 228 255
208 228 255
208 228 255
208 228 255
208 228 255
208 228 255
208 228 255
208 228 255
207 228 255
207 228 255
207 228 255
207 228 255
207 228 255
207 228 255
207 228 255
207 228 255
207 228 255
207 228 255
207 228 255
207 228 255
207 228 255
207 228 255
207 228 255
207 227 255
207 227 255
207 227 255
207 227 255
207 227 255
206 227 255
206 227 255
206 227 255
206 227 255
206 227 255
206 227 255
206 227 255
206 227 255
206 227 255
206 227 255
206 227 255
206 227 255
206 227 255
206 227 255
206 227 255
206 227 255
206 227 255
205 227 255
205 227 255
205 227 255
205 227 255
205 227 255
205 227 255
205 227 255
205 227 255
205 227 255
205 227 255
205 226 255
205 226 255
205 226 255
205 226 255
205 226 255
205 226 255
204 226 255
204 226 255
204 226 255
204 226 255
204 226 255
204 226 255
204 226 255
204 226 255
204 226 255
204 226 255
204 226 255
204 226 255
204 226 255
204 226 255
204 226 255
204 226 255
203 226 255
203 226 255
203 226 255
203 226 255
203 226 255
203 226 255
203 226 255
203 225 255
203 225 255
203 225 255
203 225 255
203 225 255
203 225 255
203 225 255
203 225 255
203 225 255
202 225 255
202 225 255
202 225 255
202 225 255
202 225 255
202 225 255
202 225 255
202 225 255
202 225 255
202 225 255
202 225 255
202 225 255
202 225 255
202 225 255
202 225 255
201 225 255
201 225 255
201 225 255
201 225 255
201 225 255
201 224 255
201 224 255
201 224 255
201 224 255
201 224 255
201 224 255
201 224 255
201 224 255
201 224 255
201 224 255
201 224 255
201 224 255
201 224 255
200 224 255
200 224 255
200 224 255
200 224 255
200 224 255
200 224 255
200 224 255
200 224 255
200 224 255
200 224 255
200 224 255
200 224 255
200 224 255
200 224 255
200 224 255
200 224 255
200 224 255
200 224 255
200 224 255
200 224 255
199 224 255
199 224 255
199 224 255
199 224 255
199 224 255
199 223 255
199 223 255
199 223 255
199 223 255
199 223 255
199 223 255
199 223 255
199 223 255
199 223 255
199 223 255
199 223 255
199 223 255
199 223 255
199 223 255
199 223 255
199 223 255
199 223 255
199 223 255
199 223 255
199 223 255
199 223 255
199 223 255
199 223 255
199 223 255
199 223 255
199 223 255
199 223 255
199 223 255
199 223 255
199 223 255
199 223 255
199 223 255
199 223 255
199 223 255
199 223 255
199 223 255
199 223 255
199 223 255
199 223 255
199 223 255
199 223 255
199 223 255
199 223 255
199 223 255
199 223 255
199 223 255
199 223 255
199 223 255
199 223 255
199 223 255
199 223 255
199 223 255
199 223 255
199 223 255
199 223 255
199 223 255
199 223 255
199 223 255
199 224 255
199 224 255
199 224 255
199 224 255
200 224 255
200 224 255
200 224 255
200 224 255
200 224 255
200 224 255
200 224 255
200 224 255
200 224 255
200 224 255
200 224 255
200 224 255
200 224 255
200 224 255
200 224 255
200 224 255
200 224 255
200 224 255
200 224 255
200 224 255
200 224 255
200 224 255
201 224 255
201 224 255
201 224 255
201 224 255
201 224 255
201 224 255
201 224 255
201 224 255
201 224 255
201 224 255
201 224 255
201 224 255
201 225 255
201 225 255
201 225 255
201 225 255
201 225 255
202 225 255
202 225 255
202 225 255
202 225 255
202 225 255
202 225 255
202 225 255
202 225 255
202 225 255
202 225 255
202 225 255
202 225 255
202 225 255
202 225 255
202 225 255
203 225 255
203 225 255
203 225 255
203 225 255
203 225 255
203 225 255
203 225 255
203 225 255
203 225 255
203 226 255
203 226 255
203 226 255
203 226 255
203 226 255
203 226 255
203 226 255
204 226 255
204 226 255
204 226 255
204 226 255
204 226 255
204 226 255
204 226 255
204 226 255
204 226 255
204 226 255
204 226 255
204 226 255
204 226 255
204 226 255
204 226 255
204 226 255
205 226 255
205 226 255
205 226 255
205 226 255
205 226 255
205 226 255
205 227 255
205 227 255
205 227 255
205 227 255
205 227 255
205 227 255
205 227 255
205 227 255
205 227 255
205 227 255
206 227 255
206 227 255
206 227 255
206 227 255
206 227 255
206 227 255
206 227 255
206 227 255
206 227 255
206 227 255
206 227 255
206 227 255
206 227 255
206 227 255
206 227 255
206 227 255
206 227 255
206 227 255
207 227 255
207 227 255
207 227 255
207 227 255
207 228 255
207 228 255
207 228 255
207 228 255
207 228 255
207 228 255
207 228 255
207 228 255
207 228 255
207 228 255
207 228 255
207 228 255
207 228 255
207 228 255
207 228 255
208 228 255
208 228 255
208 228 255
208 228 255
208 228 255
208 228 255
208 228 255
208 228 255
208 228 255
208 228 255
208 228 255
208 228 255
208 228 255
208 228 255
208 228 255
208 228 255
208 228 255
208 228 255
208 228 255
208 228 255
209 228 255
209 228 255
209 229 255
209 229 255
209 229 255
209 229 255
209 229 255
209 229 255
209 229 255
209 229 255
209 229 255
209 229 255
209 229 255
209 229 255
209 229 255
209 229 255
209 229 255
209 228 255
209 228 255
208 228 255
208 228 255
208 228 255
208 228 255
208 228 255
208 228 255
208 228 255
208 228 255
208 228 255
208 228 255
208 228 255
208 228 255
208 228 255
208 228 255
208 228 255
208 228 255
208 228 255
208 228 255
208 228 255
208 228 255
208 228 255
207 228 255
207 228 255
207 228 255
207 228 255
207 228 255
207 228 255
207 228 255
207 228 255
207 228 255
207 228 255
207 228 255
207 228 255
207 228 255
207 228 255
207 227 255
207 227 255
207 227 255
207 227 255
206 227 255
206 227 255
206 227 255
206 227 255
206 227 255
206 227 255
206 227 255
206 227 255
206 227 255
206 227 255
206 227 255
206 227 255
206 227 255
206 227 255
206 227 255
206 227 255
206 227 255
206 227 255
205 227 255
205 227 255
205 227 255
205 227 255
205 227 255
205 227 255
205 227 255
205 227 255
205 227 255
205 227 255
205 226 255
205 226 255
205 226 255
205 226 255
205 226 255
205 226 255
204 226 255
204 226 255
204 226 255
204 226 255
204 226 255
204 226 255
204 226 255
204 226 255
204 226 255
204 226 255
204 226 255
204 226 255
204 226 255
204 226 255
204 226 255
204 226 255
203 226 255
203 226 255
203 226 255
203 226 255
203 226 255
203 226 255
203 226 255
203 225 255
203 225 255
203 225 255
203 225 255
203 225 255
203 225 255
203 225 255
203 225 255
203 225 255
202 225 255
202 225 255
202 225 255
202 225 255
202 225 255
202 225 255
202 225 255
202 225 255
202 225 255
202 225 255
202 225 255
202 225 255
202 225 255
202 225 255
202 225 255
201 225 255
201 225 255
201 225 255
201 225 255
201 225 255
201 224 255
201 224 255
201 224 255
201 224 255
201 224 255
201 224 255
201 224 255
201 224 255
201 224 255
201 224 255
201 224 255
201 224 255
201 224 255
200 224 255
200 224 255
200 224 255
200 224 255
200 224 255
200 224 255
200 224 255
200 224 255
200 224 255
200 224 255
200 224 255
200 224 255
200 224 255
200 224 255
200 224 255
200 224 255
200 224 255
200 224 255
200 224 255
200 224 255
200 224 255
200 224 255
200 224 255
200 224 255
199 224 255
199 224 255
199 224 255
199 224 255
199 224 255
199 223 255
199 223 255
199 223 255
199 223 255
199 223 255
199 223 255
199 223 255
199 223 255
199 223 255
199 223 255
199 223 255
199 223 255
199 223 255
199 223 255
199 223 255
199 223 255
199 223 255
199 223 255
199 223 255
199 223 255
199 223 255
199 223 255
199 223 255
199 223 255
199 223 255
199 223 255
199 223 255
199 223 255
199 223 255
199 223 255
199 223 255
199 223 255
199 223 255
199 223 255
199 223 255
199 223 255
199 223 255
199 223 255
199 223 255
199 223 255
199 223 255
199 223 255
199 223 255
199 223 255
199 224 255
199 224 255
199 224 255
199 224 255
199 224 255
199 224 255
200 224 255
200 224 255
200 224 255
200 224 255
200 224 255
200 224 255
200 224 255
200 224 255
200 224 255
200 224 255
200 224 255
200 224 255
200 224 255
200 224 255
200 224 255
200 224 255
200 224 255
200 224 255
200 224 255
200 224 255
200 224 255
200 224 255
200 224 255
201 224 255
201 224 255
201 224 255
201 224 255
201 224 255
201 224 255
201 224 255
201 224 255
201 224 255
201 224 255
201 224 255
201 224 255
201 225 255
201 225 255
201 225 255
201 225 255
201 225 255
202 225 255
202 225 255
202 225 255
202 225 255
202 225 255
202 225 255
202 225 255
202 225 255
202 225 255
202 225 255
202 225 255
202 225 255
202 225 255
202 225 255
202 225 255
202 225 255
203 225 255
203 225 255
203 225 255
203 225 255
203 225 255
203 225 255
203 225 255
203 225 255
203 225 255
203 226 255
203 226 255
203 226 255
203 226 255
203 226 255
203 226 255
203 226 255
204 226 255
204 226 255
204 226 255
204 226 255
204 226 255
204 226 255
204 226 255
204 226 255
204 226 255
204 226 255
204 226 255
204 226 255
204 226 255
204 226 255
204 226 255
204 226 255
205 226 255
205 226 255
205 226 255
205 226 255
205 226 255
205 226 255
205 227 255
205 227 255
205 227 255
205 227 255
205 227 255
205 227 255
205 227 255
205 227 255
205 227 255
205 227 255
206 227 255
206 227 255
206 227 255
206 227 255
206 227 255
206 227 255
206 227 255
206 227 255
206 227 255
206 227 255
206 227 255
206 227 255
206 227 255
206 227 255
206 227 255
206 227 255
206 227 255
206 227 255
207 227 255
207 227 255
207 227 255
207 227 255
207 228 255
207 228 255
207 228 255
207 228 255
207 228 255
207 228 255
207 228 255
207 228 255
207 228 255
207 228 255
207 228 255
207 228 255
207 228 255
207 228 255
208 228 255
208 228 255
208 228 255
208 228 255
208 228 255
208 228 255
208 228 255
208 228 255
208 228 255
208 228 255
208 228 255
208 228 255
208 228 255
208 228 255
208 228 255
208 228 255
208 228 255
208 228 255
208 228 255
208 228 255
208 228 255
209 228 255
209 228 255
209 229 255
209 229 255
209 229 255
209 229 255
209 229 255
209 229 255
209 229 255
209 229 255
209 229 255
209 229 255
209 229 255
209 229 255
209 229 255
209 229 255
209 229 255
209 229 255
209 229 255
209 229 255
209 229 255
209 229 255
209 229 255
209 228 255
209 228 255
208 228 255
208 228 255
208 228 255
208 228 255
208 228 255
208 228 255
208 228 255
208 228 255
208 228 255
208 228 255
208 228 255
208 228 255
208 228 255
208 228 255
208 228 255
208 228 255
208 228 255
208 228 255
208 228 255
208 228 255
208 228 255
207 228 255
207 228 255
207 228 255
207 228 255
207 228 255
207 228 255
207 228 255
207 228 255
207 228 255
207 228 255
207 228 255
207 228 255
207 228 255
207 228 255
207 227 255
207 227 255
207 227 255
207 227 255
206 227 255
206 227 255
206 227 255
206 227 255
206 227 255
206 227 255
206 227 255
206 227 255
206 227 255
206 227 255
206 227 255
206 227 255
206 227 255
206 227 255
206 227 255
206 227 255
206 227 255
206 227 255
205 227 255
205 227 255
205 227 255
205 227 255
205 227 255
205 227 255
205 227 255
205 227 255
205 227 255
205 227 255
205 226 255
205 226 255
205 226 255
205 226 255
205 226 255
205 226 255
204 226 255
204 226 255
204 226 255
204 226 255
204 226 255
204 226 255
204 226 255
204 226 255
204 226 255
204 226 255
204 226 255
204 226 255
204 226 255
204 226 255
204 226 255
204 226 255
203 226 255
203 226 255
203 226 255
203 226 255
203 226 255
203 226 255
203 226 255
203 225 255
203 225 255
203 225 255
203 225 255
203 225 255
203 225 255
203 225 255
203 225 255
203 225 255
202 225 255
202 225 255
202 225 255
202 225 255
202 225 255
202 225 255
202 225 255
202 225 255
202 225 255
202 225 255
202 225 255
202 225 255
202 225 255
202 225 255
202 225 255
202 225 255
201 225 255
201 225 255
201 225 255
201 225 255
201 225 255
201 224 255
201 224 255
201 224 255
201 224 255
201 224 255
201 224 255
201 224 255
201 224 255
201 224 255
201 224 255
201 224 255
201 224 255
201 224 255
200 224 255
200 224 255
200 224 255
200 224 255
200 224 255
200 224 255
200 224 255
200 224 255
200 224 255
200 224 255
200 224 255
200 224 255
200 224 255
200 224 255
200 224 255
200 224 255
200 224 255
200 224 255
200 224 255
200 224 255
200 224 255
200 224 255
200 224 255
200 224 255
200 224 255
200 224 255
200 224 255
199 224 255
199 224 255
199 224 255
199 224 255
199 224 255
199 224 255
199 224 255
199 223 255
199 223 255
199 223 255
199 223 255
199 223 255
199 223 255
199 223 255
199 223 255
199 223 255
199 223 255
199 223 255
199 223 255
199 223 255
199 223 255
199 223 255
199 223 255
199 223 255
199 223 255
199 223 255
199 223 255
199 223 255
199 223 255
199 223 255
199 223 255
199 223 255
199 224 255
199 224 255
199 224 255
199 224 255
199 224 255
199 224 255
199 224 255
199 224 255
200 224 255
200 224 255
200 224 255
200 224 255
200 224 255
200 224 255
200 224 255
200 224 255
200 224 255
200 224 255
200 224 255
200 224 255
200 224 255
200 224 255
200 224 255
200 224 255
200 224 255
200 224 255
200 224 255
200 224 255
200 224 255
200 224 255
200 224 255
200 224 255
200 224 255
200 224 255
200 224 255
201 224 255
201 224 255
201 224 255
201 224 255
201 224 255
201 224 255
201 224 255
201 224 255
201 224 255
201 224 255
201 224 255
201 224 255
201 224 255
201 225 255
201 225 255
201 225 255
201 225 255
201 225 255
202 225 255
202 225 255
202 225 255
202 225 255
202 225 255
202 225 255
202 225 255
202 225 255
202 225 255
202 225 255
202 225 255
202 225 255
202 225 255
202 225 255
202 225 255
202 225 255
202 225 255
203 225 255
203 225 255
203 225 255
203 225 255
203 225 255
203 225 255
203 225 255
203 225 255
203 226 255
203 226 255
203 226 255
203 226 255
203 226 255
203 226 255
203 226 255
204 226 255
204 226 255
204 226 255
204 226 255
204 226 255
204 226 255
204 226 255
204 226 255
204 226 255
204 226 255
204 226 255
204 226 255
204 226 255
204 226 255
204 226 255
204 226 255
205 226 255
205 226 255
205 226 255
205 226 255
205 226 255
205 226 255
205 227 255
205 227 255
205 227 255
205 227 255
205 227 255
205 227 255
205 227 255
205 227 255
205 227 255
205 227 255
206 227 255
206 227 255
206 227 255
206 227 255
206 227 255
206 227 255
206 227 255
206 227 255
206 227 255
206 227 255
206 227 255
206 227 255
206 227 255
206 227 255
206 227 255
206 227 255
206 227 255
207 227 255
207 227 255
207 227 255
207 227 255
207 227 255
207 228 255
207 228 255
207 228 255
207 228 255
207 228 255
207 228 255
207 228 255
207 228 255
207 228 255
207 228 255
207 228 255
207 228 255
207 228 255
207 228 255
208 228 255
208 228 255
208 228 255
208 228 255
208 228 255
208 228 255
208 228 255
208 228 255
208 228 255
208 228 255
208 228 255
208 228 255
208 228 255
208 228 255
208 228 255
208 228 255
208 228 255
208 228 255
208 228 255
208 228 255
208 228 255
209 228 255
209 228 255
209 229 255
209 229 255
209 229 255
209 229 255
209 229 255
209 229 255
209 229 255
209 229 255
209 229 255
209 229 255
209 229 255
209 229 255
209 229 255
209 229 255
209 229 255
209 229 255
209 229 255
209 229 255
209 229 255
209 229 255
209 229 255
209 229 255
209 229 255
209 229 255
209 229 255
209 229 255
209 229 255
209 229 255
209 228 255
208 228 255
208 228 255
208 228 255
208 228 255
208 228 255
208 228 255
208 228 255
208 228 255
208 228 255
208 228 255
208 228 255
208 228 255
208 228 255
208 228 255
208 228 255
208 228 255
208 228 255
208 228 255
208 228 255
208 228 255
208 228 255
207 228 255
207 228 255
207 228 255
207 228 255
207 228 255
207 228 255
207 228 255
207 228 255
207 228 255
207 228 255
207 228 255
207 228 255
207 228 255
207 228 255
207 227 255
207 227 255
207 227 255
207 227 255
206 227 255
206 227 255
206 227 255
206 227 255
206 227 255
206 227 255
206 227 255
206 227 255
206 227 255
206 227 255
206 227 255
206 227 255
206 227 255
206 227 255
206 227 255
206 227 255
206 227 255
206 227 255
205 227 255
205 227 255
205 227 255
205 227 255
205 227 255
205 227 255
205 227 255
205 227 255
205 227 255
205 227 255
205 226 255
205 226 255
205 226 255
205 226 255
205 226 255
205 226 255
204 226 255
204 226 255
204 226 255
204 226 255
204 226 255
204 226 255
204 226 255
204 226 255
204 226 255
204 226 255
204 226 255
204 226 255
204 226 255
204 226 255
204 226 255
204 226 255
203 226 255
203 226 255
203 226 255
203 226 255
203 226 255
203 226 255
203 226 255
203 225 255
203 225 255
203 225 255
203 225 255
203 225 255
203 225 255
203 225 255
203 225 255
203 225 255
202 225 255
202 225 255
202 225 255
202 225 255
202 225 255
202 225 255
202 225 255
202 225 255
202 225 255
202 225 255
202 225 255
202 225 255
202 225 255
202 225 255
202 225 255
202 225 255
201 225 255
201 225 255
201 225 255
201 225 255
201 225 255
201 224 255
201 224 255
201 224 255
201 224 255
201 224 255
201 224 255
201 224 255
201 224 255
201 224 255
201 224 255
201 224 255
201 224 255
201 224 255
201 224 255
201 224 255
200 224 255
200 224 255
200 224 255
200 224 255
200 224 255
200 224 255
200 224 255
200 224 255
200 224 255
200 224 255
200 224 255
200 224 255
200 224 255
200 224 255
200 224 255
200 224 255
200 224 255
200 224 255
200 224 255
200 224 255
200 224 255
200 224 255
200 224 255
200 224 255
200 224 255
200 224 255
200 224 255
200 224 255
200 224 255
200 224 255
200 224 255
200 224 255
200 224 255
200 224 255
199 224 255
199 224 255
199 224 255
199 224 255
199 224 255
199 224 255
199 224 255
199 224 255
199 224 255
199 224 255
199 224 255
199 224 255
199 224 255
199 224 255
199 224 255
199 224 255
199 224 255
200 224 255
200 224 255
200 224 255
200 224 255
200 224 255
200 224 255
200 224 255
200 224 255
200 224 255
200 224 255
200 224 255
200 224 255
200 224 255
200 224 255
200 224 255
200 224 255
200 224 255
200 224 255
200 224 255
200 224 255
200 224 255
200 224 255
200 224 255
200 224 255
200 224 255
200 224 255
200 224 255
200 224 255
200 224 255
200 224 255
200 224 255
200 224 255
200 224 255
200 224 255
201 224 255
201 224 255
201 224 255
201 224 255
201 224 255
201 224 255
201 224 255
201 224 255
201 224 255
201 224 255
201 224 255
201 224 255
201 224 255
201 224 255
201 225 255
201 225 255
201 225 255
201 225 255
201 225 255
202 225 255
202 225 255
202 225 255
202 225 255
202 225 255
202 225 255
202 225 255
202 225 255
202 225 255
202 225 255
202 225 255
202 225 255
202 225 255
202 225 255
202 225 255
202 225 255
203 225 255
203 225 255
203 225 255
203 225 255
203 225 255
203 225 255
203 225 255
203 225 255
203 225 255
203 226 255
203 226 255
203 226 255
203 226 255
203 226 255
203 226 255
203 226 255
204 226 255
204 226 255
204 226 255
204 226 255
204 226 255
204 226 255
204 226 255
204 226 255
204 226 255
204 226 255
204 226 255
204 226 255
204 226 255
204 226 255
204 226 255
204 226 255
205 226 255
205 226 255
205 226 255
205 226 255
205 226 255
205 226 255
205 226 255
205 227 255
205 227 255
205 227 255
205 227 255
205 227 255
205 227 255
205 227 255
205 227 255
205 227 255
206 227 255
206 227 255
206 227 255
206 227 255
206 227 255
206 227 255
206 227 255
206 227 255
206 227 255
206 227 255
206 227 255
206 227 255
206 227 255
206 227 255
206 227 255
206 227 255
206 227 255
206 227 255
207 227 255
207 227 255
207 227 255
207 227 255
207 228 255
207 228 255
207 228 255
207 228 255
207 228 255
207 228 255
207 228 255
207 228 255
207 228 255
207 228 255
207 228 255
207 228 255
207 228 255
207 228 255
208 228 255
208 228 255
208 228 255
208 228 255
208 228 255
208 228 255
208 228 255
208 228 255
208 228 255
208 228 255
208 228 255
208 228 255
208 228 255
208 228 255
208 228 255
208 228 255
208 228 255
208 228 255
208 228 255
208 228 255
208 228 255
209 228 255
209 229 255
209 229 255
209 229 255
209 229 255
209 229 255
209 229 255
209 229 255
209 229 255
209 229 255
209 229 255
209 229 255
209 229 255
209 229 255
209 229 255
209 229 255
209 229 255
209 229 255
209 229 255
209 229 255
209 229 255
209 229 255
209 229 255
209 229 255
209 229 255
209 229 255
209 229 255
209 229 255
209 229 255
209 229 255
209 229 255
209 229 255
209 229 255
209 229 255
209 229 255
209 229 255
209 228 255
208 228 255
208 228 255
208 228 255
208 228 255
208 228 255
208 228 255
208 228 255
208 228 255
208 228 255
208 228 255
208 228 255
208 228 255
208 228 255
208 228 255
208 228 255
208 228 255
208 228 255
208 228 255
208 228 255
208 228 255
208 228 255
207 228 255
207 228 255
207 228 255
207 228 255
207 228 255
207 228 255
207 228 255
207 228 255
207 228 255
207 228 255
207 228 255
207 228 255
207 228 255
207 228 255
207 227 255
207 227 255
207 227 255
207 227 255
206 227 255
206 227 255
206 227 255
206 227 255
206 227 255
206 227 255
206 227 255
206 227 255
206 227 255
206 227 255
206 227 255
206 227 255
206 227 255
206 227 255
206 227 255
206 227 255
206 227 255
206 227 255
205 227 255
205 227 255
205 227 255
205 227 255
205 227 255
205 227 255
205 227 255
205 227 255
205 227 255
205 226 255
205 226 255
205 226 255
205 226 255
205 226 255
205 226 255
205 226 255
204 226 255
204 226 255
204 226 255
204 226 255
204 226 255
204 226 255
204 226 255
204 226 255
204 226 255
204 226 255
204 226 255
204 226 255
204 226 255
204 226 255
204 226 255
204 226 255
203 226 255
203 226 255
203 226 255
203 226 255
203 226 255
203 226 255
203 226 255
203 225 255
203 225 255
203 225 255
203 225 255
203 225 255
203 225 255
203 225 255
203 225 255
203 225 255
202 225 255
202 225 255
202 225 255
202 225 255
202 225 255
202 225 255
202 225 255
202 225 255
202 225 255
202 225 255
202 225 255
202 225 255
202 225 255
202 225 255
202 225 255
202 225 255
202 225 255
201 225 255
201 225 255
201 225 255
201 225 255
201 225 255
201 224 255
201 224 255
201 224 255
201 224 255
201 224 255
201 224 255
201 224 255
201 224 255
201 224 255
201 224 255
201 224 255
201 224 255
201 224 255
201 224 255
201 224 255
200 224 255
200 224 255
200 224 255
200 224 255
200 224 255
200 224 255
200 224 255
200 224 255
200 224 255
200 224 255
200 224 255
200 224 255
200 224 255
200 224 255
200 224 255
200 224 255
200 224 255
200 224 255
200 224 255
200 224 255
200 224 255
200 224 255
200 224 255
200 224 255
200 224 255
200 224 255
200 224 255
200 224 255
200 224 255
200 224 255
200 224 255
200 224 255
200 224 255
200 224 255
200 224 255
200 224 255
200 224 255
200 224 255
200 224 255
200 224 255
200 224 255
200 224 255
200 224 255
200 224 255
200 224 255
200 224 255
200 224 255
200 224 255
200 224 255
200 224 255
200 224 255
200 224 255
200 224 255
200 224 255
200 224 255
200 224 255
200 224 255
200 224 255
200 224 255
200 224 255
200 224 255
200 224 255
200 224 255
200 224 255
200 224 255
200 224 255
200 224 255
200 224 255
200 224 255
200 224 255
200 224 255
200 224 255
200 224 255
200 224 255
200 224 255
200 224 255
201 224 255
201 224 255
201 224 255
201 224 255
201 224 255
201 224 255
201 224 255
201 224 255
201 224 255
201 224 255
201 224 255
201 224 255
201 224 255
201 224 255
201 224 255
201 225 255
201 225 255
201 225 255
201 225 255
201 225 255
202 225 255
202 225 255
202 225 255
202 225 255
202 225 255
202 225 255
202 225 255
202 225 255
202 225 255
202 225 255
202 225 255
202 225 255
202 225 255
202 225 255
202 225 255
202 225 255
202 225 255
203 225 255
203 225 255
203 225 255
203 225 255
203 225 255
203 225 255
203 225 255
203 225 255
203 225 255
203 226 255
203 226 255
203 226 255
203 226 255
203 226 255
203 226 255
203 226 255
204 226 255
204 226 255
204 226 255
204 226 255
204 226 255
204 226 255
204 226 255
204 226 255
204 226 255
204 226 255
204 226 255
204 226 255
204 226 255
204 226 255
204 226 255
204 226 255
205 226 255
205 226 255
205 226 255
205 226 255
205 226 255
205 226 255
205 227 255
205 227 255
205 227 255
205 227 255
205 227 255
205 227 255
205 227 255
205 227 255
205 227 255
205 227 255
206 227 255
206 227 255
206 227 255
206 227 255
206 227 255
206 227 255
206 227 255
206 227 255
206 227 255
206 227 255
206 227 255
206 227 255
206 227 255
206 227 255
206 227 255
206 227 255
206 227 255
207 227 255
207 227 255
207 227 255
207 227 255
207 227 255
207 228 255
207 228 255
207 228 255
207 228 255
207 228 255
207 228 255
207 228 255
207 228 255
207 228 255
207 228 255
207 228 255
207 228 255
207 228 255
207 228 255
208 228 255
208 228 255
208 228 255
208 228 255
208 228 255
208 228 255
208 228 255
208 228 255
208 228 255
208 228 255
208 228 255
208 228 255
208 228 255
208 228 255
208 228 255
208 228 255
208 228 255
208 228 255
208 228 255
208 228 255
209 228 255
209 228 255
209 229 255
209 229 255
209 229 255
209 229 255
209 229 255
209 229 255
209 229 255
209 229 255
209 229 255
209 229 255
209 229 255
209 229 255
209 229 255
209 229 255
209 229 255
209 229 255
209 229 255
209 229 255
209 229 255
210 229 255
209 229 255
209 229 255
209 229 255
209 229 255
209 229 255
209 229 255
209 229 255
209 229 255
209 229 255
209 229 255
209 229 255
209 229 255
209 229 255
209 229 255
209 229 255
209 229 255
209 229 255
209 229 255
209 229 255
209 229 255
209 229 255
209 228 255
209 228 255
208 228 255
208 228 255
208 228 255
208 228 255
208 228 255
208 228 255
208 228 255
208 228 255
208 228 255
208 228 255
208 228 255
208 228 255
208 228 255
208 228 255
208 228 255
208 228 255
208 228 255
208 228 255
208 228 255
208 228 255
207 228 255
207 228 255
207 228 255
207 228 255
207 228 255
207 228 255
207 228 255
207 228 255
207 228 255
207 228 255
207 228 255
207 228 255
207 228 255
207 228 255
207 227 255
207 227 255
207 227 255
207 227 255
207 227 255
206 227 255
206 227 255
206 227 255
206 227 255
206 227 255
206 227 255
206 227 255
206 227 255
206 227 255
206 227 255
206 227 255
206 227 255
206 227 255
206 227 255
206 227 255
206 227 255
206 227 255
205 227 255
205 227 255
205 227 255
205 227 255
205 227 255
205 227 255
205 227 255
205 227 255
205 227 255
205 227 255
205 226 255
205 226 255
205 226 255
205 226 255
205 226 255
205 226 255
204 226 255
204 226 255
204 226 255
204 226 255
204 226 255
204 226 255
204 226 255
204 226 255
204 226 255
204 226 255
204 226 255
204 226 255
204 226 255
204 226 255
204 226 255
204 226 255
203 226 255
203 226 255
203 226 255
203 226 255
203 226 255
203 226 255
203 226 255
203 225 255
203 225 255
203 225 255
203 225 255
203 225 255
203 225 255
203 225 255
203 225 255
203 225 255
202 225 255
202 225 255
202 225 255
202 225 255
202 225 255
202 225 255
202 225 255
202 225 255
202 225 255
202 225 255
202 225 255
202 225 255
202 225 255
202 225 255
202 225 255
202 225 255
202 225 255
202 225 255
201 225 255
201 225 255
201 225 255
201 225 255
201 225 255
201 224 255
201 224 255
201 224 255
201 224 255
201 224 255
201 224 255
201 224 255
201 224 255
201 224 255
201 224 255
201 224 255
201 224 255
201 224 255
201 224 255
201 224 255
201 224 255
200 224 255
200 224 255
200 224 255
200 224 255
200 224 255
200 224 255
200 224 255
200 224 255
200 224 255
200 224 255
200 224 255
200 224 255
200 224 255
200 224 255
200 224 255
200 224 255
200 224 255
200 224 255
200 224 255
200 224 255
200 224 255
200 224 255
200 224 255
200 224 255
200 224 255
200 224 255
200 224 255
200 224 255
200 224 255
200 224 255
200 224 255
200 224 255
200 224 255
200 224 255
200 224 255
200 224 255
200 224 255
200 224 255
200 224 255
200 224 255
200 224 255
200 224 255
200 224 255
200 224 255
200 224 255
200 224 255
200 224 255
200 224 255
200 224 255
200 224 255
200 224 255
200 224 255
200 224 255
200 224 255
200 224 255
200 224 255
200 224 255
200 224 255
200 224 255
200 224 255
200 224 255
200 224 255
200 224 255
200 224 255
200 224 255
200 224 255
201 224 255
201 224 255
201 224 255
201 224 255
201 224 255
201 224 255
201 224 255
201 224 255
201 224 255
201 224 255
201 224 255
201 224 255
201 224 255
201 224 255
201 224 255
201 224 255
201 225 255
201 225 255
201 225 255
201 225 255
201 225 255
202 225 255
202 225 255
202 225 255
202 225 255
202 225 255
202 225 255
202 225 255
202 225 255
202 225 255
202 225 255
202 225 255
202 225 255
202 225 255
202 225 255
202 225 255
202 225 255
202 225 255
202 225 255
203 225 255
203 225 255
203 225 255
203 225 255
203 225 255
203 225 255
203 225 255
203 225 255
203 225 255
203 226 255
203 226 255
203 226 255
203 226 255
203 226 255
203 226 255
203 226 255
204 226 255
204 226 255
204 226 255
204 226 255
204 226 255
204 226 255
204 226 255
204 226 255
204 226 255
204 226 255
204 226 255
204 226 255
204 226 255
204 226 255
204 226 255
204 226 255
205 226 255
205 226 255
205 226 255
205 226 255
205 226 255
205 226 255
205 227 255
205 227 255
205 227 255
205 227 255
205 227 255
205 227 255
205 227 255
205 227 255
205 227 255
205 227 255
206 227 255
206 227 255
206 227 255
206 227 255
206 227 255
206 227 255
206 227 255
206 227 255
206 227 255
206 227 255
206 227 255
206 227 255
206 227 255
206 227 255
206 227 255
206 227 255
206 227 255
207 227 255
207 227 255
207 227 255
207 227 255
207 227 255
207 228 255
207 228 255
207 228 255
207 228 255
207 228 255
207 228 255
207 228 255
207 228 255
207 228 255
207 228 255
207 228 255
207 228 255
207 228 255
207 228 255
208 228 255
208 228 255
208 228 255
208 228 255
208 228 255
208 228 255
208 228 255
208 228 255
208 228 255
208 228 255
208 228 255
208 228 255
208 228 255
208 228 255
208 228 255
208 228 255
208 228 255
208 228 255
208 228 255
208 228 255
209 228 255
209 228 255
209 229 255
209 229 255
209 229 255
209 229 255
209 229 255
209 229 255
209 229 255
209 229 255
209 229 255
209 229 255
209 229 255
209 229 255
209 229 255
209 229 255
209 229 255
209 229 255
209 229 255
209 229 255
209 229 255
209 229 255
209 229 255
210 229 255
210 229 255
210 229 255
210 229 255
210 229 255
210 229 255
209 229 255
209 229 255
209 229 255
209 229 255
209 229 255
209 229 255
209 229 255
209 229 255
209 229 255
209 229 255
209 229 255
209 229 255
209 229 255
209 229 255
209 229 255
209 229 255
209 229 255
209 229 255
209 229 255
209 229 255
209 229 255
209 228 255
208 228 255
208 228 255
208 228 255
208 228 255
208 228 255
208 228 255
208 228 255
208 228 255
208 228 255
208 228 255
208 228 255
208 228 255
208 228 255
208 228 255
208 228 255
208 228 255
208 228 255
208 228 255
208 228 255
208 228 255
207 228 255
207 228 255
207 228 255
207 228 255
207 228 255
207 228 255
207 228 255
207 228 255
207 228 255
207 228 255
207 228 255
207 228 255
207 228 255
207 228 255
207 228 255
207 227 255
207 227 255
207 227 255
207 227 255
206 227 255
206 227 255
206 227 255
206 227 255
206 227 255
206 227 255
206 227 255
206 227 255
206 227 255
206 227 255
206 227 255
206 227 255
206 227 255
206 227 255
206 227 255
206 227 255
206 227 255
205 227 255
205 227 255
205 227 255
205 227 255
205 227 255
205 227 255
205 227 255
205 227 255
205 227 255
205 227 255
205 226 255
205 226 255
205 226 255
205 226 255
205 226 255
205 226 255
204 226 255
204 226 255
204 226 255
204 226 255
204 226 255
204 226 255
204 226 255
204 226 255
204 226 255
204 226 255
204 226 255
204 226 255
204 226 255
204 226 255
204 226 255
204 226 255
203 226 255
203 226 255
203 226 255
203 226 255
203 226 255
203 226 255
203 226 255
203 225 255
203 225 255
203 225 255
203 225 255
203 225 255
203 225 255
203 225 255
203 225 255
203 225 255
203 225 255
202 225 255
202 225 255
202 225 255
202 225 255
202 225 255
202 225 255
202 225 255
202 225 255
202 225 255
202 225 255
202 225 255
202 225 255
202 225 255
202 225 255
202 225 255
202 225 255
202 225 255
202 225 255
201 225 255
201 225 255
201 225 255
201 225 255
201 225 255
201 225 255
201 224 255
201 224 255
201 224 255
201 224 255
201 224 255
201 224 255
201 224 255
201 224 255
201 224 255
201 224 255
201 224 255
201 224 255
201 224 255
201 224 255
201 224 255
201 224 255
201 224 255
201 224 255
200 224 255
200 224 255
200 224 255
200 224 255
200 224 255
200 224 255
200 224 255
200 224 255
200 224 255
200 224 255
200 224 255
200 224 255
200 224 255
200 224 255
200 224 255
200 224 255
200 224 255
200 224 255
200 224 255
200 224 255
200 224 255
200 224 255
200 224 255
200 224 255
200 224 255
200 224 255
200 224 255
200 224 255
200 224 255
200 224 255
200 224 255
200 224 255
200 224 255
200 224 255
200 224 255
200 224 255
200 224 255
200 224 255
200 224 255
200 224 255
200 224 255
200 224 255
200 224 255
200 224 255
200 224 255
200 224 255
200 224 255
200 224 255
200 224 255
200 224 255
200 224 255
200 224 255
200 224 255
201 224 255
201 224 255
201 224 255
201 224 255
201 224 255
201 224 255
201 224 255
201 224 255
201 224 255
201 224 255
201 224 255
201 224 255
201 224 255
201 224 255
201 224 255
201 224 255
201 224 255
201 225 255
201 225 255
201 225 255
201 225 255
201 225 255
201 225 255
201 225 255
202 225 255
202 225 255
202 225 255
202 225 255
202 225 255
202 225 255
202 225 255
202 225 255
202 225 255
202 225 255
202 225 255
202 225 255
202 225 255
202 225 255
202 225 255
202 225 255
202 225 255
203 225 255
203 225 255
203 225 255
203 225 255
203 225 255
203 225 255
203 225 255
203 225 255
203 225 255
203 225 255
203 226 255
203 226 255
203 226 255
203 226 255
203 226 255
203 226 255
203 226 255
204 226 255
204 226 255
204 226 255
204 226 255
204 226 255
204 226 255
204 226 255
204 226 255
204 226 255
204 226 255
204 226 255
204 226 255
204 226 255
204 226 255
204 226 255
204 226 255
205 226 255
205 226 255
205 226 255
205 226 255
205 226 255
205 226 255
205 227 255
205 227 255
205 227 255
205 227 255
205 227 255
205 227 255
205 227 255
205 227 255
205 227 255
205 227 255
206 227 255
206 227 255
206 227 255
206 227 255
206 227 255
206 227 255
206 227 255
206 227 255
206 227 255
206 227 255
206 227 255
206 227 255
206 227 255
206 227 255
206 227 255
206 227 255
206 227 255
207 227 255
207 227 255
207 227 255
207 227 255
207 227 255
207 228 255
207 228 255
207 228 255
207 228 255
207 228 255
207 228 255
207 228 255
207 228 255
207 228 255
207 228 255
207 228 255
207 228 255
207 228 255
208 228 255
208 228 255
208 228 255
208 228 255
208 228 255
208 228 255
208 228 255
208 228 255
208 228 255
208 228 255
208 228 255
208 228 255
208 228 255
208 228 255
208 228 255
208 228 255
208 228 255
208 228 255
208 228 255
208 228 255
208 228 255
209 228 255
209 229 255
209 229 255
209 229 255
209 229 255
209 229 255
209 229 255
209 229 255
209 229 255
209 229 255
209 229 255
209 229 255
209 229 255
209 229 255
209 229 255
209 229 255
209 229 255
209 229 255
209 229 255
209 229 255
209 229 255
209 229 255
210 229 255
210 229 255
210 229 255
210 229 255
210 229 255
210 229 255
210 229 255
210 229 255
210 229 255
210 229 255
210 229 255
210 229 255
210 229 255
210 229 255
209 229 255
209 229 255
209 229 255
209 229 255
209 229 255
209 229 255
209 229 255
209 229 255
209 229 255
209 229 255
209 229 255
209 229 255
209 229 255
209 229 255
209 229 255
209 229 255
209 229 255
209 229 255
209 229 255
209 229 255
209 228 255
209 228 255
208 228 255
208 228 255
208 228 255
208 228 255
208 228 255
208 228 255
208 228 255
208 228 255
208 228 255
208 228 255
208 228 255
208 228 255
208 228 255
208 228 255
208 228 255
208 228 255
208 228 255
208 228 255
208 228 255
208 228 255
207 228 255
207 228 255
207 228 255
207 228 255
207 228 255
207 228 255
207 228 255
207 228 255
207 228 255
207 228 255
207 228 255
207 228 255
207 228 255
207 228 255
207 227 255
207 227 255
207 227 255
207 227 255
206 227 255
206 227 255
206 227 255
206 227 255
206 227 255
206 227 255
206 227 255
206 227 255
206 227 255
206 227 255
206 227 255
206 227 255
206 227 255
206 227 255
206 227 255
206 227 255
206 227 255
205 227 255
205 227 255
205 227 255
205 227 255
205 227 255
205 227 255
205 227 255
205 227 255
205 227 255
205 227 255
205 226 255
205 226 255
205 226 255
205 226 255
205 226 255
205 226 255
204 226 255
204 226 255
204 226 255
204 226 255
204 226 255
204 226 255
204 226 255
204 226 255
204 226 255
204 226 255
204 226 255
204 226 255
204 226 255
204 226 255
204 226 255
204 226 255
203 226 255
203 226 255
203 226 255
203 226 255
203 226 255
203 226 255
203 226 255
203 226 255
203 225 255
203 225 255
203 225 255
203 225 255
203 225 255
203 225 255
203 225 255
203 225 255
203 225 255
202 225 255
202 225 255
202 225 255
202 225 255
202 225 255
202 225 255
202 225 255
202 225 255
202 225 255
202 225 255
202 225 255
202 225 255
202 225 255
202 225 255
202 225 255
202 225 255
202 225 255
202 225 255
202 225 255
201 225 255
201 225 255
201 225 255
201 225 255
201 225 255
201 225 255
201 224 255
201 224 255
201 224 255
201 224 255
201 224 255
201 224 255
201 224 255
201 224 255
201 224 255
201 224 255
201 224 255
201 224 255
201 224 255
201 224 255
201 224 255
201 224 255
201 224 255
201 224 255
201 224 255
201 224 255
201 224 255
201 224 255
200 224 255
200 224 255
200 224 255
200 224 255
200 224 255
200 224 255
200 224 255
200 224 255
200 224 255
200 224 255
200 224 255
200 224 255
200 224 255
200 224 255
200 224 255
200 224 255
200 224 255
200 224 255
200 224 255
200 224 255
200 224 255
200 224 255
200 224 255
200 224 255
200 224 255
200 224 255
200 224 255
200 224 255
200 224 255
200 224 255
200 224 255
200 224 255
200 224 255
200 224 255
200 224 255
200 224 255
200 224 255
201 224 255
201 224 255
201 224 255
201 224 255
201 224 255
201 224 255
201 224 255
201 224 255
201 224 255
201 224 255
201 224 255
201 224 255
201 224 255
201 224 255
201 224 255
201 224 255
201 224 255
201 224 255
201 224 255
201 224 255
201 225 255
201 225 255
201 225 255
201 225 255
201 225 255
201 225 255
201 225 255
202 225 255
202 225 255
202 225 255
202 225 255
202 225 255
202 225 255
202 225 255
202 225 255
202 225 255
202 225 255
202 225 255
202 225 255
202 225 255
202 225 255
202 225 255
202 225 255
202 225 255
202 225 255
202 225 255
203 225 255
203 225 255
203 225 255
203 225 255
203 225 255
203 225 255
203 225 255
203 225 255
203 225 255
203 226 255
203 226 255
203 226 255
203 226 255
203 226 255
203 226 255
203 226 255
203 226 255
204 226 255
204 226 255
204 226 255
204 226 255
204 226 255
204 226 255
204 226 255
204 226 255
204 226 255
204 226 255
204 226 255
204 226 255
204 226 255
204 226 255
204 226 255
204 226 255
205 226 255
205 226 255
205 226 255
205 226 255
205 226 255
205 226 255
205 227 255
205 227 255
205 227 255
205 227 255
205 227 255
205 227 255
205 227 255
205 227 255
205 227 255
205 227 255
206 227 255
206 227 255
206 227 255
206 227 255
206 227 255
206 227 255
206 227 255
206 227 255
206 227 255
206 227 255
206 227 255
206 227 255
206 227 255
206 227 255
206 227 255
206 227 255
206 227 255
207 227 255
207 227 255
207 227 255
207 227 255
207 228 255
207 228 255
207 228 255
207 228 255
207 228 255
207 228 255
207 228 255
207 228 255
207 228 255
207 228 255
207 228 255
207 228 255
207 228 255
207 228 255
208 228 255
208 228 255
208 228 255
208 228 255
208 228 255
208 228 255
208 228 255
208 228 255
208 228 255
208 228 255
208 228 255
208 228 255
208 228 255
208 228 255
208 228 255
208 228 255
208 228 255
208 228 255
208 228 255
208 228 255
209 228 255
209 228 255
209 229 255
209 229 255
209 229 255
209 229 255
209 229 255
209 229 255
209 229 255
209 229 255
209 229 255
209 229 255
209 229 255
209 229 255
209 229 255
209 229 255
209 229 255
209 229 255
209 229 255
209 229 255
209 229 255
209 229 255
209 229 255
210 229 255
210 229 255
210 229 255
210 229 255
210 229 255
210 229 255
210 229 255
210 229 255
210 229 255
210 229 255
210 229 255
210 229 255
210 229 255
210 229 255
210 229 255
210 229 255
210 229 255
210 229 255
210 229 255
210 229 255
209 229 255
209 229 255
209 229 255
209 229 255
209 229 255
209 229 255
209 229 255
209 229 255
209 229 255
209 229 255
209 229 255
209 229 255
209 229 255
209 229 255
209 229 255
209 229 255
209 229 255
209 229 255
209 229 255
209 229 255
209 229 255
209 228 255
208 228 255
208 228 255
208 228 255
208 228 255
208 228 255
208 228 255
208 228 255
208 228 255
208 228 255
208 228 255
208 228 255
208 228 255
208 228 255
208 228 255
208 228 255
208 228 255
208 228 255
208 228 255
208 228 255
208 228 255
207 228 255
207 228 255
207 228 255
207 228 255
207 228 255
207 228 255
207 228 255
207 228 255
207 228 255
207 228 255
207 228 255
207 228 255
207 228 255
207 228 255
207 227 255
207 227 255
207 227 255
207 227 255
206 227 255
206 227 255
206 227 255
206 227 255
206 227 255
206 227 255
206 227 255
206 227 255
206 227 255
206 227 255
206 227 255
206 227 255
206 227 255
206 227 255
206 227 255
206 227 255
206 227 255
205 227 255
205 227 255
205 227 255
205 227 255
205 227 255
205 227 255
205 227 255
205 227 255
205 227 255
205 227 255
205 226 255
205 226 255
205 226 255
205 226 255
205 226 255
205 226 255
205 226 255
204 226 255
204 226 255
204 226 255
204 226 255
204 226 255
204 226 255
204 226 255
204 226 255
204 226 255
204 226 255
204 226 255
204 226 255
204 226 255
204 226 255
204 226 255
204 226 255
203 226 255
203 226 255
203 226 255
203 226 255
203 226 255
203 226 255
203 226 255
203 225 255
203 225 255
203 225 255
203 225 255
203 225 255
203 225 255
203 225 255
203 225 255
203 225 255
203 225 255
202 225 255
202 225 255
202 225 255
202 225 255
202 225 255
202 225 255
202 225 255
202 225 255
202 225 255
202 225 255
202 225 255
202 225 255
202 225 255
202 225 255
202 225 255
202 225 255
202 225 255
202 225 255
202 225 255
201 225 255
201 225 255
201 225 255
201 225 255
201 225 255
201 225 255
201 225 255
201 225 255
201 224 255
201 224 255
201 224 255
201 224 255
201 224 255
201 224 255
201 224 255
201 224 255
201 224 255
201 224 255
201 224 255
201 224 255
201 224 255
201 224 255
201 224 255
201 224 255
201 224 255
201 224 255
201 224 255
201 224 255
201 224 255
201 224 255
201 224 255
201 224 255
201 224 255
201 224 255
201 224 255
201 224 255
201 224 255
201 224 255
201 224 255
201 224 255
201 224 255
201 224 255
201 224 255
201 224 255
201 224 255
201 224 255
201 224 255
201 224 255
201 224 255
201 224 255
201 224 255
201 224 255
201 224 255
201 224 255
201 224 255
201 224 255
201 224 255
201 224 255
201 224 255
201 224 255
201 224 255
201 224 255
201 224 255
201 224 255
201 224 255
201 224 255
201 224 255
201 224 255
201 224 255
201 224 255
201 224 255
201 224 255
201 224 255
201 224 255
201 224 255
201 224 255
201 224 255
201 225 255
201 225 255
201 225 255
201 225 255
201 225 255
201 225 255
201 225 255
202 225 255
202 225 255
202 225 255
202 225 255
202 225 255
202 225 255
202 225 255
202 225 255
202 225 255
202 225 255
202 225 255
202 225 255
202 225 255
202 225 255
202 225 255
202 225 255
202 225 255
202 225 255
202 225 255
203 225 255
203 225 255
203 225 255
203 225 255
203 225 255
203 225 255
203 225 255
203 225 255
203 225 255
203 225 255
203 226 255
203 226 255
203 226 255
203 226 255
203 226 255
203 226 255
203 226 255
204 226 255
204 226 255
204 226 255
204 226 255
204 226 255
204 226 255
204 226 255
204 226 255
204 226 255
204 226 255
204 226 255
204 226 255
204 226 255
204 226 255
204 226 255
204 226 255
205 226 255
205 226 255
205 226 255
205 226 255
205 226 255
205 226 255
205 226 255
205 227 255
205 227 255
205 227 255
205 227 255
205 227 255
205 227 255
205 227 255
205 227 255
205 227 255
205 227 255
206 227 255
206 227 255
206 227 255
206 227 255
206 227 255
206 227 255
206 227 255
206 227 255
206 227 255
206 227 255
206 227 255
206 227 255
206 227 255
206 227 255
206 227 255
206 227 255
206 227 255
207 227 255
207 227 255
207 227 255
207 227 255
207 228 255
207 228 255
207 228 255
207 228 255
207 228 255
207 228 255
207 228 255
207 228 255
207 228 255
207 228 255
207 228 255
207 228 255
207 228 255
207 228 255
208 228 255
208 228 255
208 228 255
208 228 255
208 228 255
208 228 255
208 228 255
208 228 255
208 228 255
208 228 255
208 228 255
208 228 255
208 228 255
208 228 255
208 228 255
208 228 255
208 228 255
208 228 255
208 228 255
208 228 255
209 228 255
209 229 255
209 229 255
209 229 255
209 229 255
209 229 255
209 229 255
209 229 255
209 229 255
209 229 255
209 229 255
209 229 255
209 229 255
209 229 255
209 229 255
209 229 255
209 229 255
209 229 255
209 229 255
209 229 255
209 229 255
209 229 255
210 229 255
210 229 255
210 229 255
210 229 255
210 229 255
210 229 255
210 229 255
210 229 255
210 229 255
210 229 255
210 229 255
210 229 255
210 229 255
210 229 255
210 229 255
210 229 255
210 229 255
210 229 255
210 229 255
210 229 255
210 229 255
210 229 255
210 229 255
210 229 255
210 229 255
210 229 255
210 229 255
210 229 255
209 229 255
209 229 255
209 229 255
209 229 255
209 229 255
209 229 255
209 229 255
209 229 255
209 229 255
209 229 255
209 229 255
209 229 255
209 229 255
209 229 255
209 229 255
209 229 255
209 229 255
209 229 255
209 229 255
209 229 255
209 228 255
209 228 255
208 228 255
208 228 255
208 228 255
208 228 255
208 228 255
208 228 255
208 228 255
208 228 255
208 228 255
208 228 255
208 228 255
208 228 255
208 228 255
208 228 255
208 228 255
208 228 255
208 228 255
208 228 255
208 228 255
207 228 255
207 228 255
207 228 255
207 228 255
207 228 255
207 228 255
207 228 255
207 228 255
207 228 255
207 228 255
207 228 255
207 228 255
207 228 255
207 228 255
207 227 255
207 227 255
207 227 255
207 227 255
206 227 255
206 227 255
206 227 255
206 227 255
206 227 255
206 227 255
206 227 255
206 227 255
206 227 255
206 227 255
206 227 255
206 227 255
206 227 255
206 227 255
206 227 255
206 227 255
206 227 255
205 227 255
205 227 255
205 227 255
205 227 255
205 227 255
205 227 255
205 227 255
205 227 255
205 227 255
205 227 255
205 226 255
205 226 255
205 226 255
205 226 255
205 226 255
205 226 255
205 226 255
204 226 255
204 226 255
204 226 255
204 226 255
204 226 255
204 226 255
204 226 255
204 226 255
204 226 255
204 226 255
204 226 255
204 226 255
204 226 255
204 226 255
204 226 255
204 226 255
203 226 255
203 226 255
203 226 255
203 226 255
203 226 255
203 226 255
203 226 255
203 226 255
203 225 255
203 225 255
203 225 255
203 225 255
203 225 255
203 225 255
203 225 255
203 225 255
203 225 255
203 225 255
202 225 255
202 225 255
202 225 255
202 225 255
202 225 255
202 225 255
202 225 255
202 225 255
202 225 255
202 225 255
202 225 255
202 225 255
202 225 255
202 225 255
202 225 255
202 225 255
202 225 255
202 225 255
202 225 255
202 225 255
202 225 255
201 225 255
201 225 255
201 225 255
201 225 255
201 225 255
201 225 255
201 225 255
201 225 255
201 224 255
201 224 255
201 224 255
201 224 255
201 224 255
201 224 255
201 224 255
201 224 255
201 224 255
201 224 255
201 224 255
201 224 255
201 224 255
201 224 255
201 224 255
201 224 255
201 224 255
201 224 255
201 224 255
201 224 255
201 224 255
201 224 255
201 224 255
201 224 255
201 224 255
201 224 255
201 224 255
201 224 255
201 224 255
201 224 255
201 224 255
201 224 255
201 224 255
201 224 255
201 224 255
201 224 255
201 224 255
201 224 255
201 224 255
201 224 255
201 224 255
201 224 255
201 224 255
201 224 255
201 224 255
201 224 255
201 224 255
201 224 255
201 224 255
201 224 255
201 224 255
201 224 255
201 224 255
201 224 255
201 224 255
201 224 255
201 225 255
201 225 255
201 225 255
201 225 255
201 225 255
201 225 255
201 225 255
201 225 255
202 225 255
202 225 255
202 225 255
202 225 255
202 225 255
202 225 255
202 225 255
202 225 255
202 225 255
202 225 255
202 225 255
202 225 255
202 225 255
202 225 255
202 225 255
202 225 255
202 225 255
202 225 255
202 225 255
202 225 255
202 225 255
203 225 255
203 225 255
203 225 255
203 225 255
203 225 255
203 225 255
203 225 255
203 225 255
203 225 255
203 225 255
203 226 255
203 226 255
203 226 255
203 226 255
203 226 255
203 226 255
203 226 255
203 226 255
204 226 255
204 226 255
204 226 255
204 226 255
204 226 255
204 226 255
204 226 255
204 226 255
204 226 255
204 226 255
204 226 255
204 226 255
204 226 255
204 226 255
204 226 255
204 226 255
205 226 255
205 226 255
205 226 255
205 226 255
205 226 255
205 226 255
205 226 255
205 227 255
205 227 255
205 227 255
205 227 255
205 227 255
205 227 255
205 227 255
205 227 255
205 227 255
205 227 255
206 227 255
206 227 255
206 227 255
206 227 255
206 227 255
206 227 255
206 227 255
206 227 255
206 227 255
206 227 255
206 227 255
206 227 255
206 227 255
206 227 255
206 227 255
206 227 255
206 227 255
207 227 255
207 227 255
207 227 255
207 227 255
207 228 255
207 228 255
207 228 255
207 228 255
207 228 255
207 228 255
207 228 255
207 228 255
207 228 255
207 228 255
207 228 255
207 228 255
207 228 255
207 228 255
208 228 255
208 228 255
208 228 255
208 228 255
208 228 255
208 228 255
208 228 255
208 228 255
208 228 255
208 228 255
208 228 255
208 228 255
208 228 255
208 228 255
208 228 255
208 228 255
208 228 255
208 228 255
208 228 255
209 228 255
209 228 255
209 229 255
209 229 255
209 229 255
209 229 255
209 229 255
209 229 255
209 229 255
209 229 255
209 229 255
209 229 255
209 229 255
209 229 255
209 229 255
209 229 255
209 229 255
209 229 255
209 229 255
209 229 255
209 229 255
209 229 255
210 229 255
210 229 255
210 229 255
210 229 255
210 229 255
210 229 255
210 229 255
210 229 255
210 229 255
210 229 255
210 229 255
210 229 255
210 229 255
210 229 255
210 229 255
210 229 255
210 229 255
210 229 255
210 229 255
210 229 255
210 229 255
210 229 255
210 229 255
210 229 255
210 229 255
210 229 255
210 229 255
210 229 255
210 229 255
210 229 255
210 229 255
210 229 255
210 229 255
210 229 255
210 229 255
209 229 255
209 229 255
209 229 255
209 229 255
209 229 255
209 229 255
209 229 255
209 229 255
209 229 255
209 229 255
209 229 255
209 229 255
209 229 255
209 229 255
209 229 255
209 229 255
209 229 255
209 229 255
209 229 255
209 229 255
209 229 255
209 228 255
208 228 255
208 228 255
208 228 255
208 228 255
208 228 255
208 228 255
208 228 255
208 228 255
208 228 255
208 228 255
208 228 255
208 228 255
208 228 255
208 228 255
208 228 255
208 228 255
208 228 255
208 228 255
208 228 255
207 228 255
207 228 255
207 228 255
207 228 255
207 228 255
207 228 255
207 228 255
207 228 255
207 228 255
207 228 255
207 228 255
207 228 255
207 228 255
207 228 255
207 227 255
207 227 255
207 227 255
207 227 255
207 227 255
206 227 255
206 227 255
206 227 255
206 227 255
206 227 255
206 227 255
206 227 255
206 227 255
206 227 255
206 227 255
206 227 255
206 227 255
206 227 255
206 227 255
206 227 255
206 227 255
205 227 255
205 227 255
205 227 255
205 227 255
205 227 255
205 227 255
205 227 255
205 227 255
205 227 255
205 227 255
205 226 255
205 226 255
205 226 255
205 226 255
205 226 255
205 226 255
205 226 255
204 226 255
204 226 255
204 226 255
204 226 255
204 226 255
204 226 255
204 226 255
204 226 255
204 226 255
204 226 255
204 226 255
204 226 255
204 226 255
204 226 255
204 226 255
204 226 255
204 226 255
203 226 255
203 226 255
203 226 255
203 226 255
203 226 255
203 226 255
203 226 255
203 225 255
203 225 255
203 225 255
203 225 255
203 225 255
203 225 255
203 225 255
203 225 255
203 225 255
203 225 255
203 225 255
202 225 255
202 225 255
202 225 255
202 225 255
202 225 255
202 225 255
202 225 255
202 225 255
202 225 255
202 225 255
202 225 255
202 225 255
202 225 255
202 225 255
202 225 255
202 225 255
202 225 255
202 225 255
202 225 255
202 225 255
202 225 255
202 225 255
202 225 255
201 225 255
201 225 255
201 225 255
201 225 255
201 225 255
201 225 255
201 225 255
201 225 255
201 225 255
201 225 255
201 224 255
201 224 255
201 224 255
201 224 255
201 224 255
201 224 255
201 224 255
201 224 255
201 224 255
201 224 255
201 224 255
201 224 255
201 224 255
201 224 255
201 224 255
201 224 255
201 224 255
201 224 255
201 224 255
201 224 255
201 224 255
201 224 255
201 224 255
201 224 255
201 224 255
201 224 255
201 224 255
201 224 255
201 224 255
201 224 255
201 224 255
201 224 255
201 224 255
201 224 255
201 224 255
201 224 255
201 224 255
201 224 255
201 224 255
201 224 255
201 224 255
201 225 255
201 225 255
201 225 255
201 225 255
201 225 255
201 225 255
201 225 255
201 225 255
201 225 255
202 225 255
202 225 255
202 225 255
202 225 255
202 225 255
202 225 255
202 225 255
202 225 255
202 225 255
202 225 255
202 225 255
202 225 255
202 225 255
202 225 255
202 225 255
202 225 255
202 225 255
202 225 255
202 225 255
202 225 255
202 225 255
202 225 255
202 225 255
203 225 255
203 225 255
203 225 255
203 225 255
203 225 255
203 225 255
203 225 255
203 225 255
203 225 255
203 225 255
203 225 255
203 226 255
203 226 255
203 226 255
203 226 255
203 226 255
203 226 255
203 226 255
204 226 255
204 226 255
204 226 255
204 226 255
204 226 255
204 226 255
204 226 255
204 226 255
204 226 255
204 226 255
204 226 255
204 226 255
204 226 255
204 226 255
204 226 255
204 226 255
204 226 255
205 226 255
205 226 255
205 226 255
205 226 255
205 226 255
205 226 255
205 226 255
205 227 255
205 227 255
205 227 255
205 227 255
205 227 255
205 227 255
205 227 255
205 227 255
205 227 255
206 227 255
206 227 255
206 227 255
206 227 255
206 227 255
206 227 255
206 227 255
206 227 255
206 227 255
206 227 255
206 227 255
206 227 255
206 227 255
206 227 255
206 227 255
206 227 255
206 227 255
207 227 255
207 227 255
207 227 255
207 227 255
207 227 255
207 228 255
207 228 255
207 228 255
207 228 255
207 228 255
207 228 255
207 228 255
207 228 255
207 228 255
207 228 255
207 228 255
207 228 255
207 228 255
208 228 255
208 228 255
208 228 255
208 228 255
208 228 255
208 228 255
208 228 255
208 228 255
208 228 255
208 228 255
208 228 255
208 228 255
208 228 255
208 228 255
208 228 255
208 228 255
208 228 255
208 228 255
208 228 255
208 228 255
209 228 255
209 229 255
209 229 255
209 229 255
209 229 255
209 229 255
209 229 255
209 229 255
209 229 255
209 229 255
209 229 255
209 229 255
209 229 255
209 229 255
209 229 255
209 229 255
209 229 255
209 229 255
209 229 255
209 229 255
209 229 255
209 229 255
210 229 255
210 229 255
210 229 255
210 229 255
210 229 255
210 229 255
210 229 255
210 229 255
210 229 255
210 229 255
210 229 255
210 229 255
210 229 255
210 229 255
210 229 255
210 229 255
210 229 255
210 229 255
210 229 255
210 230 255
210 229 255
210 229 255
210 229 255
210 229 255
210 229 255
210 229 255
210 229 255
210 229 255
210 229 255
210 229 255
210 229 255
210 229 255
210 229 255
210 229 255
210 229 255
210 229 255
210 229 255
210 229 255
210 229 255
210 229 255
210 229 255
210 229 255
209 229 255
209 229 255
209 229 255
209 229 255
209 229 255
209 229 255
209 229 255
209 229 255
209 229 255
209 229 255
209 229 255
209 229 255
209 229 255
209 229 255
209 229 255
209 229 255
209 229 255
209 229 255
209 229 255
209 229 255
209 228 255
209 228 255
208 228 255
208 228 255
208 228 255
208 228 255
208 228 255
208 228 255
208 228 255
208 228 255
208 228 255
208 228 255
208 228 255
208 228 255
208 228 255
208 228 255
208 228 255
208 228 255
208 228 255
208 228 255
208 228 255
207 228 255
207 228 255
207 228 255
207 228 255
207 228 255
207 228 255
207 228 255
207 228 255
207 228 255
207 228 255
207 228 255
207 228 255
207 228 255
207 228 255
207 227 255
207 227 255
207 227 255
207 227 255
206 227 255
206 227 255
206 227 255
206 227 255
206 227 255
206 227 255
206 227 255
206 227 255
206 227 255
206 227 255
206 227 255
206 227 255
206 227 255
206 227 255
206 227 255
206 227 255
206 227 255
205 227 255
205 227 255
205 227 255
205 227 255
205 227 255
205 227 255
205 227 255
205 227 255
205 227 255
205 227 255
205 226 255
205 226 255
205 226 255
205 226 255
205 226 255
205 226 255
204 226 255
204 226 255
204 226 255
204 226 255
204 226 255
204 226 255
204 226 255
204 226 255
204 226 255
204 226 255
204 226 255
204 226 255
204 226 255
204 226 255
204 226 255
204 226 255
204 226 255
204 226 255
203 226 255
203 226 255
203 226 255
203 226 255
203 226 255
203 226 255
203 226 255
203 225 255
203 225 255
203 225 255
203 225 255
203 225 255
203 225 255
203 225 255
203 225 255
203 225 255
203 225 255
203 225 255
202 225 255
202 225 255
202 225 255
202 225 255
202 225 255
202 225 255
202 225 255
202 225 255
202 225 255
202 225 255
202 225 255
202 225 255
202 225 255
202 225 255
202 225 255
202 225 255
202 225 255
202 225 255
202 225 255
202 225 255
202 225 255
202 225 255
202 225 255
202 225 255
202 225 255
202 225 255
201 225 255
201 225 255
201 225 255
201 225 255
201 225 255
201 225 255
201 225 255
201 225 255
201 225 255
201 225 255
201 225 255
201 225 255
201 225 255
201 225 255
201 225 255
201 225 255
201 224 255
201 225 255
201 224 255
201 225 255
201 224 255
201 224 255
201 224 255
201 224 255
201 224 255
201 224 255
201 224 255
201 224 255
201 225 255
201 225 255
201 225 255
201 225 255
201 225 255
201 225 255
201 225 255
201 225 255
201 225 255
201 225 255
201 225 255
201 225 255
201 225 255
201 225 255
201 225 255
201 225 255
201 225 255
201 225 255
202 225 255
202 225 255
202 225 255
202 225 255
202 225 255
202 225 255
202 225 255
202 225 255
202 225 255
202 225 255
202 225 255
202 225 255
202 225 255
202 225 255
202 225 255
202 225 255
202 225 255
202 225 255
202 225 255
202 225 255
202 225 255
202 225 255
202 225 255
202 225 255
202 225 255
202 225 255
203 225 255
203 225 255
203 225 255
203 225 255
203 225 255
203 225 255
203 225 255
203 225 255
203 225 255
203 225 255
203 225 255
203 226 255
203 226 255
203 226 255
203 226 255
203 226 255
203 226 255
203 226 255
203 226 255
204 226 255
204 226 255
204 226 255
204 226 255
204 226 255
204 226 255
204 226 255
204 226 255
204 226 255
204 226 255
204 226 255
204 226 255
204 226 255
204 226 255
204 226 255
204 226 255
205 226 255
205 226 255
205 226 255
205 226 255
205 226 255
205 226 255
205 226 255
205 227 255
205 227 255
205 227 255
205 227 255
205 227 255
205 227 255
205 227 255
205 227 255
205 227 255
205 227 255
206 227 255
206 227 255
206 227 255
206 227 255
206 227 255
206 227 255
206 227 255
206 227 255
206 227 255
206 227 255
206 227 255
206 227 255
206 227 255
206 227 255
206 227 255
206 227 255
206 227 255
207 227 255
207 227 255
207 227 255
207 227 255
207 228 255
207 228 255
207 228 255
207 228 255
207 228 255
207 228 255
207 228 255
207 228 255
207 228 255
207 228 255
207 228 255
207 228 255
207 228 255
207 228 255
208 228 255
208 228 255
208 228 255
208 228 255
208 228 255
208 228 255
208 228 255
208 228 255
208 228 255
208 228 255
208 228 255
208 228 255
208 228 255
208 228 255
208 228 255
208 228 255
208 228 255
208 228 255
208 228 255
209 228 255
209 228 255
209 229 255
209 229 255
209 229 255
209 229 255
209 229 255
209 229 255
209 229 255
209 229 255
209 229 255
209 229 255
209 229 255
209 229 255
209 229 255
209 229 255
209 229 255
209 229 255
209 229 255
209 229 255
209 229 255
209 229 255
210 229 255
210 229 255
210 229 255
210 229 255
210 229 255
210 229 255
210 229 255
210 229 255
210 229 255
210 229 255
210 229 255
210 229 255
210 229 255
210 229 255
210 229 255
210 229 255
210 229 255
210 229 255
210 229 255
210 229 255
210 229 255
210 229 255
210 230 255
211 230 255
211 230 255
210 230 255
210 230 255
210 230 255
210 229 255
210 229 255
210 229 255
210 229 255
210 229 255
210 229 255
210 229 255
210 229 255
210 229 255
210 229 255
210 229 255
210 229 255
210 229 255
210 229 255
210 229 255
210 229 255
210 229 255
210 229 255
210 229 255
210 229 255
210 229 255
210 229 255
209 229 255
209 229 255
209 229 255
209 229 255
209 229 255
209 229 255
209 229 255
209 229 255
209 229 255
209 229 255
209 229 255
209 229 255
209 229 255
209 229 255
209 229 255
209 229 255
209 229 255
209 229 255
209 229 255
209 228 255
209 228 255
208 228 255
208 228 255
208 228 255
208 228 255
208 228 255
208 228 255
208 228 255
208 228 255
208 228 255
208 228 255
208 228 255
208 228 255
208 228 255
208 228 255
208 228 255
208 228 255
208 228 255
208 228 255
208 228 255
207 228 255
207 228 255
207 228 255
207 228 255
207 228 255
207 228 255
207 228 255
207 228 255
207 228 255
207 228 255
207 228 255
207 228 255
207 228 255
207 228 255
207 227 255
207 227 255
207 227 255
207 227 255
206 227 255
206 227 255
206 227 255
206 227 255
206 227 255
206 227 255
206 227 255
206 227 255
206 227 255
206 227 255
206 227 255
206 227 255
206 227 255
206 227 255
206 227 255
206 227 255
206 227 255
205 227 255
205 227 255
205 227 255
205 227 255
205 227 255
205 227 255
205 227 255
205 227 255
205 227 255
205 227 255
205 226 255
205 226 255
205 226 255
205 226 255
205 226 255
205 226 255
205 226 255
204 226 255
204 226 255
204 226 255
204 226 255
204 226 255
204 226 255
204 226 255
204 226 255
204 226 255
204 226 255
204 226 255
204 226 255
204 226 255
204 226 255
204 226 255
204 226 255
204 226 255
203 226 255
203 226 255
203 226 255
203 226 255
203 226 255
203 226 255
203 226 255
203 226 255
203 225 255
203 225 255
203 225 255
203 225 255
203 225 255
203 225 255
203 225 255
203 225 255
203 225 255
203 225 255
203 225 255
203 225 255
202 225 255
202 225 255
202 225 255
202 225 255
202 225 255
202 225 255
202 225 255
202 225 255
202 225 255
202 225 255
202 225 255
202 225 255
202 225 255
202 225 255
202 225 255
202 225 255
202 225 255
202 225 255
202 225 255
202 225 255
202 225 255
202 225 255
202 225 255
202 225 255
202 225 255
202 225 255
202 225 255
202 225 255
202 225 255
202 225 255
202 225 255
202 225 255
201 225 255
201 225 255
201 225 255
201 225 255
201 225 255
201 225 255
201 225 255
201 225 255
201 225 255
201 225 255
201 225 255
201 225 255
201 225 255
201 225 255
201 225 255
201 225 255
201 225 255
201 225 255
201 225 255
201 225 255
201 225 255
201 225 255
201 225 255
201 225 255
202 225 255
202 225 255
202 225 255
202 225 255
202 225 255
202 225 255
202 225 255
202 225 255
202 225 255
202 225 255
202 225 255
202 225 255
202 225 255
202 225 255
202 225 255
202 225 255
202 225 255
202 225 255
202 225 255
202 225 255
202 225 255
202 225 255
202 225 255
202 225 255
202 225 255
202 225 255
202 225 255
202 225 255
202 225 255
202 225 255
202 225 255
202 225 255
203 225 255
203 225 255
203 225 255
203 225 255
203 225 255
203 225 255
203 225 255
203 225 255
203 225 255
203 225 255
203 225 255
203 225 255
203 226 255
203 226 255
203 226 255
203 226 255
203 226 255
203 226 255
203 226 255
203 226 255
204 226 255
204 226 255
204 226 255
204 226 255
204 226 255
204 226 255
204 226 255
204 226 255
204 226 255
204 226 255
204 226 255
204 226 255
204 226 255
204 226 255
204 226 255
204 226 255
204 226 255
205 226 255
205 226 255
205 226 255
205 226 255
205 226 255
205 226 255
205 226 255
205 227 255
205 227 255
205 227 255
205 227 255
205 227 255
205 227 255
205 227 255
205 227 255
205 227 255
205 227 255
206 227 255
206 227 255
206 227 255
206 227 255
206 227 255
206 227 255
206 227 255
206 227 255
206 227 255
206 227 255
206 227 255
206 227 255
206 227 255
206 227 255
206 227 255
206 227 255
206 227 255
207 227 255
207 227 255
207 227 255
207 227 255
207 228 255
207 228 255
207 228 255
207 228 255
207 228 255
207 228 255
207 228 255
207 228 255
207 228 255
207 228 255
207 228 255
207 228 255
207 228 255
207 228 255
208 228 255
208 228 255
208 228 255
208 228 255
208 228 255
208 228 255
208 228 255
208 228 255
208 228 255
208 228 255
208 228 255
208 228 255
208 228 255
208 228 255
208 228 255
208 228 255
208 228 255
208 228 255
208 228 255
209 228 255
209 228 255
209 229 255
209 229 255
209 229 255
209 229 255
209 229 255
209 229 255
209 229 255
209 229 255
209 229 255
209 229 255
209 229 255
209 229 255
209 229 255
209 229 255
209 229 255
209 229 255
209 229 255
209 229 255
209 229 255
209 229 255
210 229 255
210 229 255
210 229 255
210 229 255
210 229 255
210 229 255
210 229 255
210 229 255
210 229 255
210 229 255
210 229 255
210 229 255
210 229 255
210 229 255
210 229 255
210 229 255
210 229 255
210 229 255
210 229 255
210 229 255
210 229 255
210 230 255
210 230 255
210 230 255
211 230 255
211 230 255
211 230 255
211 230 255
211 230 255
211 230 255
211 230 255
211 230 255
210 230 255
210 230 255
210 230 255
210 229 255
210 229 255
210 229 255
210 229 255
210 229 255
210 229 255
210 229 255
210 229 255
210 229 255
210 229 255
210 229 255
210 229 255
210 229 255
210 229 255
210 229 255
210 229 255
210 229 255
210 229 255
210 229 255
210 229 255
210 229 255
209 229 255
209 229 255
209 229 255
209 229 255
209 229 255
209 229 255
209 229 255
209 229 255
209 229 255
209 229 255
209 229 255
209 229 255
209 229 255
209 229 255
209 229 255
209 229 255
209 229 255
209 229 255
209 229 255
209 229 255
209 228 255
208 228 255
208 228 255
208 228 255
208 228 255
208 228 255
208 228 255
208 228 255
208 228 255
208 228 255
208 228 255
208 228 255
208 228 255
208 228 255
208 228 255
208 228 255
208 228 255
208 228 255
208 228 255
208 228 255
208 228 255
207 228 255
207 228 255
207 228 255
207 228 255
207 228 255
207 228 255
207 228 255
207 228 255
207 228 255
207 228 255
207 228 255
207 228 255
207 228 255
207 227 255
207 227 255
207 227 255
207 227 255
207 227 255
206 227 255
206 227 255
206 227 255
206 227 255
206 227 255
206 227 255
206 227 255
206 227 255
206 227 255
206 227 255
206 227 255
206 227 255
206 227 255
206 227 255
206 227 255
206 227 255
206 227 255
205 227 255
205 227 255
205 227 255
205 227 255
205 227 255
205 227 255
205 227 255
205 227 255
205 227 255
205 227 255
205 226 255
205 226 255
205 226 255
205 226 255
205 226 255
205 226 255
205 226 255
204 226 255
204 226 255
204 226 255
204 226 255
204 226 255
204 226 255
204 226 255
204 226 255
204 226 255
204 226 255
204 226 255
204 226 255
204 226 255
204 226 255
204 226 255
204 226 255
204 226 255
203 226 255
203 226 255
203 226 255
203 226 255
203 226 255
203 226 255
203 226 255
203 226 255
203 226 255
203 225 255
203 225 255
203 225 255
203 225 255
203 225 255
203 225 255
203 225 255
203 225 255
203 225 255
203 225 255
203 225 255
203 225 255
202 225 255
202 225 255
202 225 255
202 225 255
202 225 255
202 225 255
202 225 255
202 225 255
202 225 255
202 225 255
202 225 255
202 225 255
202 225 255
202 225 255
202 225 255
202 225 255
202 225 255
202 225 255
202 225 255
202 225 255
202 225 255
202 225 255
202 225 255
202 225 255
202 225 255
202 225 255
202 225 255
202 225 255
202 225 255
202 225 255
202 225 255
202 225 255
202 225 255
202 225 255
202 225 255
202 225 255
202 225 255
202 225 255
202 225 255
202 225 255
202 225 255
202 225 255
202 225 255
202 225 255
202 225 255
202 225 255
202 225 255
202 225 255
202 225 255
202 225 255
202 225 255
202 225 255
202 225 255
202 225 255
202 225 255
202 225 255
202 225 255
202 225 255
202 225 255
202 225 255
202 225 255
202 225 255
202 225 255
202 225 255
202 225 255
202 225 255
202 225 255
202 225 255
202 225 255
202 225 255
202 225 255
202 225 255
202 225 255
202 225 255
202 225 255
202 225 255
202 225 255
202 225 255
203 225 255
203 225 255
203 225 255
203 225 255
203 225 255
203 225 255
203 225 255
203 225 255
203 225 255
203 225 255
203 225 255
203 225 255
203 226 255
203 226 255
203 226 255
203 226 255
203 226 255
203 226 255
203 226 255
203 226 255
203 226 255
204 226 255
204 226 255
204 226 255
204 226 255
204 226 255
204 226 255
204 226 255
204 226 255
204 226 255
204 226 255
204 226 255
204 226 255
204 226 255
204 226 255
204 226 255
204 226 255
204 226 255
204 226 255
205 226 255
205 226 255
205 226 255
205 226 255
205 226 255
205 226 255
205 227 255
205 227 255
205 227 255
205 227 255
205 227 255
205 227 255
205 227 255
205 227 255
205 227 255
205 227 255
206 227 255
206 227 255
206 227 255
206 227 255
206 227 255
206 227 255
206 227 255
206 227 255
206 227 255
206 227 255
206 227 255
206 227 255
206 227 255
206 227 255
206 227 255
206 227 255
206 227 255
207 227 255
207 227 255
207 227 255
207 227 255
207 227 255
207 228 255
207 228 255
207 228 255
207 228 255
207 228 255
207 228 255
207 228 255
207 228 255
207 228 255
207 228 255
207 228 255
207 228 255
207 228 255
208 228 255
208 228 255
208 228 255
208 228 255
208 228 255
208 228 255
208 228 255
208 228 255
208 228 255
208 228 255
208 228 255
208 228 255
208 228 255
208 228 255
208 228 255
208 228 255
208 228 255
208 228 255
208 228 255
208 228 255
209 228 255
209 229 255
209 229 255
209 229 255
209 229 255
209 229 255
209 229 255
209 229 255
209 229 255
209 229 255
209 229 255
209 229 255
209 229 255
209 229 255
209 229 255
209 229 255
209 229 255
209 229 255
209 229 255
209 229 255
209 229 255
210 229 255
210 229 255
210 229 255
210 229 255
210 229 255
210 229 255
210 229 255
210 229 255
210 229 255
210 229 255
210 229 255
210 229 255
210 229 255
210 229 255
210 229 255
210 229 255
210 229 255
210 229 255
210 229 255
210 229 255
210 229 255
210 230 255
210 230 255
210 230 255
211 230 255
211 230 255
211 230 255
211 230 255
211 230 255
211 230 255
211 230 255
211 230 255
211 230 255
211 230 255
211 230 255
211 230 255
211 230 255
211 230 255
211 230 255
211 230 255
210 230 255
210 230 255
210 230 255
210 229 255
210 229 255
210 229 255
210 229 255
210 229 255
210 229 255
210 229 255
210 229 255
210 229 255
210 229 255
210 229 255
210 229 255
210 229 255
210 229 255
210 229 255
210 229 255
210 229 255
210 229 255
210 229 255
210 229 255
210 229 255
209 229 255
209 229 255
209 229 255
209 229 255
209 229 255
205 225 251
202 221 247
194 213 238
196 214 240
195 214 240
184 202 226
187 205 230
177 195 219
183 201 226
193 212 238
177 195 220
183 201 226
174 192 216
177 194 218
186 205 231
189 208 234
173 190 213
189 208 234
193 212 238
194 213 239
204 224 250
199 218 245
207 227 254
208 228 255
208 228 255
208 228 255
208 228 255
208 228 255
208 228 255
208 228 255
208 228 255
208 228 255
208 228 255
208 228 255
208 228 255
207 228 255
207 228 255
207 228 255
207 228 255
207 228 255
207 228 255
207 228 255
207 228 255
207 228 255
207 228 255
207 228 255
207 228 255
207 228 255
207 228 255
207 227 255
207 227 255
207 227 255
207 227 255
206 227 255
206 227 255
206 227 255
206 227 255
206 227 255
206 227 255
206 227 255
206 227 255
206 227 255
206 227 255
206 227 255
206 227 255
206 227 255
206 227 255
206 227 255
206 227 255
206 227 255
205 227 255
205 227 255
205 227 255
205 227 255
205 227 255
205 227 255
205 227 255
205 227 255
205 227 255
205 227 255
205 226 255
205 226 255
205 226 255
205 226 255
205 226 255
205 226 255
205 226 255
204 226 255
204 226 255
204 226 255
204 226 255
204 226 255
204 226 255
204 226 255
204 226 255
204 226 255
204 226 255
204 226 255
204 226 255
204 226 255
204 226 255
204 226 255
204 226 255
204 226 255
204 226 255
203 226 255
203 226 255
203 226 255
203 226 255
203 226 255
203 226 255
203 226 255
203 226 255
203 226 255
203 225 255
203 225 255
203 225 255
203 225 255
203 225 255
203 225 255
203 225 255
203 225 255
203 225 255
203 225 255
203 225 255
203 225 255
203 225 255
203 225 255
202 225 255
202 225 255
202 225 255
202 225 255
202 225 255
202 225 255
202 225 255
202 225 255
202 225 255
202 225 255
202 225 255
202 225 255
202 225 255
202 225 255
202 225 255
202 225 255
202 225 255
202 225 255
202 225 255
202 225 255
202 225 255
202 225 255
202 225 255
202 225 255
202 225 255
202 225 255
202 225 255
202 225 255
202 225 255
202 225 255
202 225 255
202 225 255
202 225 255
202 225 255
202 225 255
202 225 255
202 225 255
202 225 255
202 225 255
202 225 255
202 225 255
202 225 255
202 225 255
202 225 255
202 225 255
202 225 255
202 225 255
202 225 255
202 225 255
202 225 255
202 225 255
202 225 255
202 225 255
202 225 255
202 225 255
202 225 255
202 225 255
202 225 255
202 225 255
202 225 255
202 225 255
202 225 255
202 225 255
202 225 255
202 225 255
202 225 255
203 225 255
203 225 255
203 225 255
203 225 255
203 225 255
203 225 255
203 225 255
203 225 255
203 225 255
203 225 255
203 225 255
203 225 255
203 225 255
203 226 255
203 226 255
203 226 255
203 226 255
203 226 255
203 226 255
203 226 255
203 226 255
203 226 255
203 226 255
204 226 255
204 226 255
204 226 255
204 226 255
204 226 255
204 226 255
204 226 255
204 226 255
204 226 255
204 226 255
204 226 255
204 226 255
204 226 255
204 226 255
204 226 255
204 226 255
204 226 255
204 226 255
205 226 255
205 226 255
205 226 255
205 226 255
205 226 255
205 226 255
205 226 255
205 227 255
205 227 255
205 227 255
205 227 255
205 227 255
205 227 255
205 227 255
205 227 255
205 227 255
205 227 255
206 227 255
206 227 255
206 227 255
206 227 255
206 227 255
206 227 255
206 227 255
206 227 255
206 227 255
206 227 255
206 227 255
206 227 255
206 227 255
206 227 255
206 227 255
206 227 255
206 227 255
207 227 255
207 227 255
207 227 255
207 227 255
207 228 255
207 228 255
207 228 255
207 228 255
207 228 255
207 228 255
207 228 255
207 228 255
207 228 255
207 228 255
207 228 255
207 228 255
207 228 255
207 228 255
208 228 255
208 228 255
208 228 255
208 228 255
208 228 255
208 228 255
208 228 255
208 228 255
208 228 255
208 228 255
208 228 255
208 228 255
207 227 253
203 223 248
193 209 226
185 201 220
186 201 215
194 210 227
186 200 211
188 203 217
178 191 204
178 191 202
179 192 203
171 183 192
176 188 196
175 186 190
176 188 197
179 192 204
188 201 212
189 203 214
195 211 229
182 197 211
192 209 227
197 214 234
206 225 251
208 228 254
209 229 255
209 229 255
209 229 255
209 229 255
210 229 255
210 229 255
210 229 255
210 229 255
210 229 255
210 229 255
210 229 255
210 229 255
210 229 255
210 229 255
210 229 255
210 229 255
210 229 255
210 229 255
210 229 255
210 229 255
210 229 255
210 229 255
210 229 255
210 229 255
210 229 255
210 230 255
210 230 255
210 230 255
211 230 255
211 230 255
211 230 255
211 230 255
211 230 255
211 230 255
211 230 255
211 230 255
211 230 255
211 230 255
211 230 255
211 230 255
211 230 255
211 230 255
211 230 255
211 230 255
211 230 255
211 230 255
211 230 255
211 230 255
211 230 255
211 230 255
211 230 255
211 230 255
210 230 255
210 230 255
210 230 255
210 229 255
210 229 255
210 229 255
210 229 255
210 229 255
210 229 255
210 229 255
210 229 255
210 229 255
210 229 255
210 229 255
210 229 255
206 225 251
198 216 242
194 213 237
183 200 224
173 190 213
171 188 212
158 175 197
155 172 194
144 160 182
143 159 181
145 162 186
148 165 188
147 165 188
154 173 198
152 171 196
147 166 190
146 164 188
157 176 202
149 168 192
152 171 196
143 161 186
159 179 206
154 173 199
147 166 191
140 158 181
147 165 190
156 176 202
150 169 194
151 170 195
147 165 190
149 168 192
137 154 177
154 172 197
150 168 192
152 169 193
163 181 206
165 182 206
164 182 205
187 206 232
185 204 229
199 218 245
205 225 252
208 228 255
208 228 255
208 228 255
208 228 255
208 228 255
208 228 255
208 228 255
207 228 255
207 228 255
207 228 255
207 228 255
207 228 255
207 228 255
207 228 255
207 228 255
207 228 255
207 228 255
207 228 255
207 228 255
207 228 255
207 228 255
207 227 255
207 227 255
207 227 255
206 227 255
206 227 255
206 227 255
206 227 255
206 227 255
206 227 255
206 227 255
206 227 255
206 227 255
206 227 255
206 227 255
206 227 255
206 227 255
206 227 255
206 227 255
206 227 255
206 227 255
206 227 255
205 227 255
205 227 255
205 227 255
205 227 255
205 227 255
205 227 255
205 227 255
205 227 255
205 227 255
205 227 255
205 226 255
205 226 255
205 226 255
205 226 255
205 226 255
205 226 255
205 226 255
204 226 255
204 226 255
204 226 255
204 226 255
204 226 255
204 226 255
204 226 255
204 226 255
204 226 255
204 226 255
204 226 255
204 226 255
204 226 255
204 226 255
204 226 255
204 226 255
204 226 255
204 226 255
204 226 255
203 226 255
203 226 255
203 226 255
203 226 255
203 226 255
203 226 255
203 226 255
203 226 255
203 226 255
203 226 255
203 225 255
203 225 255
203 225 255
203 225 255
203 225 255
203 225 255
203 225 255
203 225 255
203 225 255
203 225 255
203 225 255
203 225 255
203 225 255
203 225 255
203 225 255
202 225 255
202 225 255
202 225 255
202 225 255
202 225 255
202 225 255
202 225 255
202 225 255
202 225 255
202 225 255
202 225 255
202 225 255
202 225 255
202 225 255
202 225 255
202 225 255
202 225 255
202 225 255
202 225 255
202 225 255
202 225 255
202 225 255
202 225 255
202 225 255
202 225 255
202 225 255
202 225 255
202 225 255
202 225 255
202 225 255
202 225 255
202 225 255
202 225 255
202 225 255
202 225 255
202 225 255
202 225 255
202 225 255
202 225 255
202 225 255
202 225 255
202 225 255
202 225 255
202 225 255
202 225 255
202 225 255
202 225 255
202 225 255
202 225 255
202 225 255
202 225 255
202 225 255
203 225 255
203 225 255
203 225 255
203 225 255
203 225 255
203 225 255
203 225 255
203 225 255
203 225 255
203 225 255
203 225 255
203 225 255
203 225 255
203 225 255
203 225 255
203 226 255
203 226 255
203 226 255
203 226 255
203 226 255
203 226 255
203 226 255
203 226 255
203 226 255
203 226 255
204 226 255
204 226 255
204 226 255
204 226 255
204 226 255
204 226 255
204 226 255
204 226 255
204 226 255
204 226 255
204 226 255
204 226 255
204 226 255
204 226 255
204 226 255
204 226 255
204 226 255
204 226 255
204 226 255
205 226 255
205 226 255
205 226 255
205 226 255
205 226 255
205 226 255
205 226 255
205 227 255
205 227 255
205 227 255
205 227 255
205 227 255
205 227 255
205 227 255
205 227 255
205 227 255
205 227 255
206 227 255
206 227 255
206 227 255
206 227 255
206 227 255
206 227 255
206 227 255
206 227 255
206 227 255
206 227 255
206 227 255
206 227 255
206 227 255
206 227 255
206 227 255
206 227 255
206 227 255
207 227 255
207 227 255
207 227 255
207 227 255
207 227 255
207 228 255
207 228 255
207 228 255
207 228 255
207 228 255
207 228 255
207 228 255
207 228 255
207 228 255
207 228 255
207 228 255
207 228 255
207 228 255
208 228 255
208 228 255
208 228 255
208 228 255
208 228 255
208 228 255
208 228 255
206 225 251
196 213 234
190 205 219
174 186 194
166 176 178
153 161 156
157 165 161
140 141 116
140 139 99
134 132 87
126 125 84
129 127 84
132 130 87
140 138 90
131 128 85
135 133 88
130 127 84
134 132 87
134 130 86
136 134 89
129 127 85
134 132 87
124 122 80
123 121 80
124 122 81
124 121 80
131 128 84
131 128 84
136 133 89
128 125 83
139 136 90
127 124 80
130 127 84
131 130 97
139 140 116
144 150 144
167 174 169
178 185 178
181 193 200
189 203 216
198 214 233
208 227 252
210 229 255
210 229 255
210 229 255
210 229 255
210 229 255
210 229 255
210 229 255
210 229 255
210 229 255
210 229 255
210 229 255
210 229 255
210 230 255
210 230 255
210 230 255
211 230 255
211 230 255
211 230 255
211 230 255
211 230 255
211 230 255
211 230 255
211 230 255
211 230 255
211 230 255
211 230 255
211 230 255
211 230 255
211 230 255
211 230 255
211 230 255
211 230 255
211 230 255
211 230 255
211 230 255
211 230 255
211 230 255
211 230 255
211 230 255
211 230 255
211 230 255
211 230 255
211 230 255
211 230 255
211 230 255
211 230 255
211 230 255
210 230 255
210 230 255
210 230 255
210 229 255
210 229 255
203 222 247
195 213 238
169 185 207
177 194 218
172 190 214
154 170 192
144 161 183
155 173 196
158 177 202
144 161 184
154 173 198
153 172 196
160 180 206
153 172 198
155 175 200
158 177 203
150 169 194
163 184 211
154 173 199
164 184 212
159 180 207
157 177 203
156 176 203
164 185 213
163 184 212
161 182 211
159 180 208
170 193 223
165 187 216
152 172 199
158 179 207
158 179 207
158 179 207
159 181 209
159 180 208
161 183 212
161 182 211
157 178 206
159 180 208
157 178 206
164 186 214
157 177 204
150 170 196
159 180 208
162 184 212
151 170 195
154 173 199
148 167 192
153 171 195
156 174 198
169 188 212
178 196 221
187 206 232
199 219 245
208 228 255
208 228 255
208 228 255
208 228 255
207 228 255
207 228 255
207 228 255
207 228 255
207 228 255
207 228 255
207 228 255
207 228 255
207 228 255
207 228 255
207 228 255
207 228 255
207 228 255
207 228 255
207 227 255
207 227 255
207 227 255
207 227 255
206 227 255
206 227 255
206 227 255
206 227 255
206 227 255
206 227 255
206 227 255
206 227 255
206 227 255
206 227 255
206 227 255
206 227 255
206 227 255
206 227 255
206 227 255
206 227 255
206 227 255
206 227 255
205 227 255
205 227 255
205 227 255
205 227 255
205 227 255
205 227 255
205 227 255
205 227 255
205 227 255
205 227 255
205 226 255
205 226 255
205 226 255
205 226 255
205 226 255
205 226 255
205 226 255
204 226 255
204 226 255
204 226 255
204 226 255
204 226 255
204 226 255
204 226 255
204 226 255
204 226 255
204 226 255
204 226 255
204 226 255
204 226 255
204 226 255
204 226 255
204 226 255
204 226 255
204 226 255
204 226 255
204 226 255
203 226 255
203 226 255
203 226 255
203 226 255
203 226 255
203 226 255
203 226 255
203 226 255
203 226 255
203 226 255
203 225 255
203 225 255
203 225 255
203 225 255
203 225 255
203 225 255
203 225 255
203 225 255
203 225 255
203 225 255
203 225 255
203 225 255
203 225 255
203 225 255
203 225 255
203 225 255
203 225 255
203 225 255
203 225 255
203 225 255
202 225 255
202 225 255
202 225 255
202 225 255
202 225 255
202 225 255
202 225 255
202 225 255
202 225 255
202 225 255
202 225 255
202 225 255
202 225 255
202 225 255
202 225 255
202 225 255
202 225 255
202 225 255
202 225 255
202 225 255
202 225 255
202 225 255
202 225 255
202 225 255
202 225 255
202 225 255
202 225 255
202 225 255
202 225 255
202 225 255
202 225 255
202 225 255
203 225 255
203 225 255
203 225 255
203 225 255
203 225 255
203 225 255
203 225 255
203 225 255
203 225 255
203 225 255
203 225 255
203 225 255
203 225 255
203 225 255
203 225 255
203 225 255
203 225 255
203 225 255
203 225 255
203 225 255
203 226 255
203 226 255
203 226 255
203 226 255
203 226 255
203 226 255
203 226 255
203 226 255
203 226 255
203 226 255
204 226 255
204 226 255
204 226 255
204 226 255
204 226 255
204 226 255
204 226 255
204 226 255
204 226 255
204 226 255
204 226 255
204 226 255
204 226 255
204 226 255
204 226 255
204 226 255
204 226 255
204 226 255
204 226 255
204 226 255
205 226 255
205 226 255
205 226 255
205 226 255
205 226 255
205 226 255
205 226 255
205 227 255
205 227 255
205 227 255
205 227 255
205 227 255
205 227 255
205 227 255
205 227 255
205 227 255
205 227 255
205 227 255
206 227 255
206 227 255
206 227 255
206 227 255
206 227 255
206 227 255
206 227 255
206 227 255
206 227 255
206 227 255
206 227 255
206 227 255
206 227 255
206 227 255
206 227 255
206 227 255
206 227 255
207 227 255
207 227 255
207 227 255
207 227 255
207 228 255
207 228 255
207 228 255
207 228 255
207 228 255
207 228 255
207 228 255
207 228 255
207 228 255
207 228 255
207 228 255
207 228 255
207 228 255
207 228 255
208 228 255
208 228 255
208 228 255
208 228 255
202 221 245
192 209 226
173 185 193
165 175 177
156 162 149
140 142 115
119 117 78
130 128 85
134 132 88
136 134 90
130 128 86
136 134 90
132 130 87
131 129 85
132 130 87
143 141 94
134 131 87
134 132 88
126 124 83
134 132 88
133 131 87
131 129 86
128 126 84
138 136 90
138 136 90
134 132 87
137 135 90
132 130 87
133 130 86
131 128 84
138 135 89
132 130 87
136 133 87
130 129 86
139 135 88
127 125 83
128 126 83
139 135 89
133 131 86
137 133 87
129 126 83
127 124 80
141 139 93
136 133 87
137 134 88
143 140 92
133 130 86
137 133 86
141 142 112
155 162 157
168 176 173
180 193 206
188 202 216
205 223 246
210 229 255
210 229 255
210 230 255
210 230 255
210 230 255
211 230 255
211 230 255
211 230 255
211 230 255
211 230 255
211 230 255
211 230 255
211 230 255
211 230 255
211 230 255
211 230 255
211 230 255
211 230 255
211 230 255
211 230 255
211 230 255
211 230 255
211 230 255
211 230 255
211 230 255
211 230 255
211 230 255
211 230 255
211 230 255
211 230 255
211 230 255
211 230 255
211 230 255
211 230 255
211 230 255
211 230 255
211 230 255
211 230 255
211 230 255
211 230 255
211 230 255
199 217 242
191 209 234
175 192 216
166 183 206
151 167 189
153 171 194
157 175 199
153 170 194
153 171 195
155 173 198
148 166 190
159 179 204
156 175 200
161 181 207
166 186 213
164 185 212
164 185 212
163 183 211
163 184 212
164 185 213
161 182 209
167 189 218
160 182 209
165 187 216
165 187 217
161 183 212
165 187 216
162 184 212
166 188 218
167 189 219
169 192 221
162 184 213
171 194 225
163 187 217
170 193 224
166 190 221
167 190 220
166 189 219
167 191 221
166 190 220
167 190 220
165 189 219
167 190 220
163 187 217
167 190 220
167 191 221
161 184 214
164 188 218
161 184 213
159 181 209
166 189 219
160 182 211
157 178 207
159 181 209
149 169 195
152 172 199
155 176 203
146 166 191
145 164 188
144 162 185
160 179 203
175 193 218
191 211 237
202 222 249
208 228 255
208 228 255
208 228 255
207 228 255
207 228 255
207 228 255
207 228 255
207 228 255
207 228 255
207 228 255
207 228 255
207 228 255
207 228 255
207 228 255
207 228 255
207 228 255
207 228 255
207 227 255
207 227 255
207 227 255
207 227 255
206 227 255
206 227 255
206 227 255
206 227 255
206 227 255
206 227 255
206 227 255
206 227 255
206 227 255
206 227 255
206 227 255
206 227 255
206 227 255
206 227 255
206 227 255
206 227 255
206 227 255
205 227 255
205 227 255
205 227 255
205 227 255
205 227 255
205 227 255
205 227 255
205 227 255
205 227 255
205 227 255
205 227 255
205 226 255
205 226 255
205 226 255
205 226 255
205 226 255
205 226 255
205 226 255
204 226 255
204 226 255
204 226 255
204 226 255
204 226 255
204 226 255
204 226 255
204 226 255
204 226 255
204 226 255
204 226 255
204 226 255
204 226 255
204 226 255
204 226 255
204 226 255
204 226 255
204 226 255
204 226 255
204 226 255
204 226 255
203 226 255
203 226 255
203 226 255
203 226 255
203 226 255
203 226 255
203 226 255
203 226 255
203 226 255
203 226 255
203 226 255
203 226 255
203 225 255
203 225 255
203 225 255
203 225 255
203 225 255
203 225 255
203 225 255
203 225 255
203 225 255
203 225 255
203 225 255
203 225 255
203 225 255
203 225 255
203 225 255
203 225 255
203 225 255
203 225 255
203 225 255
203 225 255
203 225 255
203 225 255
203 225 255
203 225 255
203 225 255
203 225 255
203 225 255
203 225 255
203 225 255
203 225 255
203 225 255
203 225 255
203 225 255
203 225 255
203 225 255
203 225 255
203 225 255
203 225 255
203 225 255
203 225 255
203 225 255
203 225 255
203 225 255
203 225 255
203 225 255
203 225 255
203 225 255
203 225 255
203 225 255
203 225 255
203 225 255
203 225 255
203 225 255
203 225 255
203 225 255
203 225 255
203 225 255
203 225 255
203 226 255
203 226 255
203 226 255
203 226 255
203 226 255
203 226 255
203 226 255
203 226 255
203 226 255
203 226 255
203 226 255
203 226 255
204 226 255
204 226 255
204 226 255
204 226 255
204 226 255
204 226 255
204 226 255
204 226 255
204 226 255
204 226 255
204 226 255
204 226 255
204 226 255
204 226 255
204 226 255
204 226 255
204 226 255
204 226 255
204 226 255
204 226 255
204 226 255
205 226 255
205 226 255
205 226 255
205 226 255
205 226 255
205 226 255
205 226 255
205 227 255
205 227 255
205 227 255
205 227 255
205 227 255
205 227 255
205 227 255
205 227 255
205 227 255
205 227 255
205 227 255
206 227 255
206 227 255
206 227 255
206 227 255
206 227 255
206 227 255
206 227 255
206 227 255
206 227 255
206 227 255
206 227 255
206 227 255
206 227 255
206 227 255
206 227 255
206 227 255
206 227 255
207 227 255
207 227 255
207 227 255
207 227 255
207 227 255
207 228 255
207 228 255
207 228 255
207 228 255
207 228 255
207 228 255
207 228 255
207 228 255
207 228 255
207 228 255
207 228 255
207 228 255
207 228 255
208 228 255
208 228 255
208 228 255
205 224 250
189 204 217
168 178 183
149 155 142
138 138 109
123 121 80
129 128 85
125 123 82
136 134 90
131 130 87
130 129 87
130 129 87
133 131 87
142 141 94
142 140 93
132 131 87
134 132 88
133 132 89
138 136 91
135 134 90
127 125 84
138 136 90
138 136 91
137 135 90
149 146 97
139 137 91
138 136 91
134 132 88
140 138 92
134 133 89
139 137 92
140 138 92
135 133 89
131 130 87
141 139 93
135 132 88
139 136 90
134 131 87
147 145 96
145 142 93
134 132 87
144 141 93
139 136 90
137 135 89
138 135 90
139 137 91
148 144 95
134 131 87
123 121 79
140 136 89
142 140 92
139 136 89
133 130 84
129 126 80
136 133 86
139 135 89
129 125 80
129 127 84
123 121 79
150 150 122
154 162 160
168 178 183
192 206 219
208 226 250
211 230 255
211 230 255
211 230 255
211 230 255
211 230 255
211 230 255
211 230 255
211 230 255
211 230 255
211 230 255
211 230 255
211 230 255
211 230 255
211 230 255
211 230 255
211 230 255
211 230 255
211 230 255
211 230 255
211 230 255
211 230 255
211 230 255
211 230 255
211 230 255
211 230 255
211 230 255
211 230 255
211 230 255
211 230 255
211 230 255
211 230 255
211 230 255
198 216 240
191 209 233
174 191 214
154 170 191
151 168 190
149 166 188
158 176 200
159 177 202
156 175 200
161 181 207
157 176 200
168 188 216
164 184 211
158 177 203
165 186 213
159 179 206
167 188 216
170 192 220
166 187 216
169 191 219
172 194 224
167 189 218
173 195 225
170 192 221
168 191 220
172 195 225
169 191 221
174 197 228
171 194 225
172 195 226
172 196 227
171 195 226
170 194 225
173 197 228
171 195 226
171 196 227
172 197 228
171 196 228
172 196 228
172 196 228
170 195 227
171 195 227
169 193 225
171 196 228
171 196 228
170 195 227
172 196 228
171 195 227
170 194 226
171 196 228
166 191 223
171 196 228
165 189 220
169 193 225
165 189 220
164 188 219
165 189 220
167 191 223
164 187 218
164 187 218
163 186 216
159 182 211
161 183 213
160 182 211
159 180 208
154 175 202
156 176 203
142 160 184
154 172 197
168 186 211
189 209 235
200 220 247
208 228 255
208 228 255
208 228 255
207 228 255
207 228 255
207 228 255
207 228 255
207 228 255
207 228 255
207 228 255
207 228 255
207 228 255
207 228 255
207 228 255
207 228 255
207 228 255
207 227 255
207 227 255
207 227 255
207 227 255
206 227 255
206 227 255
206 227 255
206 227 255
206 227 255
206 227 255
206 227 255
206 227 255
206 227 255
206 227 255
206 227 255
206 227 255
206 227 255
206 227 255
206 227 255
206 227 255
206 227 255
206 227 255
205 227 255
205 227 255
205 227 255
205 227 255
205 227 255
205 227 255
205 227 255
205 227 255
205 227 255
205 227 255
205 227 255
205 226 255
205 226 255
205 226 255
205 226 255
205 226 255
205 226 255
205 226 255
204 226 255
204 226 255
204 226 255
204 226 255
204 226 255
204 226 255
204 226 255
204 226 255
204 226 255
204 226 255
204 226 255
204 226 255
204 226 255
204 226 255
204 226 255
204 226 255
204 226 255
204 226 255
204 226 255
204 226 255
204 226 255
204 226 255
204 226 255
203 226 255
203 226 255
203 226 255
203 226 255
203 226 255
203 226 255
203 226 255
203 226 255
203 226 255
203 226 255
203 226 255
203 226 255
203 226 255
203 226 255
203 226 255
203 225 255
203 225 255
203 225 255
203 225 255
203 225 255
203 225 255
203 225 255
203 225 255
203 225 255
203 225 255
203 225 255
203 225 255
203 225 255
203 225 255
203 225 255
203 225 255
203 225 255
203 225 255
203 225 255
203 225 255
203 225 255
203 225 255
203 225 255
203 225 255
203 225 255
203 225 255
203 225 255
203 225 255
203 225 255
203 225 255
203 225 255
203 225 255
203 225 255
203 225 255
203 225 255
203 225 255
203 225 255
203 225 255
203 225 255
203 225 255
203 226 255
203 226 255
203 226 255
203 226 255
203 226 255
203 226 255
203 226 255
203 226 255
203 226 255
203 226 255
203 226 255
203 226 255
203 226 255
203 226 255
203 226 255
204 226 255
204 226 255
204 226 255
204 226 255
204 226 255
204 226 255
204 226 255
204 226 255
204 226 255
204 226 255
204 226 255
204 226 255
204 226 255
204 226 255
204 226 255
204 226 255
204 226 255
204 226 255
204 226 255
204 226 255
204 226 255
204 226 255
205 226 255
205 226 255
205 226 255
205 226 255
205 226 255
205 226 255
205 226 255
205 226 255
205 227 255
205 227 255
205 227 255
205 227 255
205 227 255
205 227 255
205 227 255
205 227 255
205 227 255
205 227 255
205 227 255
206 227 255
206 227 255
206 227 255
206 227 255
206 227 255
206 227 255
206 227 255
206 227 255
206 227 255
206 227 255
206 227 255
206 227 255
206 227 255
206 227 255
206 227 255
206 227 255
206 227 255
206 227 255
207 227 255
207 227 255
207 227 255
207 227 255
207 228 255
207 228 255
207 228 255
207 228 255
207 228 255
207 228 255
207 228 255
207 228 255
207 228 255
207 228 255
207 228 255
207 228 255
207 228 255
207 228 255
208 228 255
208 228 255
198 217 240
183 198 214
162 170 163
138 142 123
137 134 90
132 131 87
124 123 82
141 139 93
134 132 88
145 143 96
128 126 84
133 132 88
131 130 87
142 140 94
132 131 88
136 134 90
144 142 95
135 133 89
138 136 91
140 138 93
131 129 87
134 133 89
142 141 94
132 130 87
133 132 88
136 134 90
137 136 91
138 136 91
144 141 94
140 137 91
138 138 93
130 128 85
135 132 88
140 138 92
138 136 90
139 137 92
145 142 94
133 131 87
141 138 92
138 136 90
134 132 88
142 139 93
145 143 94
143 141 94
136 133 88
141 139 93
139 136 90
138 136 90
143 141 94
148 146 97
146 144 96
148 144 95
136 133 88
137 133 87
139 136 90
137 133 88
136 133 87
142 138 91
142 138 90
138 135 89
135 131 87
137 132 85
140 136 90
145 141 91
127 123 81
135 132 87
136 132 85
131 129 84
145 146 120
161 169 165
175 187 197
201 217 237
211 230 255
211 230 255
211 230 255
211 230 255
211 230 255
211 230 255
211 230 255
211 230 255
211 230 255
211 230 255
211 230 255
211 230 255
211 230 255
211 230 255
212 230 255
212 230 255
212 230 255
212 230 255
211 230 255
211 230 255
211 230 255
211 230 255
211 230 255
211 230 255
205 224 249
188 205 229
167 183 204
161 178 201
149 166 188
147 163 184
158 175 199
149 166 188
164 183 208
162 181 206
159 178 203
163 182 208
163 182 208
167 188 216
166 188 216
169 190 218
173 195 224
168 189 217
170 192 221
171 193 221
174 196 226
174 196 226
172 195 225
172 195 225
171 194 224
175 198 228
172 195 226
174 197 227
174 197 228
173 197 228
173 197 228
173 197 228
172 197 228
173 197 228
172 197 228
171 196 228
172 196 228
172 196 228
171 196 228
171 196 228
171 196 228
171 196 228
170 196 228
171 196 228
170 195 228
170 195 228
171 196 228
170 195 228
170 196 228
169 195 228
169 195 228
170 195 228
170 196 228
169 195 228
170 195 228
169 195 228
170 195 228
170 195 228
170 195 228
170 196 228
170 195 228
171 196 228
168 193 225
171 196 228
167 192 224
169 194 226
161 185 216
163 187 218
164 187 218
161 184 214
165 188 218
155 177 206
162 185 214
160 181 209
149 169 195
142 161 186
150 168 192
169 187 212
180 199 224
201 221 248
208 228 255
208 228 255
207 228 255
207 228 255
207 228 255
207 228 255
207 228 255
207 228 255
207 228 255
207 228 255
207 228 255
207 228 255
207 228 255
207 228 255
207 228 255
207 228 255
207 227 255
207 227 255
207 227 255
207 227 255
206 227 255
206 227 255
206 227 255
206 227 255
206 227 255
206 227 255
206 227 255
206 227 255
206 227 255
206 227 255
206 227 255
206 227 255
206 227 255
206 227 255
206 227 255
206 227 255
206 227 255
206 227 255
205 227 255
205 227 255
205 227 255
205 227 255
205 227 255
205 227 255
205 227 255
205 227 255
205 227 255
205 227 255
205 227 255
205 226 255
205 226 255
205 226 255
205 226 255
205 226 255
205 226 255
205 226 255
205 226 255
205 226 255
204 226 255
204 226 255
204 226 255
204 226 255
204 226 255
204 226 255
204 226 255
204 226 255
204 226 255
204 226 255
204 226 255
204 226 255
204 226 255
204 226 255
204 226 255
204 226 255
204 226 255
204 226 255
204 226 255
204 226 255
204 226 255
204 226 255
204 226 255
204 226 255
203 226 255
203 226 255
203 226 255
203 226 255
203 226 255
203 226 255
203 226 255
203 226 255
203 226 255
203 226 255
203 226 255
203 226 255
203 226 255
203 226 255
203 226 255
203 226 255
203 226 255
203 226 255
203 226 255
203 226 255
203 226 255
203 226 255
203 226 255
203 226 255
203 226 255
203 226 255
203 226 255
203 226 255
203 226 255
203 226 255
203 226 255
203 226 255
203 226 255
203 226 255
203 226 255
203 226 255
203 226 255
203 226 255
203 226 255
203 226 255
203 226 255
203 226 255
203 226 255
203 226 255
203 226 255
203 226 255
203 226 255
203 226 255
203 226 255
203 226 255
203 226 255
203 226 255
203 226 255
203 226 255
203 226 255
203 226 255
204 226 255
204 226 255
204 226 255
204 226 255
204 226 255
204 226 255
204 226 255
204 226 255
204 226 255
204 226 255
204 226 255
204 226 255
204 226 255
204 226 255
204 226 255
204 226 255
204 226 255
204 226 255
204 226 255
204 226 255
204 226 255
204 226 255
204 226 255
204 226 255
204 226 255
205 226 255
205 226 255
205 226 255
205 226 255
205 226 255
205 226 255
205 226 255
205 226 255
205 227 255
205 227 255
205 227 255
205 227 255
205 227 255
205 227 255
205 227 255
205 227 255
205 227 255
205 227 255
205 227 255
206 227 255
206 227 255
206 227 255
206 227 255
206 227 255
206 227 255
206 227 255
206 227 255
206 227 255
206 227 255
206 227 255
206 227 255
206 227 255
206 227 255
206 227 255
206 227 255
206 227 255
206 227 255
207 227 255
207 227 255
207 227 255
207 227 255
207 228 255
207 228 255
207 228 255
207 228 255
207 228 255
207 228 255
207 228 255
207 228 255
207 228 255
207 228 255
207 228 255
207 228 255
207 228 255
207 228 255
208 228 255
208 228 255
204 224 249
175 187 196
158 168 169
143 146 126
136 134 90
137 135 90
131 129 86
131 129 86
137 135 90
137 135 90
137 135 90
134 133 90
129 127 85
139 138 93
134 133 89
135 134 90
140 138 93
140 139 93
140 139 93
128 127 85
140 139 93
137 135 90
138 136 91
123 122 82
137 134 90
136 134 90
146 144 96
144 142 95
141 139 93
141 139 93
141 139 93
136 134 90
142 141 94
145 143 95
140 138 93
142 141 94
147 145 95
138 136 90
136 134 90
136 134 89
140 137 91
146 143 95
144 143 95
137 134 89
136 135 90
145 142 94
150 146 97
143 141 94
138 136 90
140 138 92
143 140 93
150 146 96
139 135 90
145 143 95
143 141 91
140 136 89
143 141 93
135 133 87
135 132 86
135 133 87
152 148 96
139 137 91
133 131 87
136 134 89
129 127 84
141 136 89
131 128 84
136 133 87
139 136 88
142 139 92
142 138 88
137 134 87
121 119 76
134 130 84
134 131 83
129 125 80
140 140 112
165 172 167
192 205 214
204 221 243
211 230 255
211 230 255
211 230 255
211 230 255
211 230 255
211 230 255
212 230 255
212 230 255
212 230 255
212 230 255
212 230 255
212 230 255
212 230 255
212 230 255
212 230 255
212 230 255
212 230 255
201 218 242
173 190 212
150 166 186
157 174 197
149 165 187
155 173 196
159 177 200
165 184 209
157 175 199
159 178 203
160 180 206
165 185 212
167 187 213
162 182 208
170 191 219
171 192 220
172 194 223
174 195 224
173 195 224
172 194 223
174 197 226
175 197 227
173 196 226
175 198 228
174 197 227
174 197 228
175 198 228
174 198 228
173 197 228
173 197 228
173 197 228
172 197 228
172 197 228
172 197 228
171 196 228
172 197 228
171 196 228
171 196 228
171 196 228
171 196 228
171 196 228
170 196 228
170 196 228
170 195 228
170 195 228
169 195 228
170 195 228
168 195 228
170 195 228
169 195 228
169 195 228
169 195 228
169 195 228
169 195 228
168 195 228
168 195 228
169 195 228
169 195 228
169 195 228
168 194 228
168 194 228
168 195 228
168 195 228
168 195 228
169 195 228
169 195 228
169 195 228
170 195 228
169 195 228
170 195 228
170 195 228
170 195 227
169 194 226
166 191 223
166 190 223
164 188 219
161 185 216
160 183 213
157 179 208
161 183 212
152 173 200
156 177 204
152 172 198
152 170 194
175 194 219
198 219 246
208 228 255
208 228 255
208 228 255
207 228 255
207 228 255
207 228 255
207 228 255
207 228 255
207 228 255
207 228 255
207 228 255
207 228 255
207 228 255
207 228 255
207 228 255
207 228 255
207 228 255
207 227 255
207 227 255
207 227 255
207 227 255
206 227 255
206 227 255
206 227 255
206 227 255
206 227 255
206 227 255
206 227 255
206 227 255
206 227 255
206 227 255
206 227 255
206 227 255
206 227 255
206 227 255
206 227 255
206 227 255
206 227 255
206 227 255
205 227 255
205 227 255
205 227 255
205 227 255
205 227 255
205 227 255
205 227 255
205 227 255
205 227 255
205 227 255
205 227 255
205 227 255
205 226 255
205 226 255
205 226 255
205 226 255
205 226 255
205 226 255
205 226 255
205 226 255
205 226 255
204 226 255
204 226 255
204 226 255
204 226 255
204 226 255
204 226 255
204 226 255
204 226 255
204 226 255
204 226 255
204 226 255
204 226 255
204 226 255
204 226 255
204 226 255
204 226 255
204 226 255
204 226 255
204 226 255
204 226 255
204 226 255
204 226 255
204 226 255
204 226 255
204 226 255
204 226 255
204 226 255
204 226 255
204 226 255
203 226 255
203 226 255
203 226 255
203 226 255
203 226 255
203 226 255
203 226 255
203 226 255
203 226 255
203 226 255
203 226 255
203 226 255
203 226 255
203 226 255
203 226 255
203 226 255
203 226 255
203 226 255
203 226 255
203 226 255
203 226 255
203 226 255
203 226 255
203 226 255
203 226 255
203 226 255
203 226 255
203 226 255
203 226 255
203 226 255
203 226 255
203 226 255
203 226 255
203 226 255
203 226 255
203 226 255
203 226 255
204 226 255
204 226 255
204 226 255
204 226 255
204 226 255
204 226 255
204 226 255
204 226 255
204 226 255
204 226 255
204 226 255
204 226 255
204 226 255
204 226 255
204 226 255
204 226 255
204 226 255
204 226 255
204 226 255
204 226 255
204 226 255
204 226 255
204 226 255
204 226 255
204 226 255
204 226 255
204 226 255
204 226 255
205 226 255
205 226 255
205 226 255
205 226 255
205 226 255
205 226 255
205 226 255
205 226 255
205 226 255
205 227 255
205 227 255
205 227 255
205 227 255
205 227 255
205 227 255
205 227 255
205 227 255
205 227 255
205 227 255
205 227 255
205 227 255
206 227 255
206 227 255
206 227 255
206 227 255
206 227 255
206 227 255
206 227 255
206 227 255
206 227 255
206 227 255
206 227 255
206 227 255
206 227 255
206 227 255
206 227 255
206 227 255
206 227 255
206 227 255
207 227 255
207 227 255
207 227 255
207 227 255
207 228 255
207 228 255
207 228 255
207 228 255
207 228 255
207 228 255
207 228 255
207 228 255
207 228 255
207 228 255
207 228 255
207 228 255
207 228 255
207 228 255
208 228 255
208 228 255
208 228 255
197 214 234
167 178 184
139 144 131
138 137 94
121 119 80
131 129 87
130 128 86
134 133 89
128 128 86
142 140 93
137 136 91
143 142 95
131 129 87
139 138 93
142 140 94
133 131 88
138 138 93
141 139 93
144 142 95
133 131 87
135 133 89
136 135 90
148 146 97
139 138 93
141 139 93
137 136 91
146 145 97
141 139 93
145 143 95
143 141 95
150 148 99
144 143 96
137 136 91
139 136 90
146 144 96
133 131 87
140 138 93
143 140 93
144 142 95
138 137 92
145 142 94
137 135 90
150 148 99
139 137 91
139 137 90
145 142 94
137 135 90
143 140 93
149 147 97
140 137 90
137 134 88
138 135 90
137 136 90
147 143 94
134 132 86
140 136 90
141 138 92
138 135 89
136 133 87
139 137 90
150 146 95
136 133 88
142 139 92
137 135 89
145 142 92
135 133 87
146 143 92
133 131 85
135 132 87
136 132 84
142 139 92
129 127 84
136 133 86
145 140 88
145 141 93
150 147 97
131 127 82
141 138 88
142 138 91
126 123 80
131 126 78
121 117 75
139 135 89
147 150 134
177 188 196
195 210 227
212 230 255
212 230 255
212 230 255
212 230 255
212 230 255
212 230 255
212 230 255
212 230 255
212 230 255
212 230 255
212 230 255
206 224 249
179 196 218
146 160 180
147 163 184
152 168 190
158 175 198
153 171 194
153 171 194
162 180 204
168 187 212
164 183 208
171 191 218
171 191 218
169 189 217
172 194 221
170 191 219
170 191 219
174 195 224
173 195 224
175 197 226
176 199 228
175 197 227
175 198 228
176 199 228
176 199 228
174 197 228
174 198 228
173 197 228
173 197 228
173 197 228
172 197 228
172 196 228
172 196 228
172 197 228
173 197 228
172 196 228
171 196 228
171 196 228
171 196 228
171 196 228
170 195 228
170 195 228
170 195 228
170 195 228
169 195 228
169 195 228
169 195 228
168 195 228
169 195 228
169 195 228
169 195 228
169 195 228
168 194 228
168 194 228
168 194 228
168 194 228
168 195 228
167 194 228
168 194 228
168 194 228
168 194 228
168 194 228
167 194 228
167 194 228
168 194 228
167 194 228
167 194 228
168 194 228
168 194 228
168 195 228
167 194 228
168 195 228
168 195 228
168 195 228
167 194 228
168 195 228
169 195 228
169 195 228
168 194 227
168 193 226
169 194 227
166 191 224
164 188 219
167 190 221
164 188 219
150 171 199
163 185 214
152 172 199
148 167 192
150 169 193
172 191 216
196 216 242
208 228 255
208 228 255
208 228 255
208 228 255
207 228 255
207 228 255
207 228 255
207 228 255
207 228 255
207 228 255
207 228 255
207 228 255
207 228 255
207 228 255
207 228 255
207 228 255
207 228 255
207 228 255
207 227 255
207 227 255
207 227 255
207 227 255
206 227 255
206 227 255
206 227 255
206 227 255
206 227 255
206 227 255
206 227 255
206 227 255
206 227 255
206 227 255
206 227 255
206 227 255
206 227 255
206 227 255
206 227 255
206 227 255
206 227 255
206 227 255
206 227 255
205 227 255
205 227 255
205 227 255
205 227 255
205 227 255
205 227 255
205 227 255
205 227 255
205 227 255
205 227 255
205 227 255
205 227 255
205 226 255
205 226 255
205 226 255
205 226 255
205 226 255
205 226 255
205 226 255
205 226 255
205 226 255
204 226 255
204 226 255
204 226 255
204 226 255
204 226 255
204 226 255
204 226 255
204 226 255
204 226 255
204 226 255
204 226 255
204 226 255
204 226 255
204 226 255
204 226 255
204 226 255
204 226 255
204 226 255
204 226 255
204 226 255
204 226 255
204 226 255
204 226 255
204 226 255
204 226 255
204 226 255
204 226 255
204 226 255
204 226 255
204 226 255
204 226 255
204 226 255
204 226 255
204 226 255
204 226 255
204 226 255
204 226 255
204 226 255
204 226 255
204 226 255
204 226 255
204 226 255
204 226 255
204 226 255
204 226 255
204 226 255
204 226 255
204 226 255
204 226 255
204 226 255
204 226 255
204 226 255
204 226 255
204 226 255
204 226 255
204 226 255
204 226 255
204 226 255
204 226 255
204 226 255
204 226 255
204 226 255
204 226 255
204 226 255
204 226 255
204 226 255
204 226 255
204 226 255
204 226 255
204 226 255
204 226 255
204 226 255
204 226 255
204 226 255
204 226 255
204 226 255
204 226 255
204 226 255
204 226 255
204 226 255
204 226 255
204 226 255
204 226 255
205 226 255
205 226 255
205 226 255
205 226 255
205 226 255
205 226 255
205 226 255
205 226 255
205 226 255
205 226 255
205 227 255
205 227 255
205 227 255
205 227 255
205 227 255
205 227 255
205 227 255
205 227 255
205 227 255
205 227 255
205 227 255
205 227 255
206 227 255
206 227 255
206 227 255
206 227 255
206 227 255
206 227 255
206 227 255
206 227 255
206 227 255
206 227 255
206 227 255
206 227 255
206 227 255
206 227 255
206 227 255
206 227 255
206 227 255
206 227 255
206 227 255
207 227 255
207 227 255
207 227 255
207 227 255
207 228 255
207 228 255
207 228 255
207 228 255
207 228 255
207 228 255
207 228 255
207 228 255
207 228 255
207 228 255
207 228 255
207 228 255
207 228 255
207 228 255
208 228 255
208 228 255
208 228 255
207 227 254
191 208 228
164 173 172
135 136 108
131 130 87
124 122 82
126 125 84
134 133 90
135 133 89
140 138 93
127 125 84
139 137 92
132 131 88
132 131 88
137 136 92
140 139 93
136 135 90
136 135 91
130 129 87
143 141 94
148 147 99
138 137 93
136 134 90
141 140 94
146 145 97
145 145 97
139 137 92
148 146 97
141 139 93
140 138 93
142 141 95
145 143 95
145 142 95
148 146 98
151 149 100
155 153 101
142 141 95
139 137 92
143 141 94
136 135 90
135 132 87
130 129 85
139 136 90
147 145 97
141 138 91
142 139 93
148 146 97
147 145 97
142 140 93
147 145 97
147 145 97
145 142 95
145 143 94
146 144 95
146 143 95
133 131 87
143 140 93
142 139 92
147 144 95
142 140 93
133 132 87
149 146 95
151 148 99
139 136 89
142 140 94
152 149 97
149 145 95
144 141 93
137 132 86
142 140 93
154 150 98
141 137 90
144 141 93
137 134 87
141 137 89
138 135 87
145 141 93
130 127 81
144 141 91
139 135 87
138 133 85
132 129 86
133 129 84
132 129 82
138 133 86
130 126 80
127 123 76
131 127 83
129 125 80
141 136 87
148 151 137
181 190 191
193 207 223
212 230 255
212 230 255
212 230 255
212 230 255
212 230 255
196 214 237
177 193 215
145 159 178
153 169 191
157 173 195
157 174 198
153 170 192
165 184 209
158 176 200
163 182 207
168 187 213
170 189 216
173 194 220
175 196 224
169 190 218
173 194 221
173 195 223
174 196 224
174 196 225
176 198 227
176 199 228
177 199 228
176 198 228
176 199 228
175 198 228
176 198 228
174 198 228
174 198 228
174 197 228
173 197 228
173 197 228
173 197 228
172 197 228
173 197 228
172 197 228
172 196 228
172 196 228
171 196 228
171 196 228
171 196 228
170 195 228
170 196 228
170 195 228
170 196 228
169 195 228
169 195 228
169 195 228
169 195 228
169 195 228
169 195 228
168 195 228
168 194 228
169 195 228
167 194 228
168 194 228
167 194 228
167 194 228
168 194 228
167 194 228
166 194 228
167 194 228
167 194 228
167 194 228
167 194 228
166 193 228
166 193 228
166 194 228
166 194 228
167 194 228
166 194 228
166 193 228
166 194 228
167 194 228
166 193 228
167 194 228
167 194 228
167 194 228
167 194 228
167 194 228
167 194 228
168 194 228
168 194 228
168 194 228
169 195 228
168 195 228
169 195 228
170 195 228
167 192 224
168 193 225
165 189 220
163 187 218
164 187 217
167 190 220
158 180 208
155 175 202
156 175 199
180 199 224
200 220 246
208 228 255
208 228 255
208 228 255
208 228 255
208 228 255
207 228 255
207 228 255
207 228 255
207 228 255
207 228 255
207 228 255
207 228 255
207 228 255
207 228 255
207 228 255
207 228 255
207 228 255
207 228 255
207 228 255
207 227 255
207 227 255
207 227 255
207 227 255
206 227 255
206 227 255
206 227 255
206 227 255
206 227 255
206 227 255
206 227 255
206 227 255
206 227 255
206 227 255
206 227 255
206 227 255
206 227 255
206 227 255
206 227 255
206 227 255
206 227 255
206 227 255
206 227 255
206 227 255
205 227 255
205 227 255
205 227 255
205 227 255
205 227 255
205 227 255
205 227 255
205 227 255
205 227 255
205 227 255
205 227 255
205 227 255
205 226 255
205 226 255
205 226 255
205 226 255
205 226 255
205 226 255
205 226 255
205 226 255
205 226 255
205 226 255
204 226 255
204 226 255
204 226 255
204 226 255
204 226 255
204 226 255
204 226 255
204 226 255
204 226 255
204 226 255
204 226 255
204 226 255
204 226 255
204 226 255
204 226 255
204 226 255
204 226 255
204 226 255
204 226 255
204 226 255
204 226 255
204 226 255
204 226 255
204 226 255
204 226 255
204 226 255
204 226 255
204 226 255
204 226 255
204 226 255
204 226 255
204 226 255
204 226 255
204 226 255
204 226 255
204 226 255
204 226 255
204 226 255
204 226 255
204 226 255
204 226 255
204 226 255
204 226 255
204 226 255
204 226 255
204 226 255
204 226 255
204 226 255
204 226 255
204 226 255
204 226 255
204 226 255
204 226 255
204 226 255
204 226 255
204 226 255
204 226 255
204 226 255
204 226 255
204 226 255
204 226 255
204 226 255
204 226 255
204 226 255
204 226 255
204 226 255
204 226 255
204 226 255
204 226 255
204 226 255
204 226 255
204 226 255
205 226 255
205 226 255
205 226 255
205 226 255
205 226 255
205 226 255
205 226 255
205 226 255
205 226 255
205 226 255
205 227 255
205 227 255
205 227 255
205 227 255
205 227 255
205 227 255
205 227 255
205 227 255
205 227 255
205 227 255
205 227 255
205 227 255
205 227 255
206 227 255
206 227 255
206 227 255
206 227 255
206 227 255
206 227 255
206 227 255
206 227 255
206 227 255
206 227 255
206 227 255
206 227 255
206 227 255
206 227 255
206 227 255
206 227 255
206 227 255
206 227 255
206 227 255
207 227 255
207 227 255
207 227 255
207 227 255
207 228 255
207 228 255
207 228 255
207 228 255
207 228 255
207 228 255
207 228 255
207 228 255
207 228 255
207 228 255
207 228 255
207 228 255
207 228 255
207 228 255
208 228 255
208 228 255
208 228 255
208 228 255
208 228 255
197 215 236
167 177 178
148 152 131
125 124 83
136 135 90
125 124 83
139 138 93
141 140 94
131 129 87
150 149 100
145 144 97
136 135 90
140 140 94
135 133 89
142 141 95
141 141 95
136 134 90
142 141 95
143 141 94
135 134 90
138 138 93
143 143 96
139 138 93
139 138 93
141 140 94
143 142 96
141 140 94
147 145 97
145 143 96
143 142 95
150 148 99
145 144 97
140 139 93
147 145 97
148 147 98
145 144 97
148 146 97
142 141 95
143 142 95
152 150 100
137 136 91
144 142 95
151 149 100
149 147 98
144 142 95
146 144 97
150 148 99
148 146 97
136 135 90
150 148 98
140 138 92
142 140 93
150 148 99
149 146 97
147 145 97
144 141 94
149 147 97
150 147 97
147 145 95
147 143 93
146 144 94
149 145 95
147 145 95
150 147 98
154 151 99
136 133 88
140 138 90
151 147 95
147 143 94
143 141 93
144 140 93
142 139 91
145 141 93
145 141 93
138 134 88
145 142 93
137 134 87
135 132 86
145 140 90
141 138 88
146 143 94
145 141 88
135 131 84
143 140 93
146 142 94
129 126 82
131 126 80
145 140 87
138 134 85
131 128 82
136 132 84
135 131 81
128 124 77
142 138 90
133 129 82
146 147 125
175 184 187
200 215 232
212 230 255
148 163 182
153 169 190
147 162 183
150 166 188
161 179 203
164 182 206
167 185 209
165 183 208
167 186 212
172 191 217
168 188 214
167 187 214
177 197 225
173 195 224
176 197 225
173 194 223
178 200 228
176 198 227
176 199 228
176 199 228
177 199 228
176 199 228
175 198 228
175 198 228
175 198 228
174 198 228
174 198 228
174 197 228
173 197 228
173 197 228
173 197 228
174 197 228
172 196 228
172 196 228
171 196 228
171 196 228
171 196 228
171 196 228
170 196 228
170 196 228
171 196 228
171 196 228
170 195 228
169 195 228
170 195 228
169 195 228
169 195 228
169 195 228
169 195 228
168 194 228
168 194 228
167 194 228
167 194 228
168 194 228
167 194 228
167 194 228
167 194 228
167 194 228
166 194 228
166 193 228
166 193 228
166 193 228
166 193 228
166 194 228
166 193 228
166 194 228
166 193 228
166 193 228
166 193 228
166 193 228
166 193 228
166 193 228
165 193 228
166 193 228
165 193 228
166 193 228
166 193 228
166 193 228
166 194 228
166 193 228
166 194 228
166 193 228
167 194 228
167 194 228
167 194 228
167 194 228
167 194 228
168 194 228
168 194 228
169 195 228
169 195 228
165 190 223
165 190 221
167 192 224
166 190 221
159 181 211
157 179 208
147 168 194
154 174 200
161 180 205
189 208 234
204 224 251
208 228 255
208 228 255
208 228 255
208 228 255
208 228 255
208 228 255
207 228 255
207 228 255
207 228 255
207 228 255
207 228 255
207 228 255
207 228 255
207 228 255
207 228 255
207 228 255
207 228 255
207 228 255
207 228 255
207 228 255
207 227 255
207 227 255
207 227 255
207 227 255
207 227 255
206 227 255
206 227 255
206 227 255
206 227 255
206 227 255
206 227 255
206 227 255
206 227 255
206 227 255
206 227 255
206 227 255
206 227 255
206 227 255
206 227 255
206 227 255
206 227 255
206 227 255
206 227 255
206 227 255
205 227 255
205 227 255
205 227 255
205 227 255
205 227 255
205 227 255
205 227 255
205 227 255
205 227 255
205 227 255
205 227 255
205 227 255
205 227 255
205 227 255
205 226 255
205 226 255
205 226 255
205 226 255
205 226 255
205 226 255
205 226 255
205 226 255
205 226 255
205 226 255
205 226 255
205 226 255
204 226 255
204 226 255
204 226 255
204 226 255
204 226 255
204 226 255
204 226 255
204 226 255
204 226 255
204 226 255
204 226 255
204 226 255
204 226 255
204 226 255
204 226 255
204 226 255
204 226 255
204 226 255
204 226 255
204 226 255
204 226 255
204 226 255
204 226 255
204 226 255
204 226 255
204 226 255
204 226 255
204 226 255
204 226 255
204 226 255
204 226 255
204 226 255
204 226 255
204 226 255
204 226 255
204 226 255
204 226 255
204 226 255
204 226 255
204 226 255
204 226 255
204 226 255
204 226 255
204 226 255
204 226 255
204 226 255
204 226 255
204 226 255
204 226 255
204 226 255
204 226 255
204 226 255
204 226 255
204 226 255
204 226 255
204 226 255
205 226 255
205 226 255
205 226 255
205 226 255
205 226 255
205 226 255
205 226 255
205 226 255
205 226 255
205 226 255
205 226 255
205 226 255
205 227 255
205 227 255
205 227 255
205 227 255
205 227 255
205 227 255
205 227 255
205 227 255
205 227 255
205 227 255
205 227 255
205 227 255
205 227 255
206 227 255
206 227 255
206 227 255
206 227 255
206 227 255
206 227 255
206 227 255
206 227 255
206 227 255
206 227 255
206 227 255
206 227 255
206 227 255
206 227 255
206 227 255
206 227 255
206 227 255
206 227 255
206 227 255
206 227 255
207 227 255
207 227 255
207 227 255
207 227 255
207 227 255
207 228 255
207 228 255
207 228 255
207 228 255
207 228 255
207 228 255
207 228 255
207 228 255
207 228 255
207 228 255
207 228 255
207 228 255
207 228 255
207 228 255
208 228 255
208 228 255
208 228 255
208 228 255
208 228 255
208 228 255
207 226 253
175 188 198
149 156 146
134 132 88
147 145 97
138 136 91
133 132 88
142 141 95
125 124 83
133 132 89
145 144 97
135 135 90
135 134 90
137 136 92
144 142 95
139 138 93
141 140 94
141 140 94
149 147 99
141 140 94
142 141 95
143 143 96
135 134 90
142 140 94
142 141 95
141 140 94
142 140 94
148 147 99
143 141 95
146 146 99
151 149 99
145 144 97
145 144 97
135 134 90
146 145 97
145 144 96
150 148 99
146 144 97
142 141 95
148 146 97
150 147 98
146 144 97
143 142 95
143 141 94
142 140 93
145 143 95
142 140 94
148 147 99
148 145 96
149 147 99
152 149 99
150 146 97
143 141 94
158 155 103
141 138 91
148 146 97
151 148 98
152 149 99
149 146 97
145 143 95
144 141 93
156 153 99
142 139 91
144 142 94
146 143 94
148 146 95
145 142 93
145 142 90
134 132 88
152 149 99
144 141 93
139 136 90
141 138 91
144 141 92
148 144 94
151 147 95
141 139 90
145 142 94
144 141 93
139 136 87
139 136 89
137 134 86
145 142 91
141 137 88
143 139 90
139 136 88
136 133 87
134 130 82
149 144 93
144 140 89
134 130 84
136 132 86
141 138 87
126 124 80
150 145 95
137 132 86
135 132 87
137 133 87
137 133 87
123 119 76
120 117 73
157 159 139
158 174 196
158 175 198
156 173 195
166 185 209
168 187 212
171 190 216
164 183 208
165 185 211
167 187 213
173 193 220
172 193 220
177 199 227
175 197 225
178 200 228
177 199 227
177 199 228
177 199 228
176 199 228
176 199 228
176 198 228
175 198 228
175 198 228
175 198 228
174 198 228
175 198 228
173 197 228
173 197 228
174 197 228
173 197 228
172 197 228
172 197 228
172 197 228
171 196 228
172 197 228
170 196 228
171 196 228
171 196 228
171 196 228
170 196 228
170 196 228
170 195 228
170 195 228
170 195 228
170 195 228
169 195 228
169 195 228
168 195 228
168 194 228
169 195 228
168 194 228
167 194 228
168 195 228
167 194 228
167 194 228
167 194 228
167 194 228
167 194 228
167 194 228
167 194 228
166 193 228
167 194 228
166 193 228
166 193 228
166 193 228
165 193 228
165 193 228
165 193 228
166 193 228
165 193 228
165 193 228
165 193 228
165 193 228
165 193 228
165 193 228
165 193 228
165 193 228
165 193 228
165 193 228
165 193 228
165 193 228
165 193 228
165 193 228
166 193 228
166 193 228
166 193 228
167 194 228
167 194 228
167 194 228
166 193 228
168 194 228
168 194 228
168 194 228
169 195 228
169 195 228
169 195 227
168 193 226
166 191 223
158 181 211
163 186 216
150 171 198
150 170 196
151 170 194
169 188 212
196 216 242
208 228 255
208 228 255
208 228 255
208 228 255
208 228 255
208 228 255
208 228 255
208 228 255
207 228 255
207 228 255
207 228 255
207 228 255
207 228 255
207 228 255
207 228 255
207 228 255
207 228 255
207 228 255
207 228 255
207 228 255
207 228 255
207 228 255
207 227 255
207 227 255
207 227 255
207 227 255
207 227 255
206 227 255
206 227 255
206 227 255
206 227 255
206 227 255
206 227 255
206 227 255
206 227 255
206 227 255
206 227 255
206 227 255
206 227 255
206 227 255
206 227 255
206 227 255
206 227 255
206 227 255
206 227 255
206 227 255
206 227 255
206 227 255
205 227 255
205 227 255
205 227 255
205 227 255
205 227 255
205 227 255
205 227 255
205 227 255
205 227 255
205 227 255
205 227 255
205 227 255
205 227 255
205 227 255
205 227 255
205 227 255
205 226 255
205 226 255
205 226 255
205 226 255
205 226 255
205 226 255
205 226 255
205 226 255
205 226 255
205 226 255
205 226 255
205 226 255
205 226 255
205 226 255
205 226 255
204 226 255
204 226 255
204 226 255
204 226 255
204 226 255
204 226 255
204 226 255
204 226 255
204 226 255
204 226 255
204 226 255
204 226 255
204 226 255
204 226 255
204 226 255
204 226 255
204 226 255
204 226 255
204 226 255
204 226 255
204 226 255
204 226 255
204 226 255
204 226 255
204 226 255
204 226 255
204 226 255
204 226 255
204 226 255
204 226 255
204 226 255
204 226 255
204 226 255
204 226 255
205 226 255
205 226 255
205 226 255
205 226 255
205 226 255
205 226 255
205 226 255
205 226 255
205 226 255
205 226 255
205 226 255
205 226 255
205 226 255
205 226 255
205 226 255
205 226 255
205 227 255
205 227 255
205 227 255
205 227 255
205 227 255
205 227 255
205 227 255
205 227 255
205 227 255
205 227 255
205 227 255
205 227 255
205 227 255
205 227 255
205 227 255
206 227 255
206 227 255
206 227 255
206 227 255
206 227 255
206 227 255
206 227 255
206 227 255
206 227 255
206 227 255
206 227 255
206 227 255
206 227 255
206 227 255
206 227 255
206 227 255
206 227 255
206 227 255
206 227 255
206 227 255
206 227 255
207 227 255
207 227 255
207 227 255
207 227 255
207 228 255
207 228 255
207 228 255
207 228 255
207 228 255
207 228 255
207 228 255
207 228 255
207 228 255
207 228 255
207 228 255
207 228 255
207 228 255
207 228 255
207 228 255
208 228 255
208 228 255
208 228 255
208 228 255
208 228 255
208 228 255
208 228 255
208 228 255
194 212 232
162 172 174
133 132 97
128 126 84
131 130 87
141 140 94
132 131 87
134 133 89
134 132 88
144 142 95
142 140 94
140 138 93
137 136 91
141 140 94
141 139 93
146 144 97
150 149 100
143 141 95
143 142 95
144 142 95
140 139 93
151 149 100
144 143 96
145 143 96
149 148 99
144 143 96
153 151 101
136 135 90
145 144 97
148 145 97
149 148 99
146 145 97
151 149 99
149 148 99
148 146 97
152 150 100
139 137 92
145 143 96
147 144 96
152 150 100
139 137 92
153 151 101
151 150 101
150 148 98
148 146 97
141 140 95
155 153 103
147 145 97
145 142 95
155 153 103
150 148 99
149 146 97
151 149 99
146 144 97
151 149 99
150 147 97
151 149 99
145 143 95
143 140 93
147 145 97
148 145 94
144 140 93
146 143 95
139 137 90
149 146 94
138 135 90
145 141 93
148 145 96
157 154 100
144 141 93
146 144 95
147 144 95
148 145 95
137 134 88
144 141 93
146 142 92
154 150 98
148 145 95
146 143 93
147 144 95
149 146 96
141 138 90
147 143 95
137 134 87
134 132 86
136 133 87
144 140 91
138 135 87
153 149 97
136 133 85
138 134 86
136 134 84
136 132 84
147 143 93
139 135 86
139 135 86
142 138 90
156 152 97
137 133 85
134 130 83
145 140 91
131 127 78
132 128 82
138 133 82
160 177 200
165 183 207
171 190 214
165 183 208
172 192 218
171 190 216
172 193 220
178 199 227
175 197 225
174 196 224
178 200 228
179 200 228
178 200 228
176 199 228
177 199 228
177 199 228
175 198 228
177 199 228
176 198 228
176 199 228
175 198 228
175 198 228
174 197 228
174 198 228
174 197 228
173 197 228
173 197 228
172 197 228
173 197 228
173 197 228
172 196 228
172 196 228
172 197 228
171 196 228
171 196 228
171 196 228
171 196 228
171 196 228
171 196 228
170 196 228
169 195 228
169 195 228
169 195 228
168 195 228
168 195 228
169 195 228
169 195 228
168 195 228
168 194 228
168 194 228
167 194 228
167 194 228
167 194 228
166 194 228
166 194 228
167 194 228
167 194 228
166 193 228
166 193 228
166 193 228
166 193 228
166 193 228
165 193 228
165 193 228
165 193 228
165 193 228
165 193 228
165 193 228
165 193 228
165 193 228
165 193 228
165 193 228
164 193 228
164 193 228
164 192 228
164 192 228
164 193 228
164 192 228
164 193 228
164 193 228
165 193 228
164 193 228
164 193 228
165 193 228
165 193 228
165 193 228
165 193 228
165 193 228
166 193 228
166 193 228
167 194 228
167 194 228
167 194 228
167 194 228
168 194 228
169 195 228
169 195 228
169 195 227
169 194 226
165 189 220
165 188 218
160 183 212
154 175 203
154 173 199
150 168 191
189 208 233
208 228 255
208 228 255
208 228 255
208 228 255
208 228 255
208 228 255
208 228 255
208 228 255
208 228 255
208 228 255
207 228 255
207 228 255
207 228 255
207 228 255
207 228 255
207 228 255
207 228 255
207 228 255
207 228 255
207 228 255
207 228 255
207 228 255
207 228 255
207 228 255
207 228 255
207 227 255
207 227 255
207 227 255
207 227 255
207 227 255
206 227 255
206 227 255
206 227 255
206 227 255
206 227 255
206 227 255
206 227 255
206 227 255
206 227 255
206 227 255
206 227 255
206 227 255
206 227 255
206 227 255
206 227 255
206 227 255
206 227 255
206 227 255
206 227 255
206 227 255
206 227 255
206 227 255
205 227 255
205 227 255
205 227 255
205 227 255
205 227 255
205 227 255
205 227 255
205 227 255
205 227 255
205 227 255
205 227 255
205 227 255
205 227 255
205 227 255
205 227 255
205 227 255
205 227 255
205 227 255
205 226 255
205 226 255
205 226 255
205 226 255
205 226 255
205 226 255
205 226 255
205 226 255
205 226 255
205 226 255
205 226 255
205 226 255
205 226 255
205 226 255
205 226 255
205 226 255
205 226 255
205 226 255
205 226 255
205 226 255
205 226 255
205 226 255
205 226 255
205 226 255
205 226 255
205 226 255
205 226 255
205 226 255
205 226 255
205 226 255
205 226 255
205 226 255
205 226 255
205 226 255
205 226 255
205 226 255
205 226 255
205 226 255
205 226 255
205 226 255
205 226 255
205 226 255
205 226 255
205 226 255
205 226 255
205 226 255
205 226 255
205 226 255
205 227 255
205 227 255
205 227 255
205 227 255
205 227 255
205 227 255
205 227 255
205 227 255
205 227 255
205 227 255
205 227 255
205 227 255
205 227 255
205 227 255
205 227 255
205 227 255
205 227 255
205 227 255
206 227 255
206 227 255
206 227 255
206 227 255
206 227 255
206 227 255
206 227 255
206 227 255
206 227 255
206 227 255
206 227 255
206 227 255
206 227 255
206 227 255
206 227 255
206 227 255
206 227 255
206 227 255
206 227 255
206 227 255
206 227 255
206 227 255
207 227 255
207 227 255
207 227 255
207 227 255
207 227 255
207 228 255
207 228 255
207 228 255
207 228 255
207 228 255
207 228 255
207 228 255
207 228 255
207 228 255
207 228 255
207 228 255
207 228 255
207 228 255
207 228 255
207 228 255
208 228 255
208 228 255
208 228 255
208 228 255
208 228 255
208 228 255
208 228 255
208 228 255
208 228 255
208 228 254
188 204 218
144 147 127
139 137 91
129 128 86
133 131 88
134 132 88
134 133 89
133 132 89
136 135 90
142 141 95
142 141 95
140 139 93
150 149 100
144 142 95
142 140 94
151 150 101
145 144 97
153 152 102
148 147 99
148 147 99
145 144 97
144 143 96
154 152 102
142 141 95
141 140 94
150 149 100
145 144 96
149 147 98
148 146 98
144 143 96
140 139 93
150 148 99
154 152 101
152 149 99
147 146 98
139 137 91
151 150 100
142 141 95
148 145 97
158 156 104
155 153 103
149 148 100
154 152 101
159 156 104
153 152 102
141 140 94
151 149 99
149 147 97
147 145 97
151 149 99
145 143 95
157 155 103
150 149 99
146 144 96
144 142 93
152 150 100
156 153 101
150 147 98
143 140 93
144 142 94
153 151 101
142 140 92
149 146 97
154 151 99
151 146 96
140 137 90
155 151 99
150 146 96
152 150 100
146 143 95
143 139 92
145 142 93
148 146 96
145 142 95
152 150 99
150 147 95
143 141 93
141 139 93
145 142 93
140 137 89
149 146 96
152 148 96
141 138 90
143 139 90
142 139 88
149 144 93
138 135 88
145 142 91
151 147 96
140 136 86
146 142 90
142 138 88
143 139 90
146 142 90
150 147 95
143 140 91
140 135 85
137 134 87
139 136 87
144 141 90
125 121 79
132 128 83
137 132 85
137 132 84
139 134 84
143 140 91
170 189 214
171 191 217
169 189 214
176 196 223
175 195 221
172 192 218
179 199 226
179 199 226
178 200 228
179 200 228
179 200 228
177 199 228
177 199 228
177 199 228
177 199 228
177 199 228
176 198 228
176 199 228
175 198 228
175 198 228
174 198 228
173 197 228
174 198 228
174 198 228
173 197 228
173 197 228
173 197 228
172 196 228
174 197 228
172 197 228
172 197 228
171 196 228
171 196 228
171 196 228
171 196 228
170 196 228
170 196 228
170 196 228
170 196 228
169 195 228
170 195 228
169 195 228
168 195 228
168 195 228
168 195 228
168 195 228
168 194 228
167 194 228
167 194 228
167 194 228
167 194 228
167 194 228
167 194 228
166 194 228
166 193 228
167 194 228
166 193 228
165 193 228
166 193 228
166 193 228
165 193 228
165 193 228
165 193 228
165 193 228
164 193 228
164 193 228
165 193 228
165 193 228
164 192 228
164 193 228
164 192 228
164 193 228
164 193 228
164 192 228
164 192 228
164 192 228
164 192 228
164 192 228
164 192 228
164 192 228
164 192 228
164 192 228
164 192 228
164 192 228
164 192 228
164 192 228
164 193 228
165 193 228
165 193 228
165 193 228
166 193 228
165 193 228
166 193 228
166 194 228
166 194 228
167 194 228
168 194 228
168 195 228
169 195 228
170 195 228
168 194 227
166 190 221
161 184 214
162 185 214
163 185 214
152 173 199
162 181 207
188 207 233
205 225 252
208 228 255
208 228 255
208 228 255
208 228 255
208 228 255
208 228 255
208 228 255
208 228 255
208 228 255
208 228 255
208 228 255
208 228 255
207 228 255
207 228 255
207 228 255
207 228 255
207 228 255
207 228 255
207 228 255
207 228 255
207 228 255
207 228 255
207 228 255
207 228 255
207 228 255
207 228 255
207 228 255
207 227 255
207 227 255
207 227 255
207 227 255
207 227 255
206 227 255
206 227 255
206 227 255
206 227 255
206 227 255
206 227 255
206 227 255
206 227 255
206 227 255
206 227 255
206 227 255
206 227 255
206 227 255
206 227 255
206 227 255
206 227 255
206 227 255
206 227 255
206 227 255
206 227 255
206 227 255
206 227 255
206 227 255
206 227 255
205 227 255
205 227 255
205 227 255
205 227 255
205 227 255
205 227 255
205 227 255
205 227 255
205 227 255
205 227 255
205 227 255
205 227 255
205 227 255
205 227 255
205 227 255
205 227 255
205 227 255
205 227 255
205 227 255
205 227 255
205 227 255
205 227 255
205 227 255
205 227 255
205 227 255
205 226 255
205 226 255
205 226 255
205 226 255
205 226 255
205 226 255
205 226 255
205 226 255
205 226 255
205 226 255
205 226 255
205 226 255
205 226 255
205 226 255
205 226 255
205 226 255
205 226 255
205 226 255
205 226 255
205 227 255
205 227 255
205 227 255
205 227 255
205 227 255
205 227 255
205 227 255
205 227 255
205 227 255
205 227 255
205 227 255
205 227 255
205 227 255
205 227 255
205 227 255
205 227 255
205 227 255
205 227 255
205 227 255
205 227 255
205 227 255
205 227 255
205 227 255
205 227 255
205 227 255
205 227 255
206 227 255
206 227 255
206 227 255
206 227 255
206 227 255
206 227 255
206 227 255
206 227 255
206 227 255
206 227 255
206 227 255
206 227 255
206 227 255
206 227 255
206 227 255
206 227 255
206 227 255
206 227 255
206 227 255
206 227 255
206 227 255
206 227 255
206 227 255
206 227 255
207 227 255
207 227 255
207 227 255
207 227 255
207 227 255
207 227 255
207 228 255
207 228 255
207 228 255
207 228 255
207 228 255
207 228 255
207 228 255
207 228 255
207 228 255
207 228 255
207 228 255
207 228 255
207 228 255
207 228 255
208 228 255
208 228 255
208 228 255
208 228 255
208 228 255
208 228 255
208 228 255
208 228 255
208 228 255
208 228 255
208 228 255
208 228 255
206 225 252
169 180 186
133 133 106
133 131 87
137 135 90
146 144 97
134 132 88
141 140 94
133 131 88
142 140 94
133 132 88
142 141 95
133 132 89
139 138 93
137 136 91
138 137 92
130 130 87
140 139 93
147 146 98
146 145 98
148 146 97
155 154 103
148 147 99
141 141 95
141 141 95
143 142 95
154 152 102
147 145 97
154 153 103
149 147 99
147 146 98
154 152 101
147 145 97
153 152 102
150 149 99
145 143 96
152 151 101
149 148 99
140 139 93
144 142 95
151 149 100
152 150 100
150 148 99
145 144 95
148 146 97
153 151 101
157 155 104
150 148 99
150 148 99
157 154 103
158 156 104
151 149 99
147 145 97
158 156 104
151 149 99
153 150 99
151 149 99
154 150 99
155 153 103
151 148 97
147 145 96
155 152 101
152 149 99
144 142 95
155 151 99
156 154 102
152 149 99
152 150 98
146 144 95
155 152 99
139 136 89
143 140 92
151 147 96
147 144 95
146 144 95
152 149 97
151 148 96
148 144 95
150 147 96
154 151 98
139 136 90
149 145 93
150 147 95
152 150 97
149 145 95
138 135 87
145 142 94
142 139 91
145 141 93
145 143 94
143 139 89
146 142 93
138 134 87
136 133 85
145 143 93
143 139 88
152 148 95
146 142 91
144 139 89
148 144 93
138 134 84
130 126 80
143 139 88
141 137 87
138 133 86
137 133 86
144 139 90
138 135 85
140 136 88
174 193 219
175 195 221
176 196 223
178 198 225
177 198 225
177 199 227
179 200 227
179 200 228
179 200 228
179 200 228
178 199 228
177 199 228
177 199 228
176 199 228
177 199 228
176 199 228
176 198 228
175 198 228
175 198 228
175 198 228
174 198 228
174 198 228
174 198 228
174 197 228
173 197 228
173 197 228
174 198 228
173 197 228
172 197 228
172 196 228
172 196 228
172 197 228
171 196 228
172 196 228
171 196 228
171 196 228
171 196 228
170 196 228
170 196 228
170 196 228
169 195 228
169 195 228
169 195 228
168 195 228
168 195 228
168 195 228
168 195 228
168 194 228
168 194 228
167 194 228
167 194 228
167 194 228
167 194 228
167 194 228
166 194 228
166 194 228
166 193 228
166 193 228
165 193 228
165 193 228
165 193 228
165 193 228
165 193 228
165 193 228
164 193 228
165 193 228
164 193 228
164 193 228
164 193 228
164 192 228
164 192 228
164 192 228
163 192 228
164 192 228
164 192 228
163 192 228
163 192 228
163 192 228
163 192 228
164 192 228
163 192 228
163 192 228
164 192 228
163 192 228
164 192 228
164 192 228
164 192 228
164 192 228
164 192 228
164 193 228
164 193 228
165 193 228
165 193 228
165 193 228
165 193 228
166 193 228
167 194 228
167 194 228
167 194 228
168 195 228
168 194 228
169 195 228
171 196 228
169 195 227
165 189 220
159 181 211
158 179 207
158 178 206
158 177 203
170 187 211
204 224 251
208 228 255
208 228 255
208 228 255
208 228 255
208 228 255
208 228 255
208 228 255
208 228 255
208 228 255
208 228 255
208 228 255
208 228 255
208 228 255
208 228 255
207 228 255
207 228 255
207 228 255
207 228 255
207 228 255
207 228 255
207 228 255
207 228 255
207 228 255
207 228 255
207 228 255
207 228 255
207 228 255
207 228 255
207 228 255
207 228 255
207 227 255
207 227 255
207 227 255
207 227 255
207 227 255
206 227 255
206 227 255
206 227 255
206 227 255
206 227 255
206 227 255
206 227 255
206 227 255
206 227 255
206 227 255
206 227 255
206 227 255
206 227 255
206 227 255
206 227 255
206 227 255
206 227 255
206 227 255
206 227 255
206 227 255
206 227 255
206 227 255
206 227 255
206 227 255
206 227 255
206 227 255
206 227 255
205 227 255
205 227 255
205 227 255
205 227 255
205 227 255
205 227 255
205 227 255
205 227 255
205 227 255
205 227 255
205 227 255
205 227 255
205 227 255
205 227 255
205 227 255
205 227 255
205 227 255
205 227 255
205 227 255
205 227 255
205 227 255
205 227 255
205 227 255
205 227 255
204 226 255
202 224 254
197 218 250
200 222 252
203 225 254
202 224 254
205 227 255
205 227 255
205 227 255
205 227 255
205 227 255
205 227 255
205 227 255
205 227 255
205 227 255
205 227 255
205 227 255
205 227 255
205 227 255
205 227 255
205 227 255
205 227 255
205 227 255
205 227 255
205 227 255
205 227 255
205 227 255
205 227 255
205 227 255
205 227 255
206 227 255
206 227 255
206 227 255
206 227 255
206 227 255
206 227 255
206 227 255
206 227 255
206 227 255
206 227 255
206 227 255
206 227 255
206 227 255
206 227 255
206 227 255
206 227 255
206 227 255
206 227 255
206 227 255
206 227 255
206 227 255
206 227 255
206 227 255
206 227 255
206 227 255
206 227 255
206 227 255
207 227 255
207 227 255
207 227 255
207 227 255
207 227 255
207 227 255
207 228 255
207 228 255
207 228 255
207 228 255
207 228 255
207 228 255
207 228 255
207 228 255
207 228 255
207 228 255
207 228 255
207 228 255
207 228 255
207 228 255
208 228 255
208 228 255
208 228 255
208 228 255
208 228 255
208 228 255
208 228 255
208 228 255
208 228 255
208 228 255
208 228 255
208 228 255
208 228 255
208 228 255
208 228 255
202 221 245
177 188 194
146 148 122
130 128 85
132 131 87
130 129 86
129 127 85
138 136 91
142 140 94
142 141 94
134 133 90
147 145 97
143 143 96
149 147 99
138 138 93
145 144 97
143 141 95
141 140 94
145 144 97
145 144 97
140 139 93
138 137 92
144 143 96
143 141 95
148 146 98
151 149 100
148 146 98
150 150 101
139 138 93
145 143 96
154 153 103
144 143 96
152 150 101
148 148 99
142 140 94
150 148 99
151 150 101
155 153 103
152 150 101
156 155 104
149 147 99
153 152 102
153 151 101
154 152 101
156 154 103
156 154 103
153 151 101
156 153 102
152 149 99
153 151 101
149 147 97
157 155 103
154 152 101
147 146 97
148 146 97
155 153 103
157 155 103
158 155 103
151 148 99
152 148 97
149 146 97
145 143 94
153 151 100
158 154 101
157 154 102
153 150 100
147 145 96
149 147 98
149 146 97
144 142 95
147 144 93
151 147 95
142 139 90
145 143 94
154 150 97
147 145 96
150 146 97
158 154 102
146 142 93
143 140 92
147 144 94
149 146 95
145 142 93
150 146 94
152 148 96
156 151 99
151 147 97
149 146 93
155 151 96
146 140 89
160 155 101
140 135 87
146 142 91
148 144 93
140 137 87
139 136 88
143 139 87
139 135 88
134 131 83
151 147 96
146 142 90
146 142 91
142 138 88
139 136 89
138 134 86
142 138 88
132 129 84
146 141 88
126 124 80
139 135 84
140 136 86
173 193 219
175 195 221
179 200 227
179 200 228
179 200 227
179 200 228
179 200 228
179 200 228
179 200 228
178 199 228
178 200 228
177 199 228
176 199 228
176 198 228
176 199 228
176 199 228
176 199 228
175 198 228
175 198 228
175 198 228
174 198 228
174 197 228
173 197 228
173 197 228
173 197 228
173 197 228
173 197 228
172 196 228
172 197 228
172 196 228
171 196 228
171 196 228
171 196 228
171 196 228
171 196 228
170 196 228
170 195 228
170 196 228
170 196 228
170 195 228
169 195 228
170 195 228
169 195 228
168 194 228
168 195 228
169 195 228
169 195 228
168 195 228
167 194 228
167 194 228
166 194 228
167 194 228
166 194 228
167 194 228
166 194 228
167 194 228
166 193 228
166 193 228
165 193 228
165 193 228
165 193 228
165 193 228
165 193 228
165 193 228
164 193 228
164 193 228
164 193 228
164 192 228
164 192 228
164 192 228
164 192 228
164 192 228
164 192 228
163 192 228
163 192 228
164 192 228
163 192 228
163 192 228
163 192 228
163 192 228
163 192 228
163 192 228
163 192 228
163 192 228
163 192 228
163 192 228
163 192 228
163 192 228
164 192 228
163 192 228
164 192 228
164 192 228
164 193 228
164 193 228
164 193 228
165 193 228
165 193 228
165 193 228
167 194 228
166 194 228
166 194 228
167 194 228
168 194 228
170 195 228
169 194 227
169 194 226
168 192 224
163 186 216
160 182 211
158 179 207
152 171 195
183 202 227
206 226 253
208 228 255
208 228 255
208 228 255
208 228 255
208 228 255
208 228 255
208 228 255
208 228 255
208 228 255
208 228 255
208 228 255
208 228 255
208 228 255
208 228 255
208 228 255
208 228 255
208 228 255
207 228 255
207 228 255
207 228 255
207 228 255
207 228 255
207 228 255
207 228 255
207 228 255
207 228 255
207 228 255
207 228 255
207 228 255
207 228 255
207 228 255
207 228 255
207 228 255
207 227 255
207 227 255
207 227 255
207 227 255
207 227 255
207 227 255
206 227 255
206 227 255
206 227 255
206 227 255
206 227 255
206 227 255
206 227 255
206 227 255
206 227 255
206 227 255
206 227 255
206 227 255
206 227 255
206 227 255
206 227 255
206 227 255
206 227 255
206 227 255
206 227 255
206 227 255
206 227 255
206 227 255
206 227 255
206 227 255
206 227 255
206 227 255
206 227 255
206 227 255
206 227 255
206 227 255
206 227 255
206 227 255
206 227 255
206 227 255
205 227 255
205 227 255
205 227 255
203 224 253
195 216 248
157 179 223
150 174 220
131 156 208
112 139 198
98 127 191
76 109 184
62 99 179
62 99 176
62 99 179
62 99 175
61 98 175
62 99 180
78 111 181
93 123 191
124 149 203
130 155 207
145 169 216
173 195 234
193 214 246
203 224 254
205 227 255
205 227 255
205 227 255
206 227 255
206 227 255
206 227 255
206 227 255
206 227 255
206 227 255
206 227 255
206 227 255
206 227 255
206 227 255
206 227 255
206 227 255
206 227 255
206 227 255
206 227 255
206 227 255
206 227 255
206 227 255
206 227 255
206 227 255
206 227 255
206 227 255
206 227 255
206 227 255
206 227 255
206 227 255
206 227 255
206 227 255
206 227 255
206 227 255
206 227 255
206 227 255
206 227 255
206 227 255
207 227 255
207 227 255
207 227 255
207 227 255
207 227 255
207 227 255
207 228 255
207 228 255
207 228 255
207 228 255
207 228 255
207 228 255
207 228 255
207 228 255
207 228 255
207 228 255
207 228 255
207 228 255
207 228 255
207 228 255
207 228 255
207 228 255
208 228 255
208 228 255
208 228 255
208 228 255
208 228 255
208 228 255
208 228 255
208 228 255
208 228 255
208 228 255
208 228 255
208 228 255
208 228 255
208 228 255
208 228 255
208 228 255
208 228 255
207 226 252
174 186 195
146 145 103
136 134 89
138 136 91
143 141 94
146 144 97
144 142 95
138 138 93
143 142 95
142 141 95
138 136 91
145 143 96
148 147 99
148 146 98
137 136 91
144 143 96
136 135 90
147 146 98
145 143 97
149 147 98
143 143 96
143 142 96
147 146 98
152 151 102
145 143 96
155 154 103
154 152 102
155 154 104
153 151 101
158 157 105
149 147 99
151 149 100
155 154 103
148 146 98
155 153 102
148 146 98
150 149 100
153 151 101
149 147 99
149 147 99
155 153 103
153 152 102
150 147 97
146 144 96
158 155 104
161 158 105
155 153 102
147 145 97
154 151 100
156 154 103
152 150 101
142 140 94
156 154 103
154 152 102
144 142 94
153 150 99
153 150 99
161 158 104
156 153 101
148 146 97
157 155 102
157 155 104
156 152 100
149 146 97
149 146 97
150 147 97
153 150 99
153 151 99
158 155 101
147 143 95
149 147 97
146 142 94
148 145 94
160 156 100
151 148 97
148 145 95
159 155 101
154 151 99
154 152 99
155 152 99
146 143 93
154 150 97
152 148 97
153 150 98
149 147 95
145 141 93
146 143 95
149 145 93
147 143 91
146 142 90
151 147 95
143 139 90
145 141 92
149 146 94
150 146 94
152 148 97
150 146 95
155 151 97
138 134 87
147 143 92
150 146 94
144 139 89
150 145 93
132 129 80
147 144 92
145 141 90
148 145 93
143 139 90
142 137 86
148 144 93
150 144 92
150 145 92
181 201 228
179 200 227
180 201 228
180 201 228
179 200 228
179 200 228
178 200 228
178 200 228
177 199 228
177 199 228
177 199 228
177 199 228
177 199 228
177 199 228
177 199 228
176 199 228
176 199 228
176 199 228
175 198 228
175 198 228
174 198 228
174 197 228
174 198 228
174 198 228
174 198 228
173 197 228
173 197 228
173 197 228
172 197 228
171 196 228
172 196 228
171 196 228
171 196 228
171 196 228
170 196 228
170 196 228
170 196 228
169 195 228
170 195 228
169 195 228
169 195 228
169 195 228
169 195 228
169 195 228
168 195 228
168 194 228
169 195 228
168 194 228
167 194 228
167 194 228
167 194 228
167 194 228
166 194 228
166 194 228
167 194 228
166 194 228
166 193 228
166 193 228
165 193 228
166 193 228
165 193 228
165 193 228
165 193 228
165 193 228
164 192 228
164 192 228
164 193 228
164 192 228
164 192 228
164 192 228
164 192 228
164 192 228
164 192 228
164 192 228
163 192 228
163 192 228
163 192 228
163 192 228
163 192 228
163 192 228
163 192 228
163 192 228
163 192 228
163 192 228
163 192 228
163 192 228
163 192 228
163 192 228
163 192 228
163 192 228
163 192 228
163 192 228
164 192 228
164 192 228
164 192 228
165 193 228
164 193 228
165 193 228
165 193 228
165 193 228
166 194 228
166 194 228
167 194 228
167 194 228
168 194 228
170 195 228
170 195 228
170 195 227
169 193 225
162 185 216
164 186 216
161 182 209
156 175 200
185 204 229
208 228 255
208 228 255
208 228 255
208 228 255
208 228 255
208 228 255
208 228 255
208 228 255
208 228 255
208 228 255
208 228 255
208 228 255
208 228 255
208 228 255
208 228 255
208 228 255
208 228 255
208 228 255
208 228 255
208 228 255
208 228 255
207 228 255
207 228 255
207 228 255
207 228 255
207 228 255
207 228 255
207 228 255
207 228 255
207 228 255
207 228 255
207 228 255
207 228 255
207 228 255
207 228 255
207 228 255
207 228 255
207 228 255
207 227 255
207 227 255
207 227 255
207 227 255
207 227 255
207 227 255
206 227 255
206 227 255
206 227 255
206 227 255
206 227 255
206 227 255
206 227 255
206 227 255
206 227 255
206 227 255
206 227 255
206 227 255
206 227 255
206 227 255
206 227 255
206 227 255
206 227 255
206 227 255
206 227 255
206 227 255
206 227 255
206 227 255
206 227 255
206 227 255
206 227 255
206 227 255
206 227 255
205 226 255
188 210 243
148 171 217
105 133 194
68 103 178
62 99 174
62 99 174
62 99 176
62 99 176
62 99 177
62 99 178
61 98 175
61 98 171
62 99 168
62 99 176
61 98 172
62 98 175
62 99 175
63 99 177
63 99 174
63 99 174
63 99 178
63 100 178
62 99 175
62 99 177
73 107 181
96 125 189
140 164 212
182 204 239
203 224 254
206 227 255
206 227 255
206 227 255
206 227 255
206 227 255
206 227 255
206 227 255
206 227 255
206 227 255
206 227 255
206 227 255
206 227 255
206 227 255
206 227 255
206 227 255
206 227 255
206 227 255
206 227 255
206 227 255
206 227 255
206 227 255
206 227 255
206 227 255
206 227 255
206 227 255
206 227 255
206 227 255
207 227 255
207 227 255
207 227 255
207 227 255
207 227 255
207 227 255
207 228 255
207 228 255
207 228 255
207 228 255
207 228 255
207 228 255
207 228 255
207 228 255
207 228 255
207 228 255
207 228 255
207 228 255
207 228 255
207 228 255
207 228 255
207 228 255
207 228 255
208 228 255
208 228 255
208 228 255
208 228 255
208 228 255
208 228 255
208 228 255
208 228 255
208 228 255
208 228 255
208 228 255
208 228 255
208 228 255
208 228 255
208 228 255
208 228 255
208 228 255
208 228 255
208 228 255
208 228 255
209 228 255
184 197 205
141 143 124
140 138 93
126 124 83
131 129 86
141 140 94
137 135 90
139 138 93
140 139 93
149 147 98
138 136 91
140 139 93
146 145 97
149 148 100
151 150 101
143 142 95
151 149 100
146 144 97
146 145 97
139 137 92
147 147 99
150 149 100
144 143 96
150 149 100
145 143 96
148 146 98
154 153 103
146 145 97
152 151 102
152 150 100
153 152 102
152 150 101
161 159 106
149 148 99
154 151 101
150 148 99
150 149 100
150 149 99
149 146 97
150 148 99
154 152 101
149 147 99
157 155 103
160 157 105
153 150 100
151 149 99
160 157 103
156 153 103
159 155 103
150 148 99
162 158 105
160 156 103
161 158 104
157 153 101
151 148 99
152 148 97
153 150 99
149 147 97
149 146 96
153 151 100
155 153 101
158 155 103
154 152 101
153 150 98
156 152 99
146 143 94
154 152 101
158 156 103
146 143 94
163 158 103
155 151 98
156 152 100
157 153 100
150 147 97
154 150 96
157 153 101
150 147 95
155 152 100
151 147 94
153 148 97
155 152 99
156 152 100
142 139 90
157 152 98
155 151 95
147 143 93
154 150 97
149 145 93
151 148 97
156 153 99
155 150 97
145 142 93
151 147 95
144 141 90
146 143 91
151 147 93
144 140 90
152 148 97
138 135 86
151 147 94
144 140 90
147 143 94
151 147 96
141 137 90
148 145 95
143 140 90
147 142 88
149 144 91
144 140 90
146 141 92
130 127 80
139 135 86
142 138 87
143 139 90
180 201 228
180 201 228
179 200 228
180 201 228
178 200 228
179 200 228
179 200 228
178 200 228
178 200 228
177 199 228
176 199 228
176 199 228
175 198 228
177 199 228
176 198 228
176 199 228
175 198 228
175 198 228
175 198 228
175 198 228
175 198 228
173 197 228
174 198 228
174 198 228
173 197 228
172 197 228
172 197 228
173 197 228
173 197 228
172 197 228
172 196 228
171 196 228
171 196 228
171 196 228
171 196 228
171 196 228
170 195 228
170 195 228
171 196 228
170 195 228
169 195 228
169 195 228
169 195 228
169 195 228
168 195 228
168 194 228
169 195 228
168 194 228
167 194 228
167 194 228
167 194 228
167 194 228
166 194 228
166 193 228
166 193 228
166 193 228
166 193 228
166 193 228
166 193 228
165 193 228
165 193 228
165 193 228
165 193 228
164 193 228
164 193 228
165 193 228
164 192 228
164 192 228
164 192 228
164 192 228
164 192 228
164 192 228
163 192 228
163 192 228
163 192 228
163 192 228
163 192 228
163 192 228
163 192 228
163 192 228
163 192 228
163 192 228
163 192 228
163 192 228
163 192 228
163 192 228
163 192 228
163 192 228
163 192 228
163 192 228
163 192 228
163 192 228
163 192 228
163 192 228
163 192 228
164 192 228
164 192 228
164 192 228
164 193 228
165 193 228
165 193 228
166 193 228
166 193 228
167 194 228
167 194 228
167 194 228
169 195 228
169 195 228
170 196 228
170 195 227
170 194 226
162 184 213
160 181 209
155 175 202
160 178 203
189 208 233
209 229 255
209 229 255
209 228 255
208 228 255
208 228 255
208 228 255
208 228 255
208 228 255
208 228 255
208 228 255
208 228 255
208 228 255
208 228 255
208 228 255
208 228 255
208 228 255
208 228 255
208 228 255
208 228 255
208 228 255
208 228 255
208 228 255
208 228 255
208 228 255
208 228 255
207 228 255
207 228 255
207 228 255
207 228 255
207 228 255
207 228 255
207 228 255
207 228 255
207 228 255
207 228 255
207 228 255
207 228 255
207 228 255
207 228 255
207 228 255
207 228 255
207 228 255
207 228 255
207 227 255
207 227 255
207 227 255
207 227 255
207 227 255
207 227 255
207 227 255
206 227 255
206 227 255
206 227 255
206 227 255
206 227 255
206 227 255
206 227 255
206 227 255
206 227 255
206 227 255
206 227 255
206 227 255
206 227 255
206 227 255
206 227 255
206 227 255
200 222 252
167 189 229
127 152 206
83 114 181
62 99 177
62 99 179
62 99 175
62 98 171
62 99 175
63 100 179
62 99 178
62 99 178
62 99 177
62 99 175
62 99 176
62 99 177
61 98 172
62 98 173
62 99 171
63 99 174
62 99 170
62 99 178
63 99 173
62 99 175
62 99 174
62 99 171
62 99 173
62 99 174
63 99 174
62 98 175
62 99 176
62 98 175
78 110 181
118 143 199
173 195 232
200 222 252
206 227 255
206 227 255
206 227 255
206 227 255
206 227 255
206 227 255
206 227 255
206 227 255
206 227 255
206 227 255
206 227 255
206 227 255
206 227 255
206 227 255
206 227 255
206 227 255
207 227 255
207 227 255
207 227 255
207 227 255
207 227 255
207 227 255
207 227 255
207 228 255
207 228 255
207 228 255
207 228 255
207 228 255
207 228 255
207 228 255
207 228 255
207 228 255
207 228 255
207 228 255
207 228 255
207 228 255
207 228 255
207 228 255
207 228 255
207 228 255
207 228 255
207 228 255
208 228 255
208 228 255
208 228 255
208 228 255
208 228 255
208 228 255
208 228 255
208 228 255
208 228 255
208 228 255
208 228 255
208 228 255
208 228 255
208 228 255
208 228 255
208 228 255
208 228 255
208 228 255
208 228 255
208 228 255
208 228 255
209 228 255
209 229 255
209 229 255
182 197 212
135 137 117
133 131 87
142 140 94
132 131 88
136 133 89
150 148 100
140 138 93
136 135 90
136 134 90
136 135 91
149 147 99
141 140 94
144 144 97
137 136 92
154 153 103
141 140 94
155 154 103
138 137 92
143 142 95
143 142 95
149 147 98
149 149 100
138 137 92
147 145 97
152 149 99
154 153 103
149 147 99
156 154 103
146 144 97
156 155 104
149 147 99
148 146 98
148 146 98
149 148 99
153 151 101
153 151 101
154 152 102
156 155 104
146 145 97
149 147 98
148 145 97
157 155 104
157 154 103
156 152 101
154 152 102
156 154 103
156 153 102
158 155 104
152 150 100
157 155 103
157 154 103
157 155 103
158 155 103
155 153 103
157 155 103
151 149 99
147 145 97
159 156 103
156 153 101
161 157 104
150 147 97
149 147 97
154 150 99
155 152 99
150 147 97
149 146 97
149 147 97
148 144 95
151 149 97
154 151 100
160 156 103
148 145 95
156 153 101
158 154 100
156 153 101
158 155 103
163 160 105
152 149 97
153 150 97
150 146 96
155 151 99
150 146 95
148 144 93
156 152 98
148 144 93
145 142 93
156 152 97
156 153 99
156 152 99
151 148 95
146 143 93
151 147 95
150 146 95
146 142 91
148 145 94
155 151 95
156 152 95
153 148 95
148 144 91
148 145 93
152 147 90
153 148 96
150 146 94
149 145 92
161 155 99
145 141 87
147 143 93
138 135 85
136 132 85
147 143 88
145 141 87
146 143 92
153 149 95
131 127 80
144 139 87
181 201 228
180 201 228
179 200 228
180 201 228
178 200 228
180 201 228
179 200 228
178 200 228
178 199 228
179 200 228
177 199 228
177 199 228
177 199 228
176 199 228
175 198 228
175 198 228
175 198 228
175 198 228
175 198 228
175 198 228
175 198 228
174 198 228
173 197 228
173 197 228
173 197 228
173 197 228
173 197 228
172 197 228
173 197 228
172 197 228
171 196 228
172 197 228
171 196 228
172 196 228
171 196 228
172 196 228
171 196 228
170 195 228
170 196 228
170 196 228
170 195 228
169 195 228
169 195 228
169 195 228
169 195 228
169 195 228
168 194 228
168 194 228
167 194 228
167 194 228
167 194 228
167 194 228
167 194 228
167 194 228
166 194 228
166 193 228
166 194 228
166 194 228
166 193 228
165 193 228
165 193 228
165 193 228
165 193 228
165 193 228
164 193 228
165 193 228
164 193 228
164 192 228
164 192 228
164 192 228
164 192 228
164 192 228
164 192 228
163 192 228
163 192 228
163 192 228
163 192 228
163 192 228
163 192 228
163 192 228
163 192 228
163 192 228
163 192 228
163 192 228
163 192 228
163 192 228
163 192 228
163 192 228
163 192 228
163 192 228
163 192 228
163 192 228
163 192 228
163 192 228
163 192 228
163 192 228
163 192 228
164 192 228
164 192 228
164 193 228
164 193 228
165 193 228
165 193 228
165 193 228
166 193 228
167 194 228
167 194 228
168 194 228
168 195 228
170 195 228
170 195 228
170 195 227
170 194 225
163 185 214
158 179 207
148 167 192
162 179 203
205 225 252
209 229 255
209 229 255
209 229 255
209 229 255
209 229 255
209 228 255
209 228 255
208 228 255
208 228 255
208 228 255
208 228 255
208 228 255
208 228 255
208 228 255
208 228 255
208 228 255
208 228 255
208 228 255
208 228 255
208 228 255
208 228 255
208 228 255
208 228 255
208 228 255
208 228 255
208 228 255
208 228 255
208 228 255
207 228 255
207 228 255
207 228 255
207 228 255
207 228 255
207 228 255
207 228 255
207 228 255
207 228 255
207 228 255
207 228 255
207 228 255
207 228 255
207 228 255
207 228 255
207 228 255
207 228 255
207 228 255
207 228 255
207 228 255
207 227 255
207 227 255
207 227 255
207 227 255
207 227 255
207 227 255
207 227 255
207 227 255
207 227 255
206 227 255
206 227 255
206 227 255
206 227 255
205 226 255
188 209 242
130 155 207
76 109 180
62 99 174
61 98 174
61 98 175
61 98 170
62 99 172
61 98 171
63 99 174
63 99 173
61 98 170
62 98 172
61 98 172
62 99 174
62 98 172
62 99 175
62 99 176
62 99 174
62 99 173
63 99 175
62 99 173
62 98 173
61 97 164
62 99 173
63 100 178
62 99 174
63 99 173
62 98 169
62 98 173
62 99 174
61 98 173
62 98 171
62 99 175
62 99 177
62 98 174
62 99 177
78 111 179
146 169 216
184 205 239
206 227 255
206 227 255
206 227 255
206 227 255
206 227 255
207 227 255
207 227 255
207 227 255
207 227 255
207 227 255
207 227 255
207 227 255
207 227 255
207 228 255
207 228 255
207 228 255
207 228 255
207 228 255
207 228 255
207 228 255
207 228 255
207 228 255
207 228 255
207 228 255
207 228 255
207 228 255
207 228 255
207 228 255
207 228 255
207 228 255
207 228 255
207 228 255
207 228 255
207 228 255
208 228 255
208 228 255
208 228 255
208 228 255
208 228 255
208 228 255
208 228 255
208 228 255
208 228 255
208 228 255
208 228 255
208 228 255
208 228 255
208 228 255
208 228 255
208 228 255
208 228 255
208 228 255
208 228 255
208 228 255
208 228 255
208 228 255
209 228 255
209 229 255
209 229 255
209 229 255
209 229 255
209 229 255
197 215 235
139 146 141
131 128 86
132 130 87
134 132 87
135 133 89
137 136 91
148 146 98
142 140 94
147 146 98
134 133 89
139 138 92
139 137 92
151 150 101
144 143 97
139 138 93
144 143 97
154 153 103
140 139 93
156 155 103
146 144 96
150 149 100
148 147 99
155 153 103
148 146 98
146 145 98
152 151 102
146 144 97
158 156 105
156 153 102
155 153 102
155 154 103
156 154 103
157 155 104
149 147 99
152 150 100
160 157 105
155 152 102
157 154 103
156 154 103
150 148 99
153 151 101
154 151 101
159 157 105
154 152 101
158 154 103
153 151 101
158 155 103
153 151 101
154 151 99
164 161 107
153 151 101
157 155 104
162 159 106
157 155 103
162 159 105
157 154 102
159 156 103
156 153 101
157 154 102
163 160 105
157 154 102
154 150 99
155 153 101
151 148 98
158 155 103
154 151 99
153 150 99
159 155 101
160 156 103
157 154 103
153 150 97
160 156 103
165 161 104
155 151 99
158 154 101
160 156 103
152 149 95
158 154 101
153 149 98
156 152 99
159 155 102
146 143 93
154 150 97
152 149 97
157 152 98
156 152 99
162 158 101
157 153 100
153 149 97
147 143 93
144 140 91
148 144 93
159 154 99
155 151 97
154 149 96
151 148 96
159 154 98
141 137 85
151 147 93
159 155 96
157 153 98
150 146 93
144 141 91
153 149 98
139 136 84
146 141 90
141 137 87
140 136 85
143 140 85
153 149 93
151 147 91
138 135 84
147 143 90
148 144 93
145 141 90
148 144 91
152 147 95
180 201 228
180 201 228
179 200 228
179 201 228
179 201 228
178 200 228
178 200 228
179 200 228
178 200 228
178 200 228
177 199 228
177 199 228
176 199 228
176 199 228
176 199 228
176 198 228
175 198 228
175 198 228
175 198 228
174 198 228
175 198 228
174 198 228
175 198 228
173 197 228
174 198 228
173 197 228
173 197 228
173 197 228
173 197 228
172 196 228
173 197 228
172 196 228
172 196 228
171 196 228
171 196 228
171 196 228
170 196 228
170 196 228
171 196 228
170 196 228
170 196 228
169 195 228
169 195 228
170 195 228
169 195 228
169 195 228
168 195 228
168 194 228
168 195 228
168 194 228
168 194 228
168 194 228
168 194 228
167 194 228
167 194 228
166 194 228
166 193 228
166 193 228
165 193 228
166 193 228
166 193 228
166 193 228
166 193 228
165 193 228
165 193 228
164 193 228
164 193 228
164 193 228
164 192 228
164 192 228
164 192 228
164 192 228
164 192 228
164 192 228
164 192 228
163 192 228
163 192 228
163 192 228
163 192 228
163 192 228
163 192 228
163 192 228
163 192 228
163 192 228
163 192 228
163 192 228
163 192 228
163 192 228
163 192 228
163 192 228
163 192 228
163 192 228
163 192 228
163 192 228
163 192 228
163 192 228
163 192 228
164 192 228
164 192 228
164 192 228
164 192 228
164 193 228
165 193 228
165 193 228
166 193 228
166 193 228
166 193 228
166 194 228
167 194 228
168 194 228
168 195 228
170 196 228
171 196 228
170 194 226
170 193 224
161 183 212
155 175 202
155 174 199
177 195 220
206 225 251
209 229 255
209 229 255
209 229 255
209 229 255
209 229 255
209 229 255
209 229 255
209 229 255
209 228 255
209 228 255
208 228 255
208 228 255
208 228 255
208 228 255
208 228 255
208 228 255
208 228 255
208 228 255
208 228 255
208 228 255
208 228 255
208 228 255
208 228 255
208 228 255
208 228 255
208 228 255
208 228 255
208 228 255
208 228 255
208 228 255
208 228 255
208 228 255
208 228 255
207 228 255
207 228 255
207 228 255
207 228 255
207 228 255
207 228 255
207 228 255
207 228 255
207 228 255
207 228 255
207 228 255
207 228 255
207 228 255
207 228 255
207 228 255
207 228 255
207 228 255
207 228 255
207 228 255
207 228 255
207 228 255
207 228 255
207 228 255
207 228 255
205 226 254
166 188 228
102 130 190
62 98 174
62 99 177
62 99 176
62 99 178
62 99 174
62 99 174
62 98 173
61 98 173
63 100 177
63 99 176
62 99 174
62 99 171
62 99 170
61 98 173
62 99 172
62 98 171
62 99 170
62 98 171
62 99 172
62 98 167
62 99 169
62 98 168
62 98 167
61 98 173
62 99 174
62 99 173
62 99 172
62 99 173
62 99 168
62 99 173
62 99 173
62 99 171
62 99 174
63 99 175
62 98 173
61 97 168
62 99 170
61 98 176
62 98 175
62 98 172
98 125 185
166 188 228
205 226 254
207 228 255
207 228 255
207 228 255
207 228 255
207 228 255
207 228 255
207 228 255
207 228 255
207 228 255
207 228 255
207 228 255
207 228 255
207 228 255
207 228 255
207 228 255
207 228 255
207 228 255
207 228 255
207 228 255
207 228 255
207 228 255
207 228 255
207 228 255
207 228 255
207 228 255
208 228 255
208 228 255
208 228 255
208 228 255
208 228 255
208 228 255
208 228 255
208 228 255
208 228 255
208 228 255
208 228 255
208 228 255
208 228 255
208 228 255
208 228 255
208 228 255
208 228 255
208 228 255
208 228 255
208 228 255
208 228 255
208 228 255
209 228 255
209 228 255
209 229 255
209 229 255
209 229 255
209 229 255
209 229 255
209 229 255
209 229 255
209 229 255
207 226 253
178 190 196
134 132 90
132 129 86
125 123 83
139 137 91
149 148 99
139 137 92
138 136 91
130 130 88
145 144 97
144 143 95
141 140 94
142 141 95
144 143 96
135 134 90
144 143 96
146 144 96
152 151 102
152 150 101
151 150 101
150 149 100
147 146 98
148 146 98
153 150 100
158 156 104
149 148 99
155 153 103
145 144 97
150 148 100
151 150 101
148 146 98
156 154 103
152 150 101
158 155 104
154 152 101
156 154 103
159 157 105
152 150 101
149 147 98
154 152 102
147 145 97
156 153 102
155 153 103
160 157 105
159 157 105
159 157 105
162 160 108
160 156 104
157 154 103
160 156 103
155 152 101
161 158 104
160 157 103
157 155 103
153 150 100
152 149 99
155 153 102
159 156 102
167 163 107
156 154 101
152 150 99
152 149 99
154 152 101
160 157 104
156 154 102
160 156 102
150 149 97
148 145 95
161 158 105
158 155 101
153 150 98
158 155 103
163 159 104
153 149 97
158 155 103
152 148 97
162 159 105
161 157 104
154 152 101
148 145 94
163 159 103
157 153 101
158 155 102
158 154 99
149 146 95
149 146 94
156 153 99
153 150 97
158 154 101
144 141 90
155 150 96
147 143 92
148 145 93
150 145 95
151 148 96
155 150 95
143 140 93
152 148 93
159 156 100
155 151 97
150 147 95
148 144 93
156 152 95
156 151 96
153 149 95
149 145 91
152 149 95
150 146 93
150 145 93
158 153 98
149 144 92
142 137 84
141 136 87
148 143 90
139 136 87
153 149 96
144 140 85
154 148 96
140 136 85
180 201 228
180 201 228
180 201 228
179 200 228
179 200 228
179 200 228
178 199 228
177 199 228
178 200 228
177 199 228
177 199 228
177 199 228
176 198 228
176 199 228
176 199 228
176 199 228
176 199 228
175 198 228
175 198 228
174 198 228
174 198 228
174 198 228
174 198 228
175 198 228
174 197 228
174 198 228
173 197 228
174 198 228
172 197 228
172 197 228
172 196 228
171 196 228
172 197 228
172 196 228
171 196 228
171 196 228
171 196 228
171 196 228
170 195 228
170 196 228
170 196 228
170 195 228
169 195 228
169 195 228
169 195 228
169 195 228
169 195 228
168 194 228
168 194 228
168 194 228
168 194 228
167 194 228
167 194 228
167 194 228
167 194 228
167 194 228
166 193 228
166 194 228
166 193 228
166 194 228
166 194 228
166 194 228
166 193 228
165 193 228
165 193 228
165 193 228
165 193 228
165 193 228
164 193 228
164 193 228
165 193 228
164 192 228
164 192 228
164 192 228
163 192 228
164 192 228
163 192 228
163 192 228
163 192 228
163 192 228
163 192 228
163 192 228
163 192 228
163 192 228
163 192 228
163 192 228
163 192 228
163 192 228
163 192 228
163 192 228
163 192 228
163 192 228
163 192 228
163 192 228
163 192 228
163 192 228
163 192 228
163 192 228
163 192 228
164 192 228
164 192 228
164 192 228
165 193 228
164 193 228
165 193 228
165 193 228
166 193 228
166 193 228
166 193 228
167 194 228
168 194 228
169 195 228
169 195 228
170 196 228
170 195 227
170 195 226
168 191 220
161 182 211
150 170 195
161 180 204
199 218 244
209 229 255
209 229 255
209 229 255
209 229 255
209 229 255
209 229 255
209 229 255
209 229 255
209 229 255
209 229 255
209 229 255
209 229 255
209 229 255
209 228 255
208 228 255
208 228 255
208 228 255
208 228 255
208 228 255
208 228 255
208 228 255
208 228 255
208 228 255
208 228 255
208 228 255
208 228 255
208 228 255
208 228 255
208 228 255
208 228 255
208 228 255
208 228 255
208 228 255
208 228 255
208 228 255
208 228 255
208 228 255
208 228 255
207 228 255
207 228 255
207 228 255
207 228 255
207 228 255
207 228 255
207 228 255
207 228 255
207 228 255
207 228 255
207 228 255
207 228 255
207 228 255
207 228 255
207 228 255
207 228 255
203 224 253
155 178 222
100 128 191
62 98 174
62 99 175
63 99 171
61 98 171
62 98 175
61 98 174
62 98 168
61 98 173
62 98 168
62 99 174
61 98 168
62 98 176
62 99 170
62 99 176
62 98 167
62 98 173
62 98 169
61 97 167
62 98 173
63 99 172
62 99 168
63 99 175
62 99 170
62 98 166
61 98 170
62 99 171
62 99 171
61 98 174
62 99 172
63 99 172
62 99 170
62 99 175
62 98 169
63 99 173
62 98 172
62 99 170
62 98 169
61 98 169
62 99 173
61 97 166
62 99 173
63 99 177
62 99 175
62 98 170
87 117 184
160 182 222
205 226 254
207 228 255
207 228 255
207 228 255
207 228 255
207 228 255
207 228 255
207 228 255
207 228 255
207 228 255
207 228 255
207 228 255
207 228 255
207 228 255
207 228 255
207 228 255
208 228 255
208 228 255
208 228 255
208 228 255
208 228 255
208 228 255
208 228 255
208 228 255
208 228 255
208 228 255
208 228 255
208 228 255
208 228 255
208 228 255
208 228 255
208 228 255
208 228 255
208 228 255
208 228 255
208 228 255
208 228 255
208 228 255
208 228 255
208 228 255
208 228 255
209 228 255
209 229 255
209 229 255
209 229 255
209 229 255
209 229 255
209 229 255
209 229 255
209 229 255
209 229 255
209 229 255
209 229 255
209 229 255
209 229 255
195 212 232
153 156 135
142 140 93
133 131 87
127 125 84
143 141 94
138 137 92
148 146 97
145 144 97
135 134 90
136 135 91
138 136 91
143 141 95
137 136 91
151 150 101
146 144 97
141 141 95
148 147 100
147 146 98
148 148 100
149 148 99
142 141 95
147 146 97
149 148 99
156 154 103
147 145 97
157 156 105
148 146 97
151 150 101
152 150 101
154 153 103
154 152 101
158 156 104
156 154 103
159 157 105
157 156 104
161 160 107
159 157 104
157 155 104
154 153 102
164 161 108
162 159 106
153 151 101
155 153 102
157 155 103
157 154 103
151 148 99
157 154 103
157 154 103
156 154 103
162 158 104
152 149 99
157 155 104
156 152 101
155 152 101
153 151 100
160 158 105
161 158 105
160 157 104
155 153 101
160 157 104
151 149 99
156 153 101
161 158 104
153 150 99
162 158 103
162 159 106
148 146 97
164 160 106
159 155 101
149 147 95
153 150 98
151 148 97
167 164 108
152 149 99
156 153 101
164 160 104
152 149 95
155 153 99
160 156 103
157 153 99
156 153 99
160 155 101
153 150 99
154 150 98
161 157 101
161 157 101
156 153 100
158 155 101
162 159 102
159 155 101
153 149 94
150 146 92
159 155 99
157 153 100
145 141 91
155 152 99
156 152 98
149 145 94
151 148 95
151 148 96
152 148 95
151 147 94
159 154 98
152 148 93
152 149 95
153 148 92
151 147 95
145 141 89
155 151 95
155 151 98
149 145 91
146 142 91
152 147 90
155 150 95
150 145 92
150 145 93
148 145 93
138 135 82
158 153 97
149 143 89
180 201 228
180 201 228
179 200 228
180 201 228
179 200 228
178 200 228
178 200 228
178 200 228
177 199 228
178 200 228
177 199 228
177 199 228
176 199 228
177 199 228
176 199 228
176 199 228
175 198 228
175 198 228
175 198 228
175 198 228
174 198 228
175 198 228
173 197 228
175 198 228
174 198 228
174 197 228
174 197 228
173 197 228
172 197 228
173 197 228
172 196 228
171 196 228
172 196 228
172 197 228
171 196 228
171 196 228
171 196 228
171 196 228
170 196 228
170 195 228
169 195 228
171 196 228
170 195 228
170 196 228
169 195 228
169 195 228
168 195 228
169 195 228
168 194 228
168 195 228
168 194 228
168 195 228
167 194 228
168 194 228
167 194 228
167 194 228
167 194 228
167 194 228
166 194 228
166 194 228
166 193 228
166 193 228
166 193 228
165 193 228
165 193 228
165 193 228
165 193 228
165 193 228
165 193 228
164 193 228
165 193 228
164 193 228
164 193 228
164 192 228
164 192 228
164 192 228
164 192 228
164 192 228
163 192 228
163 192 228
163 192 228
163 192 228
163 192 228
163 192 228
163 192 228
163 192 228
163 192 228
163 192 228
163 192 228
163 192 228
163 192 228
163 192 228
163 192 228
163 192 228
163 192 228
163 192 228
163 192 228
163 192 228
163 192 228
164 192 228
163 192 228
164 192 228
164 192 228
164 192 228
164 193 228
165 193 228
166 193 228
165 193 228
166 193 228
166 194 228
167 194 228
168 194 228
168 194 228
169 195 228
170 195 228
171 196 228
171 195 227
168 191 221
167 190 219
152 172 198
147 166 190
178 196 221
208 227 254
209 229 255
209 229 255
209 229 255
209 229 255
209 229 255
209 229 255
209 229 255
209 229 255
209 229 255
209 229 255
209 229 255
209 229 255
209 229 255
209 229 255
209 229 255
209 229 255
209 228 255
209 228 255
208 228 255
208 228 255
208 228 255
208 228 255
208 228 255
208 228 255
208 228 255
208 228 255
208 228 255
208 228 255
208 228 255
208 228 255
208 228 255
208 228 255
208 228 255
208 228 255
208 228 255
208 228 255
208 228 255
208 228 255
208 228 255
208 228 255
208 228 255
208 228 255
208 228 255
208 228 255
208 228 255
207 228 255
207 228 255
207 228 255
207 228 255
207 228 255
207 228 255
174 196 231
92 121 186
61 98 174
62 98 167
62 99 173
62 99 173
62 98 168
62 98 171
62 98 172
63 99 174
62 98 173
61 98 171
61 98 172
62 99 171
62 99 172
61 97 165
62 98 172
62 99 169
62 98 171
63 99 172
62 98 169
62 99 176
63 99 174
62 98 171
62 98 163
62 98 171
62 98 168
63 99 171
62 98 168
61 97 167
61 98 167
61 98 162
61 98 169
61 97 164
62 99 171
62 98 170
62 99 170
62 98 165
62 99 172
62 98 168
61 98 170
62 98 170
62 99 172
62 99 173
61 97 167
62 98 169
61 98 170
62 99 172
62 99 174
61 97 168
102 129 188
178 199 234
207 228 255
207 228 255
207 228 255
207 228 255
207 228 255
207 228 255
208 228 255
208 228 255
208 228 255
208 228 255
208 228 255
208 228 255
208 228 255
208 228 255
208 228 255
208 228 255
208 228 255
208 228 255
208 228 255
208 228 255
208 228 255
208 228 255
208 228 255
208 228 255
208 228 255
208 228 255
208 228 255
208 228 255
208 228 255
208 228 255
208 228 255
208 228 255
208 228 255
209 228 255
209 229 255
209 229 255
209 229 255
209 229 255
209 229 255
209 229 255
209 229 255
209 229 255
209 229 255
209 229 255
209 229 255
209 229 255
209 229 255
209 229 255
209 229 255
209 229 255
209 229 255
207 226 252
159 168 167
126 124 85
133 131 87
129 127 85
138 135 90
147 144 96
152 150 100
147 145 97
139 138 92
141 141 96
141 140 94
146 143 96
144 143 96
147 146 98
144 143 97
147 145 96
141 140 94
144 142 95
152 151 101
148 147 99
149 148 100
153 151 102
152 150 100
147 146 98
146 145 97
151 149 101
149 148 99
149 147 99
155 153 102
153 152 102
153 151 101
151 149 100
154 152 102
157 154 103
159 157 105
160 157 105
155 153 102
154 152 101
155 154 103
161 158 105
159 156 104
162 159 106
153 151 101
158 156 105
163 160 106
160 158 105
165 161 107
162 158 105
162 159 106
158 155 103
159 155 103
162 160 107
163 159 104
161 157 104
160 157 104
157 153 101
155 154 103
149 147 98
159 156 104
163 160 106
153 149 97
161 156 103
161 158 104
156 153 100
159 156 102
156 153 100
161 157 103
168 164 108
157 154 101
165 161 106
166 161 105
159 156 103
157 154 102
154 150 99
156 154 102
162 158 103
152 149 98
162 158 103
156 152 99
160 156 101
160 156 103
161 157 102
161 157 103
154 149 95
156 154 99
159 155 99
159 155 99
160 156 102
158 154 101
161 157 102
155 151 96
156 153 100
157 152 99
159 155 97
158 154 98
151 146 94
157 152 99
160 156 99
165 161 103
156 151 95
150 146 94
146 142 93
148 144 93
146 142 90
158 154 96
155 151 97
152 147 93
146 143 92
148 145 90
146 142 90
157 153 99
145 141 91
139 135 85
151 147 91
153 148 94
153 148 91
146 141 86
154 150 95
155 150 97
147 144 85
140 136 85
147 143 87
181 201 228
180 201 228
180 201 228
179 200 228
179 200 228
179 200 228
178 200 228
179 200 228
178 199 228
177 199 228
178 200 228
176 199 228
178 199 228
177 199 228
176 199 228
176 198 228
176 199 228
176 199 228
175 198 228
175 198 228
175 198 228
175 198 228
174 198 228
174 198 228
174 198 228
174 198 228
174 198 228
173 197 228
173 197 228
173 197 228
173 197 228
172 197 228
172 197 228
172 196 228
172 196 228
172 197 228
171 196 228
171 196 228
171 196 228
171 196 228
171 196 228
170 196 228
170 196 228
170 195 228
170 195 228
169 195 228
170 195 228
169 195 228
169 195 228
169 195 228
168 195 228
168 195 228
168 194 228
168 194 228
167 194 228
167 194 228
167 194 228
167 194 228
167 194 228
167 194 228
167 194 228
166 194 228
166 194 228
166 193 228
166 193 228
166 193 228
166 193 228
165 193 228
165 193 228
164 193 228
165 193 228
165 193 228
165 193 228
164 193 228
164 192 228
164 192 228
164 192 228
164 192 228
164 192 228
164 192 228
163 192 228
163 192 228
163 192 228
163 192 228
163 192 228
163 192 228
163 192 228
163 192 228
163 192 228
163 192 228
163 192 228
163 192 228
163 192 228
163 192 228
163 192 228
163 192 228
163 192 228
163 192 228
163 192 228
163 192 228
164 192 228
164 192 228
164 192 228
164 192 228
164 193 228
164 193 228
165 193 228
165 193 228
165 193 228
166 193 228
166 194 228
167 194 228
167 194 228
168 195 228
169 195 228
169 195 228
170 196 228
172 197 228
173 197 228
167 190 220
159 180 208
157 177 203
164 182 206
200 219 245
209 229 255
209 229 255
209 229 255
209 229 255
209 229 255
209 229 255
209 229 255
209 229 255
209 229 255
209 229 255
209 229 255
209 229 255
209 229 255
209 229 255
209 229 255
209 229 255
209 229 255
209 229 255
209 229 255
209 229 255
209 229 255
209 229 255
209 228 255
208 228 255
208 228 255
208 228 255
208 228 255
208 228 255
208 228 255
208 228 255
208 228 255
208 228 255
208 228 255
208 228 255
208 228 255
208 228 255
208 228 255
208 228 255
208 228 255
208 228 255
208 228 255
208 228 255
208 228 255
208 228 255
208 228 255
208 228 255
208 228 255
208 228 255
196 217 247
123 148 199
62 98 175
62 98 172
62 99 177
61 98 172
62 99 177
61 98 173
61 98 169
62 98 164
61 98 167
61 98 169
62 99 176
61 97 163
61 98 170
62 99 173
62 99 168
62 98 168
61 98 170
62 98 166
62 98 165
62 98 169
62 98 165
61 97 164
61 97 159
62 99 172
62 98 164
62 99 166
62 99 170
62 99 169
62 99 170
61 98 163
62 99 172
62 98 174
63 99 172
61 97 157
61 97 164
62 99 173
63 99 173
62 99 174
62 99 172
62 98 169
61 98 167
61 97 166
62 98 172
62 98 164
62 98 169
62 98 166
61 98 171
62 99 171
62 98 168
62 97 171
62 98 172
61 97 170
129 152 197
194 215 245
208 228 255
208 228 255
208 228 255
208 228 255
208 228 255
208 228 255
208 228 255
208 228 255
208 228 255
208 228 255
208 228 255
208 228 255
208 228 255
208 228 255
208 228 255
208 228 255
208 228 255
208 228 255
208 228 255
208 228 255
208 228 255
208 228 255
208 228 255
208 228 255
208 228 255
209 228 255
209 229 255
209 229 255
209 229 255
209 229 255
209 229 255
209 229 255
209 229 255
209 229 255
209 229 255
209 229 255
209 229 255
209 229 255
209 229 255
209 229 255
209 229 255
209 229 255
209 229 255
209 229 255
209 229 255
209 229 255
209 229 255
209 229 255
201 218 240
151 155 138
127 125 82
137 134 89
134 132 88
147 145 97
137 136 91
132 130 87
139 138 93
138 136 92
143 141 95
137 136 91
144 142 96
129 128 86
145 144 96
142 141 96
147 145 97
152 150 101
143 142 96
143 141 95
144 143 96
145 145 98
149 147 99
151 150 100
149 148 100
156 154 103
156 154 103
158 156 104
147 146 98
159 157 105
150 148 100
157 155 103
151 148 99
159 157 104
152 151 101
162 159 106
151 150 101
163 160 107
157 155 103
162 160 106
161 158 105
161 159 106
165 161 106
155 153 102
157 154 103
158 155 103
160 158 105
160 157 104
163 159 106
156 153 101
154 152 101
158 155 101
164 161 108
163 160 106
160 157 104
157 155 104
155 153 100
162 158 103
162 158 104
158 155 103
166 162 107
162 159 105
164 161 106
154 151 98
164 160 104
158 155 102
163 160 106
163 159 104
159 154 99
160 157 103
157 153 101
156 152 98
159 156 101
163 159 104
153 149 97
160 155 99
159 155 101
167 162 104
162 159 104
157 153 99
164 160 105
157 154 102
157 154 101
159 155 103
158 153 99
154 151 97
148 145 96
160 156 100
154 150 97
153 149 97
154 151 97
146 143 90
161 156 102
145 142 92
162 158 102
155 151 96
152 147 95
153 149 96
153 148 94
157 152 97
158 153 98
159 154 98
153 149 93
154 149 93
158 155 101
160 156 101
148 144 90
151 147 93
155 150 97
148 144 93
150 146 92
151 147 95
152 148 95
155 151 97
154 150 95
155 151 97
142 139 90
151 147 94
149 145 88
150 146 87
154 149 95
146 141 91
148 144 91
142 138 86
180 201 228
180 201 228
179 200 228
178 200 228
179 200 228
179 200 228
178 200 228
178 200 228
179 200 228
177 199 228
178 199 228
177 199 228
176 199 228
178 199 228
176 199 228
176 198 228
176 199 228
177 199 228
176 199 228
176 199 228
175 198 228
174 197 228
175 198 228
174 198 228
174 198 228
173 197 228
173 197 228
173 197 228
174 198 228
173 197 228
174 197 228
174 197 228
172 197 228
172 197 228
173 197 228
172 196 228
171 196 228
171 196 228
171 196 228
171 196 228
171 196 228
170 195 228
171 196 228
170 196 228
170 196 228
169 195 228
169 195 228
168 195 228
169 195 228
169 195 228
168 195 228
168 195 228
168 194 228
168 195 228
168 194 228
168 194 228
168 194 228
168 194 228
167 194 228
167 194 228
167 194 228
167 194 228
166 193 228
166 194 228
166 194 228
166 194 228
166 193 228
165 193 228
165 193 228
165 193 228
165 193 228
165 193 228
165 193 228
165 193 228
164 193 228
164 192 228
165 193 228
164 192 228
164 192 228
164 192 228
164 192 228
164 192 228
164 192 228
164 192 228
163 192 228
163 192 228
163 192 228
163 192 228
163 192 228
163 192 228
163 192 228
163 192 228
163 192 228
163 192 228
163 192 228
163 192 228
163 192 228
163 192 228
163 192 228
163 192 228
164 192 228
164 192 228
164 192 228
164 192 228
164 192 228
164 193 228
165 193 228
165 193 228
165 193 228
166 193 228
166 193 228
166 193 228
167 194 228
167 194 228
168 195 228
169 195 228
169 195 228
170 196 228
172 197 228
172 197 228
172 196 226
169 191 220
165 186 214
154 172 196
189 207 232
210 229 255
210 229 255
210 229 255
210 229 255
210 229 255
209 229 255
209 229 255
209 229 255
209 229 255
209 229 255
209 229 255
209 229 255
209 229 255
209 229 255
209 229 255
209 229 255
209 229 255
209 229 255
209 229 255
209 229 255
209 229 255
209 229 255
209 229 255
209 229 255
209 229 255
209 229 255
209 229 255
209 229 255
209 228 255
208 228 255
208 228 255
208 228 255
208 228 255
208 228 255
208 228 255
208 228 255
208 228 255
208 228 255
208 228 255
208 228 255
208 228 255
208 228 255
208 228 255
208 228 255
208 228 255
208 228 255
158 180 222
67 102 178
61 98 172
61 97 173
62 99 171
62 98 170
62 99 172
62 98 170
62 99 174
62 98 172
62 98 170
62 99 177
62 98 166
62 98 168
62 99 175
62 98 170
62 99 172
62 99 167
62 99 169
63 99 170
61 98 162
62 98 166
62 98 164
61 97 165
62 98 167
62 98 169
63 99 171
62 98 167
63 99 167
62 98 164
62 98 167
62 98 170
61 97 162
61 97 164
62 98 169
61 98 166
62 99 168
62 98 166
61 97 164
63 99 173
62 99 173
61 98 170
62 98 169
61 98 165
62 98 165
62 98 169
62 98 171
62 98 172
62 98 169
62 98 170
61 98 167
62 98 169
62 98 171
62 98 170
62 97 171
61 97 173
76 108 178
165 187 224
205 225 254
208 228 255
208 228 255
208 228 255
208 228 255
208 228 255
208 228 255
208 228 255
208 228 255
208 228 255
208 228 255
208 228 255
208 228 255
208 228 255
208 228 255
208 228 255
208 228 255
209 228 255
209 229 255
209 229 255
209 229 255
209 229 255
209 229 255
209 229 255
209 229 255
209 229 255
209 229 255
209 229 255
209 229 255
209 229 255
209 229 255
209 229 255
209 229 255
209 229 255
209 229 255
209 229 255
209 229 255
209 229 255
209 229 255
209 229 255
209 229 255
209 229 255
210 229 255
210 229 255
210 229 255
210 229 255
182 195 206
135 135 106
135 132 87
134 132 87
144 142 95
143 140 94
148 146 98
140 139 93
140 138 92
143 141 95
147 145 98
144 142 96
149 148 100
138 137 93
139 138 93
148 147 99
140 139 94
150 148 100
151 150 101
154 153 103
151 149 100
147 145 97
157 154 103
150 150 101
162 161 108
154 152 102
148 146 98
155 153 102
151 149 100
157 155 104
165 162 108
157 155 103
155 153 102
160 157 105
152 151 101
152 149 99
156 154 103
155 153 102
155 153 103
161 158 106
161 159 106
163 159 106
158 156 104
162 160 107
168 165 109
158 155 103
158 155 103
156 153 101
154 151 101
161 157 104
163 160 106
163 160 106
164 160 105
164 159 104
163 159 104
163 160 106
161 158 104
163 159 105
162 160 107
165 161 106
160 155 101
162 159 104
163 160 104
160 156 103
156 153 100
165 161 104
161 158 103
157 155 99
163 159 105
161 158 103
164 160 106
160 157 101
162 158 103
162 157 101
155 152 100
161 158 102
162 158 101
155 151 99
163 158 102
157 153 99
154 151 99
159 155 101
157 155 100
165 161 105
159 155 99
158 155 102
155 151 98
164 160 105
156 153 97
162 158 102
159 155 99
159 153 97
156 151 99
159 155 99
154 149 95
153 149 94
153 149 97
156 152 95
153 148 93
148 144 90
156 151 96
146 142 91
157 153 96
156 152 96
150 147 93
152 148 93
150 145 90
161 156 99
152 146 91
161 156 100
152 148 94
153 149 95
156 151 93
149 143 90
151 147 91
150 146 93
152 146 92
158 154 98
155 150 95
152 147 91
150 146 91
148 144 88
160 154 95
154 151 94
144 139 87
181 201 228
180 201 228
180 201 228
180 201 228
179 200 228
178 200 228
179 200 228
179 200 228
178 200 228
178 200 228
178 200 228
178 199 228
177 199 228
177 199 228
176 199 228
176 199 228
176 199 228
175 198 228
175 198 228
177 199 228
176 199 228
175 198 228
175 198 228
174 198 228
175 198 228
175 198 228
174 198 228
174 198 228
174 197 228
173 197 228
173 197 228
173 197 228
173 197 228
172 197 228
172 197 228
172 197 228
172 196 228
172 197 228
172 196 228
171 196 228
171 196 228
171 196 228
171 196 228
171 196 228
170 195 228
169 195 228
170 195 228
169 195 228
170 195 228
170 196 228
169 195 228
168 195 228
168 195 228
168 194 228
168 194 228
168 194 228
168 194 228
168 194 228
168 194 228
168 194 228
167 194 228
167 194 228
166 194 228
166 194 228
167 194 228
167 194 228
166 193 228
165 193 228
166 193 228
166 193 228
165 193 228
165 193 228
165 193 228
165 193 228
165 193 228
164 193 228
165 193 228
165 193 228
164 193 228
164 193 228
165 193 228
164 193 228
164 192 228
164 192 228
164 192 228
164 192 228
164 192 228
163 192 228
164 192 228
164 192 228
163 192 228
163 192 228
163 192 228
163 192 228
163 192 228
163 192 228
163 192 228
163 192 228
163 192 228
164 192 228
164 192 228
164 192 228
164 192 228
164 192 228
164 192 228
164 193 228
165 193 228
165 193 228
165 193 228
165 193 228
166 193 228
166 194 228
167 194 228
167 194 228
168 194 228
168 194 228
169 195 228
169 195 228
170 196 228
171 196 228
172 197 228
171 194 224
167 189 218
163 183 211
153 170 194
173 190 214
207 226 252
210 229 255
210 229 255
210 229 255
210 229 255
210 229 255
210 229 255
210 229 255
210 229 255
210 229 255
209 229 255
209 229 255
209 229 255
209 229 255
209 229 255
209 229 255
209 229 255
209 229 255
209 229 255
209 229 255
209 229 255
209 229 255
209 229 255
209 229 255
209 229 255
209 229 255
209 229 255
209 229 255
209 229 255
209 229 255
209 229 255
209 229 255
209 229 255
209 229 255
209 228 255
209 228 255
209 228 255
208 228 255
208 228 255
208 228 255
208 228 255
208 228 255
208 228 255
202 222 251
113 139 197
61 98 172
62 98 174
61 98 169
61 97 169
62 98 174
61 98 171
61 97 167
60 97 163
62 99 173
61 97 163
62 98 167
62 98 168
62 99 175
62 99 171
62 99 168
63 99 168
62 98 162
61 98 168
62 98 169
62 99 169
63 99 166
63 99 167
62 99 170
62 98 170
63 100 176
62 98 169
62 98 168
62 99 167
62 98 170
62 98 164
62 99 170
62 99 170
62 98 165
63 99 169
61 97 163
62 98 166
62 98 168
62 98 168
62 98 169
61 96 158
62 98 168
63 99 169
62 99 170
61 97 166
62 98 167
61 97 170
61 97 164
61 97 164
62 97 164
61 97 166
62 98 169
62 98 172
62 98 171
62 98 169
61 96 162
61 96 166
61 96 168
61 97 165
117 142 196
199 219 248
208 228 255
208 228 255
208 228 255
208 228 255
208 228 255
208 228 255
209 228 255
209 228 255
209 229 255
209 229 255
209 229 255
209 229 255
209 229 255
209 229 255
209 229 255
209 229 255
209 229 255
209 229 255
209 229 255
209 229 255
209 229 255
209 229 255
209 229 255
209 229 255
209 229 255
209 229 255
209 229 255
209 229 255
209 229 255
209 229 255
209 229 255
209 229 255
209 229 255
210 229 255
210 229 255
210 229 255
210 229 255
210 229 255
210 229 255
210 229 255
210 229 255
210 229 255
206 225 250
174 182 176
137 134 89
140 138 92
136 134 89
140 138 92
139 137 91
142 141 95
145 143 96
144 142 95
132 131 89
145 143 96
149 147 99
153 151 101
150 148 100
145 143 96
146 144 97
145 143 97
140 139 94
149 148 100
141 139 94
156 154 104
149 148 100
152 150 101
147 145 98
149 148 100
159 157 106
146 145 98
165 162 108
152 151 102
153 150 101
152 151 101
153 152 102
160 157 104
158 155 103
159 157 105
157 155 104
162 159 106
161 158 106
155 153 102
163 160 107
163 160 106
162 159 106
159 156 104
161 158 106
161 158 105
163 159 105
156 152 101
163 159 106
158 155 103
159 156 103
168 165 110
160 157 103
152 149 97
164 160 105
159 155 103
164 160 106
158 155 102
163 160 105
160 156 103
161 158 104
164 159 104
160 157 103
163 159 104
161 157 102
161 157 102
168 164 108
162 159 106
168 163 108
156 153 101
151 147 96
158 155 102
167 162 106
163 159 105
160 157 101
161 157 99
163 160 104
163 158 104
158 155 102
168 165 106
155 152 97
157 153 99
159 155 99
152 149 97
156 152 97
161 157 103
156 151 93
153 147 93
153 149 95
158 154 96
156 152 98
151 146 95
157 153 98
155 152 98
154 151 98
156 152 98
160 155 98
162 157 101
158 154 97
155 151 95
154 150 95
155 150 96
153 148 95
154 149 95
161 156 101
148 144 90
149 146 93
158 153 97
149 145 91
153 149 93
157 152 97
147 143 90
153 150 97
150 146 93
149 144 90
154 150 97
152 149 94
161 156 97
154 149 93
149 145 93
150 146 92
153 149 92
134 131 81
148 143 90
148 144 89
152 147 95
148 142 87
180 201 228
179 200 228
180 201 228
179 200 228
179 200 228
180 201 228
179 200 228
179 200 228
179 200 228
179 200 228
178 200 228
178 199 228
177 199 228
176 199 228
177 199 228
177 199 228
177 199 228
177 199 228
176 199 228
175 198 228
175 198 228
175 198 228
176 199 228
174 198 228
175 198 228
175 198 228
174 198 228
174 198 228
174 197 228
174 198 228
173 197 228
173 197 228
173 197 228
173 197 228
173 197 228
172 197 228
172 197 228
172 197 228
171 196 228
172 197 228
171 196 228
171 196 228
170 196 228
171 196 228
171 196 228
170 196 228
170 196 228
170 195 228
170 195 228
169 195 228
169 195 228
169 195 228
169 195 228
168 195 228
168 195 228
168 195 228
168 195 228
169 195 228
168 194 228
168 194 228
167 194 228
166 194 228
167 194 228
167 194 228
167 194 228
166 194 228
167 194 228
166 194 228
167 194 228
167 194 228
166 194 228
166 193 228
166 193 228
166 193 228
166 193 228
166 193 228
165 193 228
165 193 228
165 193 228
164 193 228
164 192 228
165 193 228
164 193 228
164 193 228
164 193 228
164 192 228
164 192 228
164 192 228
164 192 228
164 192 228
164 192 228
164 192 228
164 192 228
163 192 228
164 192 228
164 192 228
164 192 228
164 192 228
164 192 228
164 192 228
164 192 228
164 192 228
164 192 228
164 192 228
164 193 228
164 192 228
165 193 228
165 193 228
165 193 228
165 193 228
166 193 228
165 193 228
166 193 228
166 194 228
168 194 228
168 194 228
168 195 228
169 195 228
170 195 228
171 196 228
171 196 228
173 197 228
173 197 228
173 195 225
171 193 221
151 170 195
165 183 206
201 220 246
210 229 255
210 229 255
210 229 255
210 229 255
210 229 255
210 229 255
210 229 255
210 229 255
210 229 255
210 229 255
210 229 255
210 229 255
210 229 255
210 229 255
209 229 255
209 229 255
209 229 255
209 229 255
209 229 255
209 229 255
209 229 255
209 229 255
209 229 255
209 229 255
209 229 255
209 229 255
209 229 255
209 229 255
209 229 255
209 229 255
209 229 255
209 229 255
209 229 255
209 229 255
209 229 255
209 229 255
209 229 255
209 229 255
209 229 255
209 229 255
171 192 229
76 108 178
62 98 173
61 98 169
63 99 176
61 98 168
62 99 168
62 98 170
61 97 162
62 98 161
62 99 169
62 98 168
61 98 164
62 98 171
62 99 168
62 98 166
61 98 165
62 98 167
62 98 164
62 98 164
62 99 168
63 99 169
62 98 167
62 98 166
62 98 171
62 98 163
62 98 164
62 99 170
62 98 162
62 98 168
61 98 167
63 99 174
62 98 170
62 98 166
62 98 169
62 98 167
61 97 164
62 98 168
62 98 168
62 99 165
62 98 164
62 99 166
62 98 161
62 98 160
62 99 171
61 98 168
62 98 164
62 98 164
62 98 167
62 98 169
61 97 166
61 97 163
62 98 168
62 98 166
62 97 163
61 96 160
61 97 172
61 97 167
61 96 163
61 97 166
60 95 162
61 96 170
67 101 172
170 191 228
209 229 255
209 229 255
209 229 255
209 229 255
209 229 255
209 229 255
209 229 255
209 229 255
209 229 255
209 229 255
209 229 255
209 229 255
209 229 255
209 229 255
209 229 255
209 229 255
209 229 255
209 229 255
209 229 255
209 229 255
209 229 255
209 229 255
209 229 255
209 229 255
209 229 255
209 229 255
210 229 255
210 229 255
210 229 255
210 229 255
210 229 255
210 229 255
210 229 255
210 229 255
210 229 255
210 229 255
210 229 255
210 229 255
210 229 255
210 229 255
201 218 240
143 147 133
139 136 89
143 141 94
131 129 87
128 127 85
141 139 93
139 137 93
142 140 94
155 152 102
145 143 95
138 137 93
145 143 96
141 140 94
139 138 93
159 157 106
149 148 99
155 154 104
151 150 101
142 141 95
153 152 102
149 147 100
154 152 102
151 149 101
155 153 103
151 149 100
156 153 102
152 151 101
158 157 105
152 151 101
155 152 102
153 152 102
156 155 104
157 155 104
155 152 102
152 149 100
154 151 100
152 150 100
155 152 101
158 155 103
166 163 108
162 159 106
156 154 102
162 159 106
159 157 104
161 158 104
166 162 107
163 160 107
164 161 107
162 159 106
165 161 106
161 158 104
164 160 105
165 161 106
160 156 101
169 165 109
166 162 106
162 158 104
164 160 104
162 158 104
160 157 104
165 161 106
160 157 104
164 160 105
158 155 102
162 157 103
162 159 103
164 159 103
170 166 108
158 155 102
163 160 105
160 157 103
162 158 103
165 161 104
165 161 104
166 161 103
159 156 103
164 161 103
164 160 103
158 154 101
164 160 101
162 157 102
165 160 104
166 161 103
157 153 99
156 153 97
164 161 104
166 161 102
156 151 96
163 158 102
161 157 101
154 150 96
163 159 103
163 159 98
160 155 99
160 155 97
162 158 101
153 149 94
156 152 95
154 149 94
152 147 95
155 150 95
162 157 101
158 154 97
157 152 95
161 157 100
150 147 95
161 157 97
160 155 97
159 154 97
153 149 96
154 150 95
149 145 90
156 151 95
160 155 100
159 154 97
150 147 94
148 143 90
151 146 90
155 151 96
157 152 96
151 146 91
142 139 82
151 146 87
147 143 87
140 136 81
150 147 86
144 140 87
181 201 228
180 201 228
180 201 228
180 201 228
180 201 228
179 200 228
179 200 228
179 200 228
179 200 228
179 200 228
178 200 228
178 200 228
178 200 228
177 199 228
177 199 228
176 199 228
177 199 228
177 199 228
176 199 228
176 199 228
176 199 228
176 199 228
175 198 228
174 198 228
176 198 228
174 198 228
175 198 228
175 198 228
174 197 228
174 198 228
174 197 228
174 197 228
174 198 228
173 197 228
173 197 228
173 197 228
173 197 228
173 197 228
172 196 228
172 197 228
171 196 228
172 197 228
171 196 228
171 196 228
171 196 228
171 196 228
170 196 228
170 196 228
170 196 228
170 195 228
170 196 228
169 195 228
170 195 228
169 195 228
169 195 228
169 195 228
169 195 228
169 195 228
168 195 228
168 195 228
168 194 228
168 194 228
167 194 228
167 194 228
167 194 228
167 194 228
167 194 228
167 194 228
167 194 228
167 194 228
166 194 228
166 194 228
166 193 228
166 193 228
166 193 228
166 193 228
165 193 228
165 193 228
165 193 228
165 193 228
165 193 228
165 193 228
165 193 228
164 193 228
165 193 228
164 193 228
164 192 228
164 193 228
164 193 228
164 192 228
164 193 228
164 193 228
164 192 228
164 192 228
164 192 228
164 192 228
164 193 228
164 192 228
164 192 228
164 192 228
164 192 228
164 192 228
164 193 228
164 192 228
165 193 228
165 193 228
165 193 228
165 193 228
165 193 228
165 193 228
165 193 228
166 193 228
166 193 228
166 193 228
167 194 228
167 194 228
168 195 228
169 195 228
169 195 228
170 195 228
171 196 228
171 196 228
173 197 228
173 197 228
174 196 226
168 189 218
157 175 200
152 169 192
193 210 235
210 229 255
210 229 255
210 229 255
210 229 255
210 229 255
210 229 255
210 229 255
210 229 255
210 229 255
210 229 255
210 229 255
210 229 255
210 229 255
210 229 255
210 229 255
210 229 255
210 229 255
210 229 255
210 229 255
210 229 255
209 229 255
209 229 255
209 229 255
209 229 255
209 229 255
209 229 255
209 229 255
209 229 255
209 229 255
209 229 255
209 229 255
209 229 255
209 229 255
209 229 255
209 229 255
209 229 255
209 229 255
208 228 255
161 183 222
67 101 172
61 98 170
62 98 169
62 98 171
62 98 167
62 99 172
62 99 169
61 98 171
62 98 163
62 99 172
63 99 174
61 98 166
62 98 167
62 98 168
61 97 168
62 99 168
63 99 167
61 97 160
62 98 167
62 98 164
62 98 170
61 98 166
62 98 168
62 98 167
62 98 167
62 99 168
62 98 162
61 97 163
61 97 163
62 98 169
61 97 164
62 98 162
62 98 162
62 98 165
62 98 169
62 98 167
62 99 168
63 99 172
61 97 160
63 99 164
62 98 162
61 98 165
61 97 163
63 99 165
62 98 164
62 98 164
61 98 169
62 98 165
61 98 166
62 98 167
62 98 172
60 96 159
62 98 162
62 98 166
61 98 165
61 96 158
61 96 156
62 98 168
61 96 165
61 96 165
61 96 163
62 97 167
61 97 168
61 98 170
164 184 222
209 229 255
209 229 255
209 229 255
209 229 255
209 229 255
209 229 255
209 229 255
209 229 255
209 229 255
209 229 255
209 229 255
209 229 255
209 229 255
209 229 255
209 229 255
209 229 255
209 229 255
209 229 255
210 229 255
210 229 255
210 229 255
210 229 255
210 229 255
210 229 255
210 229 255
210 229 255
210 229 255
210 229 255
210 229 255
210 229 255
210 229 255
210 229 255
210 229 255
210 229 255
210 229 255
210 229 255
210 229 255
210 229 255
196 213 234
135 133 94
135 132 88
129 127 85
123 121 81
136 136 91
139 137 92
142 141 94
142 141 95
143 141 95
140 138 93
138 137 93
140 140 95
148 147 99
142 141 95
136 135 91
144 143 98
144 143 97
151 150 101
143 141 95
149 147 99
148 146 98
156 154 103
142 141 96
154 153 104
154 153 103
160 158 106
151 149 100
153 151 101
150 148 100
157 154 102
155 153 103
156 154 103
158 155 103
152 150 100
157 155 104
164 160 106
156 155 103
163 161 107
161 159 106
163 159 105
164 161 108
161 158 105
161 159 106
155 152 100
160 157 104
161 158 105
162 158 105
161 157 104
164 160 106
159 157 104
169 166 110
165 162 107
162 159 104
164 160 104
163 159 105
157 154 101
166 162 107
162 158 104
160 157 103
159 156 103
161 158 103
170 165 108
163 159 105
167 162 106
166 163 108
164 161 104
161 158 103
164 161 106
161 157 102
161 158 103
157 154 99
161 158 100
171 166 109
162 158 103
162 157 101
164 160 104
159 154 100
168 164 106
162 157 101
156 153 99
161 157 102
162 157 103
165 160 102
160 156 101
155 151 97
163 157 99
160 155 99
155 150 95
167 163 104
160 156 99
159 155 99
161 157 99
163 158 99
162 158 101
165 160 103
163 159 103
155 152 98
159 155 97
155 152 96
155 150 94
165 160 102
153 148 93
157 152 97
160 157 103
154 149 94
158 154 97
158 154 98
151 146 93
151 148 94
159 155 97
149 144 91
149 145 90
152 148 92
155 151 97
154 150 95
160 153 93
159 153 95
151 147 92
156 152 97
134 130 80
156 151 97
150 147 91
153 147 91
140 136 84
142 138 86
147 143 87
156 151 93
152 148 90
181 201 228
180 201 228
180 201 228
179 200 228
179 200 228
180 201 228
179 200 228
180 201 228
179 200 228
178 200 228
178 200 228
179 200 228
178 200 228
178 200 228
178 199 228
177 199 228
176 199 228
177 199 228
177 199 228
176 199 228
176 199 228
176 199 228
176 199 228
177 199 228
176 198 228
176 199 228
175 198 228
176 199 228
174 198 228
175 198 228
175 198 228
174 198 228
174 198 228
174 198 228
173 197 228
173 197 228
173 197 228
173 197 228
173 197 228
173 197 228
173 197 228
172 197 228
172 197 228
171 196 228
172 196 228
171 196 228
171 196 228
171 196 228
172 196 228
170 196 228
170 195 228
170 195 228
170 196 228
170 195 228
169 195 228
169 195 228
169 195 228
169 195 228
169 195 228
169 195 228
168 195 228
168 194 228
168 195 228
168 195 228
167 194 228
168 194 228
168 194 228
167 194 228
168 194 228
168 194 228
167 194 228
167 194 228
167 194 228
166 194 228
166 193 228
166 194 228
167 194 228
166 194 228
166 193 228
165 193 228
166 193 228
166 193 228
165 193 228
165 193 228
165 193 228
165 193 228
165 193 228
165 193 228
165 193 228
164 193 228
165 193 228
164 193 228
164 192 228
164 193 228
164 193 228
164 193 228
164 192 228
164 192 228
164 193 228
164 193 228
165 193 228
164 193 228
164 193 228
165 193 228
164 192 228
165 193 228
165 193 228
165 193 228
165 193 228
165 193 228
166 193 228
166 193 228
166 193 228
167 194 228
167 194 228
167 194 228
167 194 228
169 195 228
169 195 228
169 195 228
170 196 228
171 196 228
171 196 228
173 197 228
173 197 228
175 198 228
169 191 219
164 184 211
153 170 193
191 209 234
210 230 255
210 230 255
210 230 255
210 229 255
210 229 255
210 229 255
210 229 255
210 229 255
210 229 255
210 229 255
210 229 255
210 229 255
210 229 255
210 229 255
210 229 255
210 229 255
210 229 255
210 229 255
210 229 255
210 229 255
210 229 255
210 229 255
210 229 255
210 229 255
210 229 255
210 229 255
210 229 255
209 229 255
209 229 255
209 229 255
209 229 255
209 229 255
209 229 255
209 229 255
209 229 255
209 229 255
110 136 192
62 98 169
62 98 170
62 98 171
62 98 168
62 98 171
61 98 172
62 98 166
62 98 166
61 97 164
61 97 168
62 98 169
61 97 167
62 98 169
62 98 166
61 97 164
62 98 165
63 99 169
61 97 167
61 97 159
61 97 162
62 98 166
61 97 164
63 99 172
61 98 161
61 97 166
62 98 168
61 98 164
61 97 162
60 96 155
62 99 167
62 98 160
62 98 166
62 98 157
62 99 169
63 99 164
62 99 166
62 99 167
62 98 164
62 98 167
62 98 164
63 99 168
62 98 168
62 98 167
62 98 164
61 97 162
61 97 169
61 97 161
62 98 167
62 98 170
62 98 168
62 98 169
62 97 161
60 96 155
61 96 161
61 97 158
61 97 161
61 96 159
61 97 166
61 97 160
60 96 157
61 97 166
62 98 169
61 96 163
61 97 168
61 97 164
61 97 167
128 151 199
208 228 255
209 229 255
209 229 255
209 229 255
209 229 255
209 229 255
209 229 255
209 229 255
210 229 255
210 229 255
210 229 255
210 229 255
210 229 255
210 229 255
210 229 255
210 229 255
210 229 255
210 229 255
210 229 255
210 229 255
210 229 255
210 229 255
210 229 255
210 229 255
210 229 255
210 229 255
210 229 255
210 229 255
210 229 255
210 229 255
210 229 255
210 229 255
210 229 255
210 230 255
210 230 255
210 230 255
190 204 217
125 125 90
129 126 84
134 132 88
141 139 92
131 130 88
140 138 93
136 136 92
142 141 95
143 141 95
137 137 93
130 129 87
144 143 97
148 148 101
151 150 101
139 138 93
148 146 99
146 145 97
154 152 102
150 149 100
143 142 96
151 151 102
151 148 99
146 144 98
150 148 100
151 150 101
151 149 100
148 146 99
153 150 101
152 149 99
158 156 104
155 154 104
160 158 106
161 158 105
156 155 105
162 159 106
155 153 102
153 150 100
159 155 103
168 165 110
166 164 110
164 161 107
162 160 106
161 159 105
166 163 109
167 163 108
159 157 105
163 159 104
161 157 103
159 156 104
159 157 103
164 160 105
171 166 110
165 161 106
166 163 108
165 160 104
162 158 104
160 156 102
163 159 104
168 164 107
162 159 106
163 159 105
164 160 105
162 158 104
166 163 108
165 162 106
157 154 101
165 160 104
170 166 108
166 162 106
162 158 104
160 157 100
165 160 105
158 154 99
164 160 104
166 162 105
162 158 101
159 155 101
161 158 104
162 158 102
163 158 101
159 154 99
159 154 100
169 164 104
164 160 101
161 158 99
161 157 102
158 155 99
161 157 103
157 153 95
157 153 97
166 161 102
153 149 93
148 145 91
159 155 97
165 160 102
162 158 101
156 151 95
160 155 100
158 153 99
161 157 101
153 148 95
157 152 97
164 160 103
160 155 95
148 143 87
161 157 97
163 158 101
156 152 95
160 156 100
157 152 97
154 149 92
155 150 92
154 149 94
152 148 93
159 153 95
156 151 97
152 147 93
148 144 86
152 147 91
157 152 93
161 156 97
150 145 90
156 151 92
151 147 92
145 140 89
149 143 92
156 151 94
156 152 94
149 145 90
181 201 228
180 201 228
181 201 228
180 201 228
180 201 228
179 200 228
180 201 228
178 200 228
179 200 228
178 200 228
179 200 228
179 200 228
179 200 228
178 200 228
178 200 228
177 199 228
178 200 228
178 199 228
178 200 228
177 199 228
177 199 228
176 199 228
177 199 228
176 199 228
175 198 228
176 199 228
176 199 228
176 199 228
175 198 228
175 198 228
175 198 228
175 198 228
175 198 228
174 198 228
175 198 228
174 197 228
174 198 228
173 197 228
174 197 228
173 197 228
173 197 228
172 197 228
172 196 228
172 197 228
172 197 228
171 196 228
172 196 228
171 196 228
172 196 228
171 196 228
171 196 228
171 196 228
171 196 228
171 196 228
170 196 228
170 196 228
170 195 228
169 195 228
170 195 228
169 195 228
169 195 228
169 195 228
169 195 228
169 195 228
168 194 228
168 194 228
168 195 228
168 194 228
167 194 228
168 194 228
168 194 228
167 194 228
167 194 228
167 194 228
167 194 228
167 194 228
166 194 228
166 194 228
166 193 228
167 194 228
166 193 228
166 193 228
166 193 228
166 193 228
166 193 228
166 193 228
165 193 228
165 193 228
165 193 228
165 193 228
165 193 228
165 193 228
165 193 228
165 193 228
165 193 228
165 193 228
165 193 228
165 193 228
165 193 228
165 193 228
165 193 228
165 193 228
165 193 228
165 193 228
165 193 228
165 193 228
165 193 228
165 193 228
165 193 228
166 193 228
166 193 228
166 193 228
166 194 228
166 194 228
167 194 228
167 194 228
167 194 228
168 195 228
168 195 228
169 195 228
169 195 228
170 195 228
170 196 228
171 196 228
173 197 228
174 198 228
174 197 226
166 187 216
170 191 219
146 163 186
181 198 222
211 230 255
211 230 255
211 230 255
211 230 255
211 230 255
211 230 255
210 230 255
210 230 255
210 230 255
210 229 255
210 229 255
210 229 255
210 229 255
210 229 255
210 229 255
210 229 255
210 229 255
210 229 255
210 229 255
210 229 255
210 229 255
210 229 255
210 229 255
210 229 255
210 229 255
210 229 255
210 229 255
210 229 255
210 229 255
210 229 255
210 229 255
210 229 255
210 229 255
202 221 250
101 127 182
60 97 170
60 96 164
61 97 168
62 99 173
61 98 170
62 98 171
61 96 156
61 97 163
62 98 166
61 97 163
61 97 165
63 99 168
62 98 159
61 98 165
62 99 168
63 99 168
62 98 163
62 98 167
63 99 168
62 99 170
62 98 160
61 97 162
61 97 161
63 99 168
62 98 165
62 98 164
62 98 163
62 98 165
62 98 168
62 98 166
62 98 165
61 97 162
62 99 166
61 97 162
63 98 163
62 98 163
62 98 162
62 99 167
62 98 161
62 98 166
61 97 161
62 98 164
62 98 163
62 98 165
62 99 169
62 98 167
61 96 155
61 98 163
62 98 170
62 98 161
61 96 164
61 96 159
62 98 166
61 97 159
62 98 170
63 99 169
62 97 168
62 97 168
62 98 170
61 97 166
60 95 163
61 97 165
62 97 162
61 96 163
59 94 154
60 96 166
59 94 161
61 96 165
106 132 185
206 225 252
210 229 255
210 229 255
210 229 255
210 229 255
210 229 255
210 229 255
210 229 255
210 229 255
210 229 255
210 229 255
210 229 255
210 229 255
210 229 255
210 229 255
210 229 255
210 229 255
210 229 255
210 229 255
210 229 255
210 229 255
210 229 255
210 229 255
210 229 255
210 229 255
210 230 255
210 230 255
210 230 255
211 230 255
211 230 255
211 230 255
211 230 255
211 230 255
211 230 255
173 185 194
128 126 88
129 127 85
133 132 88
136 134 90
140 138 92
139 138 93
146 145 97
147 145 98
127 126 85
147 146 99
138 138 94
135 135 93
132 131 90
148 147 99
148 146 98
149 147 99
154 153 103
150 149 101
155 154 103
146 144 98
148 147 100
152 149 100
148 147 99
149 148 99
148 147 100
148 148 101
151 149 99
160 157 105
156 154 104
154 153 103
156 154 103
159 156 105
160 158 105
156 154 103
155 152 101
159 157 104
159 156 103
165 162 108
164 162 108
161 157 104
154 152 100
160 156 103
165 162 108
160 158 105
163 160 106
170 166 109
162 159 104
165 162 106
167 162 106
158 154 100
168 164 108
166 163 106
161 157 103
169 165 108
162 158 103
161 157 103
161 158 105
165 162 104
163 159 102
167 164 106
164 160 104
165 161 104
164 160 102
163 159 103
164 160 102
170 166 109
164 160 104
170 165 108
162 159 103
165 162 105
166 161 105
160 156 103
166 161 102
167 161 104
164 159 104
163 159 101
168 163 105
160 158 104
168 163 105
157 153 98
167 162 103
164 159 102
168 164 104
164 159 104
160 155 98
166 161 104
167 163 106
162 158 102
164 159 101
160 154 98
164 159 101
169 164 104
165 161 99
163 159 99
162 158 101
159 154 95
166 161 104
160 156 98
161 156 97
157 153 96
156 152 93
160 156 97
156 153 95
158 155 96
162 157 99
163 158 100
158 154 99
156 150 95
163 157 99
159 155 97
157 153 97
153 149 94
150 146 94
158 154 96
153 148 92
157 152 97
167 161 102
154 149 93
161 156 98
152 148 92
147 142 88
156 150 94
150 145 90
155 149 93
155 150 93
157 152 95
147 144 89
155 150 94
148 144 86
151 147 87
182 202 228
181 201 228
180 201 228
180 201 228
180 201 228
181 201 228
179 200 228
180 201 228
179 200 228
178 200 228
179 200 228
179 200 228
178 200 228
178 200 228
178 200 228
179 200 228
178 200 228
178 200 228
177 199 228
177 199 228
178 199 228
177 199 228
177 199 228
177 199 228
177 199 228
176 199 228
175 198 228
175 198 228
175 198 228
175 198 228
176 199 228
175 198 228
174 198 228
174 198 228
174 198 228
175 198 228
174 198 228
173 197 228
173 197 228
173 197 228
173 197 228
173 197 228
174 197 228
172 197 228
172 197 228
173 197 228
172 196 228
172 196 228
172 197 228
172 197 228
171 196 228
172 196 228
172 196 228
170 195 228
171 196 228
170 195 228
170 195 228
170 196 228
170 195 228
170 196 228
170 196 228
170 195 228
169 195 228
169 195 228
169 195 228
169 195 228
169 195 228
169 195 228
168 194 228
168 194 228
168 194 228
168 194 228
168 194 228
168 194 228
167 194 228
167 194 228
167 194 228
167 194 228
167 194 228
167 194 228
166 194 228
166 194 228
166 194 228
165 193 228
166 193 228
166 193 228
166 193 228
166 193 228
166 193 228
165 193 228
165 193 228
166 193 228
165 193 228
166 193 228
165 193 228
165 193 228
165 193 228
165 193 228
165 193 228
165 193 228
165 193 228
165 193 228
165 193 228
165 193 228
165 193 228
166 193 228
166 193 228
166 193 228
166 193 228
166 193 228
166 194 228
166 194 228
167 194 228
167 194 228
167 194 228
167 194 228
168 194 228
168 194 228
169 195 228
169 195 228
170 195 228
169 195 228
171 196 228
172 196 228
172 196 228
173 197 228
174 198 228
175 198 228
174 195 224
172 193 221
159 178 202
182 199 223
210 229 254
211 230 255
211 230 255
211 230 255
211 230 255
211 230 255
211 230 255
211 230 255
211 230 255
211 230 255
211 230 255
211 230 255
210 230 255
210 230 255
210 230 255
210 229 255
210 229 255
210 229 255
210 229 255
210 229 255
210 229 255
210 229 255
210 229 255
210 229 255
210 229 255
210 229 255
210 229 255
210 229 255
210 229 255
210 229 255
210 229 255
201 221 249
102 128 185
60 96 164
61 97 165
61 97 167
62 99 169
61 97 167
61 97 167
62 98 166
62 98 169
62 98 164
62 98 167
60 96 161
62 98 165
62 98 170
62 98 166
61 97 164
62 98 168
63 99 169
61 97 165
62 98 164
61 97 162
61 97 159
61 96 156
62 98 162
62 98 165
62 98 162
62 98 164
63 99 166
61 97 160
62 98 167
62 98 163
62 98 158
61 97 158
62 98 162
62 98 164
62 98 161
62 98 166
61 97 157
62 98 165
61 98 164
62 98 165
62 98 162
62 97 159
62 98 158
61 97 156
61 97 161
63 99 168
61 97 160
62 98 162
61 97 167
62 98 164
62 97 162
62 98 167
61 97 154
61 97 161
60 96 158
61 97 162
61 96 157
61 97 164
61 97 169
62 98 166
61 96 155
62 97 166
60 95 155
62 97 163
61 96 161
61 95 158
60 95 165
61 96 162
61 96 162
60 95 160
106 132 186
201 220 247
210 229 255
210 229 255
210 229 255
210 229 255
210 229 255
210 229 255
210 229 255
210 229 255
210 229 255
210 229 255
210 229 255
210 229 255
210 229 255
210 229 255
210 229 255
210 230 255
210 230 255
210 230 255
210 230 255
211 230 255
211 230 255
211 230 255
211 230 255
211 230 255
211 230 255
211 230 255
211 230 255
211 230 255
211 230 255
211 230 255
211 230 255
173 183 185
127 124 81
124 122 81
131 129 86
137 135 90
136 134 91
131 131 89
139 138 94
132 132 90
135 135 93
136 135 93
143 141 94
133 132 89
141 141 96
145 145 98
147 146 98
148 147 100
154 153 103
145 143 98
153 152 102
146 144 98
148 146 99
156 154 103
150 148 99
154 152 102
153 151 103
155 153 103
155 153 101
157 155 104
154 152 102
160 158 106
159 157 105
158 155 103
161 159 107
155 152 102
154 151 101
160 157 104
160 157 105
163 160 106
160 158 106
160 157 105
164 161 106
159 156 103
162 159 105
164 160 106
165 160 105
164 161 108
165 161 106
163 160 104
163 160 104
166 162 106
169 165 109
171 166 109
163 159 104
163 159 105
166 162 105
166 162 106
165 161 105
168 164 108
166 161 106
168 163 105
168 163 105
166 163 106
165 161 104
162 158 102
169 164 106
166 162 105
164 160 104
165 160 101
165 161 104
167 161 104
165 161 104
168 164 104
167 162 103
158 154 101
165 161 106
168 163 105
164 160 101
169 164 104
163 159 103
166 161 102
158 154 99
157 153 99
157 153 99
165 161 103
165 161 103
158 154 99
157 153 96
161 157 100
165 160 100
162 158 99
155 152 97
164 159 103
165 160 101
165 160 102
160 155 95
163 160 103
164 159 100
159 154 99
162 157 100
149 145 92
158 154 98
164 158 101
157 153 97
152 147 93
163 158 99
159 154 95
163 157 99
163 158 101
160 156 100
162 156 96
159 155 96
159 153 95
158 153 94
158 152 97
151 146 90
159 154 91
161 155 95
152 148 89
158 154 93
161 156 95
154 150 90
148 145 89
160 154 95
156 151 95
151 147 91
150 146 89
148 144 90
157 152 95
152 147 91
149 144 89
156 151 93
182 202 228
182 202 228
180 201 228
180 201 228
180 201 228
181 201 228
180 201 228
179 200 228
180 201 228
179 200 228
179 201 228
179 200 228
179 200 228
179 201 228
178 200 228
179 200 228
178 200 228
177 199 228
178 200 228
177 199 228
178 199 228
178 200 228
177 199 228
177 199 228
176 199 228
177 199 228
176 199 228
176 199 228
176 199 228
176 199 228
175 198 228
175 198 228
175 198 228
175 198 228
174 198 228
174 198 228
175 198 228
174 198 228
174 198 228
174 198 228
174 198 228
173 197 228
173 197 228
173 197 228
172 197 228
173 197 228
173 197 228
172 197 228
172 197 228
172 197 228
172 197 228
172 196 228
172 197 228
171 196 228
171 196 228
171 196 228
171 196 228
171 196 228
171 196 228
171 196 228
170 195 228
170 196 228
170 195 228
169 195 228
170 195 228
169 195 228
169 195 228
169 195 228
169 195 228
168 195 228
169 195 228
167 194 228
168 195 228
169 195 228
167 194 228
167 194 228
168 194 228
167 194 228
167 194 228
167 194 228
167 194 228
167 194 228
167 194 228
167 194 228
166 194 228
167 194 228
166 194 228
166 194 228
166 193 228
166 193 228
167 194 228
165 193 228
166 193 228
166 193 228
166 193 228
166 193 228
166 193 228
166 193 228
166 194 228
165 193 228
166 193 228
166 193 228
166 193 228
166 193 228
165 193 228
166 193 228
166 193 228
166 193 228
166 193 228
166 194 228
166 194 228
166 193 228
167 194 228
167 194 228
167 194 228
167 194 228
168 194 228
168 194 228
168 195 228
169 195 228
169 195 228
169 195 228
170 196 228
171 196 228
171 196 228
173 197 228
173 197 228
174 197 228
175 198 228
174 196 225
168 187 213
162 181 206
174 191 214
211 230 255
211 230 255
211 230 255
211 230 255
211 230 255
211 230 255
211 230 255
211 230 255
211 230 255
211 230 255
211 230 255
211 230 255
211 230 255
211 230 255
211 230 255
211 230 255
211 230 255
211 230 255
211 230 255
210 230 255
210 230 255
210 230 255
210 229 255
210 229 255
210 229 255
210 229 255
210 229 255
210 229 255
210 229 255
201 221 249
107 133 191
61 98 170
60 96 162
62 98 168
62 99 172
62 98 168
61 97 164
62 98 160
61 97 167
62 99 169
61 97 165
62 98 165
61 98 165
61 97 163
61 97 158
61 97 160
62 98 170
62 98 161
62 98 161
61 96 154
62 98 167
61 97 159
62 98 168
61 97 159
60 96 157
63 99 167
62 98 155
62 98 162
62 98 165
61 97 153
61 97 159
62 98 163
62 97 155
61 98 162
62 98 161
61 97 158
62 97 163
62 98 166
62 98 165
62 98 163
61 97 154
61 98 166
61 97 163
62 98 166
61 97 159
63 99 166
61 97 160
63 98 166
62 98 160
62 98 163
61 97 156
61 97 161
61 96 154
61 97 164
61 98 164
61 98 165
61 96 155
61 97 159
61 97 162
60 95 156
61 97 163
62 98 165
60 96 157
61 96 161
60 96 154
62 97 161
61 96 163
61 96 158
61 96 163
61 96 164
60 95 161
61 95 156
61 96 167
110 134 183
203 222 249
210 229 255
210 229 255
210 229 255
210 229 255
210 229 255
210 229 255
210 230 255
210 230 255
210 230 255
210 230 255
211 230 255
211 230 255
211 230 255
211 230 255
211 230 255
211 230 255
211 230 255
211 230 255
211 230 255
211 230 255
211 230 255
211 230 255
211 230 255
211 230 255
211 230 255
211 230 255
211 230 255
211 230 255
209 228 253
173 182 183
131 129 86
136 134 90
128 126 86
138 135 90
139 137 92
141 140 95
144 142 96
140 139 95
124 123 84
139 138 93
143 142 97
138 138 94
146 144 97
144 143 96
140 140 96
144 143 96
156 154 102
143 142 95
150 148 101
144 142 95
149 147 99
145 143 97
153 151 101
149 147 99
162 160 107
153 151 101
155 153 103
160 158 105
148 147 100
162 159 106
158 156 105
151 150 101
155 152 103
164 160 106
159 157 105
161 158 104
162 160 106
161 159 105
168 166 110
163 160 106
167 164 109
159 155 102
164 160 107
161 157 103
167 164 110
169 165 106
161 158 105
168 164 108
169 165 108
167 164 108
163 159 105
170 165 108
166 163 108
167 163 108
167 162 105
169 164 108
164 160 105
167 163 106
164 161 106
170 166 107
171 166 108
171 166 108
167 162 103
168 164 106
163 160 103
163 160 101
169 165 109
167 163 105
170 165 106
166 161 103
167 163 107
161 157 101
171 166 106
166 162 103
164 161 103
168 164 104
166 162 107
163 158 101
170 165 106
161 157 99
166 161 103
166 162 105
159 155 98
166 161 100
163 159 99
167 162 104
169 163 104
169 164 104
162 158 101
163 158 103
160 155 100
163 158 97
162 158 101
165 160 102
165 159 100
163 159 103
162 158 97
160 156 99
166 161 104
163 157 101
162 157 98
156 152 96
161 157 96
162 157 98
166 160 100
160 155 95
155 151 95
162 158 98
157 151 94
163 158 97
168 162 98
163 158 98
160 154 96
157 152 94
159 154 97
153 149 96
157 153 97
160 155 94
161 156 96
155 150 93
152 148 91
161 156 97
157 153 95
154 149 92
159 155 96
147 141 87
154 149 89
154 149 91
154 149 92
152 147 91
155 151 93
151 146 89
182 202 228
181 201 228
182 202 228
181 201 228
180 201 228
180 201 228
180 201 228
180 201 228
182 202 228
179 200 228
180 201 228
179 200 228
178 200 228
179 201 228
179 200 228
179 200 228
179 200 228
179 200 228
178 200 228
177 199 228
178 200 228
177 199 228
178 200 228
177 199 228
177 199 228
177 199 228
177 199 228
176 199 228
175 198 228
176 198 228
176 199 228
175 198 228
176 199 228
176 199 228
176 199 228
175 198 228
175 198 228
175 198 228
175 198 228
174 198 228
174 197 228
175 198 228
173 197 228
174 198 228
174 197 228
174 197 228
174 197 228
173 197 228
172 197 228
173 197 228
172 197 228
172 197 228
172 197 228
172 196 228
172 196 228
172 196 228
171 196 228
171 196 228
170 196 228
171 196 228
171 196 228
171 196 228
170 195 228
171 196 228
171 196 228
171 196 228
169 195 228
170 195 228
169 195 228
169 195 228
169 195 228
169 195 228
169 195 228
169 195 228
169 195 228
168 194 228
169 195 228
168 194 228
169 195 228
167 194 228
168 194 228
167 194 228
168 195 228
167 194 228
167 194 228
168 194 228
167 194 228
167 194 228
167 194 228
167 194 228
166 194 228
166 194 228
166 194 228
167 194 228
166 194 228
166 193 228
167 194 228
166 194 228
166 194 228
166 194 228
166 194 228
166 194 228
166 194 228
166 193 228
166 193 228
166 194 228
167 194 228
167 194 228
167 194 228
167 194 228
167 194 228
167 194 228
167 194 228
168 194 228
168 194 228
167 194 228
168 194 228
168 194 228
169 195 228
169 195 228
170 195 228
169 195 228
170 196 228
171 196 228
172 196 228
173 197 228
173 197 228
174 198 228
175 198 228
177 199 228
175 197 226
173 194 221
156 174 198
182 199 222
211 230 255
211 230 255
211 230 255
211 230 255
211 230 255
211 230 255
211 230 255
211 230 255
211 230 255
211 230 255
211 230 255
211 230 255
211 230 255
211 230 255
211 230 255
211 230 255
211 230 255
211 230 255
211 230 255
211 230 255
211 230 255
211 230 255
211 230 255
211 230 255
211 230 255
211 230 255
211 230 255
203 222 250
106 132 186
60 96 165
61 97 168
61 96 159
60 96 167
61 98 172
61 97 168
61 97 164
61 97 167
60 96 161
62 98 167
60 95 156
62 98 164
61 97 161
62 97 162
62 98 163
62 98 163
62 99 169
62 98 163
61 97 159
62 98 160
61 98 167
62 98 162
61 97 162
61 97 158
61 97 156
61 97 154
62 98 163
62 98 161
63 99 169
61 97 160
61 97 158
62 97 156
61 97 162
61 96 157
62 98 164
63 99 163
61 97 163
62 98 163
62 98 162
61 97 157
62 98 166
62 97 158
62 98 167
62 98 163
62 97 159
62 98 161
61 96 154
63 99 169
60 96 153
61 96 159
63 98 160
61 96 158
62 98 163
62 97 162
62 98 161
62 98 162
62 97 163
61 96 157
62 98 165
62 98 166
61 97 158
61 96 159
61 96 157
60 95 159
61 96 159
60 95 162
61 96 155
61 97 163
61 96 164
61 96 166
62 97 167
60 93 154
60 95 159
61 96 165
99 125 179
204 223 250
211 230 255
211 230 255
211 230 255
211 230 255
211 230 255
211 230 255
211 230 255
211 230 255
211 230 255
211 230 255
211 230 255
211 230 255
211 230 255
211 230 255
211 230 255
211 230 255
211 230 255
211 230 255
211 230 255
211 230 255
211 230 255
211 230 255
211 230 255
211 230 255
211 230 255
211 230 255
209 228 253
171 180 180
127 125 82
122 122 81
135 133 88
140 139 94
141 140 95
140 138 93
138 137 93
145 143 97
136 135 92
138 136 92
144 144 98
147 145 98
141 141 96
145 144 97
144 142 96
150 148 99
140 139 94
147 146 99
148 146 99
144 143 97
150 148 100
152 150 101
151 150 101
149 148 100
159 157 106
147 146 98
157 155 104
154 153 103
157 155 103
156 154 102
164 162 108
157 154 104
156 154 101
155 152 101
161 158 104
161 158 105
164 161 107
163 160 107
165 162 107
164 161 106
156 153 100
164 160 104
165 161 106
163 159 105
162 159 106
170 165 108
161 157 102
161 158 103
166 162 107
165 161 105
164 160 103
166 163 107
169 164 105
164 160 104
171 167 109
162 158 103
162 158 104
164 160 105
168 164 108
166 162 105
166 161 103
164 161 105
166 162 107
167 162 104
167 162 106
164 161 103
170 165 104
169 165 107
165 161 102
167 161 103
166 161 104
167 163 103
167 162 103
169 164 106
171 166 107
163 158 101
163 158 99
166 160 99
166 161 102
167 163 104
165 161 104
167 162 103
170 165 104
170 165 104
159 155 97
162 158 102
163 159 102
162 157 97
158 154 98
168 163 105
165 161 101
164 160 99
163 158 103
157 154 101
165 160 102
168 161 99
158 153 95
163 158 98
161 157 102
163 158 98
163 159 98
161 157 97
168 163 99
162 156 97
154 150 91
161 156 99
165 160 101
165 159 97
166 160 98
166 160 101
155 150 90
164 159 101
166 160 101
159 154 95
156 151 95
146 143 90
157 152 93
157 152 91
155 150 90
160 154 95
158 154 94
163 157 97
156 151 95
159 154 95
155 151 91
166 160 97
159 155 98
154 149 92
150 146 89
159 154 95
161 155 95
149 145 88
149 144 87
182 202 228
182 202 228
181 202 228
180 201 228
181 201 228
180 201 228
180 201 228
181 201 228
180 201 228
180 201 228
180 201 228
180 201 228
180 201 228
179 200 228
179 200 228
179 200 228
179 200 228
180 201 228
179 200 228
179 200 228
179 200 228
178 200 228
177 199 228
177 199 228
178 200 228
179 200 228
177 199 228
176 199 228
177 199 228
177 199 228
177 199 228
176 199 228
175 198 228
176 199 228
175 198 228
176 199 228
176 198 228
175 198 228
174 198 228
176 198 228
175 198 228
174 198 228
174 198 228
174 198 228
174 198 228
174 197 228
174 198 228
174 197 228
173 197 228
173 197 228
173 197 228
172 197 228
173 197 228
173 197 228
172 197 228
172 197 228
171 196 228
172 196 228
171 196 228
172 196 228
172 196 228
171 196 228
172 196 228
170 195 228
171 196 228
171 196 228
171 196 228
171 196 228
170 195 228
169 195 228
170 195 228
170 196 228
169 195 228
169 195 228
169 195 228
169 195 228
169 195 228
170 195 228
169 195 228
168 194 228
169 195 228
169 195 228
168 195 228
168 194 228
168 194 228
168 194 228
168 194 228
168 194 228
168 194 228
167 194 228
167 194 228
168 194 228
167 194 228
167 194 228
168 194 228
167 194 228
167 194 228
167 194 228
167 194 228
167 194 228
166 194 228
167 194 228
167 194 228
167 194 228
167 194 228
167 194 228
167 194 228
167 194 228
167 194 228
167 194 228
167 194 228
167 194 228
167 194 228
168 194 228
168 195 228
168 194 228
168 195 228
168 195 228
168 195 228
169 195 228
170 195 228
169 195 228
170 196 228
171 196 228
172 196 228
172 196 228
173 197 228
173 197 228
174 197 228
175 198 228
176 199 228
176 198 226
169 189 216
165 184 209
190 208 232
212 230 255
212 230 255
212 230 255
212 230 255
211 230 255
211 230 255
211 230 255
211 230 255
211 230 255
211 230 255
211 230 255
211 230 255
211 230 255
211 230 255
211 230 255
211 230 255
211 230 255
211 230 255
211 230 255
211 230 255
211 230 255
211 230 255
211 230 255
211 230 255
211 230 255
209 228 254
98 125 185
60 96 165
61 96 163
61 97 167
62 98 170
62 98 165
61 97 163
61 97 166
61 97 155
62 98 165
62 98 163
61 97 165
61 96 160
62 98 164
62 98 165
61 98 166
61 96 159
62 98 165
60 96 158
62 98 167
61 96 149
61 97 163
62 97 161
62 98 163
61 97 157
62 97 158
62 98 163
61 97 156
62 98 162
62 98 164
61 97 163
61 98 164
62 98 164
62 98 162
62 98 160
62 98 159
60 95 150
62 98 163
61 97 160
62 98 159
62 98 161
62 98 163
62 97 156
61 97 164
63 98 166
61 97 153
61 97 159
61 96 150
62 98 157
62 97 162
62 98 165
62 97 159
62 98 165
60 96 151
61 97 158
61 96 150
61 97 156
61 98 163
63 99 166
62 98 164
61 95 151
63 99 168
60 95 149
61 97 161
61 96 155
61 96 156
62 98 170
61 97 158
62 97 164
62 98 171
61 96 163
60 95 158
61 96 159
61 96 159
61 96 163
59 93 156
61 94 158
121 143 190
208 227 253
211 230 255
211 230 255
211 230 255
211 230 255
211 230 255
211 230 255
211 230 255
211 230 255
211 230 255
211 230 255
211 230 255
211 230 255
211 230 255
211 230 255
211 230 255
211 230 255
211 230 255
211 230 255
211 230 255
211 230 255
211 230 255
212 230 255
212 230 255
212 230 255
212 230 255
169 179 186
140 137 90
126 125 82
137 135 89
120 119 79
125 124 85
134 133 91
138 137 94
133 132 90
138 136 92
138 136 93
140 139 94
141 140 95
136 136 93
147 145 99
146 145 100
146 145 98
138 138 94
147 146 99
143 142 97
143 142 97
144 142 96
153 151 102
149 148 100
148 147 100
152 150 100
156 154 104
154 152 102
159 156 104
153 151 101
151 149 99
154 152 103
161 158 106
157 155 104
167 163 107
164 161 107
161 158 104
160 157 104
162 159 106
161 158 104
165 161 106
162 158 103
161 157 104
168 164 108
164 161 106
166 162 108
171 167 108
165 162 107
168 165 108
169 165 108
168 163 107
165 161 105
164 160 104
167 163 106
166 163 107
169 165 109
168 164 105
166 161 103
169 165 108
168 164 105
166 161 105
170 165 107
169 164 106
169 164 104
170 166 108
167 162 103
171 167 109
164 160 102
164 160 101
167 163 104
167 162 106
166 161 103
168 163 103
162 158 101
168 164 106
172 167 105
167 163 104
167 163 106
160 156 99
170 166 108
169 163 104
170 165 105
170 165 104
163 159 103
163 160 103
167 163 104
163 158 102
166 161 103
159 155 95
164 159 101
160 155 97
158 155 99
165 160 101
167 163 104
163 158 102
163 158 101
167 162 106
162 157 99
169 164 103
163 157 98
165 159 99
159 155 98
158 153 97
159 156 98
165 160 101
154 150 93
160 155 95
161 155 93
162 156 98
158 152 94
163 158 97
161 156 97
160 155 96
163 157 96
161 157 99
161 156 97
169 163 101
153 148 89
156 151 94
158 153 93
158 153 94
158 153 93
151 147 92
157 152 87
159 155 94
158 153 94
153 148 90
154 150 92
151 145 90
148 144 88
158 153 94
153 149 93
151 147 92
151 146 90
154 149 85
182 202 228
182 202 228
182 202 228
182 202 228
181 201 228
181 202 228
181 201 228
181 201 228
181 201 228
181 201 228
181 201 228
180 201 228
181 201 228
179 200 228
180 201 228
180 201 228
180 201 228
179 200 228
178 200 228
179 200 228
179 200 228
178 200 228
180 201 228
178 200 228
178 200 228
178 200 228
177 199 228
177 199 228
176 199 228
177 199 228
178 200 228
178 200 228
176 199 228
176 199 228
176 199 228
177 199 228
177 199 228
177 199 228
176 199 228
176 198 228
175 198 228
175 198 228
175 198 228
175 198 228
174 197 228
174 198 228
174 198 228
174 198 228
173 197 228
174 197 228
174 197 228
173 197 228
173 197 228
173 197 228
173 197 228
173 197 228
173 197 228
172 197 228
173 197 228
172 196 228
172 196 228
172 196 228
171 196 228
172 196 228
171 196 228
172 196 228
171 196 228
171 196 228
171 196 228
170 196 228
171 196 228
171 196 228
170 196 228
171 196 228
170 195 228
170 196 228
169 195 228
169 195 228
170 195 228
169 195 228
169 195 228
169 195 228
169 195 228
168 195 228
169 195 228
169 195 228
169 195 228
168 195 228
168 195 228
168 195 228
168 195 228
168 194 228
168 194 228
168 194 228
168 194 228
167 194 228
167 194 228
167 194 228
167 194 228
168 194 228
167 194 228
168 194 228
167 194 228
167 194 228
168 194 228
167 194 228
167 194 228
167 194 228
168 194 228
168 194 228
167 194 228
167 194 228
168 194 228
168 195 228
168 195 228
168 194 228
169 195 228
169 195 228
169 195 228
169 195 228
169 195 228
170 195 228
171 196 228
171 196 228
171 196 228
172 197 228
172 197 228
173 197 228
174 198 228
174 198 228
177 199 228
177 199 228
175 197 225
170 190 217
156 173 196
191 208 232
212 230 255
212 230 255
212 230 255
212 230 255
212 230 255
212 230 255
212 230 255
212 230 255
212 230 255
212 230 255
212 230 255
211 230 255
211 230 255
211 230 255
211 230 255
211 230 255
211 230 255
211 230 255
211 230 255
211 230 255
211 230 255
211 230 255
211 230 255
209 228 254
146 167 210
60 96 166
60 96 160
60 96 156
60 96 162
62 98 166
62 98 166
62 97 167
61 97 163
61 97 166
61 97 160
62 98 165
62 98 158
63 99 170
62 98 164
61 97 158
61 97 159
62 99 164
61 97 162
61 97 166
62 98 157
62 98 166
61 97 155
62 98 157
62 98 159
61 97 159
61 97 155
62 98 161
62 97 160
62 98 159
62 98 162
63 98 163
63 99 165
61 97 160
63 99 171
61 97 155
63 98 163
61 97 158
62 98 158
62 97 154
61 97 159
63 99 167
62 98 160
61 96 150
61 97 156
62 98 162
62 98 163
62 98 161
62 98 161
62 98 161
61 97 159
62 97 156
60 96 155
61 96 158
61 97 154
61 97 165
61 97 158
62 98 161
62 98 163
62 98 167
62 98 160
61 96 151
61 97 159
62 97 160
62 97 162
61 97 165
60 95 156
62 97 162
61 96 158
60 95 154
62 97 157
61 96 160
61 96 156
60 95 157
60 94 157
61 95 159
61 95 160
60 95 163
62 96 164
150 171 210
211 230 255
211 230 255
211 230 255
211 230 255
211 230 255
211 230 255
211 230 255
211 230 255
211 230 255
211 230 255
211 230 255
211 230 255
212 230 255
212 230 255
212 230 255
212 230 255
212 230 255
212 230 255
212 230 255
212 230 255
212 230 255
212 230 255
212 230 255
212 230 255
176 187 196
125 123 82
134 131 87
133 130 88
132 130 87
135 133 89
133 132 90
133 132 89
141 140 96
139 138 93
131 130 88
145 144 97
136 136 92
136 135 92
145 144 98
136 136 93
144 143 98
151 149 100
139 137 91
142 141 96
150 147 99
147 146 99
151 149 100
156 154 103
157 155 103
149 148 101
156 154 103
158 157 105
150 148 100
150 148 100
155 153 102
155 153 101
153 151 102
156 153 102
166 163 108
158 155 104
158 154 101
160 159 106
169 164 108
152 150 101
160 157 104
158 155 101
159 155 99
162 159 104
165 160 103
164 160 105
166 162 105
165 161 104
174 170 111
167 163 106
167 165 109
161 158 101
163 159 103
170 166 108
165 161 105
165 162 106
163 159 103
170 165 109
172 168 107
173 168 108
166 162 104
171 166 108
167 162 103
170 165 107
172 166 105
168 163 104
168 163 104
163 160 101
165 160 104
171 166 108
168 163 104
158 154 99
172 167 108
167 163 104
168 163 104
163 159 101
171 167 107
168 162 103
168 163 103
164 159 101
166 162 102
164 159 101
165 160 100
173 167 104
170 165 104
162 157 101
170 165 105
169 163 104
167 162 104
162 158 99
169 164 103
165 161 104
165 160 98
170 165 105
166 161 97
162 157 97
160 156 96
162 157 99
170 165 104
167 161 102
161 156 97
166 161 97
162 157 99
161 154 96
168 163 100
164 159 99
160 155 97
174 168 104
166 161 100
159 153 97
163 158 94
163 158 95
159 154 91
157 152 93
160 155 97
162 157 98
161 156 97
157 151 93
152 147 91
156 151 95
155 150 94
159 154 94
163 158 98
150 145 89
154 150 91
163 157 95
160 155 99
151 145 90
157 151 94
153 148 92
158 153 95
155 149 90
156 151 92
158 153 94
159 154 93
153 149 86
183 202 228
183 202 228
182 202 228
183 202 228
181 201 228
182 202 228
182 202 228
182 202 228
181 201 228
181 201 228
181 201 228
180 201 228
181 201 228
181 201 228
180 201 228
180 201 228
180 201 228
180 201 228
180 201 228
179 200 228
179 200 228
179 200 228
179 200 228
179 200 228
178 200 228
179 200 228
178 200 228
178 200 228
177 199 228
177 199 228
177 199 228
177 199 228
177 199 228
177 199 228
177 199 228
177 199 228
176 199 228
177 199 228
177 199 228
176 198 228
175 198 228
176 198 228
176 199 228
176 198 228
175 198 228
175 198 228
175 198 228
175 198 228
174 198 228
174 198 228
174 198 228
174 198 228
174 197 228
174 198 228
174 197 228
173 197 228
173 197 228
173 197 228
173 197 228
173 197 228
172 197 228
173 197 228
172 196 228
172 197 228
172 197 228
172 196 228
172 196 228
172 196 228
171 196 228
171 196 228
171 196 228
171 196 228
171 196 228
171 196 228
170 196 228
170 196 228
171 196 228
171 196 228
171 196 228
170 195 228
170 195 228
169 195 228
170 196 228
170 195 228
169 195 228
169 195 228
169 195 228
169 195 228
169 195 228
170 195 228
169 195 228
169 195 228
169 195 228
169 195 228
168 195 228
169 195 228
168 195 228
168 195 228
169 195 228
168 194 228
168 195 228
167 194 228
168 195 228
168 194 228
167 194 228
168 195 228
168 194 228
168 194 228
168 194 228
168 194 228
168 194 228
168 194 228
168 195 228
169 195 228
169 195 228
168 195 228
169 195 228
169 195 228
169 195 228
169 195 228
170 195 228
170 196 228
170 196 228
171 196 228
171 196 228
172 197 228
172 197 228
173 197 228
173 197 228
174 197 228
174 198 228
176 199 228
177 199 228
177 199 227
175 195 221
165 183 207
193 210 234
212 230 255
212 230 255
212 230 255
212 230 255
212 230 255
212 230 255
212 230 255
212 230 255
212 230 255
212 230 255
212 230 255
212 230 255
212 230 255
212 230 255
212 230 255
212 230 255
212 230 255
212 230 255
212 230 255
212 230 255
211 230 255
211 230 255
169 190 225
62 97 170
60 95 165
61 97 167
60 96 163
60 96 161
61 96 161
62 98 169
60 96 160
61 97 164
62 98 168
61 97 163
62 98 169
62 97 160
61 97 157
61 97 161
60 96 155
62 97 156
62 97 156
62 98 163
62 98 165
62 98 158
61 97 164
61 97 154
62 98 161
61 97 159
61 97 154
62 98 158
61 97 162
62 98 162
61 97 159
63 98 158
63 99 168
61 98 160
62 98 162
62 98 163
63 99 162
62 98 156
62 98 162
62 98 155
62 98 157
61 97 158
61 97 155
62 98 165
62 98 160
63 99 163
63 98 164
61 96 154
61 96 155
62 97 158
62 97 156
62 98 162
62 97 158
62 97 159
62 99 165
62 98 164
61 97 154
62 97 162
61 97 162
62 98 167
61 96 159
62 97 160
61 96 155
61 96 151
62 97 162
62 98 165
61 96 158
61 97 160
60 95 155
62 98 168
61 96 160
62 97 160
61 96 157
60 95 156
59 93 149
61 95 156
60 94 155
59 93 159
57 91 150
59 93 157
61 96 163
156 177 214
211 230 255
211 230 255
212 230 255
212 230 255
212 230 255
212 230 255
212 230 255
212 230 255
212 230 255
212 230 255
212 230 255
212 230 255
212 230 255
212 230 255
212 230 255
212 230 255
212 230 255
212 230 255
212 230 255
212 230 255
212 230 255
212 230 255
182 195 206
124 121 78
138 135 89
133 132 88
122 121 82
130 128 88
138 136 91
140 139 94
134 134 92
131 130 88
143 141 95
138 138 94
140 140 96
142 141 95
146 145 98
136 135 91
145 144 97
137 135 92
140 139 95
147 146 99
139 137 92
154 152 102
149 147 98
158 155 104
155 153 102
152 151 103
152 150 100
158 155 104
151 149 100
155 153 103
157 154 103
159 157 104
154 153 102
155 153 103
154 152 101
155 152 100
163 160 106
156 153 102
158 156 105
161 158 103
161 158 105
160 157 104
164 160 104
157 155 103
161 157 103
165 161 107
168 164 108
169 165 105
164 161 105
166 162 105
169 164 106
164 160 104
163 159 103
168 163 105
165 160 105
172 167 108
171 167 106
167 162 106
165 161 105
168 163 106
169 163 105
171 166 107
165 161 103
170 166 109
169 164 105
168 164 106
167 162 105
164 161 102
167 163 104
169 165 107
172 166 104
171 166 105
164 160 101
168 163 103
163 158 96
168 163 103
165 161 103
170 166 108
169 163 101
169 164 104
167 161 101
171 166 104
167 161 101
166 162 101
165 161 98
158 153 95
165 161 99
169 163 101
169 163 104
166 161 101
164 159 99
164 158 95
168 162 104
164 159 97
161 157 97
167 161 102
163 158 98
163 158 99
171 164 104
165 160 98
162 157 96
161 156 94
162 157 98
164 158 97
161 155 98
163 158 99
158 152 94
165 160 100
156 151 93
159 154 92
162 157 98
160 155 99
163 157 97
158 152 95
160 155 96
164 158 97
150 145 89
162 156 96
162 156 96
157 152 94
162 157 97
161 155 94
157 153 97
156 151 91
146 142 88
162 157 95
149 144 86
155 151 90
150 146 87
153 148 90
157 152 93
163 157 98
153 148 88
155 149 90
156 150 84
156 151 87
151 147 89
183 202 228
183 202 228
183 202 228
182 202 228
182 202 228
183 202 228
182 202 228
182 202 228
182 202 228
182 202 228
182 202 228
180 201 228
180 201 228
181 201 228
180 201 228
180 201 228
180 201 228
180 201 228
180 201 228
180 201 228
180 201 228
180 201 228
179 200 228
178 200 228
179 200 228
180 201 228
179 200 228
178 200 228
178 200 228
178 200 228
178 200 228
178 200 228
177 199 228
177 199 228
177 199 228
177 199 228
177 199 228
177 199 228
177 199 228
177 199 228
176 198 228
176 199 228
176 199 228
176 199 228
176 198 228
175 198 228
176 199 228
175 198 228
175 198 228
175 198 228
175 198 228
175 198 228
174 198 228
174 198 228
175 198 228
174 198 228
174 198 228
174 197 228
173 197 228
174 197 228
173 197 228
174 197 228
173 197 228
173 197 228
173 197 228
172 197 228
173 197 228
172 196 228
172 196 228
172 197 228
172 196 228
172 196 228
171 196 228
171 196 228
171 196 228
171 196 228
171 196 228
170 195 228
171 196 228
171 196 228
170 196 228
170 196 228
171 196 228
170 196 228
170 196 228
169 195 228
170 195 228
169 195 228
170 195 228
170 195 228
170 195 228
169 195 228
169 195 228
169 195 228
169 195 228
169 195 228
169 195 228
169 195 228
169 195 228
169 195 228
168 195 228
169 195 228
169 195 228
169 195 228
168 195 228
169 195 228
169 195 228
169 195 228
170 195 228
169 195 228
168 195 228
169 195 228
169 195 228
169 195 228
169 195 228
170 195 228
169 195 228
170 195 228
170 196 228
170 196 228
170 196 228
170 196 228
171 196 228
171 196 228
172 197 228
172 197 228
173 197 228
173 197 228
173 197 228
174 198 228
175 198 228
175 198 228
178 200 228
178 200 228
178 199 227
172 191 217
158 175 197
200 218 242
212 231 255
212 231 255
212 231 255
212 231 255
212 231 255
212 230 255
212 230 255
212 230 255
212 230 255
212 230 255
212 230 255
212 230 255
212 230 255
212 230 255
212 230 255
212 230 255
212 230 255
212 230 255
212 230 255
212 230 255
187 206 237
69 102 171
60 95 164
61 97 166
61 97 167
61 96 158
60 96 166
61 97 164
62 97 165
61 97 160
61 97 160
61 96 159
62 98 165
60 96 157
62 98 168
59 95 149
61 97 153
61 97 158
62 98 163
61 97 160
62 97 161
62 98 165
61 97 154
61 97 154
61 97 162
61 97 151
62 98 159
62 98 161
61 97 159
62 98 161
61 97 156
62 97 157
61 97 157
61 97 155
62 98 163
63 99 166
62 98 158
61 97 159
62 98 160
61 97 158
62 98 155
62 97 157
62 98 160
62 98 162
62 98 160
61 97 154
62 97 160
62 98 161
62 98 156
61 97 155
62 97 151
62 98 158
61 97 158
61 96 159
62 97 152
61 97 163
62 98 163
61 98 163
61 96 158
62 97 154
61 96 156
61 96 155
62 97 163
61 96 148
61 97 152
61 96 158
61 95 156
61 96 162
61 96 159
61 95 149
61 96 160
61 96 152
61 96 156
60 95 154
59 94 154
61 95 156
61 97 163
61 95 159
60 94 155
60 94 155
61 95 159
58 92 152
66 97 157
183 202 230
212 230 255
212 230 255
212 230 255
212 230 255
212 230 255
212 230 255
212 230 255
212 230 255
212 230 255
212 230 255
212 230 255
212 230 255
212 230 255
212 230 255
212 230 255
212 231 255
212 231 255
212 231 255
212 231 255
212 231 255
195 210 227
125 123 81
122 120 79
141 138 92
127 126 85
127 126 85
127 127 87
133 131 89
139 138 94
134 132 90
134 133 90
131 130 88
133 133 92
143 142 96
142 141 95
136 136 92
141 140 96
143 142 96
140 141 97
149 147 98
143 142 97
150 148 99
138 138 93
148 147 99
151 150 101
143 142 96
153 152 101
150 148 100
151 150 100
149 146 99
153 151 101
156 154 103
154 152 102
156 154 102
157 154 103
159 156 104
155 152 101
166 163 108
159 157 103
163 160 105
160 157 104
158 155 100
160 157 103
174 170 112
168 163 106
164 161 104
168 163 106
172 167 109
164 160 105
165 161 105
162 158 103
167 162 104
169 165 109
169 164 106
170 164 103
165 161 105
165 160 102
167 163 104
168 163 104
170 165 106
169 165 106
167 163 102
170 164 106
170 164 103
174 169 110
167 162 103
171 166 106
174 168 107
168 162 103
163 159 96
171 166 104
169 164 104
169 165 107
167 163 101
168 164 102
163 159 101
172 167 105
157 154 92
171 165 106
172 167 108
167 163 103
166 161 104
165 162 103
167 161 102
170 165 103
165 160 101
166 162 97
169 164 104
168 163 103
165 161 102
171 165 103
160 155 96
165 161 101
167 162 104
160 156 97
166 161 99
167 162 101
159 155 93
169 163 99
161 156 94
166 161 99
161 156 97
168 162 103
166 159 97
163 157 97
163 158 95
164 159 99
159 154 95
168 161 98
160 154 93
156 152 93
165 159 96
155 151 91
163 157 99
164 158 97
158 154 99
164 159 95
160 154 93
164 159 98
162 157 99
154 149 87
167 161 103
157 152 93
160 156 92
163 157 96
159 154 91
156 152 91
164 158 95
159 153 91
161 154 94
155 149 85
158 152 95
160 154 90
159 153 92
158 154 93
163 158 96
149 144 87
151 146 90
182 202 228
183 203 228
182 202 228
182 202 228
182 202 228
184 203 228
182 202 228
183 202 228
183 202 228
181 202 228
182 202 228
181 201 228
181 201 228
181 201 228
181 201 228
180 201 228
180 201 228
181 201 228
180 201 228
181 201 228
181 201 228
180 201 228
180 201 228
180 201 228
179 200 228
179 200 228
179 200 228
179 200 228
179 200 228
178 200 228
178 200 228
177 199 228
177 199 228
179 200 228
179 200 228
177 199 228
177 199 228
177 199 228
177 199 228
177 199 228
176 199 228
177 199 228
176 198 228
175 198 228
176 199 228
176 199 228
176 199 228
175 198 228
176 199 228
175 198 228
176 199 228
176 198 228
175 198 228
174 198 228
175 198 228
175 198 228
175 198 228
174 198 228
174 198 228
174 197 228
173 197 228
174 198 228
174 197 228
173 197 228
174 197 228
174 198 228
174 197 228
173 197 228
173 197 228
173 197 228
173 197 228
173 197 228
173 197 228
172 197 228
172 196 228
171 196 228
172 196 228
172 196 228
172 196 228
171 196 228
171 196 228
171 196 228
171 196 228
172 196 228
171 196 228
170 195 228
171 196 228
170 196 228
170 195 228
170 196 228
170 196 228
170 196 228
170 195 228
171 196 228
170 196 228
170 195 228
169 195 228
170 196 228
170 195 228
170 195 228
170 196 228
169 195 228
169 195 228
170 195 228
170 195 228
170 195 228
170 195 228
170 195 228
169 195 228
169 195 228
170 195 228
170 195 228
169 195 228
169 195 228
170 195 228
169 195 228
170 195 228
170 196 228
171 196 228
170 196 228
171 196 228
172 196 228
172 197 228
172 196 228
172 197 228
173 197 228
173 197 228
173 197 228
174 197 228
173 197 228
175 198 228
176 199 228
176 199 228
178 200 228
180 201 228
177 197 224
171 189 214
163 180 202
204 221 245
213 231 255
213 231 255
213 231 255
212 231 255
212 231 255
212 231 255
212 231 255
212 231 255
212 231 255
212 231 255
212 231 255
212 231 255
212 231 255
212 231 255
212 230 255
212 230 255
212 230 255
212 230 255
203 222 249
95 122 183
59 94 158
60 95 158
61 97 165
62 98 167
61 96 163
61 97 163
60 95 160
61 97 163
61 96 150
61 96 156
61 96 154
61 97 157
61 96 157
61 97 161
61 97 160
62 98 166
62 98 166
62 98 163
61 98 162
62 97 161
61 97 158
61 97 152
61 97 160
62 98 162
62 97 158
62 98 158
61 97 156
62 98 167
61 97 160
62 97 158
62 98 160
62 98 164
61 96 151
61 97 152
61 97 161
62 97 156
62 97 158
61 97 158
62 98 160
62 98 162
62 97 158
60 95 143
61 97 153
62 98 161
62 98 164
61 96 152
61 97 151
60 95 149
62 97 157
61 97 156
63 98 161
63 98 164
62 98 163
61 97 155
61 97 158
62 97 155
62 98 160
61 96 152
62 97 165
61 96 148
62 97 155
62 98 164
61 96 154
61 96 156
62 97 158
62 97 156
61 97 159
61 95 155
60 95 156
61 96 157
60 95 156
60 95 153
61 96 158
61 95 155
62 97 162
59 93 152
61 96 159
60 94 155
59 93 146
61 95 155
59 92 153
59 93 154
80 108 164
205 223 249
212 230 255
212 230 255
212 230 255
212 230 255
212 231 255
212 231 255
212 231 255
212 231 255
212 231 255
212 231 255
212 231 255
212 231 255
212 231 255
212 231 255
212 231 255
213 231 255
213 231 255
213 231 255
206 222 242
129 130 107
135 133 89
136 132 86
125 124 84
123 122 84
139 138 92
126 125 85
129 129 89
128 127 88
124 124 86
134 134 91
137 137 95
132 132 91
135 135 93
138 137 93
144 143 97
142 141 96
142 141 95
144 143 96
135 135 93
136 137 94
149 148 100
149 149 101
154 152 103
156 155 103
154 152 102
147 145 96
159 157 105
155 153 103
149 147 99
162 159 105
159 156 103
157 155 102
159 157 105
153 150 99
159 157 104
159 156 104
166 162 106
161 157 104
152 150 99
166 162 105
161 157 103
165 161 106
163 160 107
164 160 103
163 159 104
168 163 105
165 162 106
165 162 105
159 155 100
170 166 107
169 163 104
166 162 105
170 164 105
174 169 109
169 164 104
169 164 104
173 167 107
170 165 108
164 161 105
166 162 104
173 167 107
170 166 106
174 168 106
171 166 106
169 165 106
170 166 106
166 162 103
162 158 96
166 162 104
172 167 108
172 166 105
170 165 105
166 162 104
168 163 102
173 169 108
167 162 100
167 163 105
169 164 103
168 163 101
167 162 102
168 163 102
165 161 97
170 165 104
167 162 100
167 162 99
165 161 100
163 159 101
165 161 101
171 166 105
172 167 104
172 166 103
161 156 97
164 160 97
167 162 101
159 155 95
165 160 96
165 160 99
165 160 100
168 163 103
167 161 99
164 160 99
162 157 95
166 161 99
163 158 97
167 162 101
164 159 96
166 160 101
168 163 101
173 167 102
162 157 95
159 154 93
153 149 90
165 160 97
157 152 91
154 151 94
159 155 93
167 161 101
165 160 101
159 153 93
160 155 95
163 158 99
153 147 89
159 154 97
157 152 92
163 157 94
158 153 93
160 155 93
160 154 91
156 151 92
166 160 98
154 150 90
159 153 92
157 151 88
155 150 93
157 151 93
161 156 94
157 151 86
184 203 228
184 203 228
182 202 228
183 203 228
183 203 228
183 202 228
183 202 228
182 202 228
182 202 228
182 202 228
183 202 228
181 201 228
182 202 228
182 202 228
181 201 228
181 201 228
181 201 228
182 202 228
180 201 228
181 201 228
180 201 228
180 201 228
181 201 228
180 201 228
180 201 228
180 201 228
181 201 228
180 201 228
179 201 228
180 201 228
179 200 228
180 201 228
178 200 228
179 201 228
178 200 228
179 200 228
179 200 228
178 200 228
177 199 228
178 200 228
178 200 228
177 199 228
177 199 228
177 199 228
177 199 228
177 199 228
177 199 228
176 199 228
176 199 228
176 199 228
176 199 228
176 199 228
176 198 228
176 198 228
176 198 228
176 199 228
176 199 228
176 198 228
175 198 228
175 198 228
174 198 228
175 198 228
174 198 228
174 198 228
174 198 228
174 198 228
174 198 228
173 197 228
175 198 228
174 197 228
173 197 228
173 197 228
173 197 228
172 197 228
173 197 228
173 197 228
173 197 228
173 197 228
173 197 228
172 197 228
171 196 228
172 196 228
171 196 228
171 196 228
171 196 228
171 196 228
172 196 228
170 196 228
172 196 228
171 196 228
171 196 228
171 196 228
171 196 228
171 196 228
170 196 228
170 196 228
171 196 228
170 195 228
171 196 228
170 196 228
171 196 228
170 196 228
170 195 228
170 195 228
171 196 228
170 195 228
170 195 228
170 196 228
170 196 228
170 196 228
171 196 228
170 195 228
170 196 228
170 195 228
170 195 228
171 196 228
171 196 228
171 196 228
170 196 228
172 196 228
172 196 228
171 196 228
172 196 228
173 197 228
173 197 228
172 197 228
173 197 228
173 197 228
174 198 228
174 198 228
175 198 228
175 198 228
176 199 228
177 199 228
178 200 228
179 199 227
175 195 221
164 182 206
167 184 206
212 229 254
213 231 255
213 231 255
213 231 255
213 231 255
213 231 255
213 231 255
213 231 255
213 231 255
213 231 255
213 231 255
213 231 255
213 231 255
213 231 255
212 231 255
212 231 255
212 231 255
212 231 255
136 158 201
60 95 163
61 97 164
60 95 157
59 94 154
60 96 157
61 96 159
60 96 156
62 97 164
60 95 160
62 98 169
61 97 165
60 96 157
61 97 159
61 97 159
62 98 162
62 98 160
61 97 158
61 97 163
61 97 154
62 97 155
61 97 156
61 96 151
62 98 157
62 98 161
61 96 153
61 97 156
62 98 156
61 97 159
62 97 156
61 96 154
61 97 158
60 96 149
60 95 153
62 98 161
62 98 163
61 97 156
62 98 158
60 96 151
61 96 152
62 98 159
62 98 157
61 96 153
62 98 160
62 98 159
62 98 159
62 97 160
63 99 164
61 97 159
63 98 161
62 98 163
61 97 153
62 98 161
62 98 160
62 98 159
62 98 158
61 96 152
62 97 153
62 99 166
61 97 158
61 96 155
61 97 153
62 98 163
61 97 162
61 97 158
61 96 150
61 97 163
62 98 161
61 96 152
61 96 154
60 95 154
61 96 153
61 96 153
62 97 159
60 95 151
60 94 150
61 95 158
60 93 149
59 93 152
59 93 152
59 93 152
60 94 158
59 91 147
58 90 148
57 89 148
130 151 187
212 231 255
212 231 255
212 231 255
212 231 255
212 231 255
213 231 255
213 231 255
213 231 255
213 231 255
213 231 255
213 231 255
213 231 255
213 231 255
213 231 255
213 231 255
213 231 255
213 231 255
210 228 252
154 156 133
126 124 81
127 125 82
125 123 83
128 127 87
133 132 91
126 125 86
125 125 88
131 131 90
119 119 83
135 136 94
126 126 88
128 127 87
129 130 90
142 142 98
133 133 92
145 145 98
144 142 96
147 146 99
142 142 97
142 141 96
152 149 100
148 146 98
144 143 95
135 135 94
140 139 95
151 149 100
154 153 101
149 148 101
152 150 100
156 154 101
153 151 101
159 155 103
150 148 97
160 158 103
158 155 102
161 158 105
150 147 96
164 161 104
159 156 101
161 157 103
164 161 104
166 162 105
164 160 103
165 162 106
159 156 101
170 166 109
173 168 107
164 159 104
158 155 99
164 160 103
168 163 107
169 164 102
168 163 103
172 167 106
171 166 104
172 167 107
170 166 108
168 163 107
174 169 110
171 166 106
170 166 105
169 165 104
169 164 105
172 167 107
168 163 103
168 163 104
172 166 105
168 165 104
170 165 103
164 159 100
171 165 103
169 164 104
167 163 103
167 162 104
166 161 99
165 160 100
167 162 98
168 164 103
170 165 104
168 163 100
171 166 103
166 161 100
168 162 100
170 166 105
172 167 106
167 163 100
167 163 104
165 160 101
170 165 101
171 166 99
165 160 100
166 161 99
171 165 104
166 161 99
164 159 98
169 164 99
169 164 102
166 160 98
166 161 98
165 159 99
166 160 99
166 161 101
160 155 94
166 161 98
167 162 99
170 165 100
171 165 102
159 154 93
169 164 97
157 152 95
161 156 99
168 162 99
163 157 96
167 161 101
166 161 99
162 157 96
160 155 94
159 154 93
150 146 90
159 154 93
165 159 97
160 155 93
156 151 91
163 156 97
159 154 92
142 139 81
162 156 95
163 157 95
159 154 88
158 152 89
161 154 89
163 158 92
150 145 84
160 155 90
158 153 88
152 147 90
156 149 91
154 150 93
185 203 228
184 203 228
184 203 228
184 203 228
184 203 228
183 202 228
183 203 228
182 202 228
183 203 228
182 202 228
183 202 228
182 202 228
182 202 228
183 202 228
182 202 228
182 202 228
182 202 228
182 202 228
180 201 228
181 201 228
181 201 228
181 201 228
181 201 228
180 201 228
181 201 228
180 201 228
181 202 228
179 200 228
180 201 228
180 201 228
179 200 228
179 200 228
180 201 228
179 200 228
179 200 228
179 200 228
178 200 228
178 200 228
180 201 228
178 199 228
178 200 228
177 199 228
178 200 228
177 199 228
178 200 228
177 199 228
177 199 228
177 199 228
177 199 228
177 199 228
177 199 228
177 199 228
177 199 228
175 198 228
177 199 228
176 199 228
176 199 228
176 199 228
176 198 228
175 198 228
175 198 228
176 199 228
175 198 228
175 198 228
175 198 228
174 198 228
174 198 228
174 198 228
174 198 228
174 198 228
174 198 228
174 197 228
174 198 228
174 198 228
174 198 228
173 197 228
174 197 228
173 197 228
173 197 228
172 197 228
173 197 228
173 197 228
173 197 228
172 197 228
173 197 228
172 197 228
172 196 228
173 197 228
173 197 228
171 196 228
171 196 228
171 196 228
172 196 228
171 196 228
171 196 228
171 196 228
171 196 228
171 196 228
171 196 228
171 196 228
172 196 228
171 196 228
171 196 228
171 196 228
171 196 228
171 196 228
170 196 228
172 197 228
171 196 228
171 196 228
171 196 228
171 196 228
170 196 228
171 196 228
171 196 228
171 196 228
171 196 228
172 196 228
172 197 228
172 197 228
172 196 228
173 197 228
172 196 228
173 197 228
173 197 228
173 197 228
173 197 228
173 197 228
175 198 228
175 198 228
176 199 228
175 198 228
177 199 228
177 199 228
179 200 228
179 200 228
181 201 228
170 188 213
162 179 202
189 206 229
213 231 255
213 231 255
213 231 255
213 231 255
213 231 255
213 231 255
213 231 255
213 231 255
213 231 255
213 231 255
213 231 255
213 231 255
213 231 255
213 231 255
213 231 255
213 231 255
181 200 233
59 95 167
60 96 163
59 95 158
61 97 165
58 92 150
61 96 152
60 96 156
62 98 164
61 97 156
62 97 165
61 97 159
61 96 156
60 95 147
63 98 162
61 96 151
61 96 155
62 97 160
61 96 156
60 96 147
61 97 161
60 96 148
61 97 153
62 98 163
61 97 157
60 96 153
62 98 160
61 97 160
62 98 163
61 97 154
62 98 159
61 97 156
62 98 165
62 98 167
62 98 162
61 97 161
62 98 160
62 97 154
62 98 159
62 97 154
62 98 156
62 97 153
61 96 152
62 98 161
62 97 156
60 96 152
62 97 154
61 96 152
61 96 148
62 97 158
61 97 153
61 96 154
62 97 161
61 97 156
61 96 150
61 97 152
62 98 160
62 97 157
61 97 154
62 98 159
61 96 153
60 95 148
62 98 162
60 96 153
60 95 152
61 95 152
62 97 156
61 96 159
61 97 155
61 96 149
62 97 164
61 97 155
61 95 150
60 94 152
62 96 162
61 95 151
61 96 157
60 93 152
59 92 147
60 94 151
60 94 159
60 93 146
59 92 145
59 92 152
60 93 150
58 91 149
59 92 151
188 206 233
213 231 255
213 231 255
213 231 255
213 231 255
213 231 255
213 231 255
213 231 255
213 231 255
213 231 255
213 231 255
213 231 255
213 231 255
213 231 255
213 231 255
213 231 255
213 231 255
166 175 178
128 126 81
120 119 81
129 128 86
118 117 80
124 123 82
129 128 89
126 126 87
122 123 87
134 134 92
128 128 89
134 134 92
137 138 94
133 134 93
134 133 92
133 133 92
140 139 94
145 144 98
138 137 93
132 133 92
142 141 96
139 140 96
141 140 95
150 148 99
149 147 98
151 149 99
158 155 103
139 137 92
148 146 96
154 151 100
156 153 102
158 155 104
160 157 102
156 153 101
156 154 104
158 155 104
158 156 104
166 163 107
161 157 101
159 156 103
157 154 102
163 160 105
161 158 102
162 159 105
166 162 103
164 161 103
162 159 103
167 163 104
168 164 106
164 160 103
166 162 104
170 166 108
169 164 103
166 162 102
166 162 103
168 164 106
173 168 110
174 169 107
171 166 106
170 165 104
170 165 105
169 164 102
173 168 106
170 165 106
169 165 105
170 166 107
169 165 105
169 164 104
169 165 102
164 160 99
170 164 102
171 166 105
171 166 106
169 165 104
170 165 101
171 166 106
168 164 104
171 166 105
171 166 107
167 162 101
173 167 104
169 164 101
167 163 103
169 164 104
170 165 104
166 161 101
169 165 103
172 166 103
171 165 102
172 166 103
173 168 107
168 163 101
169 163 101
168 163 97
169 163 99
168 163 101
171 165 101
169 164 101
157 154 95
173 168 105
176 169 104
168 164 102
159 154 91
165 161 101
165 159 96
161 156 95
165 159 97
161 156 93
158 153 93
161 156 96
154 149 91
168 161 97
158 152 91
168 161 100
165 159 93
162 158 91
161 156 93
163 158 95
168 161 97
167 160 95
160 154 94
158 152 91
163 156 95
165 159 95
160 154 91
157 152 87
162 157 94
158 153 91
161 156 94
147 142 83
158 153 93
161 156 95
153 147 86
164 158 97
159 153 92
154 148 88
154 149 88
156 150 90
158 152 90
161 156 97
185 204 228
183 202 228
184 203 228
184 203 228
184 203 228
183 203 228
184 203 228
183 202 228
183 202 228
183 202 228
182 202 228
182 202 228
182 202 228
183 203 228
183 202 228
182 202 228
182 202 228
183 202 228
182 202 228
182 202 228
182 202 228
181 201 228
182 202 228
181 201 228
181 201 228
181 202 228
180 201 228
181 201 228
180 201 228
181 201 228
180 201 228
181 201 228
180 201 228
179 201 228
179 200 228
180 201 228
179 200 228
179 200 228
179 200 228
179 200 228
178 200 228
179 200 228
179 200 228
178 200 228
178 200 228
178 200 228
177 199 228
179 200 228
178 200 228
177 199 228
177 199 228
178 200 228
177 199 228
178 200 228
176 199 228
177 199 228
178 200 228
175 198 228
176 199 228
176 199 228
176 199 228
176 199 228
176 199 228
176 199 228
176 199 228
175 198 228
176 199 228
175 198 228
175 198 228
175 198 228
175 198 228
175 198 228
174 198 228
175 198 228
174 198 228
174 197 228
174 197 228
174 198 228
174 197 228
174 198 228
173 197 228
173 197 228
173 197 228
174 197 228
173 197 228
173 197 228
172 197 228
173 197 228
173 197 228
173 197 228
173 197 228
173 197 228
173 197 228
172 197 228
172 197 228
173 197 228
173 197 228
173 197 228
172 196 228
172 196 228
172 197 228
172 196 228
172 196 228
171 196 228
171 196 228
172 196 228
172 196 228
171 196 228
171 196 228
172 196 228
172 196 228
171 196 228
172 196 228
171 196 228
172 197 228
172 197 228
172 197 228
172 197 228
173 197 228
173 197 228
172 197 228
173 197 228
173 197 228
172 196 228
172 196 227
171 195 227
174 198 228
170 194 226
172 195 227
173 196 227
175 198 228
176 199 228
176 199 228
177 199 228
177 199 228
179 200 228
180 201 228
181 201 228
171 190 214
159 176 198
205 222 246
213 231 255
213 231 255
213 231 255
213 231 255
213 231 255
213 231 255
213 231 255
213 231 255
213 231 255
213 231 255
213 231 255
213 231 255
213 231 255
213 231 255
207 225 250
83 112 175
60 95 163
59 94 159
59 94 152
60 96 163
60 96 156
60 95 159
59 94 154
62 97 163
61 97 163
61 96 156
60 95 153
60 96 155
61 97 158
61 97 161
60 95 155
62 98 159
61 95 154
61 96 155
62 98 162
61 97 155
62 97 159
61 97 158
62 97 154
61 96 154
60 95 146
62 98 158
61 96 152
61 97 153
62 98 160
61 97 152
62 98 161
62 97 151
62 97 152
61 96 152
61 97 158
61 96 150
60 96 150
61 97 155
62 98 161
61 97 153
61 97 154
62 97 160
61 97 152
61 97 155
60 96 152
61 97 150
61 97 155
62 97 158
62 98 159
62 97 152
61 96 149
62 97 157
61 97 151
61 96 148
61 97 157
61 96 151
62 97 160
61 96 152
60 96 145
61 96 150
62 97 155
61 97 154
61 97 158
61 96 150
61 96 159
61 96 158
61 96 156
60 95 152
61 97 157
62 97 156
60 95 150
61 96 160
61 96 157
61 96 160
58 92 145
61 95 155
60 94 150
61 96 157
60 93 147
59 93 144
58 91 146
61 95 159
59 93 152
61 96 158
58 91 150
57 90 151
89 113 157
211 229 254
213 231 255
213 231 255
213 231 255
213 231 255
213 231 255
213 231 255
213 231 255
213 231 255
213 231 255
213 231 255
213 231 255
213 231 255
213 231 255
213 231 255
194 207 221
130 127 85
126 125 84
120 119 79
120 118 79
120 121 85
117 117 81
131 131 89
123 123 86
119 120 83
136 135 92
130 130 89
125 125 86
133 132 90
127 127 88
135 134 92
131 131 90
139 139 95
127 126 87
137 137 95
148 147 99
141 140 95
146 145 99
145 144 98
148 146 98
154 152 103
152 149 99
155 152 101
146 144 95
148 146 96
151 150 102
159 157 102
155 152 101
145 144 96
157 154 101
156 152 101
155 151 96
153 150 98
151 148 95
156 153 100
158 154 99
164 161 107
166 162 106
163 159 102
167 162 103
164 161 105
168 163 104
163 159 97
170 166 109
166 163 103
169 165 108
167 163 105
167 163 102
168 163 104
169 164 104
169 164 100
168 163 102
168 163 103
174 169 108
165 161 101
170 165 103
166 161 100
167 162 100
168 164 103
169 165 104
172 167 104
172 167 107
168 163 101
170 164 104
172 167 103
169 164 100
168 163 103
174 168 107
168 164 102
171 166 103
169 164 100
169 163 102
166 161 99
173 167 106
172 167 102
173 167 105
171 165 101
168 164 101
166 162 97
167 162 99
170 164 101
166 161 95
168 163 99
165 161 99
167 162 99
174 168 104
171 166 104
164 158 99
167 162 103
166 160 98
169 163 102
169 163 102
170 164 98
163 158 99
167 163 101
167 162 103
163 157 95
163 158 93
164 159 98
168 162 99
158 153 91
163 158 97
164 159 94
158 154 93
170 164 101
168 163 101
165 160 97
159 153 91
161 157 96
163 158 95
160 155 93
156 151 93
161 156 95
168 162 98
167 161 97
155 150 87
159 154 96
154 149 88
159 154 92
163 158 96
161 156 95
155 150 87
162 157 93
160 155 90
163 157 93
159 153 89
152 147 91
160 155 91
157 151 89
148 144 84
159 153 93
161 156 95
151 147 84
154 149 87
155 150 90
158 152 91
184 203 228
186 204 228
185 203 228
185 203 228
185 203 228
185 203 228
184 203 228
185 203 228
183 203 228
183 202 228
184 203 228
182 202 228
184 203 228
183 203 228
183 202 228
182 202 228
184 203 228
183 202 228
183 202 228
183 202 228
182 202 228
183 202 228
182 202 228
181 201 228
182 202 228
182 202 228
181 201 228
182 202 228
181 201 228
181 201 228
180 201 228
181 202 228
180 201 228
181 202 228
181 201 228
180 201 228
180 201 228
180 201 228
180 201 228
179 200 228
178 200 228
179 200 228
179 200 228
178 200 228
179 200 228
179 200 228
178 200 228
179 200 228
177 199 228
178 200 228
178 200 228
179 200 228
177 199 228
178 200 228
179 200 228
178 200 228
177 199 228
178 200 228
177 199 228
176 199 228
177 199 228
176 199 228
176 199 228
176 199 228
176 199 228
177 199 228
177 199 228
176 198 228
177 199 228
176 198 228
175 198 228
175 198 228
176 198 228
175 198 228
175 198 228
175 198 228
175 198 228
175 198 228
175 198 228
174 198 228
174 198 228
174 198 228
175 198 228
175 198 228
174 197 228
174 197 228
172 197 228
174 197 228
174 197 228
173 197 228
174 198 228
174 197 228
173 197 228
174 198 228
173 197 228
174 197 228
174 197 228
172 197 228
173 197 228
173 197 228
173 197 228
171 196 228
172 196 228
173 197 228
173 197 228
173 197 228
173 197 228
173 197 228
172 197 228
172 196 228
173 197 228
172 197 228
172 196 228
173 197 228
172 197 228
173 197 228
173 197 228
173 197 228
173 197 228
173 197 228
173 197 228
172 196 227
170 194 227
169 193 226
168 191 224
170 194 225
169 192 224
167 190 223
165 188 221
168 191 223
169 192 224
171 193 224
175 198 227
175 197 227
178 200 228
179 200 228
181 201 228
181 201 228
174 194 219
174 192 217
169 185 207
211 228 252
214 231 255
214 231 255
214 231 255
214 231 255
214 231 255
213 231 255
213 231 255
213 231 255
213 231 255
213 231 255
213 231 255
213 231 255
213 231 255
141 161 203
58 93 157
59 95 159
60 95 163
61 96 162
60 96 161
60 96 158
60 95 158
60 95 158
60 96 156
60 95 150
61 96 157
61 97 161
61 96 154
62 97 156
61 97 163
60 96 150
60 96 150
61 97 154
61 97 160
61 97 155
62 97 159
61 97 156
61 97 156
60 95 147
61 97 155
61 97 155
61 97 159
61 97 155
61 97 153
61 97 157
61 96 148
62 98 161
62 98 160
62 97 155
63 98 158
61 97 156
61 96 151
61 96 147
63 99 163
61 97 155
62 97 154
62 98 160
62 97 154
62 97 155
62 98 161
63 98 155
61 96 155
61 96 145
62 97 154
62 97 153
62 98 161
62 98 157
61 97 152
61 96 154
61 97 153
61 97 153
60 96 150
61 97 150
62 98 164
61 97 154
61 96 153
60 96 148
61 96 156
62 97 156
62 97 158
61 96 156
61 96 158
61 96 152
60 95 156
60 94 151
61 95 151
60 96 150
61 95 149
61 96 156
60 94 148
59 94 149
61 96 154
62 97 158
58 92 142
60 95 154
60 94 151
60 94 151
60 93 151
60 93 148
58 91 144
58 89 142
58 92 148
58 89 141
151 171 208
213 231 255
213 231 255
213 231 255
213 231 255
213 231 255
213 231 255
213 231 255
214 231 255
214 231 255
214 231 255
214 231 255
214 231 255
214 231 255
212 229 253
139 140 112
122 120 78
127 126 84
120 120 82
113 113 76
119 120 85
125 125 87
129 129 88
131 131 91
124 124 86
127 128 88
124 125 88
126 127 88
114 114 77
135 134 92
129 130 90
128 127 87
137 136 93
134 134 93
134 134 91
136 135 92
143 142 94
143 143 97
148 147 97
147 145 96
144 143 95
154 152 101
146 144 97
151 149 99
151 148 98
157 155 102
152 150 98
157 154 100
156 154 101
157 154 99
161 157 102
160 156 101
165 162 105
160 156 100
160 157 100
165 161 103
157 154 101
164 161 105
160 157 103
159 156 102
162 158 102
165 161 101
166 161 104
166 161 103
166 162 101
162 158 100
166 162 103
167 162 102
167 163 104
164 160 103
170 165 107
165 161 103
169 165 104
169 163 102
170 165 104
166 162 100
170 166 106
170 165 104
168 164 103
174 168 107
173 168 108
169 166 103
176 169 107
163 158 98
172 167 102
169 165 104
169 164 102
172 167 104
172 166 105
170 163 102
173 167 104
173 168 105
169 164 101
170 165 104
171 166 103
165 161 97
173 167 104
168 163 101
173 167 104
174 167 107
170 165 102
167 162 99
169 163 101
170 165 104
173 167 103
170 164 99
164 159 98
167 161 97
168 163 100
166 163 102
170 165 103
167 162 93
167 161 99
169 164 101
168 161 97
162 157 95
167 162 99
163 158 95
167 162 99
165 160 98
167 161 96
167 161 95
168 162 97
167 161 97
162 157 95
166 160 95
159 154 90
164 159 96
167 160 96
162 157 90
165 159 97
158 153 92
155 150 90
157 152 87
162 156 93
167 160 99
160 155 95
161 156 96
164 158 94
157 151 94
160 154 93
155 150 90
162 156 95
162 157 93
155 150 90
163 157 97
159 154 90
159 154 87
156 152 90
164 160 95
160 154 89
162 156 87
158 153 88
154 148 84
163 157 95
160 154 93
185 204 228
185 203 228
185 204 228
185 203 228
184 203 228
185 203 228
184 203 228
185 203 228
185 203 228
185 203 228
184 203 228
184 203 228
184 203 228
184 203 228
184 203 228
183 202 228
183 202 228
183 203 228
183 202 228
183 203 228
183 202 228
183 202 228
182 202 228
182 202 228
182 202 228
183 202 228
181 201 228
182 202 228
182 202 228
182 202 228
182 202 228
181 201 228
182 202 228
181 202 228
181 201 228
181 201 228
182 202 228
180 201 228
180 201 228
180 201 228
180 201 228
179 200 228
179 200 228
180 201 228
179 200 228
179 200 228
179 200 228
180 201 228
179 200 228
179 200 228
179 200 228
179 200 228
178 200 228
177 199 228
178 200 228
179 200 228
179 200 228
178 200 228
178 200 228
178 200 228
178 200 228
178 200 228
177 199 228
178 199 228
177 199 228
178 200 228
177 199 228
176 199 228
177 199 228
178 199 228
177 199 228
176 199 228
176 199 228
176 198 228
175 198 228
176 199 228
175 198 228
176 198 228
176 199 228
175 198 228
176 199 228
175 198 228
175 198 228
175 198 228
174 198 228
174 198 228
174 198 228
174 198 228
174 198 228
175 198 228
174 198 228
174 198 228
174 198 228
174 197 228
174 197 228
175 198 228
174 197 228
174 197 228
174 198 228
174 198 228
173 197 228
173 197 228
174 197 228
173 197 228
174 198 228
173 197 228
174 197 228
174 198 228
173 197 228
174 198 228
173 197 228
172 197 228
173 197 228
173 197 228
173 197 228
173 197 228
174 197 228
174 197 228
173 197 228
172 195 227
172 196 227
169 193 224
164 188 221
167 191 222
164 188 221
167 191 224
166 189 223
162 185 220
164 188 221
157 180 214
161 184 218
165 187 220
168 190 222
171 193 223
174 195 224
176 197 226
179 201 228
181 201 228
182 201 227
177 195 219
162 178 200
180 196 217
214 231 255
214 231 255
214 231 255
214 231 255
214 231 255
214 231 255
214 231 255
214 231 255
214 231 255
214 231 255
214 231 255
214 231 255
201 219 246
67 98 155
59 93 161
59 95 161
59 93 152
59 94 154
60 95 155
60 95 155
61 96 158
60 95 154
59 94 153
61 97 162
60 95 147
60 96 161
61 97 159
61 97 158
59 94 151
61 96 155
62 97 160
61 97 151
61 96 151
61 97 158
60 96 149
63 98 161
61 96 151
61 97 151
61 96 148
61 97 157
61 97 154
62 97 156
62 97 159
61 97 157
61 97 155
61 97 150
61 97 154
60 96 143
60 96 150
61 97 158
61 96 148
61 97 154
62 98 159
61 97 155
62 98 163
61 97 155
61 97 151
62 98 158
62 98 154
62 98 161
62 97 153
62 98 155
61 97 155
62 97 158
62 98 162
62 98 156
61 97 156
61 97 153
62 98 155
60 96 151
61 96 150
62 98 158
61 96 150
61 96 150
59 94 142
62 97 155
62 97 155
61 96 153
60 96 155
61 96 152
60 95 146
60 95 157
61 96 161
61 96 154
61 96 158
62 96 159
62 97 149
61 95 147
61 97 159
61 96 157
60 94 149
61 96 155
60 94 148
59 93 148
59 93 150
60 94 151
59 92 150
60 93 144
60 93 148
59 92 152
58 90 144
58 92 156
68 97 152
202 220 247
214 231 255
214 231 255
214 231 255
214 231 255
214 231 255
214 231 255
214 231 255
214 231 255
214 231 255
214 231 255
214 231 255
214 231 255
175 184 182
121 119 78
123 121 82
122 121 81
119 118 80
114 115 80
130 131 90
126 126 87
113 115 80
118 118 81
126 127 89
130 131 91
133 133 93
141 142 98
124 125 87
133 134 93
133 134 92
135 135 92
141 141 94
140 139 94
135 134 91
131 131 88
147 146 99
141 140 95
130 131 92
140 139 94
144 142 95
151 149 97
146 145 97
152 150 101
145 143 95
155 153 101
149 147 98
155 152 99
151 148 94
154 151 100
155 152 100
159 156 102
159 156 100
165 161 105
159 156 99
161 158 103
161 157 99
161 157 100
165 161 102
167 163 105
163 160 102
165 160 102
163 160 105
166 162 104
168 163 105
167 162 101
165 160 101
165 162 103
163 158 96
166 161 103
169 164 103
166 162 97
170 165 104
173 166 106
173 168 104
165 161 103
171 167 106
171 165 103
170 165 103
169 164 103
172 167 104
168 163 103
173 169 107
172 167 103
171 165 99
170 166 104
169 163 101
169 165 102
172 167 103
172 168 104
177 169 103
172 165 102
168 164 97
171 165 103
172 166 104
172 167 104
168 163 103
169 165 103
175 169 103
167 163 99
168 163 100
168 163 100
166 161 99
171 165 101
165 160 97
165 159 97
161 156 95
167 161 95
171 166 99
165 159 96
170 164 101
161 157 94
170 165 100
164 159 96
166 160 93
162 158 95
163 158 93
165 160 101
159 154 93
165 160 98
169 164 100
169 164 98
165 159 97
158 153 92
166 161 95
164 159 95
163 158 95
165 160 97
166 160 93
169 163 99
161 157 96
162 157 95
164 158 97
160 155 97
166 161 99
161 156 93
154 149 87
161 156 90
160 153 93
161 156 95
156 150 84
155 150 87
164 157 91
160 155 92
157 152 92
154 149 87
163 157 95
157 151 89
150 145 87
164 158 93
157 152 93
153 148 87
155 150 87
148 144 83
152 146 87
169 162 98
186 204 228
186 204 228
186 204 228
185 203 228
186 204 228
185 204 228
185 203 228
184 203 228
184 203 228
185 203 228
185 204 228
185 203 228
184 203 228
184 203 228
184 203 228
183 202 228
183 202 228
185 203 228
183 203 228
184 203 228
183 203 228
183 203 228
182 202 228
182 202 228
182 202 228
183 202 228
183 202 228
183 202 228
182 202 228
182 202 228
182 202 228
182 202 228
182 202 228
181 201 228
182 202 228
182 202 228
183 202 228
182 202 228
182 202 228
181 201 228
180 201 228
180 201 228
182 202 228
181 201 228
180 201 228
181 201 228
179 200 228
180 201 228
179 200 228
180 201 228
179 200 228
180 201 228
179 200 228
179 200 228
179 200 228
179 200 228
180 201 228
179 200 228
179 200 228
178 200 228
179 200 228
179 200 228
179 200 228
177 199 228
177 199 228
178 199 228
178 200 228
177 199 228
177 199 228
177 199 228
176 199 228
177 199 228
177 199 228
176 199 228
176 199 228
177 199 228
177 199 228
175 198 228
176 199 228
176 199 228
176 198 228
176 198 228
176 199 228
176 198 228
176 199 228
175 198 228
176 198 228
175 198 228
175 198 228
176 199 228
175 198 228
175 198 228
175 198 228
174 198 228
174 198 228
174 198 228
175 198 228
173 197 228
175 198 228
174 198 228
174 198 228
174 198 228
175 198 228
175 198 228
174 198 228
174 198 228
174 198 228
174 198 228
174 198 228
174 198 228
174 198 228
174 198 228
174 198 228
174 198 228
175 198 228
174 198 228
174 198 228
174 197 228
170 193 225
171 195 227
167 190 223
162 186 219
165 189 222
161 184 217
164 188 220
160 183 218
160 183 217
154 177 213
160 183 218
154 177 212
157 180 214
159 181 215
160 182 215
161 184 217
162 184 217
172 194 224
178 199 227
181 201 228
182 202 228
181 200 225
179 197 221
157 172 193
203 220 243
214 232 255
214 232 255
214 232 255
214 232 255
214 232 255
214 232 255
214 232 255
214 231 255
214 231 255
214 231 255
214 231 255
129 150 195
59 94 161
59 95 161
59 94 152
59 94 149
60 95 161
61 96 158
60 95 155
61 97 160
60 95 156
60 95 150
60 94 153
62 97 156
60 95 150
60 96 155
61 97 156
60 96 153
60 95 149
60 96 150
61 96 154
62 97 159
61 97 158
61 97 160
62 98 165
61 96 149
62 97 153
61 97 156
62 97 156
61 97 155
62 98 161
61 97 151
62 97 155
60 96 149
60 96 147
62 98 158
62 97 155
61 96 151
62 97 153
60 96 152
59 94 140
61 97 154
63 99 161
61 97 154
61 97 155
61 97 148
61 97 154
61 96 158
61 96 155
60 95 153
61 97 151
61 97 153
63 98 160
62 98 163
62 97 157
61 96 152
61 97 158
62 97 152
61 96 151
62 97 154
62 98 159
61 97 155
61 97 153
61 96 151
60 95 140
63 99 163
60 95 144
60 96 149
61 97 154
61 96 149
61 95 146
61 96 150
60 95 155
60 95 151
60 95 149
60 95 152
61 96 153
61 96 155
61 96 154
58 92 138
60 94 150
59 93 139
60 94 149
60 94 152
61 95 157
60 94 148
60 94 151
60 94 151
59 92 151
59 93 144
57 90 143
55 86 130
133 152 187
214 231 255
214 231 255
214 231 255
214 231 255
214 232 255
214 232 255
214 232 255
214 232 255
214 232 255
214 232 255
214 232 255
198 213 231
110 109 73
117 115 77
116 116 77
113 113 77
115 115 78
120 121 84
126 126 87
106 108 78
134 135 93
128 128 88
126 127 88
139 138 94
122 123 86
130 131 91
132 132 91
123 123 83
129 130 91
136 136 93
124 124 84
135 134 91
131 131 89
142 141 95
140 139 95
142 141 95
148 146 98
150 147 94
154 151 99
151 149 99
154 151 98
149 146 96
147 145 97
156 153 100
159 156 100
151 148 95
160 157 103
151 148 95
157 153 100
157 154 100
160 157 100
168 163 106
160 157 101
159 156 101
160 156 101
165 160 101
159 157 101
166 161 103
163 159 101
170 166 107
165 161 101
165 161 103
162 160 99
170 165 106
171 166 106
164 159 98
172 167 106
165 161 102
172 167 105
165 161 102
169 164 100
169 164 102
170 165 102
167 162 100
172 167 106
168 164 103
173 167 103
169 165 104
169 164 102
167 163 105
170 165 103
172 167 105
169 164 97
169 165 101
172 167 104
170 165 99
164 160 97
173 169 105
167 162 100
172 166 100
170 165 102
170 166 100
174 168 105
172 167 103
166 162 97
172 166 99
168 164 100
167 162 94
168 162 99
170 166 101
172 166 100
172 166 102
165 159 97
167 161 100
167 161 97
171 163 101
172 167 103
171 165 100
171 166 101
165 159 97
163 159 95
168 162 98
163 159 95
164 159 94
165 159 98
173 167 99
165 159 97
168 162 95
166 159 97
165 159 93
165 160 97
167 160 99
167 160 96
165 159 95
169 161 95
167 160 97
159 155 91
166 160 99
170 163 96
162 157 92
160 155 91
165 159 96
156 152 90
161 156 93
156 152 87
160 156 93
162 156 90
157 152 89
160 155 92
158 152 93
161 155 91
162 156 90
155 152 87
151 146 88
164 158 97
162 155 94
162 157 92
157 152 91
154 148 84
157 152 88
157 151 93
158 152 90
161 157 92
157 151 86
185 204 228
186 204 228
186 204 228
186 204 228
185 203 228
186 204 228
185 204 228
185 204 228
185 204 228
185 204 228
185 203 228
184 203 228
184 203 228
185 204 228
185 203 228
184 203 228
185 203 228
184 203 228
184 203 228
183 203 228
184 203 228
185 203 228
184 203 228
185 203 228
184 203 228
183 202 228
183 202 228
182 202 228
183 202 228
183 203 228
183 202 228
182 202 228
183 202 228
182 202 228
182 202 228
183 203 228
183 202 228
182 202 228
182 202 228
182 202 228
183 202 228
181 201 228
180 201 228
181 201 228
182 202 228
181 201 228
181 202 228
181 201 228
181 201 228
181 201 228
180 201 228
181 201 228
181 201 228
179 200 228
180 201 228
180 201 228
179 200 228
179 200 228
180 201 228
181 201 228
179 200 228
178 200 228
178 200 228
178 200 228
178 200 228
178 200 228
178 200 228
178 200 228
178 200 228
179 200 228
177 199 228
178 200 228
178 200 228
177 199 228
178 199 228
178 199 228
177 199 228
177 199 228
177 199 228
177 199 228
177 199 228
177 199 228
178 200 228
176 199 228
176 199 228
177 199 228
176 199 228
177 199 228
176 199 228
176 199 228
177 199 228
175 198 228
176 199 228
177 199 228
175 198 228
176 199 228
175 198 228
176 198 228
175 198 228
176 199 228
176 198 228
175 198 228
175 198 228
175 198 228
175 198 228
176 198 228
175 198 228
175 198 228
175 198 228
175 198 228
174 198 228
176 198 228
175 198 228
174 198 228
176 199 228
175 198 228
173 196 227
171 194 225
170 193 224
163 187 220
161 185 218
155 178 214
157 181 216
160 184 218
154 177 212
149 173 209
152 175 211
147 170 206
148 171 208
149 172 208
143 166 205
150 173 208
147 170 207
152 174 209
155 177 212
164 186 217
173 194 223
175 195 224
181 201 228
182 202 228
182 200 225
170 187 209
171 186 207
214 232 255
214 232 255
214 232 255
214 232 255
214 232 255
214 232 255
214 232 255
214 232 255
214 232 255
214 232 255
197 215 243
64 95 159
59 93 151
59 94 157
60 95 161
60 96 158
61 97 162
61 97 166
60 95 157
60 96 152
60 95 154
60 96 150
61 96 159
60 95 151
60 95 152
61 96 154
59 94 151
62 97 155
60 95 142
62 97 155
62 97 158
62 97 156
60 96 155
60 96 146
61 97 155
62 97 158
61 96 147
61 97 156
60 96 153
61 96 149
61 97 157
61 97 153
61 96 152
63 98 156
62 98 155
62 98 159
62 97 154
60 96 145
60 95 144
62 98 157
61 97 155
62 99 166
62 97 155
61 97 153
61 97 153
62 98 156
62 98 155
61 97 156
62 98 155
60 96 147
62 98 159
60 95 143
61 96 148
62 97 154
62 98 154
62 98 152
61 95 142
62 98 157
62 97 154
61 96 147
61 97 154
61 96 151
61 96 152
61 96 149
61 96 152
61 96 153
61 96 150
61 96 155
61 96 149
61 96 150
61 97 155
61 95 153
61 96 147
61 96 156
61 96 152
60 95 150
60 94 144
60 95 152
60 95 149
59 93 151
59 93 145
57 90 142
60 95 154
61 95 152
59 94 144
60 94 150
58 91 144
61 96 156
58 90 144
59 92 142
57 89 141
56 86 133
60 90 142
198 216 243
214 232 255
214 232 255
214 232 255
214 232 255
214 232 255
214 232 255
214 232 255
214 232 255
214 232 255
214 232 255
148 151 135
117 114 75
116 114 77
126 125 86
117 115 76
112 112 79
111 113 80
124 125 88
121 122 86
114 116 83
124 125 88
118 119 83
128 130 90
113 114 80
128 129 90
123 125 88
120 122 84
127 128 88
134 134 90
134 134 91
137 137 92
141 140 95
133 133 92
138 137 91
142 141 95
146 143 94
140 139 95
143 142 97
152 150 101
157 154 100
151 148 97
152 150 100
148 146 95
152 151 98
155 153 100
154 152 99
156 154 102
155 152 99
160 156 100
159 155 100
159 156 100
160 157 102
163 159 103
169 164 104
162 158 98
165 160 98
163 159 101
167 163 103
163 160 103
164 160 99
165 161 103
170 166 105
168 164 105
168 163 106
166 162 103
171 166 104
174 168 107
169 164 99
169 165 104
172 166 103
169 164 103
171 167 103
173 168 105
171 165 99
169 165 102
172 167 102
168 163 104
171 166 106
172 165 105
171 166 103
173 168 105
175 169 104
173 168 100
167 162 99
173 167 102
170 165 100
172 166 102
172 167 106
170 164 101
169 163 99
170 164 103
172 165 99
174 169 104
175 170 108
169 164 102
174 169 107
163 158 97
177 170 106
168 163 101
171 165 99
168 162 100
173 165 104
164 160 95
167 163 101
171 166 97
167 162 96
167 161 98
168 162 93
169 163 97
170 163 99
172 166 100
170 164 99
162 157 93
166 160 97
169 162 101
161 157 94
161 157 93
167 162 100
164 159 95
164 159 93
166 161 97
170 164 99
162 156 93
168 163 100
166 161 96
160 154 88
162 157 92
167 161 95
168 162 97
168 162 97
156 151 90
158 153 93
164 159 90
170 164 100
156 152 90
164 158 93
160 155 88
167 160 92
165 158 96
164 158 93
162 157 92
169 163 96
168 161 97
162 156 90
157 152 89
167 161 96
165 158 93
155 150 84
151 147 83
157 152 89
156 150 88
159 154 89
159 153 93
187 205 228
186 204 228
187 204 228
187 205 228
185 204 228
187 204 228
186 204 228
187 204 228
186 204 228
186 204 228
186 204 228
185 204 228
185 204 228
185 204 228
185 203 228
185 203 228
186 204 228
185 204 228
185 204 228
184 203 228
184 203 228
183 203 228
185 203 228
185 203 228
184 203 228
183 203 228
184 203 228
184 203 228
183 202 228
184 203 228
183 202 228
182 202 228
184 203 228
183 203 228
182 202 228
183 203 228
183 202 228
182 202 228
182 202 228
183 202 228
183 202 228
182 202 228
182 202 228
181 201 228
181 202 228
182 202 228
181 201 228
182 202 228
181 201 228
181 201 228
181 202 228
181 201 228
181 201 228
181 201 228
179 200 228
181 201 228
181 201 228
180 201 228
180 201 228
180 201 228
180 201 228
178 200 228
180 201 228
180 201 228
179 200 228
180 201 228
180 201 228
180 201 228
180 201 228
179 200 228
180 201 228
179 200 228
179 200 228
178 200 228
179 200 228
179 200 228
178 200 228
177 199 228
178 200 228
177 199 228
177 199 228
178 200 228
177 199 228
177 199 228
178 200 228
177 199 228
177 199 228
176 199 228
178 200 228
177 199 228
177 199 228
177 199 228
176 199 228
177 199 228
176 199 228
176 199 228
177 199 228
177 199 228
176 199 228
176 198 228
176 199 228
176 198 228
176 199 228
176 199 228
176 199 228
176 199 228
175 198 228
176 199 228
176 199 228
176 199 228
176 198 228
175 198 228
176 198 228
177 199 228
176 199 228
175 197 227
171 194 224
168 192 224
167 190 221
167 190 222
165 188 220
158 181 215
160 183 218
148 171 207
156 179 215
137 160 199
138 161 201
151 175 211
144 167 203
137 160 200
139 162 201
140 163 201
144 167 204
153 176 212
150 172 207
159 180 214
160 181 213
170 190 220
169 189 218
181 200 227
183 202 228
182 200 224
171 187 209
197 213 236
215 232 255
215 232 255
215 232 255
215 232 255
215 232 255
215 232 255
215 232 255
215 232 255
215 232 255
144 164 201
58 92 157
59 94 157
59 93 158
60 96 158
60 96 157
60 95 161
60 94 149
60 95 156
61 96 162
60 95 156
60 95 151
61 96 158
61 96 150
61 96 151
61 96 148
60 96 151
59 94 147
60 96 151
61 97 152
61 97 155
61 97 154
60 96 153
61 96 152
62 97 155
62 98 152
62 97 158
61 96 157
60 95 150
61 97 156
62 97 156
59 94 147
62 98 160
61 96 151
60 96 151
61 96 149
61 97 149
62 98 163
60 95 147
62 98 159
61 96 156
62 97 154
60 96 144
61 96 146
60 96 149
61 96 142
60 95 147
60 95 150
61 97 155
60 95 147
61 96 151
62 96 147
61 97 151
62 97 156
61 97 151
62 97 151
61 96 147
60 96 150
61 97 154
61 96 151
61 96 148
60 94 148
61 97 155
62 98 162
61 96 149
61 96 150
61 96 151
61 96 152
61 96 151
61 96 158
62 97 154
61 96 150
62 98 159
59 94 146
61 96 154
60 95 147
61 96 150
60 94 144
59 93 154
59 93 140
59 93 151
60 94 148
58 92 141
59 93 146
61 95 149
61 95 153
60 93 142
58 92 146
56 88 136
58 90 143
59 91 149
58 90 147
57 87 136
136 154 186
215 232 255
215 232 255
215 232 255
215 232 255
215 232 255
215 232 255
215 232 255
215 232 255
215 232 255
186 199 216
118 116 74
118 116 79
119 118 79
111 109 74
107 107 73
102 103 73
126 126 88
111 113 79
114 115 79
120 121 83
119 120 83
129 129 88
125 125 88
114 116 82
118 120 85
127 128 90
131 131 90
130 130 89
134 135 93
139 137 92
131 131 89
136 135 92
136 137 92
143 143 96
142 140 95
141 139 91
146 143 94
148 147 98
142 141 94
149 148 98
152 149 98
152 150 99
143 141 92
143 142 94
154 151 95
156 154 98
148 147 95
159 156 101
159 155 103
158 156 103
165 162 103
159 156 100
160 156 99
160 156 101
167 162 103
165 160 99
162 159 99
157 154 97
165 162 104
165 161 100
165 160 100
169 164 100
161 158 101
169 164 100
168 163 99
173 167 107
174 168 106
168 162 99
167 162 97
170 164 99
175 169 106
171 165 99
174 169 105
170 164 101
169 163 100
171 165 102
177 171 104
166 162 98
167 162 98
170 165 103
172 167 102
176 170 105
172 166 102
170 164 98
171 165 97
169 164 97
173 166 99
174 167 101
174 168 102
170 165 96
168 163 98
170 164 100
172 167 98
164 160 93
176 169 104
169 163 98
169 163 99
172 167 100
168 162 99
169 164 99
170 164 98
171 164 97
170 165 96
172 165 100
168 162 96
168 163 99
163 158 93
166 161 97
163 159 95
170 165 101
164 158 94
163 157 95
167 161 97
167 161 95
170 164 100
166 161 97
168 162 97
167 162 96
169 163 101
165 160 95
163 157 94
163 158 93
161 156 93
164 158 96
157 152 93
166 161 98
167 162 91
164 158 93
164 158 93
168 162 94
164 158 93
161 156 95
164 157 89
172 165 100
161 156 90
151 147 84
169 163 97
155 150 88
157 152 85
163 157 93
165 159 95
156 151 87
159 152 88
157 151 87
158 152 89
163 157 95
154 149 90
157 152 90
160 155 87
165 160 91
163 157 90
148 143 77
153 148 87
188 205 228
188 205 228
186 204 228
187 204 228
187 205 228
186 204 228
187 204 228
186 204 228
187 204 228
186 204 228
186 204 228
185 204 228
186 204 228
185 204 228
184 203 228
186 204 228
186 204 228
186 204 228
185 204 228
185 204 228
186 204 228
185 203 228
185 204 228
184 203 228
185 203 228
185 203 228
185 204 228
183 202 228
185 203 228
184 203 228
184 203 228
183 202 228
185 203 228
184 203 228
183 202 228
183 202 228
184 203 228
183 203 228
183 203 228
183 202 228
183 203 228
183 202 228
183 202 228
181 202 228
183 203 228
183 202 228
183 202 228
183 203 228
182 202 228
182 202 228
181 201 228
182 202 228
181 201 228
182 202 228
182 202 228
181 201 228
181 201 228
181 201 228
181 201 228
181 201 228
181 201 228
181 201 228
181 201 228
180 201 228
180 201 228
180 201 228
179 200 228
179 200 228
180 201 228
180 201 228
179 200 228
179 200 228
179 200 228
180 201 228
179 200 228
180 201 228
179 200 228
180 201 228
179 200 228
178 200 228
179 200 228
179 200 228
178 200 228
178 200 228
179 200 228
178 200 228
178 200 228
179 200 228
178 200 228
177 199 228
178 200 228
179 200 228
178 200 228
177 199 228
177 199 228
177 199 228
178 200 228
176 199 228
176 199 228
177 199 228
177 199 228
178 200 228
177 199 228
177 199 228
177 199 228
177 199 228
177 199 228
176 199 228
176 199 228
178 199 228
176 199 228
177 199 228
176 199 228
178 200 228
176 198 228
172 194 224
171 193 224
168 190 221
164 187 219
160 183 215
158 181 214
152 175 210
149 172 207
156 179 214
147 170 207
141 164 203
132 156 198
137 161 200
127 150 192
133 156 195
132 155 196
131 154 194
129 152 193
131 153 194
135 157 197
147 168 205
159 180 213
158 179 212
162 183 214
171 190 219
182 201 227
184 202 227
177 194 217
165 180 200
214 232 255
215 232 255
215 232 255
215 232 255
215 232 255
215 232 255
215 232 255
215 232 255
202 220 246
67 98 160
57 91 158
59 94 155
60 95 162
59 94 159
59 94 151
61 96 159
60 95 156
60 95 156
61 96 159
61 96 156
61 97 158
62 97 161
59 94 145
60 96 155
61 96 151
61 96 150
60 95 148
60 95 149
61 96 155
61 97 156
60 95 147
62 97 152
61 97 158
60 96 154
61 97 153
61 97 154
60 95 151
61 97 155
61 96 149
61 97 155
62 97 155
62 97 163
62 97 154
62 97 153
61 96 150
61 96 154
61 97 151
61 97 148
61 96 149
62 98 162
62 98 155
61 96 148
61 97 151
62 97 152
61 97 148
62 97 151
62 97 153
61 96 151
60 95 143
61 97 153
61 97 153
61 96 149
62 97 154
62 97 155
62 97 159
61 96 155
61 96 151
62 98 159
61 96 151
60 95 150
61 96 153
59 94 150
62 97 152
61 96 145
62 97 151
60 94 141
61 96 152
60 95 149
61 96 151
60 95 145
61 95 150
61 95 145
60 95 149
60 95 143
59 94 149
61 95 150
60 94 139
59 93 145
60 94 149
59 93 139
60 93 150
60 94 142
61 95 156
58 92 142
59 93 143
58 91 141
59 93 146
59 92 148
58 92 147
59 91 145
59 91 139
56 87 136
69 97 146
201 218 241
215 232 255
215 232 255
215 232 255
215 232 255
215 232 255
215 232 255
215 232 255
214 231 253
146 149 128
112 110 73
116 115 77
116 115 78
113 114 79
117 117 81
101 103 74
101 103 74
116 117 82
114 115 80
111 113 79
117 117 83
117 118 81
120 122 86
129 128 88
124 125 88
127 128 88
118 120 85
133 133 90
128 129 89
129 130 89
131 131 89
126 126 85
140 141 93
143 142 94
135 135 90
137 137 92
149 147 96
156 153 98
140 139 90
147 146 95
150 149 96
150 148 96
160 157 101
148 146 94
151 150 96
155 153 99
158 156 100
159 156 99
149 146 95
159 155 99
162 157 101
163 159 100
161 157 99
163 158 97
160 156 97
162 159 99
163 159 101
164 160 100
161 157 98
166 162 103
169 164 100
167 162 101
171 166 104
166 161 102
169 164 101
172 166 102
171 165 102
168 164 102
175 169 107
169 164 99
172 166 103
171 165 101
169 163 102
165 160 97
167 162 100
169 164 100
169 165 104
170 165 101
174 168 104
170 166 104
171 166 101
170 164 99
171 167 105
170 164 102
168 163 102
172 166 101
173 166 97
170 165 100
170 164 97
170 165 99
171 164 99
167 162 100
170 164 96
173 167 100
170 165 97
169 163 97
174 168 99
170 164 101
166 161 94
170 165 99
166 160 91
171 164 98
168 162 97
175 168 101
170 163 97
171 164 100
167 162 97
169 163 96
170 163 97
169 163 92
170 164 99
170 164 97
164 159 92
164 159 92
164 157 90
170 165 101
168 163 97
165 159 96
166 161 97
168 162 95
169 163 97
160 155 94
158 153 88
174 167 100
164 158 96
166 160 88
160 155 91
166 160 95
161 155 93
163 156 89
163 157 87
166 160 95
163 158 92
155 150 83
162 157 93
164 158 95
165 160 95
163 156 92
162 157 88
158 152 88
160 155 88
158 153 90
164 157 90
165 160 96
157 151 86
164 158 90
163 157 95
159 154 89
157 152 84
158 153 88
154 148 86
158 152 84
156 151 90
187 204 228
188 205 228
189 205 228
187 205 228
186 204 228
187 205 228
187 204 228
187 205 228
186 204 228
188 205 228
186 204 228
188 205 228
187 204 228
186 204 228
186 204 228
187 204 228
185 203 228
186 204 228
186 204 228
186 204 228
186 204 228
186 204 228
185 204 228
185 203 228
184 203 228
185 204 228
186 204 228
185 204 228
185 204 228
184 203 228
183 203 228
184 203 228
184 203 228
184 203 228
185 204 228
184 203 228
184 203 228
184 203 228
183 202 228
184 203 228
183 202 228
183 202 228
183 202 228
182 202 228
182 202 228
183 202 228
183 203 228
183 202 228
182 202 228
183 203 228
182 202 228
183 202 228
183 202 228
183 202 228
182 202 228
183 202 228
182 202 228
181 201 228
182 202 228
182 202 228
181 201 228
181 202 228
181 201 228
181 201 228
181 201 228
180 201 228
181 201 228
181 202 228
180 201 228
181 201 228
181 201 228
180 201 228
180 201 228
181 201 228
180 201 228
180 201 228
180 201 228
181 201 228
180 201 228
179 200 228
180 201 228
181 201 228
179 201 228
180 201 228
179 200 228
179 200 228
179 200 228
179 200 228
180 201 228
179 200 228
178 200 228
178 200 228
178 200 228
179 200 228
179 200 228
178 200 228
179 200 228
178 200 228
178 200 228
178 200 228
179 200 228
178 200 228
177 199 228
179 200 228
178 200 228
177 199 228
178 200 228
177 199 228
178 200 228
178 200 228
179 200 228
178 199 228
177 199 228
177 199 228
176 198 227
172 194 224
166 188 219
164 186 217
162 184 217
159 182 216
153 176 210
154 176 211
142 165 203
144 167 202
137 160 200
135 158 194
137 160 198
129 152 193
128 152 192
121 144 190
123 146 190
127 150 194
122 145 188
116 138 181
130 153 194
134 155 195
140 162 199
132 153 190
154 174 207
164 184 214
169 188 216
181 200 225
179 197 220
162 177 198
193 208 230
215 232 255
215 232 255
215 232 255
215 232 255
215 232 255
215 232 255
215 232 255
157 176 212
56 89 149
58 92 151
58 93 152
59 94 154
60 96 156
59 93 151
60 95 152
60 96 151
60 96 154
61 96 153
59 93 143
61 96 156
61 96 151
62 97 156
60 95 151
60 96 148
61 96 149
60 95 148
61 96 155
60 95 145
61 96 153
61 97 157
61 97 155
61 97 153
61 96 152
61 97 152
62 97 160
59 94 145
61 96 146
61 96 149
61 97 159
60 95 143
60 95 140
62 98 155
61 96 147
62 97 152
61 96 156
61 97 154
60 94 139
61 96 147
61 96 147
60 95 147
62 97 152
62 98 151
60 95 148
60 96 150
62 98 156
61 96 151
60 96 149
62 97 155
61 97 153
60 95 145
61 96 145
61 97 154
61 96 149
61 96 149
61 96 150
60 94 139
62 98 152
60 96 150
62 98 155
60 95 144
60 95 142
61 97 152
61 96 151
61 96 149
60 96 149
59 94 148
61 96 151
61 95 147
60 96 151
60 95 151
62 97 159
60 95 140
60 94 142
60 95 151
61 96 153
62 97 151
60 95 153
59 94 147
59 94 146
59 93 149
59 93 144
58 91 141
59 91 142
60 95 146
58 92 141
59 93 143
59 93 147
58 91 148
58 90 142
56 87 124
58 90 141
56 85 129
156 174 205
215 232 255
215 232 255
215 232 255
215 232 255
215 232 255
215 232 255
215 232 255
179 191 202
115 114 74
121 121 81
113 113 77
105 107 76
112 112 78
112 114 79
99 102 73
121 121 83
113 115 80
107 109 77
98 100 72
116 117 82
107 109 75
125 125 86
125 127 89
127 128 90
118 120 85
124 123 83
130 130 85
127 128 87
138 137 94
130 130 87
135 133 91
133 133 92
142 141 93
142 140 92
140 139 93
131 131 86
142 140 92
147 145 93
153 151 96
150 148 95
152 151 100
156 153 99
161 157 96
150 148 98
159 155 100
155 152 97
161 157 98
164 159 101
161 156 95
161 157 102
155 151 90
165 161 101
159 156 98
165 160 96
167 162 101
165 160 102
166 161 102
165 162 105
159 154 95
165 161 98
164 160 100
169 164 98
170 164 101
164 160 99
163 159 95
167 162 101
173 168 101
172 167 101
172 166 105
166 161 99
163 158 97
171 165 101
169 163 99
172 166 100
169 164 99
171 165 103
169 163 95
171 167 101
173 167 101
169 164 95
171 165 95
167 162 94
173 168 100
168 163 97
169 163 98
172 167 106
167 162 93
164 160 96
168 163 96
167 162 97
174 168 102
171 167 103
167 162 96
172 166 99
171 166 99
169 163 98
172 165 99
172 166 99
170 164 99
171 166 97
174 168 99
168 162 93
170 165 96
170 163 98
165 159 94
165 159 94
167 162 97
170 164 97
169 163 101
174 167 100
164 158 93
167 161 95
167 162 93
169 163 97
167 161 94
164 159 92
167 161 97
168 163 97
163 157 95
167 161 96
162 157 92
164 158 96
168 162 94
165 158 93
165 160 90
160 155 87
158 153 90
163 157 93
167 161 95
167 161 95
162 155 89
160 155 92
164 158 93
159 153 87
164 157 92
160 155 90
163 156 91
159 153 88
155 150 85
158 152 88
158 151 80
162 157 93
166 159 97
153 148 87
162 156 93
161 156 87
158 152 85
147 142 80
161 156 92
158 153 90
156 150 86
153 148 85
188 205 228
188 205 228
187 205 228
189 205 228
188 205 228
187 205 228
188 205 228
188 205 228
188 205 228
188 205 228
186 204 228
188 205 228
187 205 228
187 204 228
186 204 228
187 204 228
186 204 228
186 204 228
187 205 228
187 204 228
186 204 228
186 204 228
186 204 228
187 204 228
186 204 228
186 204 228
184 203 228
186 204 228
186 204 228
186 204 228
185 204 228
185 204 228
185 203 228
185 203 228
184 203 228
185 203 228
185 203 228
185 204 228
185 204 228
185 203 228
184 203 228
184 203 228
184 203 228
184 203 228
184 203 228
183 202 228
183 203 228
182 202 228
183 202 228
184 203 228
183 202 228
184 203 228
183 202 228
182 202 228
184 203 228
182 202 228
183 202 228
183 202 228
182 202 228
183 202 228
184 203 228
183 202 228
181 201 228
183 202 228
181 201 228
182 202 228
181 202 228
181 201 228
182 202 228
182 202 228
181 202 228
180 201 228
182 202 228
181 201 228
180 201 228
180 201 228
181 201 228
180 201 228
181 201 228
180 201 228
180 201 228
180 201 228
179 200 228
180 201 228
181 201 228
180 201 228
180 201 228
179 200 228
180 201 228
179 200 228
179 200 228
179 200 228
180 201 228
179 201 228
178 200 228
179 200 228
180 201 228
179 200 228
180 201 228
179 200 228
180 201 228
179 200 228
179 200 228
179 200 228
178 200 228
178 200 228
179 200 228
178 199 228
179 200 228
179 200 228
179 200 228
179 200 228
179 200 228
175 197 227
172 194 224
171 193 223
170 191 221
166 188 220
153 175 209
150 172 207
147 170 206
138 161 200
149 172 208
125 149 190
143 166 204
126 149 190
126 150 192
106 130 174
119 143 187
117 140 182
112 136 181
99 123 170
113 137 184
123 146 187
113 136 180
129 151 191
118 141 186
128 150 191
139 159 196
144 164 201
162 181 213
173 192 219
183 200 225
177 193 216
175 190 210
213 230 253
216 232 255
216 232 255
216 232 255
216 232 255
215 232 255
213 230 254
72 101 154
58 93 157
58 92 152
59 93 147
59 94 153
60 94 153
59 94 151
60 95 156
60 95 146
59 94 144
61 96 151
59 93 147
61 96 151
60 96 152
59 95 145
61 96 156
60 95 152
60 95 151
60 95 146
60 95 143
60 95 144
60 96 144
62 97 155
61 96 154
60 95 151
61 96 152
61 96 149
61 96 150
62 97 155
60 95 147
62 98 155
61 96 147
60 95 138
61 96 151
61 96 146
61 97 152
62 97 152
61 96 154
61 97 151
62 98 154
62 97 149
61 96 153
60 96 152
61 97 151
61 96 149
61 96 149
61 96 151
61 96 144
62 97 160
61 96 148
63 98 156
61 97 151
60 95 142
60 96 148
62 97 153
62 97 147
62 98 156
61 96 153
62 97 148
61 95 150
59 93 129
62 97 153
60 95 132
61 96 148
60 94 143
61 96 152
62 97 150
60 95 142
62 97 147
60 96 150
61 96 145
61 96 153
61 96 151
60 94 151
60 95 152
60 93 140
61 95 154
59 94 147
59 93 136
60 95 140
61 95 155
60 95 150
60 94 143
60 94 143
59 92 137
59 92 141
59 91 138
59 92 146
59 92 146
59 91 139
60 93 146
57 89 136
57 88 138
56 86 135
55 85 135
81 105 149
212 229 252
216 232 255
216 232 255
215 232 255
216 232 255
216 232 255
214 231 253
142 143 120
119 116 75
116 116 78
101 102 72
106 107 73
100 102 71
104 105 74
99 101 72
109 110 77
97 100 73
102 105 77
113 116 82
122 122 84
122 124 85
115 115 79
124 125 85
119 120 84
121 122 85
112 114 78
131 131 87
124 126 87
129 130 87
134 134 92
133 133 89
140 138 90
134 134 88
141 141 92
143 142 91
152 149 98
143 141 93
153 150 94
142 140 89
150 147 97
147 145 96
156 153 99
154 151 95
152 149 95
148 146 95
153 150 96
162 159 103
152 149 98
157 154 99
160 156 99
157 154 95
164 160 103
159 156 99
161 158 98
165 162 103
166 161 101
168 164 102
169 164 102
171 166 102
161 158 97
169 163 98
169 163 103
172 167 104
168 163 100
172 166 102
171 166 104
172 166 99
167 161 96
171 166 106
169 164 101
173 167 105
168 162 97
169 165 97
169 164 98
173 167 101
171 166 102
172 166 97
174 168 104
171 166 99
168 163 101
171 166 99
172 167 96
172 166 100
176 169 104
169 165 101
171 166 98
172 166 101
171 166 97
171 165 96
165 160 90
173 167 99
172 166 97
171 165 96
170 164 98
170 165 99
170 165 97
174 168 101
169 163 97
168 164 99
169 162 95
169 165 99
167 162 93
169 163 93
173 167 100
167 162 96
170 163 101
178 170 103
169 162 97
165 159 90
167 162 94
164 159 95
170 163 98
167 161 91
164 158 90
168 163 99
166 160 97
170 163 97
161 155 89
167 162 98
167 161 95
163 157 93
167 162 93
165 159 94
164 159 90
165 159 93
157 151 90
165 158 93
167 162 95
163 157 95
159 154 92
167 161 93
163 156 94
158 153 88
164 159 92
163 158 89
165 159 97
159 153 88
158 152 88
161 155 89
162 156 93
170 164 94
158 153 92
164 157 92
167 159 93
165 159 90
153 148 87
160 155 90
161 155 91
157 151 86
165 159 94
155 149 87
154 149 81
189 205 228
188 205 228
188 205 228
189 206 228
187 205 228
187 205 228
188 205 228
189 206 228
188 205 228
188 205 228
188 205 228
187 205 228
188 205 228
188 205 228
188 205 228
188 205 228
187 205 228
187 205 228
188 205 228
186 204 228
187 204 228
187 205 228
187 204 228
187 204 228
186 204 228
186 204 228
186 204 228
186 204 228
185 204 228
186 204 228
186 204 228
185 204 228
186 204 228
185 204 228
185 204 228
185 203 228
186 204 228
186 204 228
186 204 228
184 203 228
185 204 228
185 203 228
185 203 228
184 203 228
184 203 228
185 203 228
183 203 228
184 203 228
183 203 228
184 203 228
185 203 228
184 203 228
184 203 228
183 202 228
184 203 228
184 203 228
184 203 228
183 202 228
183 202 228
183 202 228
184 203 228
183 202 228
183 203 228
183 202 228
182 202 228
183 202 228
183 202 228
182 202 228
182 202 228
182 202 228
182 202 228
182 202 228
182 202 228
183 202 228
181 201 228
181 201 228
181 202 228
182 202 228
181 202 228
182 202 228
181 201 228
181 201 228
181 201 228
181 201 228
181 201 228
180 201 228
180 201 228
180 201 228
181 201 228
180 201 228
181 201 228
180 201 228
181 201 228
181 201 228
180 201 228
179 201 228
180 201 228
180 201 228
180 201 228
180 201 228
180 201 228
180 201 228
180 201 228
180 201 228
180 201 228
180 201 228
180 201 228
180 201 228
180 201 228
179 200 228
180 201 228
180 201 228
178 200 228
176 198 227
172 194 223
167 188 219
163 185 215
161 183 215
153 175 207
152 174 208
144 166 202
132 154 193
145 168 204
131 154 192
138 160 196
117 141 182
130 153 194
119 143 185
108 131 177
97 121 170
99 123 169
94 118 169
85 110 164
106 129 176
101 124 172
100 123 173
108 130 176
118 140 182
137 158 195
130 151 190
151 170 204
163 182 212
178 196 221
180 197 220
157 172 191
194 209 229
216 233 255
216 233 255
216 232 255
216 232 255
216 232 255
182 199 229
56 89 152
57 90 152
57 91 148
58 92 154
59 94 149
59 94 150
59 93 150
59 95 153
59 94 154
59 95 149
60 95 143
60 96 154
61 96 153
61 96 153
62 97 152
61 96 154
61 96 154
61 96 151
60 95 146
61 97 157
61 96 147
60 95 136
61 96 150
61 97 152
60 96 149
61 97 145
61 97 158
62 97 154
61 96 152
61 96 147
61 96 149
62 97 155
61 96 154
62 98 158
61 97 152
61 96 145
61 96 146
60 95 142
60 95 137
59 94 142
63 98 156
61 96 155
60 95 145
60 95 142
62 97 151
59 94 139
61 96 148
60 95 144
61 96 148
61 97 152
62 97 154
60 95 142
61 96 145
61 96 145
61 95 145
61 96 151
60 95 147
61 96 149
62 97 153
60 96 149
61 96 144
61 96 145
61 95 145
60 95 144
61 96 152
59 94 145
61 96 145
62 97 155
59 93 142
61 95 149
60 95 152
61 95 147
61 96 149
61 95 147
60 95 149
60 95 146
60 94 145
60 95 154
60 94 144
59 94 146
59 93 140
60 94 147
60 95 142
60 94 148
58 91 142
61 95 147
59 92 143
57 90 141
58 90 133
58 91 139
58 91 144
58 90 141
57 88 139
56 87 134
56 88 142
55 85 129
189 206 232
216 232 255
216 232 255
216 233 255
216 233 255
216 233 255
186 199 214
109 107 70
112 112 76
98 99 67
101 102 71
109 109 75
103 105 73
110 111 77
99 102 75
115 117 82
99 102 73
106 109 77
106 109 78
103 107 76
123 124 85
118 120 85
117 118 80
118 120 86
120 121 83
125 125 86
115 116 82
131 131 87
119 121 82
134 134 91
129 129 88
134 134 89
137 137 90
141 140 93
140 139 91
142 140 93
151 148 95
145 143 93
146 143 91
156 153 99
143 141 92
146 144 90
152 150 95
160 157 102
150 148 93
156 153 97
158 155 98
159 155 95
163 158 99
152 149 94
161 157 98
159 155 95
162 158 100
164 160 102
162 158 95
162 158 95
165 160 99
166 160 96
165 162 99
166 161 99
169 164 102
166 161 98
168 163 102
173 167 102
167 162 97
168 163 103
166 161 97
169 164 98
163 158 92
168 164 102
170 165 102
169 164 100
171 166 95
166 161 91
172 167 97
169 165 98
171 166 98
170 165 100
169 164 102
172 166 99
174 168 102
177 170 104
175 168 101
170 165 100
171 166 98
172 167 99
172 167 99
174 167 102
166 162 92
171 166 99
170 164 93
172 166 98
173 167 99
173 168 99
174 167 101
174 167 103
175 168 101
170 164 99
169 164 99
171 165 94
171 165 99
172 166 100
164 159 94
172 166 101
164 159 90
166 161 93
168 162 95
167 162 93
174 168 99
170 164 98
160 155 84
167 161 95
166 159 93
166 160 90
168 161 96
173 166 99
170 164 97
170 163 93
162 156 87
163 158 93
164 158 97
165 159 92
160 154 88
164 158 89
164 159 91
163 157 86
163 157 92
166 161 88
165 159 97
163 157 94
164 158 92
160 154 88
160 154 88
159 154 84
168 162 93
170 163 96
159 153 90
165 158 95
160 154 91
165 159 96
157 152 79
162 156 92
162 156 87
155 150 82
165 158 92
158 152 84
161 156 89
159 154 88
157 152 90
160 155 93
161 154 92
158 152 87
190 206 228
189 205 228
189 206 228
188 205 228
189 206 228
190 206 228
189 206 228
189 206 228
189 206 228
188 205 228
188 205 228
188 205 228
188 205 228
188 205 228
187 205 228
187 205 228
188 205 228
187 205 228
189 206 228
188 205 228
188 205 228
187 205 228
188 205 228
187 205 228
187 204 228
186 204 228
187 205 228
187 205 228
187 204 228
186 204 228
187 205 228
186 204 228
186 204 228
186 204 228
187 205 228
186 204 228
186 204 228
185 203 228
186 204 228
186 204 228
186 204 228
185 204 228
185 203 228
186 204 228
185 204 228
186 204 228
185 203 228
185 204 228
185 203 228
184 203 228
185 203 228
185 203 228
185 203 228
184 203 228
185 203 228
184 203 228
185 203 228
184 203 228
183 203 228
184 203 228
185 203 228
184 203 228
184 203 228
183 202 228
184 203 228
183 202 228
184 203 228
183 202 228
183 203 228
184 203 228
183 203 228
183 203 228
184 203 228
183 202 228
182 202 228
183 202 228
183 203 228
183 202 228
182 202 228
182 202 228
183 203 228
182 202 228
183 202 228
183 202 228
181 201 228
181 202 228
182 202 228
181 201 228
181 201 228
181 201 228
181 201 228
180 201 228
181 202 228
181 201 228
180 201 228
180 201 228
180 201 228
182 202 228
181 201 228
180 201 228
181 201 228
181 201 228
180 201 228
182 202 228
180 201 228
180 201 228
181 201 228
180 201 228
180 201 228
182 202 228
181 201 228
180 201 228
178 198 227
173 194 223
161 182 214
160 181 211
161 182 213
156 177 209
159 180 214
144 165 201
151 173 206
141 164 201
137 159 195
126 148 187
126 149 188
127 150 190
112 136 178
108 131 176
97 121 167
100 124 169
97 122 172
95 120 167
96 119 167
81 106 157
98 121 167
100 122 167
106 128 174
107 130 175
112 133 176
130 150 186
144 164 198
154 173 204
168 187 216
175 193 217
174 189 211
182 197 217
216 233 255
216 233 255
216 233 255
216 233 255
216 233 255
139 159 196
57 91 153
58 91 145
57 91 147
58 92 149
59 94 150
60 96 162
59 94 144
61 96 152
60 95 152
61 96 157
60 94 149
59 94 143
59 93 139
60 95 151
61 96 156
60 96 153
61 96 150
61 96 154
60 95 146
62 97 157
60 95 142
62 98 154
61 96 153
61 97 152
61 96 150
61 97 152
60 95 145
60 95 146
61 97 153
60 95 149
60 95 141
62 97 151
61 96 151
61 96 148
61 96 150
62 97 151
60 95 139
60 94 139
61 96 147
61 96 144
62 98 159
61 96 144
61 96 149
60 95 136
62 97 153
61 96 150
61 96 148
59 93 134
61 96 151
61 97 148
60 95 150
59 94 144
61 96 148
61 97 145
62 97 152
63 98 155
61 96 147
62 97 151
60 95 143
62 97 154
61 96 148
60 95 142
59 94 139
62 97 150
60 94 144
60 95 147
61 95 148
61 96 149
61 97 154
62 97 155
59 93 137
60 95 144
60 95 149
60 94 142
61 96 147
59 93 143
60 95 149
60 94 148
60 95 146
61 95 150
60 95 148
59 92 141
59 93 141
59 93 143
60 94 148
59 91 141
59 92 138
59 91 141
58 91 137
59 92 147
59 92 147
57 90 139
59 91 140
58 89 139
57 88 133
57 88 140
109 127 158
216 233 255
216 233 255
216 233 255
216 233 255
216 233 255
129 132 117
100 99 61
109 109 75
93 95 67
109 109 75
97 97 67
99 100 71
93 96 69
95 98 71
107 109 76
98 101 72
108 110 77
94 97 72
117 118 82
110 112 80
124 124 87
117 118 82
104 107 74
119 120 80
126 127 88
130 130 87
133 132 88
125 125 84
143 141 93
137 136 87
136 136 89
144 142 92
145 143 90
139 139 93
145 142 92
148 146 96
139 137 89
147 144 91
149 147 92
157 154 96
139 138 86
149 147 93
155 152 97
156 152 97
151 148 89
155 151 95
159 156 95
159 156 98
155 151 93
152 149 93
160 156 98
161 157 96
162 158 96
164 159 95
162 157 96
171 166 102
164 158 97
165 161 97
166 161 96
162 158 93
170 165 100
169 164 102
165 160 95
170 165 101
171 166 98
167 162 98
169 164 99
168 163 100
170 164 98
168 162 96
169 164 94
167 162 100
172 166 104
170 165 100
171 165 95
174 168 98
167 163 94
171 165 98
171 165 96
166 161 93
171 166 98
171 166 97
165 159 96
172 167 102
172 166 96
170 164 96
170 164 95
172 167 99
170 165 97
169 163 95
172 166 101
169 163 97
173 167 99
169 163 95
172 166 97
173 167 101
175 168 101
174 168 100
166 161 87
171 165 97
170 164 96
171 165 98
166 160 95
170 164 93
167 162 94
173 166 98
167 161 92
165 160 93
166 161 97
171 165 93
169 163 96
170 163 93
165 160 92
165 159 96
167 161 94
168 163 97
163 157 91
171 165 99
163 158 93
166 160 93
166 160 93
167 160 93
161 155 95
162 156 90
173 166 98
165 159 95
163 158 89
159 153 88
167 160 93
164 159 90
165 160 92
166 159 89
166 159 87
163 156 89
157 152 89
161 155 91
158 152 91
158 153 91
150 145 83
161 155 87
161 155 90
156 151 85
160 153 90
157 153 90
156 151 80
163 157 91
161 155 85
155 149 85
156 149 80
166 158 89
159 153 87
189 206 228
190 206 228
189 206 228
189 206 228
189 206 228
188 205 228
188 205 228
190 206 228
188 205 228
188 205 228
188 205 228
188 205 228
189 206 228
189 205 228
188 205 228
188 205 228
188 205 228
188 205 228
188 205 228
188 205 228
188 205 228
186 204 228
188 205 228
187 205 228
189 206 228
188 205 228
187 204 228
188 205 228
187 205 228
186 204 228
186 204 228
187 204 228
186 204 228
186 204 228
187 205 228
186 204 228
186 204 228
187 204 228
187 205 228
187 204 228
186 204 228
186 204 228
186 204 228
187 205 228
185 204 228
186 204 228
186 204 228
186 204 228
185 204 228
186 204 228
186 204 228
185 204 228
186 204 228
184 203 228
186 204 228
186 204 228
184 203 228
184 203 228
185 204 228
185 203 228
185 203 228
184 203 228
185 204 228
185 204 228
184 203 228
183 203 228
185 203 228
183 202 228
184 203 228
184 203 228
184 203 228
184 203 228
183 203 228
183 202 228
183 202 228
183 203 228
183 202 228
184 203 228
183 202 228
183 202 228
183 202 228
183 202 228
184 203 228
183 203 228
183 202 228
182 202 228
182 202 228
183 202 228
183 202 228
181 201 228
182 202 228
183 202 228
182 202 228
182 202 228
182 202 228
181 202 228
182 202 228
182 202 228
181 202 228
182 202 228
182 202 228
183 202 228
182 202 228
181 201 228
181 201 228
181 202 228
180 201 228
182 202 228
181 201 228
181 201 228
182 202 228
178 198 226
179 199 226
177 197 224
168 189 219
159 180 212
160 181 210
152 173 207
150 172 207
142 164 200
138 159 194
135 157 189
136 158 193
120 143 186
110 134 177
112 135 178
98 122 166
88 114 164
81 107 160
77 103 156
91 115 162
85 110 165
80 106 156
67 95 151
83 107 159
80 104 157
90 113 162
97 119 165
109 130 174
106 127 171
128 149 188
136 155 190
147 165 199
171 188 214
180 196 218
163 177 197
211 227 250
216 233 255
216 233 255
216 233 255
213 230 252
79 107 161
57 90 153
58 92 153
59 94 154
57 92 144
57 92 143
59 94 143
59 93 144
60 95 153
59 93 141
60 94 150
60 94 145
59 94 149
60 94 139
58 91 134
61 97 160
60 95 154
59 94 136
60 96 149
61 96 150
60 95 144
60 95 139
61 97 148
60 95 145
60 95 139
61 95 146
60 96 154
62 98 151
62 98 157
60 95 139
61 97 156
62 98 158
60 95 142
60 95 145
60 95 148
62 97 147
60 95 137
62 98 154
62 97 151
60 95 140
61 96 149
61 96 149
62 98 154
61 97 151
61 95 143
61 97 149
62 98 151
60 95 140
61 97 151
59 94 135
61 97 151
60 95 146
61 96 146
62 97 156
60 95 142
61 96 146
60 95 137
60 96 150
60 96 141
62 97 155
62 97 148
60 95 147
61 95 145
61 96 148
61 95 140
61 96 150
61 95 149
60 95 144
60 94 143
61 96 146
61 96 149
60 94 144
60 94 140
60 95 145
59 93 139
59 93 137
60 95 152
59 93 143
61 95 147
59 93 144
61 95 150
60 93 147
60 95 148
59 92 136
60 93 144
58 92 148
59 93 147
59 92 138
59 92 142
60 94 152
58 91 138
58 90 134
59 91 137
58 89 136
58 90 135
57 89 134
56 87 134
65 92 141
210 227 250
216 233 255
216 233 255
216 233 255
202 217 235
102 102 67
108 107 71
101 101 66
94 94 66
105 106 75
94 96 68
104 106 76
90 92 65
94 97 70
97 102 76
113 114 80
99 102 70
107 109 76
113 115 81
107 110 78
113 114 79
114 115 79
115 117 84
122 122 82
126 126 84
131 131 88
126 126 84
121 121 82
131 131 85
129 129 84
137 136 90
143 141 93
131 131 89
136 135 87
148 146 93
150 147 96
144 143 90
146 143 89
142 140 89
147 145 90
151 149 97
160 157 98
153 150 98
153 150 92
158 154 98
153 150 93
159 154 95
158 154 91
155 152 96
160 157 93
166 162 102
158 154 94
163 158 94
164 158 95
164 160 95
170 164 98
161 157 95
163 160 96
167 162 98
171 166 101
167 162 99
169 165 97
171 166 100
165 160 98
167 161 99
164 160 94
171 166 101
173 167 99
171 165 98
171 165 96
171 166 103
167 162 96
172 167 100
171 166 101
172 166 99
172 167 100
175 168 102
174 168 100
173 167 100
173 167 101
172 167 98
174 167 96
173 167 100
170 165 95
174 167 98
173 166 100
171 165 97
170 165 98
174 167 99
173 167 100
175 169 103
167 161 94
172 165 100
175 168 101
169 163 95
172 166 97
172 166 99
169 163 94
162 157 90
165 159 92
169 164 92
169 163 96
172 165 95
167 162 93
165 159 86
170 164 92
165 159 92
163 159 93
166 160 92
165 160 92
163 157 89
170 163 95
169 163 99
163 158 88
165 160 93
164 159 93
169 163 98
174 167 99
166 160 94
167 161 94
170 164 95
168 162 96
170 163 97
168 162 95
161 155 87
164 157 92
173 166 95
164 159 87
165 158 91
158 153 86
156 150 87
163 157 90
167 160 90
168 161 89
168 162 96
167 162 93
164 158 86
155 149 82
163 157 89
152 147 82
166 159 90
159 153 89
157 151 85
158 152 85
154 150 83
162 156 90
152 147 76
158 151 89
159 154 90
151 146 82
152 148 88
190 207 228
190 206 228
190 206 228
189 206 228
191 207 228
190 206 228
190 206 228
189 206 228
189 206 228
190 206 228
189 206 228
189 206 228
189 205 228
189 206 228
189 206 228
189 206 228
189 205 228
188 205 228
190 206 228
189 206 228
187 205 228
189 206 228
188 205 228
187 205 228
188 205 228
188 205 228
188 205 228
188 205 228
187 204 228
188 205 228
187 205 228
188 205 228
188 205 228
187 205 228
188 205 228
188 205 228
186 204 228
188 205 228
187 205 228
187 205 228
188 205 228
187 205 228
187 205 228
186 204 228
187 205 228
186 204 228
187 205 228
186 204 228
186 204 228
187 204 228
186 204 228
185 204 228
186 204 228
186 204 228
187 204 228
186 204 228
186 204 228
185 204 228
186 204 228
185 204 228
185 203 228
185 204 228
185 204 228
185 203 228
186 204 228
185 204 228
185 204 228
186 204 228
184 203 228
186 204 228
185 203 228
184 203 228
184 203 228
184 203 228
183 203 228
185 203 228
186 204 228
184 203 228
184 203 228
184 203 228
184 203 228
184 203 228
184 203 228
183 202 228
182 202 228
184 203 228
184 203 228
184 203 228
185 204 228
184 203 228
182 202 228
183 202 228
182 202 228
184 203 228
183 202 228
183 202 228
182 202 228
182 202 228
183 203 228
183 202 228
181 202 228
183 202 228
183 202 228
182 202 228
183 202 228
182 202 228
183 202 228
183 202 228
183 202 228
182 202 228
182 202 228
180 200 227
179 199 226
170 190 218
167 187 214
162 183 215
157 178 210
158 179 209
136 157 189
135 157 194
131 153 191
113 136 176
116 139 180
121 143 182
102 126 167
109 132 175
94 118 163
98 122 166
78 104 158
70 98 156
62 91 151
53 82 144
58 87 148
54 83 143
56 84 143
61 87 144
65 90 142
72 96 147
80 102 151
88 110 159
119 139 181
128 147 186
146 164 194
165 183 212
181 197 221
176 192 213
184 198 218
217 233 255
217 233 255
217 233 255
169 186 218
57 90 147
56 90 143
55 88 133
58 92 146
58 92 150
58 92 144
59 94 147
58 92 144
59 94 149
58 92 138
61 95 151
60 95 145
61 96 154
59 93 136
61 97 160
60 94 147
60 96 151
59 94 146
60 95 137
60 96 147
60 96 151
61 96 154
60 96 149
60 95 151
60 95 139
61 96 140
62 97 158
61 96 148
61 95 142
59 93 140
60 95 148
62 97 154
60 95 140
62 97 150
60 95 142
61 96 148
61 97 151
61 96 145
60 95 139
61 96 142
60 95 142
61 96 145
61 96 145
61 96 139
60 95 140
60 94 136
62 97 152
62 97 154
61 97 154
61 96 143
60 95 141
61 96 150
61 96 145
60 95 150
60 95 149
61 96 144
61 96 149
61 96 147
61 96 148
62 96 147
61 96 157
60 96 150
61 96 147
60 95 141
61 96 146
61 97 148
61 96 140
61 96 147
61 95 150
61 95 148
61 96 151
61 96 153
60 94 141
60 95 146
60 94 143
59 93 133
59 94 150
60 94 146
60 94 141
61 95 143
60 95 150
60 94 141
60 94 144
59 92 140
60 93 140
56 88 134
59 92 146
61 95 151
60 94 154
60 93 141
56 88 129
58 90 138
58 91 140
55 86 133
58 90 140
57 89 135
57 88 136
51 78 113
181 198 225
217 233 255
217 233 255
217 233 255
167 176 181
109 107 65
102 101 68
99 100 70
86 88 62
89 93 67
96 98 70
109 112 78
102 104 73
102 103 73
93 96 71
109 110 75
104 107 75
115 117 82
100 103 73
105 108 77
119 120 82
100 102 72
131 131 86
116 118 82
117 119 80
119 120 80
123 124 78
129 129 85
126 126 84
130 130 83
128 128 83
140 139 92
146 145 89
144 142 90
143 140 93
145 143 90
137 137 83
152 149 94
145 144 94
159 154 99
146 144 92
150 148 90
155 152 93
144 142 89
158 155 99
150 147 94
153 151 95
153 150 91
163 158 99
160 156 96
154 150 93
161 157 97
158 154 97
165 161 100
154 152 96
163 160 95
168 165 98
173 167 101
163 159 95
162 159 95
171 165 97
168 163 98
171 166 103
171 165 100
167 161 95
173 167 100
168 161 99
171 165 97
168 162 97
163 158 91
166 162 94
171 165 98
176 168 102
169 164 99
173 167 99
170 164 95
175 167 98
168 163 95
174 167 103
169 163 94
166 161 96
170 165 93
171 165 99
171 166 102
174 168 104
172 166 97
173 166 96
176 170 101
168 162 93
172 166 95
167 162 92
168 162 94
174 168 100
176 169 102
174 167 95
176 169 99
170 164 97
170 164 97
170 164 97
172 165 95
172 165 97
166 161 88
168 161 95
164 159 91
170 164 95
167 161 93
167 161 91
173 166 97
168 162 95
166 160 91
165 158 90
168 162 91
169 162 92
165 159 90
172 166 95
167 160 88
166 161 88
166 160 96
164 158 89
168 162 95
167 160 98
164 159 89
161 155 85
166 160 96
167 160 96
168 162 93
168 162 90
163 157 87
162 157 95
172 166 95
158 152 88
166 160 95
162 156 89
170 163 95
165 159 89
164 158 90
156 151 88
161 155 89
165 159 87
164 158 90
166 160 96
163 156 91
158 153 82
157 151 88
159 154 87
151 146 78
163 157 94
165 159 92
149 143 77
155 149 83
153 148 85
190 206 228
191 207 228
191 207 228
190 206 228
191 207 228
190 206 228
190 206 228
191 207 228
189 206 228
190 207 228
190 206 228
189 206 228
188 205 228
190 206 228
190 206 228
189 206 228
190 206 228
190 206 228
189 206 228
190 206 228
188 205 228
189 206 228
189 206 228
188 205 228
189 206 228
189 206 228
189 206 228
189 206 228
189 205 228
188 205 228
188 205 228
188 205 228
187 205 228
188 205 228
188 205 228
187 205 228
188 205 228
188 205 228
187 205 228
187 205 228
188 205 228
187 205 228
188 205 228
188 205 228
188 205 228
187 205 228
188 205 228
187 205 228
187 204 228
188 205 228
187 204 228
187 205 228
187 205 228
187 205 228
187 205 228
186 204 228
186 204 228
186 204 228
187 204 228
186 204 228
186 204 228
185 204 228
186 204 228
186 204 228
186 204 228
187 204 228
186 204 228
186 204 228
186 204 228
186 204 228
186 204 228
186 204 228
186 204 228
186 204 228
185 203 228
185 204 228
185 204 228
186 204 228
186 204 228
184 203 228
184 203 228
184 203 228
185 203 228
185 204 228
184 203 228
185 203 228
184 203 228
185 203 228
185 204 228
185 203 228
185 203 228
184 203 228
183 203 228
184 203 228
184 203 228
184 203 228
184 203 228
184 203 228
184 203 228
183 203 228
184 203 228
184 203 228
184 203 228
184 203 228
183 202 228
183 202 228
183 203 228
184 203 228
184 203 228
183 203 228
181 200 226
177 196 222
173 193 221
174 193 221
156 176 207
160 181 212
156 176 209
152 172 202
136 157 195
137 159 197
124 146 187
128 150 188
121 144 182
107 130 175
98 122 164
99 123 165
93 118 163
78 104 155
64 92 148
51 82 145
50 80 138
48 77 133
50 81 143
50 80 142
48 76 129
49 78 137
50 78 135
58 84 143
56 83 143
83 104 151
82 104 155
118 136 175
123 142 179
147 165 194
160 177 206
180 196 217
170 183 202
217 233 255
217 233 255
217 233 255
127 146 180
56 89 147
54 87 144
57 91 152
57 91 136
59 93 143
59 94 147
58 91 143
59 94 143
60 94 143
59 93 145
59 94 147
59 94 145
60 95 145
60 95 145
62 97 155
61 96 150
60 94 144
59 93 140
60 95 141
60 96 145
61 97 150
58 93 141
61 96 141
61 96 152
60 95 150
60 94 135
61 96 149
59 95 147
61 96 146
60 95 149
60 95 143
60 95 147
61 96 150
61 96 152
61 96 145
60 94 142
59 94 135
60 95 139
60 95 135
60 96 146
61 96 140
61 96 146
61 95 142
60 95 140
61 96 151
61 97 147
61 96 145
60 95 145
61 96 148
60 95 142
61 97 144
61 95 147
60 95 144
61 96 144
60 95 143
61 96 147
61 96 151
61 96 154
62 97 154
62 97 153
60 94 140
60 95 140
61 97 147
60 95 138
60 94 144
60 95 149
61 96 147
61 96 143
62 97 154
60 94 138
61 96 148
61 95 147
60 95 145
62 97 153
60 94 148
59 93 143
60 95 144
60 95 144
60 95 149
61 96 152
60 94 146
59 92 147
58 92 130
58 90 133
60 94 151
59 91 140
61 94 147
59 92 144
59 93 142
59 92 136
60 94 150
57 90 135
57 89 141
57 89 136
57 89 138
57 88 134
55 85 127
55 84 130
131 148 178
217 233 255
217 233 255
217 233 255
132 134 114
107 107 72
103 102 69
96 99 69
87 89 65
99 101 70
91 92 64
89 92 66
94 97 69
91 95 67
98 101 72
96 100 71
84 88 65
111 113 79
109 111 78
111 113 79
112 114 78
114 115 78
122 122 83
101 104 72
121 121 83
127 127 83
131 131 86
131 131 89
123 124 80
120 121 80
128 129 82
134 134 89
139 138 91
129 129 83
130 129 86
136 135 86
137 135 83
150 147 93
146 143 90
145 142 91
152 149 92
153 150 92
155 152 94
155 152 95
156 152 95
156 152 96
162 158 100
164 160 94
163 158 94
157 153 94
165 160 96
160 156 93
155 151 91
162 158 97
163 158 92
164 160 98
163 159 94
165 160 96
164 159 94
158 154 90
172 166 101
172 166 101
175 170 105
167 163 96
170 165 100
165 161 93
169 164 98
171 165 94
173 167 101
166 161 94
171 165 99
169 164 97
172 166 94
172 166 94
171 166 95
172 166 97
172 166 95
171 165 98
177 169 99
172 167 98
169 162 94
170 164 93
173 167 97
175 168 100
170 164 95
171 165 97
172 166 93
172 165 94
173 166 96
171 165 91
173 166 98
172 165 97
172 165 94
172 166 97
170 164 92
167 163 95
169 162 92
174 168 97
171 165 93
167 161 90
167 162 94
170 164 97
173 167 96
172 166 97
174 167 95
168 163 95
172 165 94
173 166 97
170 164 97
167 161 94
166 160 95
162 157 84
171 165 95
167 161 87
167 160 94
163 157 89
170 163 95
167 161 94
167 161 89
169 162 96
169 163 95
163 157 87
164 158 87
167 161 94
162 158 91
165 159 89
162 156 88
169 162 90
163 157 84
169 162 96
163 158 89
163 157 90
158 152 87
164 158 94
164 159 89
162 155 89
163 157 89
162 156 89
161 156 88
169 162 95
161 155 82
158 152 82
159 153 87
156 150 83
160 155 89
159 153 84
160 154 84
160 154 86
158 151 90
159 152 85
151 145 80
190 206 228
190 206 228
191 207 228
191 207 228
192 207 228
191 207 228
191 207 228
190 206 228
190 206 228
190 206 228
190 206 228
190 206 228
191 207 228
190 206 228
191 207 228
191 207 228
189 206 228
191 207 228
190 206 228
189 206 228
190 206 228
190 206 228
189 206 228
189 206 228
189 206 228
189 206 228
189 206 228
190 206 228
190 206 228
190 206 228
189 206 228
188 205 228
189 206 228
189 206 228
189 206 228
188 205 228
188 205 228
188 205 228
188 205 228
189 206 228
188 205 228
189 206 228
188 205 228
188 205 228
188 205 228
188 205 228
188 205 228
188 205 228
187 205 228
188 205 228
186 204 228
188 205 228
187 204 228
187 205 228
189 206 228
187 204 228
188 205 228
188 205 228
187 205 228
186 204 228
187 204 228
188 205 228
188 205 228
187 204 228
186 204 228
187 204 228
187 204 228
187 205 228
186 204 228
187 204 228
187 204 228
186 204 228
186 204 228
186 204 228
187 204 228
187 205 228
187 205 228
185 203 228
186 204 228
186 204 228
186 204 228
185 203 228
185 204 228
185 204 228
185 204 228
185 204 228
186 204 228
185 204 228
185 204 228
186 204 228
184 203 228
185 204 228
184 203 228
184 203 228
185 204 228
186 204 228
185 203 228
185 204 228
185 203 228
185 203 228
184 203 228
185 204 228
186 204 228
184 203 228
186 204 228
185 204 228
185 203 228
184 203 228
183 202 227
185 203 228
178 196 221
176 194 221
174 193 219
164 182 210
158 177 208
154 174 206
148 167 194
157 177 207
142 162 197
136 158 193
130 151 188
126 148 183
118 140 175
106 129 169
94 118 163
87 111 157
84 109 157
71 97 151
52 83 144
51 81 135
51 81 138
50 80 135
49 79 136
49 79 133
46 74 131
48 77 136
47 76 131
47 77 135
47 76 136
52 79 136
61 85 136
83 103 148
120 137 173
134 152 186
148 165 196
171 187 210
165 178 194
204 219 238
217 233 255
217 233 255
93 117 171
53 85 134
54 87 138
59 93 153
59 93 147
57 91 143
57 92 142
58 92 149
59 94 140
60 94 151
61 95 148
59 93 140
61 96 152
59 93 139
59 94 139
61 96 153
61 96 148
60 95 141
60 95 149
61 96 151
60 94 148
60 95 147
59 94 139
61 97 155
61 96 157
61 96 151
62 97 156
60 95 145
61 97 149
61 95 152
61 96 139
60 95 137
62 97 154
60 94 141
62 98 157
61 96 145
61 95 151
58 92 131
60 95 141
61 96 144
61 96 144
61 97 152
61 96 145
60 95 139
60 96 143
61 96 151
60 95 143
61 96 152
61 96 142
60 95 149
61 96 144
61 96 152
61 96 147
60 95 146
60 95 143
61 96 147
60 94 142
59 94 140
60 95 147
60 95 148
60 95 140
61 96 150
61 96 151
62 97 154
61 95 147
60 94 131
61 97 151
61 96 142
60 95 142
61 96 143
60 94 147
60 95 149
61 95 143
60 94 146
60 95 149
61 96 147
60 95 141
60 95 144
61 95 146
61 95 150
59 93 138
60 95 147
59 93 145
59 93 148
59 93 139
59 93 146
59 92 137
59 93 146
59 93 144
59 92 148
60 95 148
58 90 139
57 88 132
55 86 127
55 86 129
55 85 128
55 86 132
55 85 131
52 81 118
89 109 145
217 233 255
217 233 255
196 209 223
117 115 74
87 88 59
96 97 63
91 93 67
91 94 68
85 87 61
87 90 66
105 107 75
89 93 67
92 96 70
84 88 65
92 95 66
86 90 65
92 98 72
97 100 69
100 102 71
116 117 80
116 118 83
104 107 72
119 121 83
119 120 80
124 124 82
121 121 81
129 129 84
122 123 83
137 137 88
136 135 88
134 134 88
134 135 88
135 133 87
142 140 88
145 143 93
140 138 88
145 143 91
152 148 94
142 140 88
154 150 92
157 153 94
158 153 92
154 150 88
153 149 93
155 151 92
148 145 88
148 146 89
152 149 87
159 155 90
158 153 89
159 155 90
159 155 91
162 158 98
165 160 97
164 160 97
168 163 98
166 160 93
167 162 98
166 162 96
169 164 97
166 160 97
167 161 94
168 162 95
169 163 95
171 165 96
170 165 96
171 166 98
172 166 97
171 165 98
170 164 95
169 164 96
174 168 99
169 164 97
170 163 94
172 166 97
167 163 93
171 165 98
172 166 97
173 167 95
175 168 97
170 165 99
170 165 94
172 167 99
173 167 101
172 165 94
168 163 90
169 163 90
168 162 91
172 165 97
175 168 98
172 165 91
171 165 92
170 164 95
171 165 97
169 164 93
170 164 97
169 163 94
175 168 101
167 161 90
173 167 95
171 165 96
171 165 95
171 165 95
168 162 92
170 164 91
169 164 99
167 161 87
169 163 91
168 161 95
168 161 93
167 162 94
165 158 87
171 163 90
171 165 97
168 163 95
166 160 90
162 156 88
170 162 93
164 158 90
166 160 91
164 158 88
164 158 89
168 162 93
167 161 90
165 159 93
164 158 88
165 159 83
167 161 93
163 157 87
166 160 88
168 161 91
164 158 88
161 156 89
158 151 85
166 158 88
160 155 89
162 156 85
162 156 87
163 157 87
163 157 88
161 155 90
161 154 85
154 150 86
156 150 85
158 152 90
164 158 91
165 159 89
163 157 92
157 151 90
160 154 81
191 207 228
191 207 228
191 207 228
192 207 228
191 207 228
191 207 228
191 207 228
192 207 228
191 207 228
191 207 228
191 207 228
190 206 228
192 207 228
192 208 228
190 207 228
190 206 228
191 207 228
191 207 228
191 207 228
191 207 228
190 206 228
189 206 228
191 207 228
190 206 228
190 206 228
190 206 228
189 206 228
190 206 228
189 206 228
190 206 228
191 207 228
189 206 228
190 206 228
190 206 228
190 206 228
189 206 228
189 206 228
188 205 228
189 206 228
190 206 228
189 205 228
189 206 228
189 206 228
189 206 228
189 206 228
188 205 228
188 205 228
189 206 228
189 206 228
189 205 228
189 206 228
188 205 228
188 205 228
189 206 228
188 205 228
189 205 228
188 205 228
188 205 228
188 205 228
187 205 228
188 205 228
187 205 228
187 205 228
188 205 228
188 205 228
187 205 228
188 205 228
187 205 228
187 205 228
187 205 228
187 205 228
187 205 228
189 206 228
187 204 228
186 204 228
186 204 228
187 204 228
187 205 228
187 205 228
187 205 228
187 205 228
187 204 228
187 205 228
187 204 228
187 204 228
187 205 228
186 204 228
186 204 228
186 204 228
187 205 228
186 204 228
186 204 228
186 204 228
186 204 228
187 204 228
186 204 228
187 205 228
186 204 228
186 204 228
186 204 228
186 204 228
186 204 228
186 204 228
185 204 228
185 204 228
186 204 228
186 204 228
185 204 228
185 203 228
182 200 223
180 197 221
167 186 214
164 183 211
170 189 213
153 172 201
157 177 204
141 161 190
150 169 199
126 146 177
143 163 195
123 145 183
115 137 170
114 135 173
97 120 168
90 114 160
79 105 153
65 94 145
52 83 144
51 81 129
51 82 141
50 81 140
50 80 136
49 78 134
47 76 134
49 79 135
47 77 135
47 76 135
47 76 136
46 75 135
45 73 130
51 76 133
72 93 140
105 122 159
120 137 175
140 156 187
162 178 204
170 184 204
196 211 231
218 233 255
202 218 243
53 85 137
55 88 137
56 90 148
58 92 151
60 94 151
58 92 150
58 92 138
60 96 155
59 93 145
61 96 154
58 93 139
59 94 139
60 95 144
59 93 140
61 96 149
58 92 139
60 95 141
61 97 157
59 94 146
60 95 150
60 95 144
60 95 147
60 94 140
60 95 140
60 95 137
61 96 146
61 96 144
61 96 148
60 95 135
60 95 143
60 95 141
61 96 149
61 97 156
61 95 143
60 94 135
60 95 140
61 97 152
61 97 152
60 95 144
60 95 136
61 97 149
61 97 143
62 97 155
61 96 148
61 96 147
61 96 152
60 94 137
61 96 144
60 94 141
60 95 142
60 95 137
60 95 143
61 96 148
62 97 153
60 94 136
62 97 151
61 96 143
61 96 147
59 93 143
60 95 145
60 94 135
61 95 148
60 95 145
60 95 142
60 95 138
60 95 152
61 96 145
61 95 149
59 92 138
60 95 148
61 95 145
60 95 138
60 94 138
61 96 140
60 94 144
59 93 142
60 95 147
59 93 141
60 93 141
60 95 142
59 94 135
58 90 127
58 91 130
59 92 147
59 93 143
60 94 144
59 93 138
59 92 142
59 92 139
57 90 134
58 91 129
58 91 141
56 88 131
59 92 141
58 91 133
55 84 121
56 87 135
55 85 128
54 82 122
52 80 122
190 206 228
218 234 255
174 183 183
102 101 66
100 100 66
91 92 63
83 86 63
89 92 63
82 84 60
84 87 62
70 76 57
92 96 68
96 98 70
91 96 71
88 92 64
95 98 67
96 98 69
94 98 70
110 111 73
97 101 72
109 110 72
114 115 77
121 122 80
121 122 81
119 119 76
123 124 80
119 121 81
128 127 84
129 129 82
127 127 83
138 137 87
138 137 86
135 134 86
139 136 86
140 139 86
146 143 90
141 139 83
148 145 90
140 139 85
149 146 87
148 145 89
150 147 90
153 150 90
153 149 89
153 150 95
155 152 95
155 151 94
162 158 96
160 155 99
155 152 89
158 155 89
158 154 93
159 154 88
162 158 89
166 160 93
160 156 92
158 154 91
162 158 92
167 162 98
163 160 95
164 160 93
166 161 94
163 158 89
168 164 97
167 162 99
165 160 97
167 162 92
173 168 99
173 167 101
170 165 96
171 165 95
170 165 93
168 162 94
170 164 94
170 164 96
172 166 95
174 168 99
168 162 91
173 167 97
173 166 99
172 165 96
176 169 99
170 165 92
175 168 100
176 170 102
173 166 97
170 164 94
169 163 93
172 165 95
172 166 93
172 166 94
173 167 95
178 170 101
173 167 96
168 162 85
170 164 86
168 163 90
171 165 92
167 160 90
170 164 95
168 163 94
173 166 93
161 155 90
167 160 87
167 162 91
166 160 90
170 164 92
171 165 94
170 164 93
161 156 86
163 158 86
166 159 89
170 164 92
166 160 89
172 164 96
167 161 93
170 163 90
163 158 86
167 161 90
161 155 88
167 161 90
164 159 87
170 163 92
161 154 90
162 156 87
158 152 85
164 158 93
163 157 87
166 160 93
163 157 91
161 155 87
167 160 91
168 162 90
165 159 93
156 152 83
166 159 93
153 147 80
164 158 84
166 159 87
166 159 89
157 152 85
156 150 83
163 157 87
149 144 73
147 142 78
158 153 83
166 161 96
153 148 82
163 157 90
155 148 79
192 207 226
190 206 226
191 207 227
192 208 228
192 207 227
190 206 226
192 208 228
192 207 228
192 207 228
192 207 228
191 207 227
192 207 228
191 207 228
192 207 228
192 207 228
190 206 228
192 207 228
191 207 228
191 207 228
191 207 228
190 206 228
191 207 228
190 206 228
190 206 228
190 206 228
190 206 228
190 206 228
191 207 228
190 206 228
191 207 228
190 206 228
190 206 228
191 207 228
191 207 228
191 207 228
189 206 228
190 206 228
190 206 228
189 206 228
189 206 228
190 206 228
189 206 228
189 206 228
190 206 228
190 206 228
190 206 228
190 206 228
189 206 228
189 205 228
190 206 228
190 206 228
188 205 228
189 206 228
189 206 228
189 205 228
189 205 228
189 206 228
189 206 228
189 206 228
189 206 228
189 205 228
189 206 228
189 205 228
188 205 228
188 205 228
189 206 228
188 205 228
188 205 228
189 205 228
188 205 228
189 206 228
189 205 228
187 205 228
189 205 228
188 205 228
187 205 228
187 205 228
188 205 228
188 205 228
187 205 228
188 205 228
188 205 228
188 205 228
189 205 228
188 205 228
187 205 228
187 205 228
187 205 228
187 204 228
186 204 228
187 205 228
186 204 228
188 205 228
187 204 228
187 204 228
187 205 228
187 204 228
187 205 228
187 204 228
187 205 228
186 204 228
187 205 228
186 204 228
187 205 228
186 204 228
187 204 228
187 204 228
186 204 227
185 202 224
182 200 224
174 192 217
173 191 217
171 189 216
163 180 205
158 177 205
153 171 200
152 170 195
130 150 180
141 161 193
113 135 172
129 149 184
116 137 172
111 133 170
93 117 160
73 99 144
61 90 146
55 85 142
52 82 138
51 81 137
51 81 132
51 81 140
50 81 134
49 79 131
48 77 131
49 78 131
46 74 129
45 73 130
46 73 129
44 71 126
45 73 126
42 69 125
45 71 127
72 93 141
95 112 150
130 146 180
154 170 199
169 183 203
178 193 202
218 234 255
176 192 222
54 86 139
53 86 137
57 90 142
56 90 143
58 92 138
59 93 151
57 91 139
59 93 139
60 94 146
60 94 144
58 92 137
61 96 150
59 93 145
59 93 146
60 94 142
59 94 145
61 96 145
59 93 130
60 95 142
60 94 138
61 96 145
61 96 150
60 94 142
60 95 145
59 94 140
61 96 148
60 94 141
60 94 139
61 96 145
60 95 148
60 95 142
59 93 136
61 96 150
61 95 144
60 95 142
59 94 141
60 95 135
61 96 146
61 96 143
60 95 140
60 95 141
60 95 152
61 97 145
60 95 142
60 95 145
60 95 145
60 95 140
60 94 137
60 95 140
60 96 141
60 95 148
61 96 149
61 97 147
61 96 144
59 93 129
60 94 135
62 97 154
61 96 149
61 96 148
61 95 142
61 96 147
59 93 129
61 95 145
60 94 137
59 93 139
60 94 138
62 96 147
61 96 139
60 94 138
60 94 135
61 96 147
60 94 145
60 94 134
60 94 139
60 94 140
60 94 142
59 93 143
58 92 133
59 93 131
58 92 142
59 94 146
60 95 144
58 92 137
59 92 133
60 95 147
59 92 138
60 94 145
59 92 137
57 89 133
59 92 141
59 92 134
57 88 129
56 87 130
56 87 132
58 91 139
57 88 128
56 88 131
53 82 122
54 84 128
51 78 117
172 187 207
218 234 255
136 139 125
100 100 68
82 84 57
78 79 55
86 88 64
78 80 56
86 89 63
82 87 63
73 79 59
85 90 64
89 93 67
86 90 65
88 92 67
84 90 63
93 96 68
104 107 77
94 98 72
105 107 71
102 105 72
112 114 77
114 115 74
123 123 78
126 125 81
133 132 87
127 126 83
124 125 81
124 125 81
126 125 80
128 129 83
137 136 84
130 130 79
145 143 89
137 135 83
148 145 90
157 153 93
141 139 86
141 139 85
152 149 93
137 134 79
160 156 93
151 147 87
149 146 85
158 155 92
159 155 94
155 153 97
159 155 94
158 154 91
158 153 87
160 155 94
161 156 95
161 157 92
160 155 90
162 159 94
159 155 93
165 160 96
158 154 88
168 163 96
169 164 97
166 161 91
167 161 91
171 165 97
173 167 95
168 162 92
171 165 97
167 161 93
165 160 92
174 167 97
171 165 96
171 165 99
170 164 96
171 165 95
173 167 97
169 164 95
173 167 95
168 163 95
172 166 98
170 164 92
171 166 96
169 163 91
171 166 95
172 167 93
172 166 90
172 166 95
172 165 96
169 164 94
173 166 92
170 164 95
174 167 95
171 164 94
177 170 99
173 165 97
173 167 95
168 161 87
171 165 92
171 164 93
167 162 93
168 161 88
168 162 91
170 163 93
169 163 87
165 159 88
169 162 90
162 156 86
168 162 94
168 162 94
164 159 85
163 158 87
167 161 90
162 155 81
167 162 90
169 163 91
172 166 96
165 160 88
164 159 87
163 157 84
169 162 91
165 159 86
167 160 88
165 159 89
161 156 86
170 165 91
168 161 88
161 156 81
165 158 90
158 152 84
164 159 90
160 153 85
163 157 93
162 157 87
165 158 86
155 150 85
164 158 90
155 150 85
160 154 86
164 158 90
165 158 94
162 155 80
161 155 87
159 153 82
164 157 90
158 152 87
161 156 88
162 156 87
157 151 85
158 152 84
156 151 85
160 155 90
162 155 87
191 206 225
190 206 226
191 206 223
191 207 227
189 205 218
191 207 226
192 207 226
191 207 225
192 207 225
191 207 226
191 206 225
191 207 228
191 207 226
191 207 227
190 206 228
191 207 226
191 207 227
191 206 226
191 207 228
192 207 227
191 207 227
190 206 227
192 207 228
191 207 228
190 206 227
190 206 228
191 207 228
192 208 228
191 207 228
191 207 228
191 207 228
191 207 228
191 207 228
192 207 228
190 206 228
190 206 228
191 207 228
190 206 228
190 207 228
190 206 228
191 207 228
191 207 228
191 207 228
189 206 228
190 206 228
191 207 228
190 206 228
190 206 228
190 206 228
191 207 228
190 206 228
190 206 228
189 206 228
190 206 228
191 207 228
190 206 228
190 206 228
189 206 228
190 206 228
190 206 228
189 206 228
190 206 228
190 206 228
190 206 228
189 206 228
189 206 228
190 206 228
189 205 228
190 206 228
189 205 228
188 205 228
189 206 228
190 206 228
188 205 228
188 205 228
188 205 228
188 205 228
189 206 228
189 206 228
188 205 228
189 206 228
188 205 228
188 205 228
189 206 228
188 205 228
189 205 228
188 205 228
187 205 228
188 205 228
187 205 228
188 205 228
188 205 228
189 205 228
189 206 228
189 206 228
188 205 228
189 206 228
188 205 228
188 205 228
188 205 228
187 205 228
188 205 228
188 205 228
187 205 228
188 205 228
188 205 228
187 205 228
188 204 227
186 202 223
182 199 222
176 193 216
175 192 215
170 187 211
157 175 202
154 172 196
149 168 197
139 158 182
133 152 182
135 155 187
128 148 183
109 131 170
104 126 167
105 128 166
86 110 158
85 109 149
54 83 131
52 83 141
52 83 137
51 81 129
51 81 141
51 81 138
49 79 136
49 78 131
49 79 134
48 77 133
45 73 119
48 77 134
46 74 134
44 71 126
41 66 121
41 67 123
42 69 129
46 69 120
76 95 141
122 138 171
148 163 190
160 176 197
162 175 184
217 233 254
143 159 191
54 86 141
52 84 131
56 90 141
57 91 141
56 90 139
58 93 148
59 93 143
58 92 140
59 93 141
59 93 142
59 93 140
60 94 141
60 95 151
59 94 144
60 94 140
61 96 151
60 95 137
59 94 138
60 94 138
59 94 142
61 96 145
59 94 139
61 96 151
60 94 142
62 97 153
61 96 152
60 95 144
60 95 140
59 94 135
61 96 141
61 96 145
61 95 146
61 96 152
59 94 139
60 95 144
61 95 145
61 96 145
61 96 140
59 94 139
62 98 154
60 95 134
61 96 147
61 96 142
61 96 147
62 97 147
60 95 137
61 97 154
61 96 147
59 94 136
60 95 141
60 95 141
60 95 136
60 95 141
60 95 143
61 96 142
61 96 148
61 96 149
61 96 147
60 95 143
60 95 145
61 96 148
60 95 145
60 95 142
62 97 155
60 95 143
61 96 142
60 95 143
59 92 132
61 95 138
61 96 145
60 94 139
60 94 139
60 94 137
58 92 126
62 97 150
61 97 152
61 95 139
62 97 153
61 95 142
57 90 124
59 92 142
58 91 131
60 94 138
60 94 149
59 93 142
59 92 134
58 91 134
60 93 137
60 93 137
58 90 130
59 92 137
58 90 132
56 87 128
57 88 125
58 88 126
56 87 139
56 87 138
53 82 121
52 81 114
51 79 118
138 154 177
217 233 254
100 100 75
85 86 59
86 88 61
78 79 56
76 78 54
71 76 54
82 85 60
74 78 56
82 86 61
74 78 57
89 93 66
87 91 61
87 91 66
94 97 67
88 93 67
106 108 75
111 112 76
111 112 73
106 108 75
104 107 71
119 120 78
116 117 73
125 126 84
133 132 84
135 135 88
137 135 89
130 130 83
128 129 79
139 137 87
138 136 82
127 127 78
141 139 87
146 144 85
143 140 84
148 145 84
142 140 82
144 142 88
151 148 89
153 149 89
153 148 87
151 148 83
141 139 82
150 147 86
155 151 92
158 155 91
161 156 95
159 154 88
156 152 89
162 157 93
166 161 93
160 155 93
161 156 92
167 161 92
163 157 82
163 158 90
162 158 95
166 161 92
165 159 93
165 160 95
168 163 94
170 164 92
167 162 94
164 159 92
172 165 94
165 160 90
170 165 97
172 166 98
165 160 82
167 162 92
169 164 92
171 165 93
165 160 89
174 168 95
173 166 95
171 164 94
168 163 87
174 167 95
168 162 95
172 165 93
170 165 93
173 166 93
168 163 93
168 163 94
171 165 93
172 165 97
172 166 89
171 165 93
171 165 91
171 164 90
174 168 100
170 163 87
173 166 97
170 164 94
167 161 90
170 163 89
167 161 89
166 160 87
167 161 81
170 163 85
166 161 86
174 167 92
174 167 95
173 166 95
170 163 90
170 164 92
171 165 91
166 161 92
170 163 93
165 159 90
171 164 92
164 158 87
165 159 85
166 161 89
162 156 79
159 153 84
164 158 85
168 161 94
168 160 93
167 160 91
162 155 85
163 157 84
169 162 93
167 160 88
157 152 86
160 155 88
167 162 90
165 158 93
164 156 86
164 157 84
162 156 92
164 158 80
167 161 89
159 153 84
163 157 90
170 163 90
159 153 83
161 155 82
160 153 82
156 151 82
158 151 87
157 152 86
164 158 85
161 154 83
159 153 86
154 148 81
155 149 80
164 158 87
154 148 77
190 206 221
192 207 224
191 206 220
190 206 221
192 207 226
191 206 221
188 204 213
191 207 226
188 204 218
192 207 224
190 206 224
191 207 226
190 206 224
192 207 226
190 206 223
189 205 220
191 206 225
189 205 223
190 206 223
190 206 225
190 206 224
191 207 225
189 206 226
192 207 227
191 207 227
190 206 223
191 206 225
191 207 225
192 207 226
191 206 225
191 207 227
190 206 227
191 207 228
191 207 228
192 207 227
192 207 228
192 208 228
191 207 228
191 207 228
190 206 227
191 207 228
191 207 228
192 207 228
191 207 228
191 207 228
190 206 228
191 207 228
191 207 228
191 207 228
191 207 228
192 207 228
190 207 228
191 207 228
190 206 228
191 207 228
190 206 228
190 206 228
190 207 228
191 207 228
191 207 228
191 207 228
190 206 228
190 207 228
191 207 228
190 206 228
190 206 228
190 206 228
191 207 228
190 206 228
190 206 228
190 206 228
190 206 228
190 206 228
190 206 228
190 206 228
190 206 228
189 206 228
190 206 228
189 206 228
190 206 228
190 206 228
189 206 228
189 206 228
189 206 228
189 206 228
190 206 228
189 206 228
189 206 228
189 206 228
189 206 228
189 206 228
189 206 228
189 206 228
189 206 228
189 206 228
189 206 228
190 206 228
188 205 228
189 206 228
188 205 228
189 206 228
189 206 228
189 205 228
189 205 228
189 206 228
189 206 228
187 203 225
188 205 228
184 200 221
177 193 215
178 194 216
175 192 212
164 181 209
166 183 206
154 172 200
159 176 203
139 157 185
132 151 182
135 154 181
132 152 184
110 132 174
108 129 169
94 117 162
66 93 137
62 89 132
53 84 138
52 82 136
51 81 131
51 82 132
51 81 138
48 77 128
49 78 126
49 79 133
47 75 129
46 75 129
45 72 122
45 73 121
44 71 120
43 69 124
42 68 121
41 67 119
39 63 116
37 61 114
66 85 128
85 102 143
130 145 174
141 156 178
168 182 194
202 217 234
114 133 175
55 88 139
55 88 138
56 90 140
55 87 142
58 93 144
57 91 138
58 91 139
59 93 145
57 91 134
59 93 140
59 93 139
59 93 136
60 95 148
60 95 145
59 93 140
60 96 148
59 94 149
60 94 139
60 95 139
58 92 135
59 94 135
59 94 142
59 94 144
59 93 136
60 95 137
59 93 140
59 93 133
60 95 142
59 93 137
60 94 141
60 94 137
62 97 154
61 96 140
61 96 143
60 94 135
62 96 145
61 96 146
60 95 137
61 96 148
61 95 142
60 95 148
60 95 137
60 95 148
59 94 134
61 96 152
61 96 144
62 97 142
61 95 141
60 95 136
60 95 145
61 96 145
59 94 139
61 96 145
61 95 140
61 96 145
61 96 146
61 95 143
60 94 136
61 96 147
61 95 141
59 93 134
60 95 137
60 95 135
58 93 133
61 95 146
60 94 140
61 95 150
59 94 140
59 93 139
60 95 141
61 96 146
60 94 146
59 93 142
60 94 140
60 94 139
59 92 146
61 95 148
60 93 135
59 93 135
59 93 145
60 94 144
60 94 141
60 94 139
59 93 134
60 93 141
59 93 138
60 94 140
59 91 128
58 91 134
58 89 128
57 90 129
59 93 140
57 88 134
57 88 124
55 86 134
56 86 129
55 85 122
53 83 127
52 82 114
53 80 116
104 121 145
196 209 223
91 91 59
84 85 55
74 74 50
82 83 57
73 76 54
63 67 50
75 78 56
73 79 58
82 86 63
74 80 58
89 93 67
86 91 64
80 84 59
94 97 67
92 95 67
91 94 61
98 101 66
99 102 69
115 116 76
108 111 73
117 118 74
114 115 72
115 117 75
114 114 75
118 119 76
114 115 70
128 128 81
129 128 84
142 140 84
131 130 81
128 127 78
138 135 87
134 133 74
146 144 87
135 135 84
141 139 83
146 144 86
148 144 84
137 136 79
150 147 84
148 145 86
154 150 91
151 148 85
159 154 89
155 151 92
152 149 81
161 157 92
156 153 92
162 158 92
159 155 91
154 150 91
156 152 92
164 158 88
165 160 92
162 156 93
167 161 95
170 164 94
168 163 97
164 159 92
170 164 92
170 164 93
170 164 94
168 162 92
165 161 91
167 162 88
170 164 98
165 159 89
168 162 90
167 162 91
171 165 94
170 163 95
165 159 87
170 165 95
170 164 89
173 166 97
167 161 90
172 166 95
171 165 94
170 164 97
170 164 89
173 167 94
170 164 94
170 164 94
171 165 97
173 167 95
170 164 89
171 165 93
173 166 95
171 164 95
175 168 95
171 165 93
173 166 90
172 165 96
167 162 88
172 165 91
169 163 90
169 163 90
171 165 90
167 162 88
169 163 91
162 157 84
171 165 93
172 166 94
165 159 90
166 161 89
168 162 90
166 160 93
169 162 90
172 165 90
170 164 93
163 156 89
165 159 90
167 161 89
171 165 88
167 160 93
168 162 88
164 158 81
166 160 91
163 157 87
165 159 86
161 154 87
171 163 94
168 161 93
164 157 85
167 161 91
164 157 87
165 158 83
165 159 92
162 156 82
158 152 80
165 158 86
167 162 93
165 159 87
162 156 83
165 159 87
160 153 85
159 152 84
164 158 88
161 155 87
162 156 87
160 155 76
151 145 75
157 151 80
162 155 87
156 149 83
157 151 82
164 156 84
153 148 74
187 203 212
186 202 207
189 205 216
190 205 218
191 206 223
190 206 220
190 205 218
189 204 214
190 206 220
190 205 220
191 206 224
190 205 218
192 207 226
189 205 219
190 206 223
189 205 219
190 205 223
191 206 224
189 204 214
192 207 225
188 204 217
190 206 223
190 206 221
191 206 225
191 207 225
190 206 223
191 207 226
191 206 224
191 207 225
189 205 221
190 206 223
191 206 226
191 206 225
192 207 226
191 206 223
190 205 223
191 207 224
189 205 223
191 207 227
189 205 223
191 206 226
191 206 224
190 206 223
193 208 227
191 207 226
191 207 226
191 206 226
192 207 228
190 206 227
190 206 226
191 207 228
191 207 226
190 206 226
191 207 227
191 207 226
191 207 227
191 207 228
191 207 227
191 207 228
190 206 227
191 207 228
192 207 228
191 207 228
191 207 228
191 207 228
191 207 228
191 207 228
191 207 228
191 207 228
190 206 228
191 207 228
191 207 228
191 207 228
192 207 228
191 207 228
190 206 228
192 207 228
191 207 228
191 207 228
190 206 228
191 207 228
191 207 228
191 207 228
191 207 228
190 206 228
190 207 228
189 206 228
190 206 228
190 206 228
190 206 228
191 207 228
190 206 228
190 206 228
189 206 228
190 206 228
189 206 228
190 206 228
189 206 228
191 207 228
190 206 228
190 206 228
190 206 228
189 205 228
190 206 228
190 206 228
189 205 226
187 203 222
186 202 222
179 194 214
181 197 218
179 195 217
171 187 208
163 179 202
160 178 203
156 174 201
151 168 192
142 160 188
127 147 179
121 141 172
126 146 180
113 133 171
97 120 159
94 117 158
69 96 144
58 88 139
52 83 132
48 77 118
50 79 125
50 81 129
50 79 130
46 75 116
49 77 127
48 78 127
46 74 125
46 73 126
46 74 121
44 72 127
44 71 124
42 68 115
39 64 114
44 70 129
39 64 115
37 62 116
47 67 114
93 110 147
113 127 157
140 156 181
152 165 175
191 205 217
70 96 145
55 88 146
55 87 132
57 90 137
57 90 139
59 93 147
57 90 133
58 92 140
58 92 134
60 94 151
59 94 144
58 92 137
59 93 137
58 93 134
60 95 140
60 95 149
60 95 147
60 95 142
59 93 136
60 95 144
59 94 142
59 94 139
60 95 147
59 94 138
61 96 151
60 95 143
60 95 137
60 95 137
60 95 137
59 93 139
61 95 138
60 94 142
61 95 145
60 95 140
60 95 137
61 96 151
61 95 141
60 95 144
60 94 136
60 95 145
61 96 149
59 94 135
60 95 140
61 96 143
60 95 139
62 97 149
61 95 146
60 94 140
61 96 143
60 94 142
60 94 133
61 96 141
59 94 139
59 94 136
61 95 141
60 96 142
61 96 143
61 96 146
60 95 141
59 94 132
61 96 145
61 96 150
61 96 145
60 94 139
61 95 142
61 95 145
61 95 139
60 94 132
59 92 133
60 95 144
59 93 129
59 93 125
59 92 137
60 94 140
59 93 140
60 95 143
60 95 142
61 94 145
59 93 140
59 93 135
61 96 151
58 91 129
58 92 135
58 91 127
59 92 134
59 94 148
59 93 141
59 92 134
59 92 138
59 93 134
58 90 137
60 94 138
58 90 130
57 88 126
56 86 125
57 87 133
56 87 133
57 87 120
54 84 123
52 80 115
52 80 111
69 91 123
173 182 186
96 95 60
80 80 54
70 73 53
79 80 55
66 70 50
74 76 55
60 65 49
62 68 48
68 73 54
77 81 58
69 73 49
85 89 63
91 95 68
91 94 66
93 99 70
98 101 72
98 100 67
108 111 74
111 112 73
111 111 70
111 113 77
101 105 71
112 113 71
131 130 80
124 123 79
119 118 72
130 129 81
126 126 78
115 114 72
128 129 84
132 130 79
127 126 81
148 145 84
134 133 81
146 143 91
145 142 82
148 145 86
145 142 82
144 142 85
153 150 94
149 146 89
157 153 90
146 143 85
157 153 92
150 147 88
159 155 84
156 152 86
165 161 93
161 155 90
163 158 89
156 152 84
161 156 88
155 152 88
162 157 92
164 159 92
160 156 90
166 161 89
166 161 91
164 158 87
169 163 92
168 162 90
167 162 92
172 166 92
169 163 95
163 158 91
163 158 88
165 159 86
167 162 92
168 162 94
172 165 91
169 163 87
170 165 95
168 163 91
171 165 90
169 163 93
175 168 99
166 161 87
171 164 89
174 168 95
168 162 89
168 162 90
169 163 86
171 165 93
165 159 85
173 167 93
174 168 97
173 166 96
172 165 92
169 163 91
169 163 90
170 164 93
174 168 94
168 163 88
167 161 87
169 162 90
168 161 90
170 164 90
174 167 94
170 164 92
169 163 93
166 160 90
164 160 87
170 163 87
171 165 94
162 156 84
168 161 89
167 161 87
169 163 90
169 163 88
167 161 92
164 158 91
172 165 94
165 159 84
170 163 90
166 160 84
166 160 87
160 154 84
165 159 91
164 158 86
163 157 82
170 163 98
163 157 84
158 153 79
164 158 88
160 155 84
166 159 91
167 161 90
164 157 87
163 157 87
157 152 86
159 154 83
155 150 83
161 155 83
168 160 87
160 154 82
165 158 90
163 158 88
160 153 84
161 155 84
165 159 93
160 153 84
155 150 75
156 150 85
160 152 80
149 144 75
150 144 78
151 144 81
153 147 76
187 202 207
189 205 217
189 204 213
190 205 217
190 205 219
191 206 218
189 204 214
189 205 217
189 205 216
189 205 217
189 204 214
191 206 221
188 203 211
189 204 214
189 205 219
191 206 221
189 204 213
190 205 218
190 205 218
191 206 221
188 203 212
191 206 221
190 206 220
188 204 213
189 205 220
190 205 219
190 205 220
189 205 220
191 206 223
191 206 221
190 205 219
189 205 219
192 207 225
189 205 218
191 206 221
189 205 219
190 205 219
190 206 225
189 205 217
190 205 218
190 206 221
189 205 220
189 205 216
189 205 217
190 205 218
190 206 223
191 207 226
190 206 223
189 205 220
190 206 223
190 206 223
189 205 221
190 206 221
190 206 220
192 207 226
192 207 225
192 207 224
190 206 223
191 207 225
191 207 227
190 206 223
191 207 226
191 207 227
190 206 223
190 206 226
190 206 223
191 207 225
191 207 225
191 206 224
192 207 227
191 207 226
190 206 225
191 207 226
192 207 227
192 207 228
191 207 228
190 206 224
191 207 226
191 206 227
191 207 228
191 207 227
192 207 228
191 207 228
191 207 228
191 207 228
191 207 226
191 207 228
190 206 227
191 207 228
191 207 228
190 206 228
191 206 227
191 207 228
191 207 228
190 206 227
190 206 228
190 207 228
191 207 227
191 207 228
190 207 228
190 206 228
191 207 228
191 207 228
191 207 228
191 207 228
189 204 224
187 203 222
182 197 214
181 196 216
187 203 226
175 191 214
164 180 199
158 172 189
161 177 203
156 173 197
147 164 188
140 158 183
145 162 182
109 129 159
122 142 175
104 126 162
100 122 161
76 101 148
67 93 138
51 82 129
52 82 129
52 82 128
50 80 124
47 75 118
49 77 121
49 79 127
47 75 115
49 78 130
46 74 132
46 74 119
45 73 127
43 69 116
42 68 118
43 69 122
41 66 119
35 58 103
36 60 106
34 57 109
34 57 107
65 83 126
91 106 140
126 140 164
160 175 189
170 184 193
52 83 131
55 88 134
53 85 135
56 89 129
56 90 142
56 89 129
58 92 142
58 91 139
59 94 146
58 92 141
57 91 131
59 93 143
59 93 139
59 93 133
58 93 141
60 95 145
60 95 143
58 93 135
60 95 144
59 94 132
61 95 147
60 94 137
59 94 134
60 95 141
60 95 142
60 94 134
59 93 139
60 95 137
59 93 132
59 94 132
58 93 138
60 95 143
60 95 147
60 94 140
60 94 135
61 96 138
60 95 139
59 93 135
60 94 143
61 96 147
59 94 134
60 95 141
61 97 150
60 94 137
59 94 140
61 96 149
59 94 135
61 96 147
61 96 149
61 97 150
62 98 151
60 95 138
61 95 147
60 95 141
59 94 138
61 97 151
59 94 134
61 96 148
61 96 141
60 94 136
61 96 145
61 96 142
59 93 133
60 95 140
59 93 135
61 95 139
60 94 133
60 94 134
59 92 130
59 93 140
59 93 130
60 94 138
59 92 133
60 95 140
60 95 141
61 95 145
61 94 146
59 93 137
59 93 141
60 93 137
60 94 144
59 92 142
59 93 138
61 95 147
58 92 129
59 92 135
60 94 147
59 92 126
58 90 139
57 90 129
58 91 135
58 91 138
55 86 115
57 89 119
57 88 134
58 89 139
56 87 124
54 83 116
55 85 120
52 79 113
52 79 112
48 72 104
147 153 151
86 86 53
86 86 56
72 74 52
68 71 50
64 67 48
62 67 50
78 82 58
71 77 55
65 70 51
68 74 51
75 80 58
79 83 58
76 81 54
91 93 63
98 100 68
94 98 67
101 103 65
106 108 69
95 98 66
104 106 69
101 104 64
123 123 78
109 111 73
109 112 70
118 118 74
129 128 78
134 132 81
124 124 77
140 138 84
135 134 83
136 135 81
133 132 80
140 138 83
140 138 87
142 138 79
146 143 86
148 145 86
152 149 90
148 146 87
143 139 78
156 152 91
149 145 77
153 151 85
157 154 94
153 150 86
153 151 89
149 146 83
154 150 87
166 161 93
164 160 92
159 154 89
158 154 91
160 156 94
164 160 90
161 157 92
168 162 91
169 163 98
168 162 97
163 158 89
164 158 87
169 163 90
165 160 94
165 160 87
169 163 91
170 164 88
169 164 94
171 165 93
168 162 93
161 156 85
171 164 96
166 160 89
169 163 89
174 167 94
171 166 92
170 164 93
172 166 95
169 162 87
169 163 89
168 162 87
173 166 94
170 165 92
171 165 90
174 167 90
167 161 87
171 164 88
168 161 86
170 163 90
170 164 88
165 158 80
173 166 91
169 162 90
170 163 88
171 165 90
168 161 91
169 163 88
170 163 90
169 162 90
169 162 93
171 164 90
168 162 89
170 164 93
172 166 94
169 162 90
166 160 90
166 159 82
167 161 87
170 164 90
165 159 90
163 157 90
172 165 90
166 160 88
169 162 86
169 163 92
165 158 84
169 162 91
166 161 90
171 165 87
166 160 87
163 158 86
161 155 82
161 156 80
169 162 90
163 158 84
164 158 84
163 157 80
157 151 84
163 157 84
162 155 84
161 155 85
167 162 91
164 159 85
161 155 85
163 157 85
157 150 82
165 158 87
160 153 83
160 154 84
158 152 78
150 145 75
160 153 87
153 147 80
157 151 84
157 151 80
152 147 78
150 145 76
158 151 84
156 151 82
149 144 72
187 202 206
191 206 221
190 205 216
188 203 209
188 204 211
190 205 217
187 203 208
190 205 214
187 203 209
189 205 216
186 202 208
189 205 213
189 205 216
189 205 213
190 205 217
190 205 216
188 204 214
188 204 212
188 204 211
188 204 212
190 205 214
189 205 219
189 205 216
189 205 218
189 205 218
187 203 208
187 203 212
191 206 223
191 206 220
188 204 212
188 204 213
189 204 214
186 203 211
191 206 221
188 204 214
188 204 213
190 205 219
187 203 212
189 205 216
189 205 218
191 206 223
190 206 221
187 203 212
189 205 216
189 205 219
188 204 218
189 205 217
191 206 220
188 204 214
191 207 226
188 204 211
190 205 220
189 204 216
190 206 224
190 205 216
189 205 217
189 205 217
190 206 220
189 205 218
190 206 221
189 205 219
190 205 219
190 206 221
190 206 221
189 205 218
189 205 218
191 206 224
191 206 224
189 205 219
189 204 217
190 205 221
191 207 225
190 206 224
190 206 226
191 207 225
191 207 225
190 206 221
190 206 221
189 205 221
188 204 218
190 206 223
190 205 223
190 206 226
190 206 224
189 205 219
189 205 220
190 206 223
189 205 219
191 207 227
189 205 220
189 205 218
191 207 225
189 205 223
190 205 223
190 206 225
190 206 221
191 207 227
191 207 226
189 205 223
190 206 226
191 206 224
190 206 226
191 207 225
192 207 227
190 205 222
187 202 218
187 202 218
184 199 214
183 198 209
173 188 206
175 190 205
172 188 208
157 173 195
154 169 191
151 168 193
148 165 189
137 153 175
139 156 179
126 144 176
124 143 171
106 126 158
91 113 154
81 105 143
61 89 136
52 83 131
51 81 126
50 79 123
49 79 121
49 79 125
48 77 123
49 77 121
49 77 126
41 67 105
47 74 124
45 72 117
45 73 120
43 69 116
44 71 121
39 63 108
40 65 113
40 64 115
36 60 109
38 63 109
36 60 108
54 71 113
90 104 137
125 138 161
135 148 151
152 166 173
51 82 130
53 84 135
54 86 123
56 89 137
58 91 135
58 91 135
57 91 135
56 90 133
57 90 127
59 94 147
58 91 139
59 93 137
58 93 134
58 92 135
60 94 139
59 93 141
59 93 129
59 94 143
59 93 135
60 95 146
59 94 136
59 93 140
60 95 139
61 96 146
61 96 142
61 96 149
60 95 148
58 92 127
60 94 137
59 93 137
62 97 149
59 94 134
61 95 139
60 94 139
61 97 151
59 94 138
60 95 147
61 96 138
61 96 136
60 94 134
59 94 143
60 95 144
61 96 151
61 96 141
61 96 149
60 95 141
59 94 132
60 95 145
59 93 129
60 94 142
62 97 145
60 94 135
61 96 147
61 95 138
59 94 140
60 95 138
60 94 131
59 93 134
60 94 135
59 93 132
59 94 125
60 94 140
59 94 142
60 94 136
59 93 136
60 95 142
61 96 145
59 94 145
61 96 150
58 91 131
60 95 139
59 92 131
60 95 138
59 93 140
60 94 145
58 92 129
59 93 137
59 93 136
59 94 136
60 94 139
59 91 127
59 93 143
59 93 142
59 93 138
58 91 134
57 89 124
58 90 134
59 92 141
58 91 134
58 90 133
59 91 131
56 88 126
56 87 126
59 91 128
57 89 128
59 91 136
58 89 129
55 84 123
53 81 116
53 82 120
52 79 117
48 72 91
98 99 73
90 90 57
73 74 49
61 62 41
62 64 43
54 59 43
63 69 51
66 70 47
59 65 49
71 76 55
70 75 52
74 80 57
84 87 59
89 93 65
74 81 59
100 102 70
95 98 63
92 95 64
103 106 67
104 105 67
108 110 69
108 110 65
111 112 73
106 109 72
117 117 76
115 116 72
111 113 73
125 125 79
131 130 81
120 120 74
141 139 85
141 139 83
137 135 76
133 133 80
137 135 84
132 132 75
146 143 84
147 144 85
149 146 87
143 139 78
147 144 86
145 142 84
149 146 82
150 146 82
147 144 84
154 150 86
158 155 86
153 150 80
152 148 84
159 155 88
163 158 90
152 149 78
159 154 86
161 156 88
159 154 78
161 156 94
166 160 92
167 162 91
166 160 89
164 159 89
167 161 90
162 158 89
170 164 88
169 163 92
167 162 91
167 162 89
171 165 94
166 161 85
171 164 92
168 163 88
170 164 93
167 161 88
169 164 90
173 166 91
167 161 87
166 159 89
172 165 93
168 163 94
170 164 90
166 161 87
169 163 86
170 164 93
172 165 91
172 166 91
174 167 94
169 163 81
169 162 87
171 165 88
173 167 94
171 164 87
169 163 88
171 165 90
171 164 87
166 160 85
171 164 97
170 164 93
165 160 79
169 164 89
169 163 88
169 162 90
165 160 80
165 159 87
165 159 89
171 165 91
161 155 83
172 166 96
167 160 87
167 160 84
165 159 84
170 164 86
167 160 87
167 161 82
163 156 84
166 160 86
167 162 89
168 161 90
166 160 89
168 161 88
164 158 80
166 159 82
164 159 86
163 157 83
163 158 85
166 159 93
166 159 92
157 151 79
160 154 82
162 156 80
163 157 84
167 160 88
157 151 80
160 153 76
161 155 81
164 158 87
161 156 84
154 149 77
167 160 84
156 151 73
162 155 86
155 149 83
165 159 93
158 152 83
160 154 87
148 143 74
155 149 74
149 143 73
157 151 84
151 145 72
157 151 79
191 206 218
186 202 207
184 200 198
187 203 208
187 202 204
186 202 203
187 203 208
185 201 200
188 204 209
188 204 211
188 203 209
187 203 206
187 202 207
187 202 204
187 203 207
188 204 209
187 202 204
189 204 213
187 203 209
189 205 217
187 202 206
188 204 209
187 203 207
188 204 212
189 205 217
188 204 211
187 203 209
189 204 211
187 202 207
188 204 208
190 205 216
187 203 207
189 204 214
188 204 216
187 203 209
190 205 216
187 203 209
190 206 219
188 204 212
188 204 213
190 205 219
190 206 219
188 203 208
189 205 216
186 202 206
189 205 217
189 205 214
188 204 214
188 204 208
189 204 213
189 205 216
191 206 221
187 203 208
189 204 214
186 202 204
189 204 216
190 205 218
189 205 217
189 205 217
188 204 214
190 205 217
190 205 219
189 204 216
187 203 208
189 205 217
189 205 217
189 205 218
187 203 207
190 205 218
189 204 214
189 204 217
190 205 218
189 204 216
190 205 219
191 206 219
187 203 213
186 202 208
188 204 214
191 206 220
188 204 213
188 204 214
189 204 214
188 204 217
190 205 218
188 203 211
192 207 224
190 205 219
189 205 218
189 204 216
190 206 224
187 204 214
189 204 216
188 204 214
188 204 217
190 205 218
190 205 220
189 205 218
189 204 216
191 206 223
189 205 220
190 206 221
189 205 220
190 205 218
189 205 219
188 204 217
187 202 214
188 203 222
185 200 214
179 193 207
175 190 199
173 188 198
166 181 192
167 183 199
159 176 191
156 172 189
142 159 179
132 150 171
144 162 187
130 147 170
118 136 164
93 115 148
88 110 146
77 102 142
52 82 133
52 82 128
51 81 130
52 83 128
50 80 127
49 79 123
51 81 130
48 77 124
46 74 112
46 74 116
46 73 119
47 75 121
45 72 116
41 66 107
44 71 120
40 64 110
40 65 109
39 64 105
35 57 103
37 60 106
30 50 91
44 64 108
85 98 123
121 134 158
144 159 163
145 160 175
51 80 117
54 86 133
55 88 134
57 90 135
56 89 133
57 90 140
58 92 139
56 89 132
58 92 142
58 92 134
58 92 131
59 94 139
58 93 133
58 93 137
60 94 142
59 93 134
56 90 130
60 95 142
60 95 146
60 95 135
59 93 136
60 94 142
59 93 135
60 94 134
60 95 134
60 95 135
61 95 140
60 94 142
59 94 130
61 95 139
59 94 134
59 93 134
60 94 138
60 95 136
60 95 137
59 94 134
61 97 150
59 94 131
59 93 131
59 93 136
60 95 143
60 94 134
61 96 147
60 94 139
60 95 143
60 94 130
60 95 140
60 95 142
60 95 139
60 95 139
60 94 136
60 95 140
59 93 129
61 96 144
61 96 152
62 97 148
60 95 139
61 95 140
59 93 135
60 95 143
60 95 140
61 96 144
60 94 139
60 93 135
58 92 126
61 96 143
60 94 140
60 95 139
60 95 140
60 95 138
60 94 140
59 92 135
60 95 142
59 93 133
61 95 144
60 94 138
57 90 129
61 96 143
59 93 134
60 94 136
59 92 137
59 93 129
58 91 125
60 93 141
59 92 134
58 91 128
59 92 141
59 92 137
58 91 131
59 91 136
57 89 130
58 90 132
59 92 136
55 85 125
57 89 120
57 89 132
56 86 128
54 83 111
52 81 113
53 82 121
51 79 103
51 77 105
71 77 72
80 79 51
65 66 43
64 66 44
67 69 47
52 57 44
42 50 38
59 64 47
60 66 46
59 65 45
68 74 54
71 76 52
72 77 52
92 97 67
79 84 60
87 91 59
104 106 71
99 102 67
98 101 67
113 113 72
112 113 74
111 112 70
114 116 69
125 123 77
121 121 75
120 120 73
127 127 78
125 125 73
126 126 78
131 130 78
138 137 84
135 134 81
143 140 84
138 136 80
135 134 80
147 143 78
143 139 83
142 139 84
147 144 84
144 141 81
145 142 79
146 143 81
143 141 74
150 147 87
152 148 90
155 151 84
154 149 78
155 150 86
155 150 81
160 155 91
158 154 83
159 155 87
164 159 90
157 153 80
159 154 87
162 158 89
165 160 90
165 158 89
161 157 87
168 162 94
167 161 90
163 158 83
165 160 84
165 159 93
167 160 85
169 162 92
163 159 89
163 158 85
168 161 87
164 159 86
168 162 92
171 164 89
168 161 85
169 163 88
168 163 89
170 164 92
168 162 86
167 162 87
169 163 88
169 162 87
167 162 86
165 160 83
171 165 90
169 163 90
169 163 87
167 161 84
171 163 92
175 168 93
172 166 96
170 163 91
171 164 90
167 162 88
169 163 87
173 167 94
170 163 89
168 162 91
171 164 93
168 162 89
170 164 90
174 167 93
169 163 91
164 158 83
175 167 91
169 163 88
171 163 92
167 161 90
167 160 87
166 159 86
163 157 85
167 161 87
163 157 84
174 167 96
168 161 87
171 164 89
164 158 86
165 159 84
164 158 86
166 159 86
165 159 87
167 161 89
161 155 80
166 161 86
168 162 90
165 159 86
165 158 84
170 164 93
163 156 83
156 150 73
165 158 86
165 158 87
156 150 78
161 155 83
162 156 85
156 150 78
161 155 79
155 149 76
162 157 82
165 159 87
161 155 83
158 152 81
161 154 86
164 156 87
157 152 80
165 158 87
161 154 83
157 152 81
153 148 77
160 153 82
148 142 75
185 201 200
189 204 212
184 201 198
188 203 209
184 200 194
188 203 207
187 203 206
188 203 207
185 201 198
184 200 196
186 202 202
186 202 202
187 202 204
185 201 200
188 204 209
185 201 200
187 203 206
188 203 207
186 202 203
189 204 208
187 203 206
186 201 199
187 203 208
185 202 204
183 200 198
188 203 209
186 202 204
186 202 207
187 202 206
186 202 203
185 201 196
187 203 209
188 203 209
188 204 211
187 203 206
187 203 208
189 204 211
186 202 206
187 203 204
188 204 212
189 204 213
187 203 207
188 204 209
189 205 216
187 203 206
187 203 208
188 204 212
185 201 202
189 204 214
188 203 209
189 204 212
189 205 217
187 202 206
188 204 209
187 202 206
188 204 212
188 204 212
187 203 208
189 205 217
186 202 200
187 203 209
187 203 208
188 204 211
188 203 211
190 205 217
187 202 207
187 203 209
187 203 209
188 204 213
187 202 206
188 203 211
189 205 214
189 204 213
188 204 212
187 203 208
188 204 213
188 204 213
187 202 207
188 203 213
188 204 213
187 203 209
190 205 217
188 204 216
187 203 211
186 202 207
189 204 213
188 204 214
191 206 220
190 205 218
190 205 218
188 203 211
186 202 206
187 202 207
187 203 209
187 203 211
190 206 221
187 203 209
189 204 213
190 205 217
189 205 218
187 203 211
189 204 217
188 204 211
189 204 213
189 205 218
186 202 210
184 199 200
184 198 203
179 193 196
170 185 189
172 186 198
166 182 194
160 176 186
157 173 187
142 159 170
140 157 171
147 164 181
124 142 164
118 137 169
104 121 147
101 121 152
82 105 142
69 95 142
51 82 120
49 79 123
52 82 128
48 78 112
51 81 127
51 81 126
48 76 121
48 76 116
48 77 119
46 73 113
45 73 117
44 71 112
43 70 114
44 71 118
43 69 117
42 67 112
39 64 106
36 59 100
34 56 98
35 57 101
30 49 90
30 50 95
51 65 100
105 117 141
129 143 154
129 146 160
51 82 123
55 87 131
53 85 125
56 88 128
58 91 134
57 91 137
57 90 131
60 94 144
57 90 132
56 90 125
59 93 138
59 93 143
58 92 132
60 93 138
59 93 137
59 93 140
59 94 136
60 94 140
59 94 138
58 93 129
59 93 133
60 94 140
60 94 138
60 95 135
60 95 137
59 93 136
57 91 121
60 95 141
61 95 146
59 94 135
60 95 142
59 93 136
61 96 144
59 94 142
60 95 134
59 94 130
59 93 130
61 96 142
59 94 139
61 96 143
61 96 139
61 95 139
60 95 140
60 95 129
59 93 133
60 94 140
61 95 146
60 95 139
61 96 146
60 95 138
59 94 136
61 96 142
60 95 143
61 96 142
61 96 142
61 96 138
59 93 131
60 95 141
60 95 143
59 94 135
61 96 145
59 93 130
60 94 137
60 93 135
60 94 140
60 95 147
60 94 141
61 96 147
60 94 139
60 94 139
60 95 142
59 93 129
58 92 124
59 93 129
58 92 137
60 95 135
60 93 139
59 92 128
60 94 146
57 90 122
58 91 124
59 93 139
58 92 134
59 93 137
59 93 129
60 94 138
61 94 149
56 89 123
58 90 131
57 88 118
58 92 137
55 85 116
56 85 123
55 87 116
57 89 133
55 87 123
55 85 118
54 83 116
56 87 131
54 82 111
53 81 113
46 69 85
80 84 65
62 63 35
72 73 46
55 58 38
55 58 38
47 53 37
50 54 40
53 57 37
61 66 49
69 74 53
57 64 46
78 81 55
94 97 66
77 81 55
76 80 57
90 92 61
86 90 57
95 97 66
83 87 56
88 91 56
100 102 65
107 109 67
114 114 64
113 114 71
120 120 75
115 116 73
122 121 75
118 117 70
125 125 76
131 130 75
133 132 80
123 123 72
145 142 82
135 133 74
146 144 83
132 131 81
141 139 83
143 141 86
145 142 80
141 138 77
153 150 91
155 151 85
151 148 80
153 149 78
157 153 86
158 154 87
163 157 91
150 147 82
154 150 82
156 152 82
163 158 91
159 155 84
156 152 86
156 152 85
158 153 85
159 154 81
159 154 85
163 158 82
159 155 90
161 156 85
168 161 85
165 160 88
161 156 82
164 159 90
171 164 92
161 156 78
166 161 89
166 160 85
172 166 90
167 162 88
169 163 90
164 158 83
166 161 85
168 162 83
169 163 95
167 162 87
169 163 84
167 162 85
167 162 87
172 165 88
170 164 89
172 166 88
169 162 88
176 168 94
173 166 88
167 161 84
169 163 88
168 162 87
171 165 87
164 159 76
165 160 78
169 164 90
168 162 86
165 159 80
166 160 79
167 161 87
165 158 80
166 160 85
165 160 84
164 159 85
165 159 87
171 164 90
168 162 89
165 158 81
168 162 87
169 162 85
166 159 88
168 162 86
166 159 85
162 156 79
162 155 78
169 162 89
167 160 88
166 160 76
164 158 80
165 158 87
169 162 90
171 163 90
162 156 80
157 152 77
170 162 84
162 156 82
162 156 83
161 155 84
163 157 85
156 151 75
163 157 82
166 158 85
166 160 85
159 153 80
157 151 82
155 149 84
160 154 83
157 151 78
165 158 89
158 152 79
161 154 80
158 152 85
159 152 81
160 153 87
159 153 82
156 150 84
157 150 78
159 152 84
161 155 80
163 157 80
156 151 74
154 150 72
155 148 77
188 203 203
187 203 204
187 202 200
186 201 198
187 203 203
185 200 194
189 204 211
185 201 200
186 201 199
188 203 206
182 199 188
187 203 204
183 199 192
186 202 202
185 202 203
183 199 191
187 202 203
187 203 206
186 202 202
186 201 199
186 202 203
186 202 203
186 201 199
187 202 204
186 202 202
186 202 203
185 201 200
185 201 198
184 201 196
187 202 203
186 202 203
186 202 204
185 201 200
184 200 195
187 203 206
189 205 213
185 201 196
184 200 195
186 202 203
188 203 207
187 203 207
186 202 203
186 202 202
186 202 202
188 203 209
185 202 203
185 201 195
185 201 203
186 202 204
186 202 202
188 204 212
186 202 206
186 202 204
184 200 194
186 201 200
186 201 204
182 199 191
188 204 211
185 201 199
187 203 207
184 200 192
185 201 199
186 202 202
183 200 199
186 202 203
189 204 214
184 200 196
187 203 206
187 202 203
186 202 200
185 201 202
185 201 200
188 203 209
188 203 209
186 202 203
188 203 208
188 203 208
187 202 206
187 202 204
188 203 208
187 203 206
183 199 196
185 201 203
189 205 214
187 202 204
186 202 207
186 202 204
185 201 196
187 203 207
189 205 217
187 203 209
188 203 208
188 203 211
187 203 208
187 203 206
187 203 208
187 203 207
187 203 209
188 204 211
188 204 213
187 202 203
187 203 207
188 204 213
188 204 211
187 203 208
185 200 203
182 197 197
177 191 189
182 196 200
173 188 194
173 188 191
164 179 188
157 173 179
151 167 177
149 165 178
139 156 171
132 150 171
130 147 167
119 136 153
115 134 166
103 123 156
86 108 141
55 84 125
52 83 135
52 82 125
52 82 126
50 79 122
50 79 122
50 79 118
47 75 112
47 75 115
47 74 122
46 73 108
45 72 114
43 70 112
43 69 106
41 67 104
41 66 109
40 65 110
42 68 111
35 56 86
33 55 91
34 55 92
31 51 91
25 43 80
55 71 106
96 108 129
121 134 140
113 130 146
50 80 125
54 86 133
52 83 122
55 87 133
56 89 133
56 90 126
58 92 138
58 91 125
56 90 127
57 91 131
58 91 129
59 94 142
59 94 139
59 92 141
59 94 139
59 93 137
59 94 139
60 94 135
59 93 133
59 94 133
60 95 149
59 93 126
60 95 139
61 96 151
61 96 143
59 93 130
59 93 131
61 96 139
59 94 132
60 95 141
62 97 150
60 94 127
61 96 142
60 96 143
59 93 134
60 95 135
60 94 139
59 94 130
59 94 127
61 96 144
57 91 120
59 94 130
60 94 139
60 95 136
61 96 147
60 95 143
59 94 135
60 94 128
61 96 135
59 93 130
60 95 141
60 95 135
60 95 142
62 97 148
59 94 140
60 94 137
60 94 135
61 96 150
62 97 154
60 95 134
60 94 131
61 95 136
61 95 140
61 96 144
59 93 129
60 95 139
60 94 139
59 93 134
59 93 136
61 95 149
59 93 127
59 93 131
60 94 135
60 94 135
59 93 138
59 93 132
59 93 143
60 94 136
60 93 134
59 93 135
60 95 143
57 90 130
60 94 141
58 92 132
58 91 125
59 92 133
58 90 129
56 87 122
58 91 137
57 89 128
58 90 126
60 92 138
59 91 131
57 88 129
58 89 125
53 83 106
57 88 128
52 81 109
53 83 112
53 81 115
48 72 93
47 72 95
63 73 77
75 74 42
64 65 38
62 63 39
62 64 42
44 48 34
44 51 35
58 63 45
63 68 48
59 65 46
63 68 50
46 54 43
76 80 50
80 85 56
87 92 62
86 89 58
86 88 59
95 98 63
115 116 71
95 98 64
104 106 66
113 113 66
125 124 78
108 109 68
120 120 68
124 123 73
122 121 74
128 128 78
124 122 72
128 127 80
130 130 72
134 133 80
135 132 73
131 131 76
133 132 76
142 140 82
146 143 78
145 142 80
143 140 77
144 141 78
150 146 83
153 149 80
156 151 89
153 149 88
152 147 83
153 149 84
146 143 81
158 153 85
149 145 82
148 144 83
161 156 92
155 151 82
160 154 84
163 158 89
157 153 82
161 156 87
159 155 79
161 156 84
162 157 84
161 156 84
162 158 87
159 154 76
167 161 88
165 160 86
167 160 88
166 161 87
161 156 85
166 161 88
166 161 87
167 161 85
169 163 93
169 162 86
172 165 91
164 159 83
167 161 83
171 165 93
167 161 82
165 160 85
166 160 81
169 164 92
170 165 90
171 165 84
166 160 85
169 163 87
168 162 84
169 161 87
170 164 90
164 158 85
166 160 83
166 160 88
168 162 82
171 164 91
174 166 88
168 161 83
163 157 84
168 162 81
169 163 87
168 160 85
168 162 87
173 166 88
171 164 90
161 155 77
172 165 93
168 160 84
168 161 86
172 165 91
164 157 78
170 164 87
166 160 87
164 158 82
173 166 88
169 161 87
169 163 89
168 162 85
166 160 84
166 159 83
165 158 82
166 160 90
167 160 88
162 157 83
164 158 84
166 159 85
159 154 75
165 159 81
163 157 77
156 150 75
166 160 84
168 162 87
164 157 86
160 155 81
162 156 75
161 156 84
161 155 83
159 152 77
162 155 83
167 160 85
161 155 78
158 153 78
159 153 81
158 152 83
159 153 84
150 145 77
162 155 81
161 154 85
151 145 72
163 157 85
160 153 81
151 145 73
155 148 83
186 201 196
188 203 206
187 202 203
184 200 192
185 201 196
186 201 200
183 199 191
185 201 198
183 199 188
185 201 200
185 201 199
182 198 186
185 201 195
184 201 196
186 201 199
185 201 198
187 203 203
185 201 195
188 203 204
185 201 195
183 200 192
185 201 195
185 200 192
188 203 207
186 201 198
187 202 204
183 199 191
186 202 200
184 200 192
185 201 195
186 202 202
187 202 203
187 202 204
184 200 195
184 200 190
183 199 187
186 202 202
185 200 194
186 202 200
188 203 208
185 201 195
187 202 202
183 200 195
183 199 195
185 200 195
187 203 204
189 204 207
182 198 187
183 199 188
187 203 207
182 199 190
184 200 194
186 202 203
187 202 200
186 202 200
186 202 199
185 201 200
189 205 214
187 203 207
182 199 188
185 201 195
185 201 198
184 200 198
186 202 200
187 203 206
185 201 200
185 201 202
186 201 199
186 202 200
185 201 199
183 199 192
184 200 199
184 200 195
186 201 198
186 202 200
186 201 200
183 200 196
187 203 206
185 201 199
185 201 200
185 201 202
188 203 208
185 201 200
186 201 199
184 200 196
188 203 211
184 200 191
184 199 190
181 198 187
187 203 206
188 203 204
182 198 188
188 203 209
185 201 200
185 200 200
187 202 202
183 199 194
184 200 192
187 203 206
189 205 213
185 201 196
185 201 198
186 202 204
187 202 206
181 197 189
185 200 203
179 194 185
179 194 184
176 191 184
169 183 182
168 182 185
161 176 176
159 175 176
152 168 170
146 163 166
144 160 171
115 133 148
125 143 166
103 123 142
116 134 146
105 124 149
79 101 134
62 89 128
51 81 122
50 79 115
50 79 114
52 82 127
51 81 123
46 74 109
49 78 116
47 75 115
48 76 114
48 76 113
43 70 111
44 71 104
44 70 107
39 64 97
42 67 100
38 62 94
40 64 101
39 63 106
32 53 86
32 52 88
32 52 82
30 50 90
48 63 94
89 100 122
122 135 141
114 132 144
51 82 137
53 84 131
53 84 124
58 91 141
56 89 123
56 89 138
57 90 134
56 89 122
57 91 131
60 94 144
58 92 136
59 93 143
59 93 129
60 95 143
59 94 138
58 91 121
59 94 144
58 92 129
58 92 130
59 94 144
59 93 135
59 93 126
59 94 134
59 93 134
60 95 147
60 94 145
60 95 139
59 94 132
60 94 143
59 92 127
59 94 135
59 93 135
60 94 131
60 95 137
59 93 130
60 94 133
60 94 137
61 96 141
61 95 139
60 95 138
60 94 136
60 95 137
60 94 137
59 93 134
60 95 140
60 94 140
59 94 137
59 94 136
61 96 143
60 95 131
60 95 139
62 97 150
60 95 137
60 94 129
61 96 143
60 95 137
61 95 136
60 95 136
59 94 136
60 95 141
60 95 145
59 94 134
60 94 130
59 94 128
59 94 132
60 95 139
59 92 133
59 93 132
60 94 137
59 93 124
61 96 141
60 94 136
60 94 144
58 92 127
58 92 123
59 93 138
59 93 137
59 93 136
59 93 140
60 94 140
59 93 138
57 91 129
58 92 130
59 91 123
57 90 126
58 91 130
61 94 145
55 87 119
58 90 131
58 91 132
58 90 130
58 90 129
57 88 128
56 87 120
56 88 130
56 86 122
54 84 119
57 88 131
56 86 128
53 81 108
53 83 119
50 76 105
78 84 76
70 70 41
65 65 42
59 61 37
50 53 32
49 54 38
42 49 35
54 62 45
54 58 33
64 70 51
64 70 44
62 67 45
59 66 47
70 75 48
72 77 53
89 91 58
90 92 57
94 95 56
101 102 66
93 94 62
105 106 69
109 109 61
109 109 71
114 115 65
116 114 66
122 123 75
125 125 68
131 130 80
127 125 75
118 119 68
130 128 67
129 127 74
137 135 81
133 130 74
141 138 81
131 129 71
147 143 80
139 137 72
139 137 73
143 139 80
145 141 76
148 145 81
151 147 78
154 149 83
152 148 83
155 151 86
156 151 83
150 146 78
148 144 77
151 147 81
158 153 81
164 158 92
153 149 82
161 156 90
161 156 83
162 157 83
168 162 92
167 162 90
161 156 85
161 156 86
166 160 88
162 157 89
169 162 89
165 159 89
163 158 82
164 159 87
167 161 85
162 157 80
170 164 88
165 160 82
166 160 88
165 159 82
167 161 90
169 164 92
171 164 92
163 158 85
169 163 88
170 163 90
167 160 85
170 163 86
168 162 86
168 162 80
169 162 85
164 159 81
165 159 79
175 167 93
166 161 86
163 158 80
168 161 83
166 159 84
166 161 82
173 166 88
164 159 81
161 157 75
171 164 87
166 160 79
166 161 83
167 160 86
166 160 82
167 160 86
169 163 87
168 161 84
163 157 80
165 159 83
166 160 88
166 159 80
168 162 85
168 161 85
169 163 84
169 163 88
164 158 87
167 160 83
168 161 87
164 158 82
166 160 83
168 161 86
166 160 88
167 160 87
165 159 86
163 156 82
164 157 79
162 155 81
164 158 81
159 153 79
171 163 89
163 157 83
160 153 76
159 152 84
161 155 84
164 158 80
166 159 83
161 156 83
163 157 81
153 148 71
160 154 81
157 152 80
156 150 80
160 155 82
159 153 81
156 150 75
159 153 77
162 156 81
152 148 76
158 152 75
162 156 82
158 152 80
163 156 86
164 157 87
161 154 81
186 202 200
185 201 195
186 202 203
185 200 195
183 199 187
186 202 198
183 199 191
183 199 190
185 201 196
186 202 200
186 202 199
186 201 200
184 200 194
182 198 186
186 201 196
185 201 198
184 200 192
183 199 187
186 201 198
183 199 192
186 202 203
184 200 194
183 199 188
184 200 191
184 199 188
186 202 203
185 201 195
185 201 196
182 198 186
180 197 177
187 202 200
185 200 192
184 200 196
183 199 190
185 201 195
183 199 190
180 196 177
181 198 183
186 202 198
183 199 191
183 199 186
183 199 188
182 198 186
182 199 188
184 200 194
185 201 198
184 200 194
184 200 194
182 199 187
184 200 194
187 202 200
185 201 200
185 201 199
185 200 194
182 199 186
186 202 202
185 201 198
183 199 187
182 198 186
183 199 190
182 198 181
183 200 194
184 201 198
186 201 198
183 199 188
186 202 199
181 197 181
185 201 196
185 201 200
182 198 181
184 200 194
182 198 187
185 200 192
186 201 198
183 199 190
185 201 198
185 201 196
185 200 194
183 199 191
186 202 200
185 200 196
185 200 194
184 200 191
183 199 191
180 197 181
184 200 195
182 199 188
185 201 199
181 197 187
184 199 195
185 201 200
182 198 187
181 198 188
183 199 192
187 202 200
182 198 188
181 198 186
182 198 187
183 199 191
186 202 202
182 199 191
183 199 191
186 201 198
184 198 195
182 198 188
179 195 186
173 187 170
180 194 191
176 189 183
169 184 182
162 177 169
163 178 177
154 171 170
154 170 176
144 161 166
142 158 161
139 156 156
121 139 153
112 131 147
94 115 139
98 118 140
74 98 135
59 86 122
52 81 125
50 79 116
52 82 127
51 81 125
46 73 107
49 78 117
49 78 122
46 74 113
44 71 102
44 71 112
47 74 119
45 73 100
44 70 109
41 65 102
41 66 101
38 62 101
38 62 104
38 62 98
34 55 92
34 55 93
32 51 88
27 45 84
34 51 84
89 101 112
119 132 131
109 126 139
50 80 123
52 83 126
57 90 136
55 87 129
55 88 126
56 89 133
58 91 134
58 91 137
58 92 138
57 90 121
57 90 130
59 93 138
59 93 140
57 91 126
60 94 140
59 93 132
59 93 139
59 94 139
57 91 129
60 94 136
60 95 144
60 94 131
59 93 139
60 94 134
59 94 131
60 95 138
60 94 137
60 95 147
60 93 139
59 94 137
60 95 145
61 96 146
60 95 137
61 96 143
60 94 141
59 93 135
61 96 147
60 95 141
59 93 129
56 90 119
60 94 141
60 94 139
61 95 147
61 96 147
60 94 137
60 94 136
59 94 131
59 93 132
60 94 131
60 94 137
61 95 148
60 95 141
59 93 134
60 95 142
61 95 142
60 94 134
61 96 141
60 95 134
59 93 131
60 95 137
59 93 134
58 92 124
60 95 135
59 93 136
60 94 131
60 94 132
58 92 134
60 93 140
58 92 134
59 93 129
60 94 140
60 94 135
60 95 130
59 92 136
59 92 126
59 92 137
59 93 136
60 93 133
59 93 138
59 93 132
58 90 124
58 92 122
59 93 141
59 92 139
59 92 128
59 93 127
59 92 136
59 92 132
57 89 122
57 89 128
57 88 118
57 88 122
58 90 118
56 87 131
55 86 116
55 86 119
56 87 132
52 80 109
53 81 114
54 82 112
53 81 117
49 76 100
66 79 88
57 56 29
55 58 36
48 53 32
45 48 33
45 50 34
38 43 30
58 62 43
48 52 32
56 63 43
46 53 36
65 70 45
69 73 49
69 72 45
65 70 45
73 77 47
86 91 61
96 97 61
85 88 51
91 94 61
114 115 66
99 101 53
111 112 68
104 106 61
115 115 67
109 109 63
131 129 83
130 128 72
121 120 67
135 132 76
139 136 82
128 127 71
134 131 73
136 134 71
141 138 80
141 138 77
148 143 82
133 131 73
142 140 78
145 142 84
143 141 74
146 142 83
143 140 75
150 146 80
151 147 78
153 149 81
149 146 83
150 147 82
142 140 73
158 153 79
150 146 75
158 153 83
159 154 86
160 154 85
163 157 84
158 154 81
162 157 85
165 159 89
161 157 86
162 156 80
162 157 76
163 157 85
165 160 91
166 160 83
169 163 88
163 158 85
169 163 89
165 159 88
168 162 88
166 160 88
165 159 82
164 159 84
169 163 90
171 165 89
165 159 82
168 162 82
162 157 78
173 166 94
169 163 87
169 162 86
172 165 90
169 162 86
173 166 91
171 164 88
168 162 83
169 163 86
168 161 86
168 161 81
165 159 80
169 162 86
168 161 83
168 162 83
171 164 87
169 163 82
169 161 82
166 160 78
170 164 87
165 159 79
169 163 87
172 165 90
167 161 81
170 164 88
170 164 87
167 161 84
167 161 83
163 157 80
165 160 83
164 157 82
166 159 88
168 162 84
164 158 77
163 156 78
164 159 83
161 156 78
169 162 87
159 154 77
161 155 76
165 159 80
158 152 81
163 156 84
166 159 79
165 159 87
165 157 84
160 154 78
158 152 80
165 159 86
163 157 82
168 161 84
159 153 82
156 150 73
159 154 74
163 156 82
162 155 81
163 157 79
162 156 78
160 153 80
151 144 72
152 146 73
159 153 85
159 152 78
161 154 76
157 151 80
164 156 85
155 149 74
154 147 79
155 150 81
153 147 78
153 147 72
162 155 86
181 197 181
179 195 174
185 201 194
180 196 177
180 197 177
182 198 184
181 197 181
183 199 190
182 198 184
181 197 183
182 199 186
184 200 191
182 198 188
185 201 191
184 200 191
184 200 191
182 198 184
182 199 186
180 196 175
181 198 180
182 198 186
179 196 174
183 199 190
185 200 191
183 200 192
183 199 188
185 200 192
184 200 190
184 200 192
184 199 192
182 198 184
181 197 178
179 196 174
184 200 191
182 198 183
186 202 199
186 201 198
184 200 192
185 201 198
181 197 178
184 199 188
181 198 187
185 201 195
183 199 187
184 200 192
180 197 183
185 201 195
182 199 188
185 200 192
181 198 181
181 197 180
180 197 177
182 198 186
183 199 188
183 199 191
183 199 186
182 198 187
184 199 188
183 199 188
181 197 177
184 200 190
184 200 192
182 198 184
186 201 198
184 200 191
182 199 187
183 199 191
184 200 192
185 201 194
183 199 186
181 197 183
182 198 184
184 200 192
180 196 177
182 198 187
182 198 183
181 198 187
181 198 184
181 197 181
183 199 188
181 197 183
181 197 180
179 195 178
181 197 183
181 197 188
182 197 183
181 197 184
185 201 196
181 197 181
183 199 184
184 200 191
181 197 181
184 200 191
183 199 188
184 200 194
180 196 180
182 198 186
183 199 188
179 195 174
183 198 188
183 199 191
180 197 181
184 200 194
180 196 180
180 195 182
178 194 177
177 192 181
173 188 165
172 187 177
172 186 176
164 179 174
155 169 163
150 164 160
146 162 162
140 155 149
139 155 166
120 136 138
124 141 142
111 128 140
104 122 128
100 119 142
80 103 137
60 85 119
50 80 122
51 81 116
49 79 112
49 77 110
48 76 104
48 76 110
46 73 102
48 76 121
45 71 107
45 72 110
44 70 103
43 69 106
42 67 101
42 67 104
41 66 100
40 66 95
36 58 92
36 59 97
30 50 82
32 52 87
30 50 88
23 39 63
43 57 82
75 86 88
130 143 147
101 118 125
49 79 118
52 83 126
55 87 118
57 91 138
57 90 136
56 89 136
57 91 129
56 88 127
58 92 131
56 89 129
58 92 133
60 94 143
59 94 138
58 92 130
58 92 128
59 94 129
58 93 130
59 94 134
58 92 135
61 96 147
59 93 129
59 93 129
59 93 131
60 94 144
60 94 143
58 93 129
60 94 142
59 94 132
61 96 148
60 94 133
59 93 133
60 94 134
60 95 144
59 93 136
58 91 118
60 94 137
60 95 135
59 92 126
59 94 144
60 95 136
58 92 126
60 94 141
60 94 137
59 93 131
61 95 142
59 93 125
59 94 134
60 94 138
59 93 130
58 92 119
59 93 134
59 93 139
60 95 140
60 95 140
60 95 140
59 92 121
59 94 136
60 95 139
60 94 129
59 93 135
60 94 136
60 94 136
60 93 135
59 93 133
60 94 129
60 94 135
60 95 140
60 94 140
59 94 139
59 93 131
60 94 134
57 91 120
60 95 135
60 94 139
59 93 132
61 95 142
59 92 134
60 94 132
57 89 113
56 88 119
60 94 142
59 92 129
58 91 128
59 92 138
58 91 131
58 91 129
57 89 124
59 92 133
57 88 131
58 89 127
56 88 124
58 90 130
57 89 128
56 88 123
56 86 117
56 87 120
55 86 117
52 80 98
53 80 109
53 82 114
50 77 98
52 79 106
59 68 67
71 70 40
61 62 28
43 45 29
40 45 31
49 53 35
45 51 31
30 36 23
45 51 33
58 62 38
55 62 41
71 77 53
70 75 46
62 69 44
68 74 44
92 96 62
88 91 55
94 94 57
94 98 59
113 113 69
110 111 69
109 109 65
97 99 60
110 110 67
116 115 62
115 114 71
119 119 68
128 127 66
133 131 71
124 124 66
112 113 67
130 128 74
133 131 73
135 132 74
131 129 75
131 130 72
139 137 80
147 143 77
139 136 78
153 149 81
147 142 72
148 145 77
150 147 78
150 147 80
155 151 83
153 148 78
154 149 83
160 155 85
157 153 80
154 149 81
156 152 83
150 147 72
157 151 82
158 153 81
164 158 90
165 160 87
162 158 87
160 156 84
163 158 82
162 156 87
168 162 84
167 161 86
159 155 79
163 158 81
166 161 92
164 158 82
165 159 79
166 159 79
162 157 81
166 160 86
167 161 86
167 161 84
171 164 88
168 161 85
169 163 85
169 164 86
166 160 82
167 161 81
172 165 89
169 163 86
167 161 83
166 159 86
170 163 84
172 165 84
169 163 87
170 163 89
168 162 85
168 162 86
170 163 87
168 162 81
164 159 82
165 159 81
169 162 86
171 165 87
167 160 85
173 166 85
164 159 85
170 163 90
168 162 84
168 161 87
165 158 86
169 162 87
164 158 79
168 162 82
169 162 84
167 161 87
166 159 83
167 161 84
166 160 79
169 161 85
165 159 80
167 160 87
170 163 85
172 165 87
160 154 75
166 159 82
160 154 78
169 162 89
168 160 85
164 158 84
165 157 88
159 153 73
160 155 80
163 156 74
158 152 80
164 157 80
166 158 87
158 153 78
159 154 84
155 149 75
158 152 78
158 152 79
156 149 77
158 152 81
158 152 77
153 148 73
165 159 80
153 147 75
161 155 74
156 150 80
157 150 76
154 148 75
155 149 75
162 154 86
160 154 78
159 154 78
162 155 80
155 148 75
160 154 84
180 196 178
181 198 183
184 199 188
181 197 181
183 198 184
183 198 186
181 198 180
182 198 184
182 198 181
184 200 192
182 198 187
180 197 180
181 197 177
182 198 184
185 200 192
186 202 198
183 199 188
178 195 166
179 196 175
178 195 172
183 199 187
183 199 187
180 196 175
184 200 190
182 198 183
181 197 177
181 197 178
179 196 172
181 197 175
181 197 178
183 199 184
177 194 168
182 198 186
185 201 195
179 196 174
184 199 184
184 200 190
184 200 190
182 198 184
184 200 191
184 200 194
179 196 174
180 196 177
182 199 186
181 198 181
181 197 181
177 194 165
182 198 184
182 198 183
183 199 186
182 198 181
180 197 178
182 198 184
179 196 169
180 196 177
181 197 180
181 198 184
181 197 181
187 202 199
181 197 178
179 196 174
181 197 180
179 196 171
180 196 174
182 198 183
181 197 180
184 199 191
182 198 181
181 197 178
181 198 184
180 197 178
180 196 174
180 196 175
182 198 181
180 196 178
178 195 168
180 196 175
178 195 168
181 198 183
181 197 183
180 196 174
181 197 181
178 195 166
180 196 175
185 200 194
177 194 174
177 194 168
178 195 169
180 197 177
180 197 178
181 197 184
182 198 187
181 197 181
180 196 178
183 198 186
180 196 172
179 195 174
176 193 166
180 196 178
181 197 184
179 195 177
178 195 171
179 195 177
179 196 177
178 193 174
175 190 166
171 186 157
172 185 162
165 179 155
159 174 158
167 182 166
161 176 159
156 170 164
147 164 155
146 162 157
141 158 150
127 144 156
131 148 159
113 132 148
97 117 117
93 114 128
79 100 121
66 90 114
52 82 122
50 79 110
51 81 118
49 77 103
48 76 111
48 76 110
49 78 116
46 73 101
48 76 114
44 70 101
42 68 101
45 72 103
43 69 102
42 68 96
41 65 103
38 61 103
42 68 102
34 56 88
34 55 84
32 52 83
32 52 82
28 46 74
34 50 72
82 95 105
126 140 129
103 121 133
50 80 118
51 81 117
55 87 120
57 91 133
55 87 121
57 90 136
55 88 120
58 91 130
58 91 134
57 91 130
59 92 130
58 91 135
59 93 130
57 91 124
59 93 139
58 91 126
58 91 129
59 94 139
59 94 133
59 93 133
59 94 135
60 95 141
57 91 124
58 92 125
61 95 144
61 95 139
59 94 135
60 94 130
60 95 131
60 94 126
58 92 132
59 93 129
59 93 131
60 95 144
60 94 136
59 93 140
59 92 133
59 93 134
60 94 132
60 95 136
57 91 117
60 95 140
61 96 140
59 93 121
60 94 137
59 93 136
59 94 133
60 95 134
60 94 135
60 95 136
60 94 143
59 94 128
60 94 137
59 92 128
59 94 129
60 94 138
59 94 128
60 94 142
59 94 131
59 93 128
60 95 144
60 95 134
60 94 128
60 93 132
59 94 130
61 96 147
61 96 140
59 94 134
59 92 131
59 93 138
59 93 135
59 93 133
58 92 125
59 94 136
59 93 130
59 93 137
60 94 132
60 94 131
57 90 117
59 93 129
58 90 127
59 92 130
58 90 125
59 92 140
56 89 121
58 91 133
58 90 131
56 87 118
58 91 134
58 91 136
56 87 106
55 86 109
57 88 126
57 88 119
55 85 112
56 87 124
56 86 121
54 83 102
53 82 109
54 82 108
50 76 101
48 73 101
64 74 75
63 64 30
63 63 38
55 56 27
35 41 24
42 47 35
49 53 30
46 51 31
50 57 39
51 57 34
60 64 38
56 63 41
57 63 38
65 70 47
69 74 45
80 84 55
85 87 51
71 76 48
97 99 63
98 100 53
95 98 59
96 97 58
101 103 52
111 112 68
110 111 63
107 108 57
106 108 65
119 118 65
113 113 66
126 125 67
126 123 63
124 123 66
126 124 72
133 130 70
137 135 71
125 123 67
139 136 76
140 138 77
142 139 78
131 129 67
147 143 81
145 141 74
140 138 70
149 145 74
148 144 75
157 151 81
149 145 74
150 146 79
151 147 77
152 148 80
155 151 79
153 149 76
157 152 83
159 153 84
159 155 88
153 150 79
155 150 68
155 151 76
160 155 82
163 159 77
162 156 83
162 157 80
164 158 83
167 161 84
163 157 80
168 162 88
163 157 85
168 161 84
165 159 83
164 158 83
160 155 77
170 163 87
169 162 88
163 158 81
171 164 83
169 162 88
167 160 83
168 162 82
171 164 84
167 160 84
170 164 92
165 159 83
170 163 83
165 159 81
172 164 87
168 162 83
173 166 91
162 155 74
166 160 82
167 161 75
169 162 84
171 164 87
166 160 82
171 164 87
165 160 78
168 161 84
169 163 82
168 161 82
166 160 85
165 159 83
162 155 78
159 153 80
161 154 77
163 157 84
162 156 78
165 159 81
165 158 82
165 159 81
170 163 86
164 158 80
161 155 80
162 156 84
167 161 83
165 158 80
165 158 81
165 159 83
159 153 78
167 161 83
169 161 86
169 161 87
163 157 85
167 160 84
172 165 91
166 159 87
161 155 76
163 157 80
161 155 80
156 151 76
160 154 87
152 147 75
161 154 80
162 156 83
162 156 79
164 158 84
167 159 88
157 151 81
155 149 75
154 148 82
158 152 81
154 148 72
161 154 79
161 155 84
157 151 75
158 152 80
151 145 74
148 143 64
158 153 81
162 155 79
156 149 77
182 198 183
182 198 181
179 196 174
182 198 184
182 198 191
182 198 186
180 196 177
177 194 166
181 197 181
179 196 175
183 199 192
181 197 180
182 198 183
179 196 171
184 200 188
182 198 184
183 199 186
180 196 174
178 195 169
179 196 171
180 196 174
181 197 180
180 197 174
184 199 188
179 196 172
183 199 186
180 196 175
181 197 177
178 195 169
180 197 174
181 198 183
179 196 172
181 198 184
178 195 168
181 197 180
179 196 178
179 196 174
185 201 194
181 197 177
181 198 180
180 197 178
181 197 181
179 196 175
178 195 168
181 197 175
180 196 174
181 197 174
178 195 166
179 195 171
181 197 178
183 199 187
184 200 191
174 191 160
178 195 165
177 194 166
184 199 186
181 197 178
181 197 188
180 197 178
177 194 160
183 198 181
177 194 166
179 195 169
178 194 163
183 198 184
179 196 174
181 197 181
181 197 180
182 198 181
177 194 165
179 196 178
178 194 168
177 194 168
178 194 171
179 195 175
175 192 161
177 194 168
176 193 156
176 193 163
177 194 163
183 198 181
179 195 172
177 194 171
179 196 172
179 196 171
173 190 155
177 194 165
179 195 169
174 192 153
179 196 172
179 195 175
180 197 175
179 195 172
179 194 169
185 200 191
176 193 168
177 194 163
178 194 175
177 193 161
175 192 163
178 194 172
179 195 175
180 196 175
176 191 167
175 190 165
171 186 158
172 186 157
169 182 156
165 179 154
165 180 159
159 174 155
160 175 155
138 154 135
153 168 157
146 163 152
132 149 130
131 147 140
115 132 138
111 129 126
102 121 135
89 110 109
69 93 119
60 88 127
51 80 121
50 79 114
48 76 107
49 77 108
48 77 115
47 75 103
46 73 107
44 70 104
45 72 100
46 73 98
44 71 103
43 69 96
42 67 96
39 63 92
41 66 99
37 60 84
33 53 78
35 57 88
31 51 82
33 53 78
30 49 79
22 39 67
38 52 68
85 97 100
119 132 128
103 119 111
51 81 114
52 84 124
53 84 123
55 87 128
56 89 125
55 88 117
57 90 130
56 88 123
57 91 135
59 92 126
58 91 128
58 91 131
58 91 131
58 92 129
60 94 127
59 93 134
59 92 134
59 93 130
58 92 119
58 92 133
61 95 145
59 93 134
60 95 131
59 93 136
59 93 127
58 92 126
59 93 134
59 93 141
57 91 124
59 93 128
60 94 137
61 95 141
60 95 137
59 93 136
59 93 129
59 93 132
60 94 131
60 94 137
59 93 133
59 93 130
59 93 129
59 93 128
60 95 140
57 91 122
61 96 144
60 95 143
61 96 133
59 94 137
59 93 133
60 95 142
60 94 130
58 92 124
60 94 137
58 91 121
59 93 128
58 92 116
59 93 125
59 94 136
58 92 132
61 95 141
60 94 129
60 95 136
60 94 140
59 93 128
58 92 126
61 94 140
58 91 133
60 94 144
60 95 139
58 92 124
58 92 118
59 92 133
59 93 134
59 92 129
58 92 128
58 91 124
58 91 122
58 91 133
59 93 128
59 93 133
59 93 129
58 92 134
56 88 120
59 92 137
60 94 132
59 92 132
58 91 129
57 90 122
57 89 128
57 89 119
58 90 130
56 88 126
56 87 109
57 88 124
53 82 102
55 85 108
55 85 119
54 82 108
54 82 118
54 83 119
49 75 109
51 76 92
71 79 80
79 78 47
52 51 28
47 48 24
58 60 34
38 41 21
39 43 27
47 53 34
49 56 36
49 55 35
46 53 37
55 60 38
66 70 44
62 67 43
79 82 47
74 78 49
84 87 51
84 87 50
81 86 51
95 99 59
99 101 59
110 110 63
96 98 57
97 99 57
109 109 60
111 111 56
122 120 65
118 117 61
122 121 69
118 116 63
134 132 73
126 124 70
133 131 74
130 129 70
127 126 67
141 137 71
141 138 73
131 128 68
138 136 70
137 134 72
144 141 81
136 134 68
145 141 79
140 137 74
153 149 80
154 150 79
151 147 72
159 154 85
157 151 77
148 145 81
146 142 72
150 146 71
156 151 77
149 146 73
155 151 80
158 154 88
162 156 89
157 153 73
162 156 80
160 155 78
160 154 86
159 154 76
164 158 80
161 156 80
162 156 75
158 154 72
171 164 89
166 160 81
164 159 80
167 160 84
161 155 79
167 160 80
167 161 84
167 161 82
164 158 80
166 159 80
164 158 79
169 162 87
168 162 82
169 163 87
171 165 89
166 161 81
168 162 89
168 162 87
170 163 83
164 159 70
166 160 81
165 160 76
165 160 80
167 160 81
170 163 89
170 163 84
166 160 85
165 158 83
168 162 85
168 162 77
168 161 85
170 163 84
165 158 70
162 155 79
166 159 84
164 158 81
164 159 79
172 164 91
167 161 86
164 158 80
161 156 74
166 160 80
166 160 80
159 154 78
164 157 80
166 160 80
160 154 76
163 157 82
167 159 82
162 156 83
170 162 90
166 159 80
164 158 80
163 156 80
164 157 84
161 155 80
162 156 81
162 155 78
169 163 85
150 146 68
166 159 81
166 158 85
166 158 84
161 155 71
169 161 88
163 156 81
156 150 75
167 160 80
160 154 75
161 154 81
165 157 83
165 159 84
162 155 72
153 147 75
152 146 74
159 151 83
154 148 74
156 151 70
158 152 77
160 153 84
157 152 75
161 155 80
158 151 80
181 197 175
179 196 171
181 198 181
182 198 181
184 199 188
180 197 177
181 197 175
181 197 181
181 197 174
180 196 175
179 195 169
179 196 171
180 197 175
180 197 174
181 197 178
181 197 174
179 196 174
182 198 183
180 196 174
176 193 158
181 197 180
179 195 169
178 195 165
180 196 171
180 196 174
177 194 169
180 196 171
180 196 175
182 198 181
180 196 175
178 195 168
178 195 174
177 194 165
181 197 178
179 195 172
180 196 172
182 198 181
181 197 177
178 195 172
183 199 183
181 197 175
180 196 174
183 199 187
179 195 168
182 197 177
183 198 181
176 192 161
179 196 174
179 196 172
180 196 172
181 197 174
177 194 160
177 194 166
177 194 163
179 195 172
178 194 168
179 196 172
180 196 172
181 197 183
177 194 161
182 198 181
177 194 163
178 195 163
183 199 186
178 194 168
182 198 184
177 194 168
178 194 166
180 196 177
178 195 169
174 191 153
174 191 151
176 193 158
176 193 161
177 193 161
183 198 183
178 195 166
178 195 166
179 195 172
176 192 165
171 188 142
175 191 158
176 193 160
179 195 172
177 194 165
173 190 146
176 193 161
181 197 177
176 192 158
177 193 163
175 192 163
175 192 163
178 194 163
172 189 144
180 196 175
178 194 169
175 192 156
174 191 155
177 193 168
177 194 165
178 194 169
177 192 166
177 193 163
175 190 161
174 189 163
174 189 160
174 189 160
167 181 158
165 180 154
157 172 147
161 175 149
150 164 131
140 156 134
148 162 145
134 150 136
134 151 136
123 140 122
111 128 123
110 128 118
99 117 102
81 103 119
73 96 109
59 86 106
50 79 110
49 78 109
48 77 102
47 75 102
46 74 103
49 78 115
48 76 106
42 68 90
45 73 90
46 73 103
44 70 103
41 66 83
42 68 92
39 63 90
39 63 88
37 60 91
37 60 86
35 56 79
32 53 79
31 50 80
29 47 68
27 44 67
50 62 71
90 103 86
131 145 127
115 131 141
51 82 111
53 84 122
52 83 117
56 88 131
57 90 129
55 87 123
58 92 131
58 92 135
57 90 132
57 90 128
58 92 131
58 91 130
57 90 125
58 91 127
60 94 139
59 92 135
58 92 126
60 94 128
60 94 140
56 89 120
58 91 134
57 90 120
59 93 131
58 92 127
58 92 135
59 94 131
58 92 124
59 94 131
59 93 132
60 95 143
58 92 129
60 95 133
60 95 137
57 91 122
59 94 131
60 95 134
60 95 140
60 94 139
59 94 136
60 94 125
59 93 124
60 94 136
60 94 133
58 93 129
59 93 131
59 94 135
58 93 123
60 94 135
59 94 135
60 94 131
58 92 126
61 96 143
61 95 139
59 93 124
59 93 128
60 94 134
60 94 129
60 94 130
58 92 117
60 94 139
59 93 130
59 93 137
58 92 121
59 92 135
58 91 125
60 94 135
59 92 127
58 92 130
60 94 130
58 92 129
59 93 133
58 92 128
59 92 126
59 93 124
59 92 120
59 93 131
59 92 128
58 91 128
57 90 126
58 90 136
59 93 131
59 93 134
59 92 129
59 93 134
59 92 129
58 91 124
57 89 121
58 91 130
58 90 129
55 86 117
56 87 123
58 90 131
55 85 108
55 85 124
55 86 112
55 86 116
56 86 118
54 84 111
54 82 114
52 80 114
49 75 94
51 77 106
75 79 62
71 70 30
57 56 27
57 59 27
38 42 18
34 39 19
28 36 22
46 51 29
47 52 29
51 58 36
63 67 32
50 57 36
72 76 45
74 76 42
75 80 40
77 80 46
86 88 51
85 88 49
80 84 52
89 92 52
98 99 47
93 96 59
113 113 66
115 115 65
111 111 64
106 107 58
109 109 57
116 116 60
124 123 64
124 123 66
124 123 71
124 123 69
132 131 65
140 137 75
137 134 73
131 130 61
141 139 76
142 139 78
146 142 79
140 137 78
137 135 69
140 137 72
141 138 73
142 139 75
153 148 80
150 147 78
152 148 73
149 143 73
153 148 72
154 150 80
151 147 77
152 147 79
157 152 79
158 152 79
158 153 79
163 158 83
163 157 82
157 152 82
160 155 81
158 153 78
160 156 81
159 154 76
161 156 83
164 159 79
165 158 85
168 161 84
162 156 76
166 160 83
167 161 80
163 158 84
169 163 83
161 155 75
169 163 89
166 160 85
165 158 80
168 162 86
167 161 86
164 158 78
169 162 84
165 159 77
166 160 87
167 161 83
166 160 79
168 162 79
164 158 73
168 162 82
167 161 80
166 159 82
172 165 87
166 161 79
173 165 86
171 164 82
165 158 77
167 160 81
163 157 79
168 162 82
169 162 80
167 159 84
165 159 77
166 159 82
167 161 80
163 157 75
169 163 81
162 156 75
170 162 84
169 161 82
168 162 81
165 159 79
164 158 75
160 154 74
167 161 76
166 159 82
165 159 77
165 158 83
172 164 81
160 155 74
162 156 82
163 156 77
166 159 84
165 158 79
166 160 84
157 150 74
161 155 81
161 155 80
163 155 78
158 152 71
166 159 82
160 154 75
160 154 77
158 152 77
161 154 75
160 153 71
155 148 72
156 151 80
159 153 84
160 154 78
159 153 77
165 157 80
156 150 79
158 150 79
160 153 80
157 151 78
150 144 74
154 150 69
155 149 80
153 147 74
164 156 81
159 153 78
152 147 75
176 193 161
180 196 172
178 195 168
182 198 183
177 193 165
177 194 166
183 199 188
179 195 165
180 196 174
177 194 168
178 195 172
176 193 155
181 197 181
178 194 161
181 197 178
178 195 171
180 196 175
181 198 180
178 194 166
175 193 158
176 193 158
184 200 190
183 199 186
179 195 166
178 195 168
177 193 160
178 195 168
177 194 161
176 193 158
182 198 181
177 194 160
176 192 160
180 196 174
181 197 178
179 195 168
176 193 161
179 195 171
175 192 160
180 196 171
178 195 171
178 194 165
181 196 175
177 194 161
181 197 177
178 195 168
178 194 163
175 192 153
179 195 166
180 196 171
179 195 169
180 197 175
179 196 171
179 195 169
180 196 174
178 195 165
178 195 166
177 194 165
175 191 153
171 189 135
176 193 156
175 192 148
175 191 158
176 193 158
173 191 144
177 194 165
175 192 153
176 193 160
178 195 168
176 193 158
175 192 155
176 193 165
177 194 161
174 191 156
177 194 161
172 189 146
175 192 156
174 191 158
178 195 169
175 191 158
173 190 142
177 193 168
175 192 156
174 191 156
179 195 169
174 190 148
174 191 151
174 190 155
177 193 163
173 190 150
173 190 156
175 193 155
173 190 150
177 193 161
174 191 148
170 188 139
180 195 175
173 190 153
171 188 141
175 192 153
170 187 142
170 187 150
174 190 155
170 188 135
168 184 139
174 189 153
169 184 153
171 186 154
166 180 146
163 179 131
163 178 141
153 168 132
155 170 140
141 156 127
132 147 124
137 153 118
137 153 135
126 143 124
119 135 126
109 127 112
104 124 127
93 112 116
78 102 112
59 85 104
49 79 110
49 78 104
49 78 104
47 75 104
48 77 94
47 74 106
46 73 95
47 75 105
45 72 101
44 71 94
44 71 104
44 71 108
41 66 90
42 68 104
34 56 85
37 59 90
32 53 67
34 55 72
34 55 72
31 52 74
30 49 74
25 42 55
58 70 76
100 112 98
124 136 129
119 134 139
51 81 122
53 85 122
53 84 120
53 84 110
54 85 114
57 90 132
55 87 121
55 88 115
57 90 129
57 90 123
57 90 127
57 89 123
57 90 123
58 91 133
59 94 136
58 92 129
59 93 136
57 90 130
59 93 134
59 93 130
59 94 128
60 94 142
58 92 125
59 93 135
60 94 134
60 94 136
57 91 127
60 95 137
60 94 132
60 94 136
59 93 137
60 95 132
60 95 137
60 95 141
60 94 136
60 94 135
59 94 141
60 94 130
60 95 133
61 96 147
59 93 129
59 94 134
58 92 130
60 94 135
59 93 130
60 94 131
59 94 130
60 94 135
58 92 124
60 94 135
59 93 129
61 95 139
61 95 130
58 92 134
60 94 137
60 94 128
60 95 134
59 93 136
60 94 132
59 93 129
58 92 120
59 93 131
61 95 144
58 92 117
59 92 128
60 94 138
60 94 134
59 92 128
59 93 128
58 91 117
60 95 147
59 92 123
58 91 121
58 92 126
59 93 125
59 93 138
60 94 133
57 90 114
58 91 132
58 91 124
57 89 129
59 92 134
57 89 108
57 89 121
59 92 128
57 89 123
56 88 114
54 84 117
59 92 128
56 88 117
57 89 120
56 87 116
59 91 142
56 86 112
56 86 123
55 85 124
53 82 102
52 81 112
50 79 102
53 82 108
52 79 108
46 70 89
66 72 53
69 68 34
55 54 25
58 58 21
42 47 26
37 42 24
27 36 21
47 51 23
45 51 31
53 57 24
53 57 30
59 63 34
65 71 44
59 64 38
68 71 38
76 81 46
88 91 51
79 83 51
76 78 48
87 90 50
89 92 52
100 102 52
106 107 63
126 126 68
116 114 61
107 108 58
121 120 62
112 113 59
120 118 65
123 122 63
123 121 63
120 119 63
125 123 71
133 131 67
135 133 63
140 138 77
135 134 70
145 141 74
130 129 68
145 141 72
140 138 76
149 146 72
147 144 74
148 144 76
147 143 72
142 140 76
145 142 72
150 145 76
148 144 73
153 148 77
160 153 82
156 151 73
155 150 77
154 149 74
155 151 76
158 153 78
159 153 78
154 149 74
158 153 82
162 157 83
161 156 76
157 152 74
164 157 81
162 157 83
163 157 85
162 157 78
165 160 83
163 157 83
160 154 82
162 156 78
164 158 82
166 159 79
168 161 82
162 157 76
170 163 80
167 161 84
165 159 81
169 162 81
165 159 79
166 159 84
162 157 76
166 160 79
172 165 87
167 161 83
170 163 81
165 159 79
165 159 78
165 159 78
166 160 87
164 157 75
165 158 77
167 161 80
164 158 75
166 160 79
167 161 82
165 159 78
171 164 87
165 158 84
166 159 75
166 161 80
159 154 71
172 165 86
165 158 83
165 159 80
170 163 79
166 158 82
168 162 83
163 157 77
165 158 80
164 157 79
165 158 76
165 158 75
158 152 77
162 156 72
163 157 80
161 156 75
163 157 80
163 157 77
163 156 84
156 150 72
155 150 66
159 153 75
162 155 74
162 156 81
167 160 86
162 155 72
163 156 77
161 155 81
154 149 72
164 158 80
161 154 76
161 155 83
152 147 70
157 150 77
157 151 72
155 150 76
158 151 80
158 152 78
163 157 79
155 149 75
161 154 78
154 149 74
159 153 78
147 143 67
156 149 74
154 148 80
156 150 75
157 150 75
150 144 69
180 196 168
181 197 178
180 196 171
180 196 171
176 193 158
177 194 163
180 196 177
183 199 188
179 196 169
181 197 175
179 196 172
176 193 158
177 194 163
181 197 180
182 198 180
179 195 169
178 195 166
181 197 178
180 196 174
182 198 178
179 195 169
174 192 158
177 194 166
177 193 156
178 194 172
177 194 165
173 190 150
175 192 150
176 193 160
177 194 161
176 193 160
174 191 150
176 193 165
175 192 163
177 194 161
175 192 151
177 194 163
176 192 155
177 194 160
177 194 163
173 191 150
175 192 153
175 192 155
175 192 156
173 191 142
176 193 158
174 191 150
178 195 165
176 193 153
176 193 155
175 192 158
180 196 168
178 194 163
180 196 172
177 193 155
178 195 165
179 195 165
176 193 156
175 192 153
176 193 156
175 192 153
175 192 153
174 192 148
177 194 160
174 192 150
174 192 158
172 190 142
172 189 142
173 190 142
177 194 165
173 190 142
176 192 160
175 191 150
180 196 169
174 191 150
173 191 150
173 190 148
169 187 135
176 193 161
173 190 153
173 189 142
172 190 144
172 190 150
172 189 146
172 189 148
175 192 151
174 191 148
175 191 151
171 188 139
166 185 123
170 187 135
171 189 153
172 189 141
168 185 137
175 191 151
170 187 139
174 190 155
169 187 133
175 191 158
169 186 135
169 187 141
173 190 148
174 190 160
172 188 155
170 187 141
166 182 135
166 179 140
161 175 118
159 175 131
153 167 126
149 165 128
152 165 135
145 160 130
130 145 111
137 152 118
127 143 122
122 139 124
118 136 113
113 130 122
93 111 117
80 101 110
77 99 105
68 91 102
48 77 102
48 76 103
46 74 95
49 78 109
47 75 98
48 76 107
45 71 93
46 74 100
46 74 109
43 68 89
43 68 91
43 68 96
41 66 96
39 62 87
39 63 86
37 60 76
32 53 72
35 57 71
32 53 71
31 51 64
25 42 57
29 47 62
64 78 70
109 123 90
130 145 119
123 139 121
47 75 103
52 83 113
54 86 117
55 87 114
55 87 127
56 88 117
54 86 116
53 85 112
57 89 115
56 89 123
56 89 119
59 92 133
56 89 122
57 91 121
58 91 131
57 91 129
59 93 129
58 91 121
58 92 128
59 93 133
58 92 123
60 94 138
60 94 129
57 91 130
59 93 131
58 92 124
58 92 130
60 95 134
59 93 120
60 94 135
59 93 130
59 94 126
61 96 145
60 94 135
61 96 138
59 93 133
59 94 132
58 93 129
59 94 131
59 94 134
60 94 130
60 95 137
59 93 134
60 94 133
60 95 136
61 95 142
58 92 121
60 94 129
59 93 128
59 93 131
59 93 120
60 94 135
60 95 135
60 94 136
60 95 133
58 92 117
61 96 141
58 92 122
60 94 140
58 92 120
57 90 115
60 94 134
59 93 135
59 94 138
58 92 130
58 92 123
60 94 134
59 92 131
58 91 121
59 93 128
60 94 135
59 92 133
58 91 122
61 95 140
59 92 132
59 93 133
58 90 121
59 92 127
60 94 140
57 90 120
59 92 130
58 92 128
58 89 119
56 89 117
57 89 117
57 89 122
59 92 133
58 90 125
56 87 113
56 88 123
56 87 109
55 86 115
56 87 118
54 84 111
55 86 121
53 83 101
55 85 119
53 82 114
53 79 92
50 78 98
47 72 96
46 70 83
82 84 54
62 62 25
70 69 25
34 38 20
46 48 23
33 39 22
38 43 19
47 53 27
56 60 34
42 48 26
49 56 38
48 54 29
64 69 35
72 75 38
64 68 40
73 75 41
89 91 45
88 89 46
82 85 48
87 90 51
89 90 51
97 98 52
105 107 59
117 115 60
99 102 54
109 110 59
122 121 67
126 124 66
120 119 58
123 122 60
125 123 62
120 121 63
121 121 59
130 128 68
127 125 60
124 124 62
141 137 70
128 126 60
136 133 61
141 138 73
144 141 75
139 137 68
143 138 70
135 133 66
139 135 73
149 145 80
152 148 72
143 139 71
147 143 68
147 143 74
156 151 80
149 145 72
148 144 70
155 149 73
151 146 75
156 152 80
153 149 77
158 153 73
154 150 63
160 154 75
165 159 82
164 159 79
155 151 77
163 156 81
165 158 81
167 161 87
165 159 80
163 157 76
166 159 82
159 155 73
166 159 80
160 155 77
166 160 83
164 158 79
164 158 75
159 155 75
174 166 86
167 160 83
160 155 72
166 160 73
164 158 80
168 161 86
167 161 83
169 162 83
170 163 77
166 160 83
169 162 78
167 161 81
164 157 78
171 164 87
164 158 79
165 158 77
169 161 85
169 163 84
162 156 79
165 158 84
168 161 82
162 155 81
162 156 74
163 155 78
164 157 75
161 155 75
169 162 84
166 159 80
163 157 76
165 159 76
164 157 80
167 160 80
163 157 79
165 158 77
163 157 76
156 150 68
160 153 74
164 158 80
163 156 78
163 157 80
158 152 74
167 160 83
164 156 79
160 154 77
155 149 75
165 158 83
163 156 80
164 156 78
164 158 79
161 155 75
159 152 71
156 150 73
164 156 79
162 155 81
160 154 73
166 159 81
159 153 76
162 156 80
153 147 68
160 154 76
160 154 81
156 150 74
157 150 70
157 152 79
163 155 80
158 152 75
156 149 74
155 149 71
156 150 75
146 139 70
158 151 71
152 148 72
166 159 80
178 195 165
179 195 168
177 194 166
178 195 168
182 198 178
178 195 165
174 191 150
176 193 160
178 194 161
173 191 148
181 197 175
178 194 163
181 197 174
180 196 169
176 193 158
176 193 155
179 195 168
176 193 156
176 193 160
176 193 156
182 197 177
174 191 153
174 191 156
176 193 160
175 191 150
176 193 156
180 196 172
177 194 163
176 193 161
174 191 151
175 192 160
175 192 156
179 195 168
176 193 155
175 192 153
179 195 168
178 194 165
173 190 146
174 191 148
175 192 151
173 191 146
173 191 148
176 193 158
173 190 148
175 192 153
177 193 156
177 194 163
172 189 139
180 196 174
175 192 153
171 189 139
174 191 151
176 193 156
175 192 156
171 189 141
174 191 146
173 190 146
178 194 163
175 192 151
173 191 155
174 191 151
176 193 161
170 188 129
172 190 139
172 189 142
171 189 133
173 190 148
174 191 153
173 189 144
171 188 135
171 189 150
170 188 129
169 187 133
169 187 133
170 188 141
172 190 146
172 189 141
172 189 139
173 191 144
173 189 151
173 190 142
170 188 135
173 190 151
172 189 142
170 187 135
174 191 150
171 189 144
173 190 150
173 190 148
171 188 141
163 181 107
169 187 135
170 187 146
168 185 131
170 187 141
168 185 129
167 185 131
166 185 123
167 184 137
169 186 137
168 184 142
166 183 123
165 182 135
159 176 118
166 181 135
163 178 125
165 182 121
162 179 121
150 165 105
154 168 122
145 160 107
135 149 115
142 158 114
127 142 106
131 148 115
126 143 117
113 130 101
103 122 101
108 124 103
89 109 106
95 114 95
75 98 99
65 89 93
52 79 99
50 78 105
46 73 89
46 73 97
46 73 98
48 77 104
46 72 106
44 70 97
44 70 92
44 70 99
44 71 83
40 65 80
38 62 78
35 56 76
35 57 64
37 59 72
36 57 84
37 59 85
31 52 56
29 47 57
25 41 45
38 54 61
73 86 63
121 135 105
134 149 113
122 137 118
50 80 104
52 83 116
52 84 118
52 83 108
54 85 107
55 87 126
56 89 126
55 87 119
56 89 126
58 91 134
56 89 113
57 91 124
56 89 116
56 89 122
57 90 119
57 90 122
59 93 128
59 93 138
57 91 132
58 91 120
57 91 118
60 95 140
59 94 132
58 91 124
58 92 135
59 93 123
58 92 120
59 93 136
59 93 134
59 94 125
59 93 123
58 92 126
59 94 138
58 92 126
60 95 135
58 92 129
58 91 128
61 96 141
61 95 145
58 93 124
59 93 130
59 93 131
60 94 137
61 96 136
59 94 126
60 94 129
60 94 131
59 93 130
61 95 137
59 93 129
58 91 123
59 94 130
59 93 130
59 94 129
60 94 128
59 93 130
58 92 126
58 91 120
59 92 128
58 91 124
59 93 127
58 92 128
59 93 130
58 92 129
57 90 123
59 93 121
58 91 124
60 94 133
58 92 129
59 93 133
58 92 129
57 90 118
58 91 120
59 93 129
58 91 118
58 92 124
58 90 125
59 92 124
60 94 138
60 94 131
57 90 115
58 90 128
58 89 122
58 91 126
59 92 122
57 90 113
57 89 122
59 92 140
55 87 117
58 90 125
57 89 123
56 87 120
58 91 136
55 86 125
56 86 116
52 82 110
54 82 112
53 82 111
54 82 106
49 75 94
49 75 90
45 69 83
93 95 73
56 55 26
61 60 28
50 51 18
38 41 10
52 55 21
51 53 26
29 36 18
56 59 24
49 55 23
57 62 31
61 64 28
71 75 39
69 73 36
75 78 41
80 84 42
68 72 38
75 79 41
87 89 45
77 81 45
94 96 46
107 108 63
92 94 52
100 101 50
104 105 57
112 112 51
110 110 58
123 121 57
119 119 60
130 127 69
123 122 59
124 122 58
120 118 61
127 125 64
127 126 71
139 134 66
142 139 75
135 133 65
135 133 72
137 136 70
135 133 68
144 141 75
142 138 68
143 140 69
139 137 68
137 133 68
151 147 72
149 145 76
147 143 76
150 145 72
153 149 77
156 151 80
149 144 73
155 150 76
159 153 72
156 151 76
160 155 83
160 154 77
155 150 74
151 147 67
161 156 75
167 161 82
165 158 84
163 157 76
161 155 79
165 159 77
161 155 78
164 158 80
159 153 75
162 156 77
168 162 80
165 159 76
164 156 80
164 159 76
168 162 82
166 159 74
163 157 71
165 159 80
165 159 80
164 158 75
164 158 73
167 161 79
165 159 75
167 160 79
169 162 77
164 157 74
164 157 80
167 160 79
167 160 76
165 159 75
163 157 76
168 161 82
164 158 77
161 154 69
165 159 79
162 154 75
164 158 79
170 163 87
162 156 71
166 159 80
171 163 82
166 160 80
169 161 81
160 154 79
169 162 84
158 152 69
161 155 71
162 156 75
156 150 68
165 158 83
167 160 80
164 157 79
159 154 74
165 158 79
165 159 81
160 155 74
163 157 80
159 152 78
159 153 75
162 156 72
163 156 80
159 153 78
159 153 75
160 154 74
169 161 85
161 155 78
161 154 75
161 155 80
156 150 76
160 155 71
159 152 75
162 156 81
160 154 78
157 151 73
160 153 78
157 150 79
160 154 81
160 153 81
155 150 69
160 153 79
158 152 79
154 148 75
156 150 73
162 156 83
152 146 74
162 155 79
159 153 77
154 149 71
153 147 74
180 196 169
176 193 156
175 192 153
178 195 166
176 193 158
175 193 156
179 195 168
177 194 161
178 194 163
176 193 156
176 193 158
181 196 171
176 193 153
181 197 174
179 195 166
174 192 150
178 194 158
175 193 155
175 192 153
175 192 150
176 193 153
176 192 153
174 191 150
176 193 156
176 193 158
176 193 158
174 191 148
177 194 168
176 193 156
175 192 148
176 193 161
173 191 142
175 192 153
174 191 146
173 190 141
175 191 161
174 191 151
174 191 148
169 187 129
177 193 158
171 189 141
173 190 142
171 189 135
168 187 125
173 191 144
172 189 135
171 188 141
177 194 161
172 190 146
172 189 141
174 191 146
176 193 155
173 191 146
171 189 139
174 191 146
174 191 148
171 188 137
172 189 139
172 190 141
168 186 131
173 190 148
171 189 135
171 189 133
168 186 129
172 189 135
171 189 146
168 186 116
172 190 141
173 190 148
172 189 141
170 187 125
173 191 146
169 186 135
173 189 146
171 188 144
169 186 131
165 183 121
173 190 141
172 189 139
169 187 133
163 181 112
171 188 137
171 188 131
168 186 133
168 186 131
171 188 142
169 187 135
168 186 125
165 183 123
167 184 127
168 186 129
170 188 139
163 182 116
165 183 123
168 186 131
167 184 129
166 183 135
163 180 118
168 185 131
168 184 125
169 185 135
168 185 131
164 181 118
158 175 109
164 182 121
158 174 114
159 176 112
161 177 116
154 170 107
153 169 117
148 162 111
134 149 105
140 154 114
137 150 109
123 139 96
124 140 106
109 127 106
107 125 103
99 116 90
87 107 84
84 104 92
67 90 77
73 94 84
59 83 98
47 75 99
50 79 107
48 76 101
46 73 90
44 71 90
45 71 88
45 72 89
43 69 96
41 66 89
42 67 86
42 67 87
41 65 84
41 65 78
38 61 79
36 58 73
35 57 74
33 54 64
30 50 53
29 47 64
29 48 60
44 59 48
92 107 76
112 127 82
140 154 134
171 185 177
46 74 99
53 85 119
54 85 116
52 83 117
54 86 119
54 85 105
54 86 119
57 90 133
56 89 119
57 91 129
59 92 134
59 93 137
58 91 129
59 93 130
58 92 126
58 92 130
58 92 127
56 89 115
57 90 129
58 92 124
58 92 130
58 92 132
59 94 127
58 91 125
58 91 123
59 93 134
57 91 121
58 92 120
58 92 126
59 92 129
61 95 138
60 94 135
59 93 134
58 92 122
59 93 131
59 93 132
59 93 134
59 92 125
58 92 124
57 90 115
60 94 133
60 94 139
59 94 128
60 94 134
60 94 143
61 95 133
60 94 135
60 95 139
59 93 130
60 94 137
58 92 125
59 92 133
60 95 148
58 92 125
59 93 134
57 91 120
59 93 130
57 90 120
59 93 126
60 95 137
58 92 128
60 94 131
59 93 134
59 93 135
57 90 114
57 91 117
59 92 130
58 91 129
59 93 125
59 93 136
58 91 117
58 91 114
58 92 126
60 93 131
59 92 126
58 91 127
59 93 126
57 91 134
59 92 129
56 88 124
59 93 129
57 90 118
57 90 118
58 90 123
56 88 126
54 86 110
57 89 112
56 88 116
57 88 123
58 90 123
55 86 112
54 84 120
54 85 115
56 87 124
54 85 112
54 84 123
51 81 104
52 80 114
53 82 110
52 80 101
51 78 96
44 66 74
133 138 133
82 79 32
58 59 23
39 41 5
53 54 23
34 37 19
46 51 20
36 44 26
48 52 24
47 51 23
52 58 33
53 58 32
59 64 32
60 64 27
68 72 41
68 73 36
81 84 40
80 83 40
85 87 52
88 90 37
106 105 52
93 95 50
113 112 55
100 102 50
115 113 56
115 114 54
115 113 57
117 116 57
116 114 55
116 116 58
126 124 66
126 124 62
131 128 65
118 117 58
142 139 69
126 123 67
136 133 70
129 127 63
134 132 68
147 144 74
140 137 70
138 134 60
134 131 64
141 137 70
142 138 70
151 146 71
147 143 72
148 143 76
147 143 71
153 148 80
149 144 70
148 144 73
154 149 74
156 150 75
149 145 72
153 147 80
149 145 65
157 152 72
162 157 77
163 156 83
156 150 71
160 154 74
152 147 71
157 153 76
159 153 78
158 153 72
166 160 78
158 153 76
160 154 68
164 158 79
158 152 75
162 156 74
164 157 79
163 156 80
165 159 75
170 163 82
163 157 76
167 160 79
165 159 76
160 153 68
163 157 78
169 162 80
163 157 75
169 162 80
166 158 80
171 164 84
166 159 75
167 161 82
170 162 81
169 162 83
167 160 83
160 155 72
162 156 76
168 161 80
166 160 77
161 155 73
166 160 78
159 153 71
165 159 75
165 159 81
165 158 74
165 158 78
162 156 75
166 160 84
168 161 78
165 157 81
167 161 80
166 159 75
163 156 77
161 154 79
159 152 73
161 155 75
157 150 76
164 157 78
165 158 75
166 160 85
165 159 84
164 158 77
160 154 71
149 144 61
161 154 78
162 156 79
160 155 71
160 154 71
163 157 84
156 150 75
162 157 79
161 154 75
162 154 80
158 152 76
164 158 77
159 154 75
157 151 74
154 149 73
160 154 72
154 148 69
161 154 75
156 150 70
162 155 80
162 155 76
160 153 78
160 153 75
155 149 69
154 149 69
154 148 70
148 144 65
149 142 69
154 148 71
146 141 68
176 193 156
178 194 161
176 193 155
177 194 160
172 190 142
177 193 161
174 191 146
175 193 156
180 196 171
168 187 133
178 194 161
175 192 151
174 192 150
177 194 161
176 193 151
175 192 153
172 190 141
172 190 142
172 190 142
173 190 142
174 191 151
172 190 141
175 192 148
176 193 156
172 190 139
176 193 158
174 191 148
176 193 153
175 191 148
175 192 151
172 190 142
173 190 142
169 187 127
171 189 142
172 190 137
175 192 153
171 189 137
166 185 116
176 193 151
172 189 137
173 191 142
171 189 144
170 188 129
172 190 142
173 190 142
168 186 127
167 186 114
172 190 137
174 191 146
172 189 135
166 185 114
171 188 135
172 189 142
168 187 123
168 186 125
173 189 133
169 187 129
168 187 127
172 190 141
167 185 116
168 187 129
167 185 123
167 185 118
168 186 118
167 185 123
167 186 114
166 185 114
167 185 125
171 188 142
171 189 137
164 183 109
167 185 118
170 188 135
166 184 118
167 185 118
168 187 129
168 186 131
171 189 133
164 183 114
170 188 135
165 184 114
165 182 125
166 184 118
168 186 123
167 185 116
166 183 123
167 185 123
166 183 114
163 182 109
166 185 129
161 180 102
167 185 127
165 184 121
163 182 114
156 175 88
159 178 94
168 186 129
167 184 127
163 181 112
164 181 125
159 177 102
165 181 131
159 176 109
166 183 127
157 175 109
157 174 97
165 181 129
155 170 110
152 167 99
149 165 100
144 160 83
138 153 83
141 157 100
133 149 83
124 140 76
120 138 90
122 139 99
90 108 74
101 119 89
96 116 88
78 99 77
79 101 91
63 87 80
64 88 88
48 76 88
49 78 105
47 75 89
44 71 84
45 72 89
44 70 87
47 74 92
45 71 89
43 68 90
40 64 78
42 68 87
37 60 68
38 61 80
38 61 75
35 57 64
37 60 68
32 53 68
32 53 52
32 52 71
38 53 48
66 81 65
98 112 79
119 134 103
152 167 133
196 209 215
81 102 127
51 80 108
48 77 88
53 84 113
51 82 104
56 87 116
56 89 131
55 87 115
55 88 120
58 91 132
58 91 138
57 91 121
57 90 120
57 90 117
57 90 113
56 89 122
58 92 130
57 90 122
57 90 126
58 91 129
58 92 132
58 91 124
57 90 130
60 94 127
58 92 131
59 93 123
57 90 125
59 92 125
58 92 129
59 93 126
58 91 124
61 96 141
58 93 128
57 91 128
59 94 135
61 95 135
58 92 123
58 91 121
59 92 130
56 89 121
59 92 129
60 94 132
59 93 133
58 92 127
58 92 113
60 94 131
58 92 122
60 94 139
60 95 142
58 92 121
59 93 129
60 95 131
60 95 136
60 95 136
58 91 124
57 90 107
58 92 115
59 93 126
59 93 126
60 94 130
58 92 124
59 93 128
57 89 118
58 91 128
58 90 122
59 92 133
58 92 120
60 94 135
57 90 117
60 93 131
59 92 129
57 90 125
60 94 129
58 91 123
59 92 125
57 90 124
59 92 128
58 91 127
57 89 124
57 89 120
59 93 134
58 90 127
57 89 119
57 90 120
58 91 124
57 89 123
59 92 125
57 89 129
58 90 122
56 87 113
56 86 112
55 87 108
57 88 125
55 86 106
55 86 112
55 85 116
51 79 102
51 78 103
52 79 96
49 74 96
48 72 94
65 83 95
175 183 186
74 73 30
66 65 24
69 68 28
57 57 16
51 53 14
46 49 18
48 52 17
39 44 22
54 59 31
50 54 26
66 69 32
61 66 28
62 68 37
68 71 36
69 71 32
76 79 38
91 92 41
76 80 41
94 94 49
82 85 47
97 98 53
104 104 52
112 110 52
106 105 51
109 108 54
117 116 57
123 121 62
112 111 61
121 120 62
117 116 51
123 120 52
123 123 61
130 127 63
119 118 58
133 130 67
131 128 69
132 129 63
134 132 69
142 139 67
140 137 68
134 131 68
137 135 75
143 139 61
145 141 71
149 145 74
146 142 62
141 139 67
149 145 74
145 140 70
152 147 68
155 150 78
149 144 73
155 149 62
149 145 71
151 145 68
143 139 63
164 157 81
151 147 73
152 147 72
156 151 73
161 155 72
162 155 80
157 152 73
155 150 74
161 155 64
164 158 78
163 157 73
158 152 78
163 157 80
159 154 71
163 158 72
163 157 81
160 155 70
158 153 71
163 157 76
167 160 79
162 156 77
165 159 75
166 159 82
157 152 67
164 158 75
166 159 76
165 159 74
164 157 74
165 159 75
161 155 71
165 159 78
167 160 80
165 158 75
173 165 88
162 156 71
163 157 74
167 160 78
163 157 77
163 157 67
166 158 75
162 156 76
168 161 85
171 163 80
160 153 75
167 159 80
164 158 79
164 158 80
165 158 84
160 154 69
168 162 84
167 160 80
167 161 84
165 158 74
164 157 75
168 161 79
160 154 72
159 153 77
164 157 76
160 154 78
163 158 78
168 161 80
159 153 67
162 155 81
159 153 73
156 151 72
156 149 67
167 160 79
158 151 67
165 158 84
159 153 72
161 155 75
163 157 76
156 151 71
163 156 76
158 151 72
157 151 70
156 149 78
165 159 81
157 151 77
163 157 79
163 156 75
151 145 70
154 148 70
154 149 75
161 154 84
152 146 70
154 149 72
155 148 74
159 152 77
156 150 75
159 153 74
151 144 70
177 194 161
172 189 137
176 193 156
174 192 148
177 193 155
174 191 150
170 188 133
172 190 142
176 192 155
175 192 150
173 190 141
177 193 160
176 192 161
176 193 153
175 192 150
168 186 125
174 191 146
175 192 150
176 193 153
169 187 131
174 191 150
172 190 135
171 189 137
170 188 137
168 186 123
168 187 123
175 191 148
172 190 141
177 193 158
168 186 116
170 188 133
170 187 131
170 188 131
173 190 146
172 190 142
166 185 114
170 188 127
167 185 123
168 186 123
168 186 121
172 189 133
167 185 109
171 188 133
174 191 142
170 187 129
172 190 139
170 187 131
162 181 91
167 185 114
170 188 133
169 188 133
172 189 142
170 187 135
167 185 114
169 187 127
167 185 121
169 187 123
165 184 109
169 186 131
167 185 121
171 188 135
166 184 112
171 189 135
167 185 116
167 185 114
164 183 109
163 182 104
166 184 112
168 186 125
168 187 125
166 184 116
163 180 109
163 182 112
165 184 109
170 187 133
164 182 112
166 184 112
166 184 125
162 182 99
164 183 109
165 183 104
160 178 88
162 180 104
163 181 109
167 184 123
162 180 107
160 179 94
162 181 88
170 187 127
164 182 118
160 178 114
165 184 112
164 182 107
161 180 91
155 175 82
160 177 109
161 179 107
161 179 112
160 178 97
161 180 104
160 177 99
158 176 94
157 175 99
158 177 91
155 173 94
154 171 94
148 166 82
151 168 85
142 156 77
140 156 86
141 155 86
139 155 88
135 152 81
125 142 79
126 144 91
117 136 75
116 135 77
104 122 83
103 122 73
86 106 73
77 96 78
81 103 97
68 92 98
60 82 90
56 82 86
49 76 93
45 71 79
46 73 90
44 71 92
45 71 91
45 72 101
45 71 86
45 71 87
37 59 64
41 66 73
41 66 88
40 63 74
34 55 67
38 60 60
35 57 67
33 54 55
31 51 58
30 50 58
42 61 51
69 84 47
105 119 94
141 156 123
152 166 144
205 219 226
107 124 142
49 79 114
55 87 114
53 84 109
53 85 109
53 85 101
55 87 110
55 87 119
55 88 116
56 88 110
56 87 119
55 88 109
56 89 121
56 89 110
58 92 120
58 92 128
59 92 137
58 91 120
57 91 127
58 92 130
59 93 123
59 93 128
58 92 122
58 91 120
59 93 128
58 91 121
57 90 110
57 91 116
58 92 121
59 94 134
59 93 133
57 89 117
59 93 134
58 92 129
57 90 120
59 93 132
59 93 130
58 92 121
58 92 131
60 95 139
58 92 129
59 93 125
59 93 133
58 92 126
61 96 142
58 92 129
59 93 127
59 93 121
58 92 125
59 92 126
59 93 130
57 90 131
59 94 129
59 92 122
59 92 130
61 95 137
58 92 122
59 92 124
58 91 120
60 95 136
57 90 124
60 93 133
58 90 123
59 92 119
59 92 134
58 91 129
58 92 130
56 88 112
57 90 120
58 91 123
59 93 134
59 93 124
59 93 126
59 93 129
59 92 129
59 92 126
57 90 114
58 91 123
60 94 135
56 87 110
58 90 125
58 92 129
57 89 121
58 90 126
56 89 118
57 89 124
57 88 114
57 89 111
57 89 128
55 86 112
53 84 104
56 86 110
57 89 118
53 81 104
52 81 114
56 86 110
52 81 108
55 84 126
53 80 100
47 74 87
49 75 93
108 122 134
199 210 221
92 90 43
62 62 25
66 66 12
53 55 19
56 58 13
57 58 14
47 50 19
53 58 23
49 54 27
53 59 28
47 53 28
67 71 36
53 59 28
63 66 35
76 79 36
79 80 42
77 79 37
89 91 38
83 84 45
84 86 42
91 92 51
103 104 56
111 111 59
111 111 52
113 113 57
117 117 60
108 109 50
112 111 56
116 116 52
125 123 60
112 112 51
119 118 58
132 130 66
130 128 65
127 125 52
128 125 64
130 127 64
138 134 68
145 140 68
135 133 61
138 135 69
148 143 63
145 142 66
138 134 64
148 143 75
148 144 69
150 145 75
142 138 67
149 144 64
144 140 67
148 143 67
147 143 67
161 155 76
161 155 77
149 146 66
157 150 74
156 151 68
155 150 74
156 152 68
150 144 63
162 156 75
156 150 73
157 153 72
159 154 70
157 151 72
159 152 73
159 154 69
156 150 65
164 158 75
162 156 68
161 155 71
161 155 70
163 157 75
167 160 81
163 157 75
164 158 75
162 157 76
164 158 76
161 154 79
157 152 73
161 155 75
163 156 77
167 160 82
161 154 73
164 157 77
165 157 75
166 159 82
168 161 87
168 161 80
166 159 77
160 154 74
169 162 78
161 155 74
168 160 84
165 158 80
166 160 76
163 157 73
167 160 81
162 156 74
163 156 73
161 155 72
165 158 78
162 155 72
160 155 71
161 154 75
158 152 72
162 156 70
163 158 75
164 157 75
163 156 74
159 153 80
159 153 75
158 152 77
157 152 69
165 158 75
158 152 70
160 155 73
164 158 73
159 152 75
164 156 80
165 158 81
159 152 73
156 150 73
157 152 73
159 153 75
162 155 75
160 153 72
161 154 70
158 151 71
160 154 73
157 150 75
160 153 78
147 142 67
159 153 72
159 152 75
158 152 77
160 154 77
157 150 72
153 147 71
158 152 72
149 143 60
154 148 70
153 146 71
156 149 74
157 150 80
149 144 67
151 145 72
151 145 73
176 193 153
173 191 151
174 191 148
176 192 148
178 195 165
171 189 137
173 190 141
173 190 142
171 188 137
172 189 135
177 193 156
171 188 139
171 189 133
172 189 139
170 188 129
176 193 153
171 189 131
172 190 139
173 190 139
175 192 150
171 189 133
168 187 123
172 190 139
173 189 141
171 189 135
171 189 131
169 187 125
168 186 114
167 186 123
168 185 121
172 190 139
171 189 135
174 191 150
170 187 127
167 186 125
171 188 135
172 190 146
171 188 135
170 187 131
169 187 123
167 185 123
168 186 125
167 185 116
169 187 121
169 186 118
168 186 125
164 183 109
161 180 85
170 187 125
167 185 121
166 184 116
168 186 112
169 186 125
166 184 102
169 187 123
165 183 109
167 185 116
170 188 133
165 184 114
166 185 112
166 185 116
160 179 99
163 182 99
165 183 109
165 183 104
164 184 104
163 182 102
164 182 114
167 185 118
164 183 112
164 182 114
164 182 114
168 186 121
163 182 102
161 179 91
165 183 118
163 181 107
160 179 88
163 181 104
160 179 88
164 182 104
162 181 99
160 178 97
162 181 94
160 179 99
159 177 97
160 179 91
163 181 102
158 177 68
160 179 97
159 177 85
159 178 94
161 179 104
157 175 88
162 180 99
157 175 91
152 171 68
156 174 91
156 175 79
159 177 91
154 173 75
158 175 91
155 171 88
153 171 94
146 165 60
153 171 85
150 168 86
147 164 79
153 169 92
142 160 69
135 150 84
135 152 65
129 148 45
131 148 71
120 138 72
109 126 74
111 128 80
110 128 83
89 107 59
88 107 84
85 106 69
81 100 58
66 88 88
60 82 70
56 80 87
52 79 97
47 74 91
45 72 87
47 74 91
46 72 93
44 70 87
44 70 82
45 72 83
44 71 82
40 63 66
41 65 76
40 65 79
36 58 58
37 60 70
35 57 64
33 53 55
32 52 57
41 59 47
52 68 48
81 97 47
108 124 83
140 155 104
149 163 134
218 231 245
149 163 184
49 79 99
51 80 109
53 84 96
53 84 106
55 87 121
57 90 128
55 87 124
55 87 120
56 90 123
56 89 110
57 90 119
57 90 118
58 92 131
57 89 114
56 89 115
56 89 119
59 93 128
57 90 128
57 91 123
60 94 132
57 90 126
58 91 123
58 92 134
59 92 128
57 90 117
58 91 119
58 92 125
58 91 121
59 93 137
58 92 126
60 94 131
58 92 125
57 90 118
57 90 122
57 91 116
58 92 122
57 90 107
58 91 129
60 94 134
61 95 135
58 92 129
60 95 124
59 93 124
57 91 117
56 89 118
59 93 126
58 92 126
60 95 131
56 89 117
59 93 135
59 94 131
58 92 125
59 93 131
58 92 129
59 94 135
59 93 128
60 94 139
58 92 122
58 92 121
57 91 117
58 92 121
57 90 105
58 91 121
59 93 134
59 93 131
57 90 129
57 91 126
59 93 125
57 91 121
58 92 130
59 92 125
57 90 110
59 92 128
59 92 134
58 91 127
55 87 111
59 92 134
58 91 128
57 89 125
58 90 119
59 93 133
56 88 110
54 85 101
58 91 127
55 87 115
56 87 116
54 85 96
55 84 119
56 88 122
56 87 117
56 88 115
54 85 113
56 87 111
56 88 125
52 80 103
51 78 101
53 81 100
51 79 104
49 76 92
50 75 90
125 139 153
221 234 252
88 87 45
79 76 30
63 62 28
66 65 23
28 35 10
60 61 14
56 60 25
50 54 20
54 57 15
65 70 30
55 60 25
62 65 25
61 66 36
71 74 30
80 81 38
72 75 33
82 85 43
87 90 41
93 95 43
90 91 47
101 101 52
100 100 51
98 100 46
96 98 44
106 107 49
110 110 46
117 116 51
117 116 56
122 120 56
116 116 53
114 112 52
131 130 67
120 118 54
134 130 67
124 122 65
130 128 64
144 140 75
134 130 64
136 133 58
135 131 59
140 136 69
147 142 71
143 140 69
135 132 54
139 136 65
145 140 63
159 153 73
151 144 65
153 148 75
146 142 60
145 142 61
153 148 71
151 146 70
149 144 66
154 148 72
150 145 66
159 153 77
149 144 63
156 151 61
160 154 72
157 152 70
162 156 77
158 153 71
153 148 65
160 154 70
160 155 75
161 154 74
157 151 67
153 148 63
163 155 81
164 157 73
162 155 77
164 158 77
160 155 67
160 155 69
162 156 71
161 155 74
163 157 73
165 158 79
164 157 76
166 159 70
161 155 70
167 161 78
162 156 75
163 157 72
165 159 76
166 160 76
161 155 66
165 158 73
169 162 76
165 158 70
168 162 80
168 161 71
162 156 78
155 150 63
162 155 75
163 157 75
163 156 72
169 162 80
164 157 76
164 157 76
161 156 76
165 160 79
168 160 84
159 153 71
165 158 79
166 159 76
161 154 72
165 159 79
167 160 81
163 157 75
165 158 81
165 158 75
160 154 76
156 150 68
158 152 73
157 151 74
158 152 75
161 154 79
159 153 77
157 150 71
161 154 77
159 152 79
156 150 69
153 147 69
158 152 71
159 152 76
156 150 75
163 157 71
154 148 65
159 153 80
152 146 70
160 153 72
161 154 77
152 146 71
158 151 72
153 147 72
148 142 67
155 148 75
156 150 74
156 149 73
152 147 70
156 150 72
146 141 63
157 151 73
157 151 75
154 149 70
154 147 71
173 190 146
173 190 141
169 187 127
171 189 135
166 185 112
174 191 148
168 186 125
169 187 121
172 190 139
173 190 139
172 190 141
173 191 148
169 187 129
170 188 125
173 189 137
171 189 139
171 188 133
171 188 129
169 187 123
171 189 133
169 187 131
168 186 127
168 186 116
168 186 121
166 185 116
168 186 118
170 188 125
171 189 129
168 187 123
165 183 112
173 190 142
172 189 135
171 189 131
170 188 129
166 185 114
169 187 118
163 182 99
170 187 123
168 186 125
165 183 118
167 186 116
166 185 112
166 184 116
163 182 104
162 181 94
166 185 107
165 183 112
166 185 118
166 184 112
166 184 112
160 179 85
164 183 107
161 180 94
170 187 123
167 186 114
167 186 118
164 183 99
163 182 109
159 178 79
167 185 114
162 180 97
166 184 116
164 183 97
163 182 91
165 183 109
162 181 91
163 182 104
160 179 99
162 182 104
161 180 91
158 178 72
163 182 109
164 183 102
156 176 60
160 179 79
162 182 97
154 173 64
156 175 72
157 176 75
161 179 94
160 180 75
162 180 99
157 177 82
159 178 85
159 178 82
157 177 85
158 177 88
155 175 60
156 175 72
156 175 75
157 175 85
153 173 68
151 170 72
157 176 88
157 176 79
153 171 72
158 178 79
155 175 56
154 173 60
156 174 79
151 169 60
147 167 51
148 165 60
155 173 72
145 163 56
148 166 60
149 167 68
146 163 68
148 164 75
140 158 44
127 144 32
132 148 50
133 149 51
125 142 57
126 144 59
116 135 52
108 127 70
92 112 79
96 116 64
91 111 61
80 102 88
77 96 75
69 92 85
64 84 79
57 81 74
55 78 83
48 76 102
45 72 81
44 70 75
45 71 84
43 69 81
43 68 73
41 66 77
41 65 82
40 65 71
39 62 67
38 61 61
40 63 79
37 60 69
38 61 62
35 57 53
45 61 35
67 84 47
73 87 45
112 128 82
132 150 78
147 163 112
163 177 155
216 231 233
166 182 181
50 80 109
50 80 99
52 82 109
52 83 108
54 85 113
57 90 125
55 86 110
53 84 103
56 88 115
57 90 126
57 89 124
58 91 125
58 91 128
59 93 131
56 88 110
57 90 124
58 92 133
56 88 117
57 90 116
56 88 114
59 93 133
60 93 135
59 92 122
57 91 118
57 90 119
58 92 121
58 92 125
58 91 123
58 91 122
58 91 138
58 92 129
60 93 139
59 92 126
59 93 126
58 92 117
58 91 121
58 92 122
58 92 121
58 92 123
59 92 121
56 89 112
58 92 130
58 91 117
59 93 124
59 93 130
58 92 125
59 93 133
59 93 128
59 92 121
59 92 128
58 92 130
58 92 122
60 94 129
59 94 134
60 94 136
58 92 129
59 92 129
58 92 123
58 92 121
58 92 121
59 94 135
59 92 129
59 93 128
58 91 125
58 91 121
59 93 125
58 91 123
58 92 124
58 91 126
57 89 122
59 94 130
58 91 121
56 89 120
57 90 117
58 92 126
59 93 136
59 93 124
58 91 126
57 89 118
57 90 120
57 89 121
58 91 125
57 89 127
59 92 128
58 89 120
57 89 125
58 91 123
55 86 113
57 88 116
56 88 119
56 88 112
55 85 113
54 85 103
55 85 114
52 81 103
53 82 106
52 79 101
51 78 103
51 79 91
44 66 75
163 178 169
217 231 233
134 137 111
65 64 30
55 56 22
78 78 24
52 53 16
60 61 17
49 55 18
54 57 12
47 51 16
60 63 21
57 61 25
70 70 29
60 64 34
58 62 19
73 77 33
70 74 38
84 85 37
83 85 38
99 98 46
98 100 45
85 88 46
91 93 41
94 96 47
102 103 47
97 97 43
101 99 50
119 118 58
109 108 53
109 109 53
120 118 56
115 112 51
122 121 63
120 118 53
129 127 60
130 128 58
135 132 60
126 123 55
131 128 55
128 125 56
129 126 58
132 129 61
144 139 56
142 138 66
141 137 63
144 140 66
147 143 66
152 148 65
139 136 59
152 147 74
137 134 63
143 139 67
158 152 70
153 147 74
154 148 73
152 147 69
152 146 66
155 149 72
155 149 74
151 147 69
148 143 68
151 146 68
157 151 71
153 148 69
163 156 72
162 156 79
155 149 72
161 155 71
163 156 70
154 149 63
158 152 63
165 158 72
163 157 74
154 149 61
161 156 73
160 154 71
165 158 79
168 161 75
166 159 76
161 155 67
160 154 70
160 152 70
162 157 76
161 155 73
158 153 72
164 158 74
168 161 83
163 156 75
162 156 67
163 157 73
160 154 70
163 156 78
165 159 71
162 156 75
163 157 74
163 157 76
158 152 67
156 150 65
154 148 68
167 161 78
160 153 69
159 153 70
164 157 74
160 154 71
164 157 76
154 147 72
158 153 61
162 156 74
163 156 73
162 155 71
167 160 84
157 150 75
156 151 69
160 154 74
155 150 71
158 151 72
155 150 64
161 155 78
158 153 73
157 151 72
163 156 76
161 155 78
153 146 67
158 152 69
155 148 74
156 150 66
160 153 76
155 148 68
159 153 72
157 151 74
162 156 75
156 151 71
156 148 73
149 143 60
154 147 66
158 151 74
154 148 67
158 152 69
158 152 77
151 145 74
148 142 66
154 148 69
156 149 74
154 148 75
152 145 73
159 151 78
149 142 64
152 147 64
166 158 80
171 189 133
172 189 135
168 186 129
169 187 125
173 191 146
173 190 139
170 188 133
171 189 133
167 185 112
172 189 139
170 188 131
171 188 129
171 188 131
170 187 133
175 192 150
166 185 118
167 185 112
170 188 127
168 186 121
164 182 109
166 185 109
162 182 99
171 188 129
166 185 116
166 185 114
166 184 116
168 186 125
168 186 121
168 187 123
167 185 114
169 186 123
168 186 109
166 185 116
165 183 102
167 186 118
166 184 116
167 185 112
168 186 114
162 181 97
164 183 107
163 182 104
167 185 118
166 185 107
166 184 107
164 183 97
165 184 99
164 184 102
166 184 118
164 182 99
163 182 97
160 180 79
163 182 97
161 180 97
164 183 102
160 180 82
160 179 82
160 178 91
161 180 82
161 180 97
160 179 91
161 181 85
162 182 94
165 184 102
164 182 99
157 177 68
159 179 75
159 178 82
160 180 79
157 177 72
162 181 91
156 176 64
158 177 85
155 174 79
155 174 68
159 178 82
158 176 85
157 177 79
155 175 68
155 175 51
156 176 51
159 179 72
156 176 72
154 174 64
152 172 51
154 173 68
152 172 51
155 175 45
151 172 51
152 173 45
153 173 56
150 168 64
150 169 39
149 168 32
147 167 56
154 174 64
152 172 51
145 165 22
152 172 72
145 164 32
154 173 60
148 167 39
149 168 56
147 166 39
148 166 45
144 163 39
146 165 45
144 162 39
135 153 32
146 164 22
134 150 45
137 154 33
132 151 33
131 149 43
128 145 45
118 136 53
113 130 55
113 130 57
109 128 60
110 127 53
90 110 60
94 113 65
80 100 76
71 91 64
63 86 83
62 84 72
46 73 91
43 68 72
42 67 76
42 67 77
43 68 71
42 67 80
43 68 68
42 67 70
41 65 74
39 63 75
40 63 70
39 63 72
39 62 72
33 53 58
35 57 48
32 52 49
52 70 35
65 83 41
91 107 77
104 121 70
134 150 102
144 160 107
152 171 68
174 198 0
165 188 35
48 77 99
52 82 118
52 82 118
54 86 119
54 86 121
54 86 102
54 85 110
53 85 112
57 90 125
54 86 115
56 88 119
57 90 121
56 89 117
57 91 124
57 90 117
57 90 113
59 93 125
57 90 119
56 89 111
57 91 127
57 90 120
58 91 119
59 93 124
56 89 110
58 91 119
58 92 125
59 93 130
58 92 123
58 91 129
59 93 131
58 92 130
58 92 121
57 91 118
58 92 137
57 90 124
58 92 125
58 92 131
58 92 126
57 90 122
58 91 117
58 91 119
59 93 122
57 91 121
59 93 125
57 90 114
57 90 121
58 92 125
58 92 122
59 93 126
57 91 121
57 90 124
59 94 128
56 89 108
60 94 136
60 94 128
57 91 120
56 89 121
59 92 124
59 93 131
57 90 113
58 92 126
58 91 125
57 91 114
58 92 121
59 92 128
59 93 128
59 93 133
58 91 125
56 89 117
58 91 123
58 91 126
59 92 130
60 94 128
58 91 123
59 93 128
58 90 127
57 91 118
57 90 127
57 89 121
56 87 106
56 88 117
57 89 121
58 90 110
57 89 109
58 90 121
57 89 119
55 86 118
55 85 113
55 85 107
54 84 104
56 87 117
55 85 109
55 85 110
56 86 112
52 81 107
51 79 100
52 80 101
49 76 90
46 70 71
47 72 80
162 185 28
174 198 0
144 159 33
81 80 23
94 91 33
53 55 17
58 59 22
51 53 21
71 73 18
50 54 18
56 59 19
59 62 19
63 65 19
68 71 27
56 62 29
69 70 27
67 71 29
70 75 37
77 78 25
82 83 31
88 89 35
79 82 32
83 87 35
94 96 47
99 100 44
92 93 41
100 100 49
99 100 49
104 105 43
118 117 51
131 128 64
112 112 52
123 120 54
110 109 48
122 119 61
119 117 49
126 125 56
133 131 56
136 132 60
126 123 55
136 132 63
130 127 58
138 134 61
137 133 62
145 140 60
146 141 65
140 136 65
137 134 63
135 133 58
140 137 61
149 144 71
144 139 63
152 148 66
143 140 58
144 140 61
150 145 60
157 152 71
144 140 64
158 152 78
157 152 74
158 152 77
157 151 66
155 150 68
166 158 79
155 150 67
156 150 64
160 155 78
156 152 65
162 156 76
157 151 67
159 153 71
158 152 70
159 152 68
151 146 67
158 151 66
166 159 76
158 153 71
154 150 63
165 159 76
164 158 74
159 152 65
160 154 68
158 152 68
160 154 72
164 157 75
162 157 74
167 159 75
159 153 67
162 155 75
164 157 75
160 154 69
166 158 74
163 156 77
166 160 70
167 160 76
161 154 75
169 162 80
156 151 62
154 148 67
167 160 80
158 152 66
165 159 68
158 152 67
158 152 67
158 153 67
162 156 72
161 154 75
163 156 80
163 156 76
163 156 77
164 157 73
154 148 62
158 152 75
157 151 62
159 152 72
158 153 67
161 154 72
160 154 71
157 151 71
163 157 74
159 153 73
162 155 75
161 154 73
158 152 69
159 153 73
155 149 68
163 156 82
150 145 69
158 152 74
158 152 74
151 144 69
155 149 74
151 147 63
155 148 70
155 149 71
161 154 74
157 151 70
154 148 71
155 149 72
155 148 67
155 149 72
164 157 80
144 138 61
147 141 67
147 141 66
155 148 73
150 143 71
152 145 66
149 144 61
145 139 60
172 189 142
170 188 125
169 186 121
168 186 116
169 187 123
169 187 125
171 188 127
174 191 146
169 187 123
168 186 116
164 183 112
169 187 129
164 183 109
169 187 125
170 188 125
167 185 118
170 188 127
166 185 114
168 186 118
168 186 116
167 185 121
168 186 121
166 185 107
168 186 118
167 185 114
168 186 121
166 184 114
165 184 109
164 183 102
167 185 114
168 186 127
169 186 127
164 183 97
166 184 118
166 184 104
161 180 88
162 181 91
166 184 109
165 184 104
162 181 99
164 183 104
166 184 104
159 179 68
164 183 104
160 180 68
161 181 85
165 184 104
165 183 107
162 180 97
164 183 112
162 182 97
161 180 85
163 182 97
161 181 91
161 181 82
161 180 94
158 178 72
158 178 60
159 178 82
163 182 94
156 176 75
161 180 72
159 178 75
154 175 60
160 179 79
157 177 68
157 176 68
159 178 72
153 173 56
157 177 72
159 179 75
156 176 64
157 177 51
155 175 45
158 177 64
154 175 45
155 174 68
155 175 68
153 173 51
154 173 64
153 173 45
153 173 56
156 176 64
149 170 32
152 173 22
152 172 32
150 170 22
152 172 45
152 172 22
149 169 22
148 168 39
144 165 0
150 170 22
149 169 22
146 166 22
143 162 22
147 166 0
145 165 0
144 164 0
148 168 0
142 162 0
146 167 0
145 163 0
142 162 0
140 158 0
143 162 0
137 156 0
138 155 0
144 162 0
135 152 19
129 147 22
131 147 33
129 145 33
118 137 32
123 142 45
111 129 42
105 122 46
99 117 53
100 118 53
97 116 36
88 107 65
90 108 62
75 94 73
65 86 76
63 83 75
49 73 88
56 79 80
47 74 86
45 71 83
42 67 67
42 66 64
40 64 69
42 67 79
39 63 64
36 59 54
39 63 62
34 56 58
37 59 65
34 56 50
44 64 47
58 76 39
66 85 43
82 100 50
108 125 61
132 149 73
148 164 113
149 165 114
162 184 45
174 198 0
174 197 0
69 94 90
49 78 105
51 81 105
55 87 113
52 83 105
53 85 114
55 88 122
53 83 105
56 88 115
54 86 108
58 91 131
54 86 120
56 89 118
58 91 125
57 90 121
56 88 115
58 91 130
58 91 121
58 91 123
59 93 134
55 87 118
58 91 132
58 91 123
58 92 129
58 92 127
56 89 113
59 92 131
60 94 138
58 91 111
58 92 120
56 89 109
56 89 120
56 89 111
58 91 118
58 92 121
59 92 127
58 91 112
57 90 125
59 93 122
59 93 125
58 91 122
58 92 122
57 91 128
58 91 129
60 94 130
58 91 115
57 91 124
59 93 125
60 94 136
58 92 123
59 93 126
57 91 120
59 92 124
58 92 120
58 91 128
59 92 114
58 92 128
58 91 121
58 91 118
60 94 133
58 91 126
54 86 99
58 91 128
58 91 111
59 93 136
59 93 125
59 92 122
55 87 108
58 90 117
57 89 121
56 88 115
59 93 122
59 93 123
59 92 128
56 89 115
56 89 119
57 89 114
56 89 110
58 91 127
58 90 118
58 90 124
56 87 106
56 88 112
58 89 119
57 89 108
57 88 123
54 84 105
55 86 112
56 87 110
54 85 113
54 85 106
55 86 117
55 85 121
51 79 105
53 81 98
48 74 80
51 79 95
49 75 88
48 73 88
69 88 57
174 197 0
174 197 0
158 177 24
97 93 37
66 67 21
64 63 17
56 58 14
60 59 17
42 46 19
32 37 16
66 67 16
59 63 20
68 71 27
52 57 26
67 69 23
73 75 30
73 76 24
65 69 33
82 84 35
73 77 34
88 88 37
92 94 40
95 94 38
95 95 48
102 100 36
99 97 43
101 103 44
107 106 39
113 112 51
110 109 43
112 111 52
112 110 56
121 119 52
131 128 55
108 107 48
115 114 56
126 123 50
137 133 57
120 119 52
127 124 57
127 125 57
137 134 60
126 124 52
138 134 60
136 134 60
135 132 62
142 137 55
139 136 60
142 138 52
148 144 61
146 141 68
148 144 65
144 140 61
140 137 64
151 146 68
153 148 62
157 152 65
145 140 62
155 148 68
153 146 64
152 147 67
159 153 67
163 157 74
156 150 72
154 149 64
155 149 66
152 147 68
163 155 75
164 157 75
162 156 79
162 156 72
157 151 71
152 147 65
154 149 65
155 149 69
158 153 69
163 157 69
164 158 75
159 154 70
161 155 69
159 151 75
163 157 72
156 151 66
158 152 67
159 153 65
161 155 75
168 161 78
166 158 73
165 157 78
162 155 70
160 154 67
165 159 77
159 152 62
166 160 76
164 158 74
165 159 72
155 148 69
155 150 62
159 154 65
158 152 69
164 158 74
159 153 67
161 154 71
168 160 80
157 151 71
166 160 79
160 153 69
155 150 63
161 154 73
162 155 76
164 156 73
161 154 71
160 154 70
161 155 67
158 152 70
163 156 75
155 150 60
159 153 75
159 153 71
162 155 73
164 157 75
166 159 76
157 151 68
146 139 62
156 150 63
156 150 68
157 151 71
159 152 70
154 147 69
154 147 67
155 149 70
154 149 67
155 149 66
158 152 69
152 146 69
161 154 76
155 148 67
159 152 72
159 152 76
157 151 76
154 148 74
149 143 68
160 153 74
146 140 62
158 151 75
153 147 75
159 152 81
147 143 63
147 141 63
148 142 63
169 186 125
169 187 127
170 188 131
168 186 125
165 184 104
168 186 114
170 187 123
167 185 116
171 189 133
171 188 131
169 186 116
169 187 129
163 183 99
165 184 107
165 183 104
167 185 118
166 184 116
167 185 107
165 184 107
166 184 102
169 187 121
166 185 114
166 184 107
167 185 104
164 183 109
163 182 97
163 182 91
165 183 104
163 182 97
167 185 116
162 181 88
162 182 94
168 186 109
160 179 85
162 181 85
161 180 91
162 181 88
165 183 102
160 179 79
163 182 88
163 181 97
162 181 91
158 178 68
163 182 99
159 178 79
159 179 82
162 181 88
159 179 64
161 181 85
159 178 75
156 176 79
160 180 82
158 177 75
159 179 72
159 179 72
158 178 64
159 179 75
155 176 56
156 176 51
156 177 68
156 176 60
156 176 64
154 175 39
156 176 39
154 175 39
157 177 51
155 175 51
154 174 45
156 176 51
155 176 56
149 170 32
155 175 39
154 174 45
151 172 39
148 169 22
152 173 22
147 168 0
151 171 22
153 174 22
152 173 0
154 175 0
152 173 0
151 173 0
147 167 0
149 170 22
149 170 0
150 170 0
149 169 0
150 170 0
151 172 0
150 170 0
144 164 0
148 169 0
148 168 0
146 167 0
147 167 0
141 161 0
143 161 0
142 160 0
147 167 0
141 160 0
142 161 0
143 164 0
144 163 0
140 158 0
139 158 0
139 157 0
134 153 0
133 151 0
136 155 0
123 141 16
131 148 28
119 138 35
124 142 42
119 136 39
104 122 57
101 120 57
102 119 48
93 111 55
96 114 57
91 110 63
77 96 67
78 98 71
74 94 62
65 87 63
57 79 74
57 81 81
50 73 69
46 71 59
40 65 72
43 68 78
41 66 61
41 66 70
41 66 69
39 62 59
38 61 61
35 57 47
40 62 55
45 65 48
61 79 38
55 73 56
81 98 34
95 111 45
121 139 73
138 157 75
144 160 109
145 161 102
173 197 0
173 197 0
174 197 0
108 130 61
48 76 88
51 81 111
53 84 103
53 84 108
55 87 117
55 87 120
58 91 124
54 85 103
56 89 119
55 87 115
57 89 122
56 88 112
58 90 131
55 87 109
58 90 119
56 90 113
57 90 121
56 88 111
58 92 129
56 89 119
58 92 132
58 92 121
56 89 108
58 92 124
56 90 115
59 92 129
59 92 124
58 92 115
57 90 122
58 91 127
59 93 130
57 90 106
59 93 130
58 92 123
57 90 115
58 91 121
57 90 116
58 91 124
59 93 128
58 91 124
58 92 126
55 87 114
58 91 125
59 93 135
56 90 114
59 93 129
58 92 126
58 92 126
58 92 124
59 93 128
58 92 130
58 91 121
58 91 129
58 91 121
59 93 124
59 93 129
59 93 126
59 92 125
58 91 121
59 93 130
57 90 125
58 90 121
57 90 120
58 92 121
58 91 117
57 90 118
59 92 124
60 93 131
58 92 117
58 91 124
57 89 115
58 92 126
59 93 125
59 92 123
57 90 120
58 91 126
58 91 128
57 89 125
56 87 107
57 90 127
57 89 116
57 89 121
57 89 117
57 89 114
56 87 114
56 87 121
56 87 112
57 88 116
56 86 116
52 80 102
57 89 128
54 82 102
53 82 104
53 82 106
51 80 101
49 75 95
48 73 86
49 73 90
113 132 59
175 198 0
174 198 0
174 197 0
102 103 36
77 76 24
75 72 23
62 64 15
53 55 16
62 61 14
56 60 8
51 52 19
64 66 13
68 71 22
67 69 22
71 75 24
62 66 21
80 81 26
71 74 27
81 85 30
76 78 36
96 98 35
83 86 29
91 93 34
95 96 38
108 107 49
98 98 36
106 105 46
100 100 46
103 102 41
104 103 46
122 120 51
119 117 56
116 114 48
107 106 46
129 126 58
119 118 47
121 120 47
125 122 45
131 129 55
130 127 60
132 129 56
127 124 53
133 130 55
138 134 64
130 126 52
131 128 54
146 141 61
150 144 66
146 143 57
148 143 70
147 142 63
138 135 53
145 141 62
143 138 54
141 137 58
154 148 69
144 140 62
150 144 61
140 136 64
151 146 57
152 147 70
151 146 65
156 150 67
158 152 74
153 149 64
151 146 64
151 147 66
158 152 56
154 148 65
153 148 67
160 155 69
158 151 73
156 150 68
165 158 73
165 158 75
154 149 64
154 149 60
161 155 70
162 155 69
162 156 69
159 153 68
160 154 62
163 155 75
152 147 60
165 159 74
164 157 74
160 154 70
163 157 74
152 146 69
162 155 70
164 158 71
163 156 69
159 153 64
161 153 69
162 156 64
162 155 75
164 158 73
158 151 65
163 156 72
167 160 78
163 156 73
161 155 70
157 150 67
161 155 72
159 153 73
158 152 61
159 153 69
153 147 68
157 151 72
162 156 75
165 158 79
158 151 69
162 155 73
155 150 66
158 153 65
148 143 60
158 152 68
151 146 61
164 157 73
168 159 78
157 151 66
162 155 75
165 158 69
158 151 74
155 150 70
164 157 76
151 146 67
160 154 75
156 149 69
157 151 75
154 147 70
161 154 75
161 155 66
159 153 72
151 145 64
149 143 62
156 150 72
160 152 72
157 151 68
154 148 65
154 149 62
157 150 74
158 152 74
155 148 73
153 147 65
159 152 80
158 151 70
153 146 68
150 143 69
142 136 65
168 186 125
166 185 112
167 185 114
166 184 109
165 183 107
168 185 114
166 184 116
167 185 116
167 185 112
166 185 107
170 188 125
169 187 127
171 188 121
164 183 99
168 186 123
164 183 107
162 182 94
165 184 104
162 182 91
164 183 97
162 182 99
162 181 102
165 184 99
162 181 97
161 180 91
164 183 109
164 183 102
162 181 85
162 181 91
165 184 104
163 182 94
157 177 72
161 181 91
163 182 102
161 180 82
161 181 79
160 180 82
159 178 68
159 179 75
159 178 82
160 180 72
159 178 60
160 179 75
159 179 68
158 177 64
160 180 68
156 177 56
158 177 75
161 180 75
156 177 56
159 179 56
157 176 64
155 176 56
157 177 64
158 178 75
155 175 39
155 174 56
154 175 32
155 175 22
152 172 51
154 175 39
154 174 22
151 172 0
154 174 39
153 175 22
154 174 0
153 174 0
155 176 0
151 172 22
152 173 0
153 174 0
152 173 0
152 172 0
151 172 0
151 171 0
153 173 0
154 175 0
147 168 0
151 171 0
151 170 0
153 174 0
149 170 0
150 170 0
147 167 0
147 165 0
147 168 0
147 168 0
149 170 0
147 168 0
152 173 0
148 168 0
148 169 0
151 172 0
149 170 0
147 166 0
141 160 0
149 169 0
142 162 0
138 158 0
146 165 0
143 162 0
144 164 0
132 151 0
139 159 0
139 159 0
140 159 0
137 156 0
140 159 0
133 151 0
133 150 0
127 145 0
126 143 16
122 138 16
121 139 42
123 139 39
110 126 51
106 122 38
106 124 54
89 107 57
83 102 68
85 104 50
80 99 67
76 95 47
76 95 65
64 85 59
49 71 65
56 77 57
51 74 73
52 73 68
39 63 55
40 64 67
38 62 49
44 67 65
44 67 67
39 63 59
38 61 51
44 65 60
42 63 64
66 84 50
62 79 27
71 90 44
96 113 41
108 124 50
137 154 79
144 162 91
149 165 112
155 174 75
174 198 0
172 196 0
172 196 0
147 169 40
52 82 99
50 79 95
51 81 100
54 85 105
55 88 112
52 82 100
55 87 112
55 86 103
56 89 112
55 88 103
54 86 115
56 88 114
55 87 105
56 88 122
58 91 131
57 90 116
59 93 130
59 92 120
57 90 114
56 89 115
58 92 127
56 90 118
59 93 121
57 91 115
57 90 109
58 91 112
56 89 122
58 92 115
57 90 119
59 93 126
58 91 115
59 92 126
55 88 118
59 92 121
56 89 119
59 93 133
58 92 127
59 93 131
58 91 125
59 93 131
58 91 126
59 93 134
59 93 133
59 94 129
59 92 122
60 94 130
59 92 126
57 90 129
57 91 122
59 93 126
56 88 114
57 91 115
58 91 122
60 94 129
59 92 122
56 88 105
58 92 131
58 91 126
60 93 128
59 93 126
58 92 122
57 90 115
55 87 115
58 91 128
58 92 120
59 92 121
59 92 133
58 91 126
60 94 134
58 92 123
57 90 120
58 91 120
57 90 121
57 90 126
56 90 115
56 88 122
55 87 108
57 90 118
57 89 118
56 87 113
55 87 121
57 89 112
57 89 119
57 88 113
56 88 109
56 87 116
56 87 111
54 84 101
54 83 108
54 83 112
55 86 112
53 82 110
51 79 85
53 82 110
51 79 100
50 77 83
48 74 90
47 72 84
142 164 42
174 198 0
170 195 0
174 197 0
142 156 30
74 73 29
75 74 33
71 71 23
67 67 7
61 62 14
71 71 21
60 61 16
58 60 13
68 70 17
57 60 29
52 57 22
67 68 25
69 71 24
78 79 30
83 84 40
76 77 30
82 84 29
92 91 35
93 94 41
91 91 41
95 94 35
90 90 41
104 105 44
117 115 50
95 95 38
117 114 48
112 111 48
115 114 48
113 112 45
105 106 42
121 118 43
125 121 52
128 125 60
120 117 49
130 126 52
129 126 49
133 130 54
122 119 54
136 132 53
133 130 48
140 134 66
146 140 54
136 133 61
147 142 61
146 142 66
131 128 52
138 134 57
147 141 68
153 147 64
144 139 53
147 142 59
152 146 65
152 147 69
148 142 64
147 142 64
153 148 61
150 145 70
149 142 61
158 152 64
156 149 64
159 153 70
155 150 69
156 151 70
147 142 57
155 149 63
156 152 63
156 151 67
159 153 73
155 150 66
150 146 59
157 151 67
152 147 58
165 158 64
153 147 63
164 157 76
156 150 61
158 152 72
162 155 74
160 154 64
159 154 64
156 150 66
163 156 69
164 157 70
165 158 79
163 156 73
163 156 71
161 156 62
158 151 71
161 155 71
161 155 70
155 149 60
160 154 59
157 151 66
161 155 69
160 153 71
159 152 71
162 155 68
162 155 73
156 151 66
160 154 73
163 157 72
157 151 65
154 149 64
154 148 63
156 152 61
158 152 69
159 153 73
159 151 69
151 146 58
154 148 65
157 149 65
164 157 77
161 153 68
157 151 66
166 159 78
156 150 66
158 152 72
159 152 70
156 150 75
160 154 73
154 148 67
144 140 58
158 152 66
158 150 69
156 150 67
154 147 62
164 158 73
153 148 73
154 149 69
153 147 65
161 154 71
148 142 60
152 147 72
153 148 62
151 146 68
155 148 73
157 151 77
150 145 60
157 150 72
156 150 63
151 145 63
153 148 62
147 141 65
160 154 72
148 142 64
153 147 67
167 186 114
166 183 112
167 185 116
168 186 121
162 182 91
163 181 99
168 186 123
167 185 112
169 187 118
166 184 114
164 182 99
166 184 114
167 185 114
163 182 91
162 181 97
159 179 79
163 181 97
166 185 107
165 184 107
163 181 94
167 185 107
159 178 79
160 180 82
163 182 88
161 181 82
159 178 85
161 180 72
162 181 85
163 182 97
162 181 97
161 180 85
160 179 85
160 180 82
159 178 68
160 180 64
160 180 68
159 179 75
157 177 72
154 175 51
159 179 60
157 178 51
155 176 39
157 177 51
160 180 75
155 176 51
153 173 45
154 174 45
154 175 32
154 175 39
149 171 32
156 176 56
157 177 45
153 173 0
151 173 0
154 174 22
154 174 32
153 174 22
152 173 0
155 176 0
150 171 0
153 174 0
150 171 0
151 172 0
152 172 0
155 175 0
149 170 0
155 176 0
153 173 0
151 172 0
149 170 0
149 169 0
151 171 0
152 172 0
152 172 0
153 174 0
151 172 0
150 171 0
146 166 0
149 170 0
142 162 0
148 169 0
149 170 0
150 172 0
150 171 0
149 169 0
147 167 0
144 165 0
147 168 0
145 166 0
149 171 0
149 169 0
147 168 0
148 167 0
148 169 0
143 164 0
145 164 0
143 161 0
141 160 0
142 161 0
136 155 0
138 157 0
141 160 0
134 153 0
143 161 0
138 157 0
141 159 0
134 153 0
127 145 0
134 153 0
125 142 0
139 157 0
129 146 0
130 148 28
116 133 36
113 131 28
99 115 27
108 126 45
102 119 48
104 122 51
93 111 55
89 107 46
82 99 46
72 91 58
72 91 52
61 80 60
66 85 45
60 80 57
57 79 67
52 73 64
52 72 43
52 72 48
45 66 67
44 66 50
48 69 46
54 72 40
44 65 44
43 63 36
52 71 44
64 83 55
86 104 51
99 116 30
105 123 27
107 125 52
136 155 75
146 163 101
141 158 94
168 191 51
174 197 0
172 197 0
172 196 0
169 191 18
56 83 87
51 81 99
50 80 97
49 79 105
52 82 95
54 85 102
53 84 109
57 89 121
55 87 114
53 84 109
56 89 120
57 90 121
56 88 120
57 90 118
56 88 116
57 91 118
56 88 113
57 90 122
56 90 115
56 89 103
57 91 121
57 90 115
57 91 115
57 90 119
57 91 115
58 91 118
57 90 99
56 88 118
58 91 124
59 93 122
58 92 125
59 92 120
58 91 121
58 91 124
57 90 118
58 92 124
58 92 126
58 91 115
59 93 134
58 91 115
58 92 124
57 91 117
58 92 130
59 93 118
59 93 131
58 91 124
58 92 118
57 90 114
59 92 129
58 91 126
57 90 117
58 92 128
57 90 121
57 90 124
57 90 113
58 91 126
60 94 122
58 92 118
58 91 115
60 94 136
58 91 131
58 91 117
57 90 115
58 92 124
57 91 125
57 90 118
58 91 124
59 93 131
56 89 108
57 91 115
58 91 121
56 88 113
59 93 130
57 90 121
59 92 128
58 91 121
57 90 125
56 89 115
55 87 109
56 88 118
57 89 125
57 90 124
55 86 114
54 85 108
54 84 114
55 85 101
52 82 86
54 84 108
52 82 97
53 83 102
53 83 105
52 80 100
53 81 99
51 79 81
47 72 84
53 81 95
47 73 83
49 72 67
170 193 8
174 198 0
174 197 0
175 198 0
168 191 0
87 85 23
78 77 36
58 58 16
69 69 22
59 59 22
56 57 14
71 71 13
67 68 12
72 72 13
65 68 23
71 71 18
65 67 28
76 77 21
78 79 30
77 78 29
93 91 26
86 85 22
98 97 38
83 84 29
97 97 32
87 87 35
93 94 38
103 101 41
104 103 50
115 113 50
119 117 49
113 111 45
117 115 59
119 117 53
125 122 51
119 117 45
123 121 55
126 123 53
124 121 50
133 131 51
136 132 56
131 128 48
124 120 50
127 125 52
138 133 58
134 132 46
132 130 57
141 135 56
137 134 54
139 135 57
144 139 60
139 135 51
146 142 58
145 141 59
137 133 53
147 143 61
150 145 65
143 140 57
149 144 66
150 145 55
146 140 66
146 142 56
148 144 57
153 147 66
153 148 67
151 146 58
152 147 65
160 153 68
152 147 61
153 148 64
159 153 73
162 155 70
159 153 68
161 154 78
161 155 70
157 151 60
158 153 62
155 150 63
142 138 55
158 152 64
163 157 71
161 154 70
162 155 75
162 155 63
159 153 67
152 147 60
160 154 69
163 157 69
161 155 67
165 159 76
166 159 77
157 151 65
163 156 67
158 152 63
162 157 69
166 159 75
163 157 66
159 153 71
161 154 60
160 154 65
163 156 77
157 150 68
161 154 72
163 157 75
159 152 73
158 151 71
163 156 71
160 154 70
166 160 74
153 147 61
154 149 62
163 157 71
163 157 70
157 150 67
156 150 65
160 154 70
163 156 73
153 148 64
159 152 66
158 152 69
156 149 69
162 155 72
161 154 75
160 153 71
159 152 75
155 149 63
157 150 71
155 149 75
155 149 67
156 149 73
158 151 72
157 149 70
154 149 63
157 150 67
156 150 68
156 149 70
147 141 66
156 150 65
154 147 66
154 148 62
161 153 78
154 148 71
150 143 62
162 154 80
154 147 66
152 147 66
156 149 69
148 143 62
157 149 74
163 156 78
151 145 65
163 182 91
164 183 104
166 185 109
164 183 97
165 184 104
165 184 99
163 182 91
164 183 102
164 183 102
160 180 64
162 181 99
162 182 91
164 183 99
164 183 91
163 181 85
162 181 94
163 182 91
157 177 79
163 182 88
163 182 88
160 179 79
162 181 91
164 183 94
163 182 85
164 183 104
161 181 85
159 178 72
159 179 60
158 178 75
158 178 56
158 177 79
156 176 60
156 176 56
159 179 72
157 178 56
158 177 68
156 176 22
157 176 60
159 179 56
153 175 32
154 175 51
158 178 60
156 176 56
154 174 39
156 177 51
152 174 22
153 173 22
154 175 39
152 173 0
151 172 0
152 172 0
148 169 0
153 174 0
152 173 0
153 174 0
152 173 0
151 171 0
153 173 0
151 172 0
153 174 0
151 173 0
151 171 0
149 171 0
152 172 0
149 171 0
148 168 0
153 173 0
150 171 0
148 170 0
150 171 0
150 171 0
151 171 0
148 168 0
151 171 0
150 171 0
146 167 0
149 170 0
149 170 0
151 172 0
147 168 0
152 172 0
148 169 0
148 169 0
146 165 0
150 171 0
146 167 0
146 167 0
149 168 0
143 162 0
145 166 0
148 168 0
151 170 0
143 163 0
144 165 0
143 163 0
144 163 0
139 158 0
146 166 0
139 159 0
142 163 0
139 158 0
134 154 0
134 151 0
132 150 0
135 153 0
135 153 0
135 153 0
138 155 0
133 153 0
130 149 0
134 151 0
129 146 0
118 136 32
124 142 28
113 130 16
115 132 36
108 126 36
107 123 34
97 115 31
91 107 45
100 119 64
78 96 45
69 87 33
69 87 62
70 90 61
59 80 70
55 74 48
55 76 67
66 86 65
54 73 57
50 71 59
52 73 61
50 72 64
58 76 47
62 80 43
55 73 35
66 84 38
68 85 37
71 89 42
86 104 30
90 107 39
115 133 33
127 146 48
146 163 91
143 159 102
149 168 85
173 196 0
174 197 0
174 198 0
176 198 0
174 197 0
112 133 66
50 80 81
50 80 90
52 82 100
55 87 117
51 82 102
56 89 107
54 85 103
52 83 103
56 87 109
55 86 108
55 88 113
57 90 117
55 87 110
58 91 119
54 86 101
56 89 125
58 91 127
57 90 116
57 90 120
58 91 125
57 90 115
55 87 106
58 92 120
57 90 125
57 90 110
58 91 124
59 93 129
56 90 119
58 92 117
57 90 115
58 92 125
56 89 114
57 91 128
59 93 122
58 91 124
58 92 123
56 89 115
58 91 122
57 90 111
59 93 125
59 92 126
58 92 125
59 92 129
56 89 111
58 92 124
59 93 132
58 91 122
57 90 115
58 91 126
56 89 115
56 89 110
58 91 121
57 91 118
57 90 114
57 90 126
57 91 124
58 91 117
57 90 122
57 90 114
56 89 115
58 92 121
57 89 114
59 92 124
55 87 113
58 91 118
56 88 110
58 91 129
58 91 126
57 89 113
57 90 115
55 87 105
55 88 104
56 89 114
57 89 115
57 89 110
56 88 117
55 86 113
55 86 102
54 85 103
56 88 110
56 88 109
56 87 113
55 86 118
55 85 100
54 84 106
57 89 123
56 88 113
55 85 112
52 80 104
55 85 118
54 84 102
50 78 94
50 78 101
50 76 90
50 76 93
47 73 78
96 115 58
174 198 0
175 198 0
173 196 0
175 198 0
172 196 0
116 122 36
89 85 23
81 79 32
78 76 24
64 66 15
62 64 20
66 68 16
69 71 15
52 57 22
67 68 10
77 79 19
58 60 12
76 77 29
66 67 21
77 79 26
76 79 30
85 86 29
76 77 30
84 83 35
90 88 31
101 100 30
109 107 45
91 89 32
105 104 41
110 108 52
106 104 45
107 105 37
97 98 40
124 120 46
122 118 51
129 125 53
118 115 51
122 119 47
122 120 52
124 122 43
127 124 54
123 119 55
127 124 48
141 137 58
138 135 55
132 129 56
128 126 53
128 125 58
136 131 54
144 140 56
147 142 58
140 135 64
136 133 52
133 131 56
142 138 61
144 141 58
145 139 59
136 132 55
144 139 56
145 140 62
153 147 67
149 144 67
154 149 62
154 148 53
153 148 63
154 148 68
150 145 64
154 148 61
148 144 58
149 144 59
148 142 57
154 148 63
150 145 54
157 151 61
150 145 58
158 151 65
157 151 70
151 147 59
155 149 60
158 153 65
157 151 64
160 154 67
152 148 52
158 151 63
159 154 63
157 151 61
158 152 62
155 149 61
160 154 69
156 150 64
155 149 64
159 152 62
153 148 59
152 147 63
160 154 73
164 156 76
163 156 68
166 159 75
160 153 62
166 159 75
163 156 71
162 156 67
163 155 68
158 153 70
158 152 62
161 155 69
158 152 73
165 159 74
158 151 65
160 154 71
158 150 68
162 156 71
156 151 63
162 156 68
162 156 66
158 151 68
162 155 70
153 147 67
164 156 77
150 143 59
147 141 62
145 140 56
158 152 71
149 143 60
160 154 68
155 149 70
161 155 71
156 150 73
153 146 66
150 145 60
154 148 68
152 146 65
151 145 61
154 148 61
154 148 66
153 147 64
155 149 66
161 155 75
160 153 73
145 139 62
157 150 71
156 149 68
147 141 66
151 144 66
147 141 64
154 148 70
150 145 61
148 142 62
148 143 65
156 148 68
148 143 66
166 185 107
163 182 91
164 183 107
163 181 102
163 182 88
159 179 72
164 183 104
160 180 79
162 181 88
160 180 75
164 183 97
162 180 88
160 179 79
160 180 88
163 182 88
160 180 64
159 179 72
163 183 97
159 178 79
160 179 88
161 180 79
156 178 60
160 180 75
158 178 60
158 178 72
159 179 60
154 174 45
159 179 68
156 177 39
155 175 56
156 176 51
156 177 56
157 177 45
155 176 51
154 175 0
153 174 45
153 174 39
154 175 32
150 171 0
155 176 39
154 174 0
150 172 0
152 173 0
153 174 0
150 171 0
151 173 0
153 175 0
154 174 0
150 170 0
153 174 0
155 175 0
154 175 0
154 175 0
150 172 0
149 169 0
151 172 0
150 171 0
151 172 0
151 172 0
151 172 0
151 172 0
151 171 0
152 173 0
150 170 0
150 170 0
152 172 0
145 166 0
153 174 0
151 171 0
150 170 0
150 171 0
151 171 0
148 168 0
151 173 0
151 173 0
149 170 0
149 169 0
149 170 0
148 168 0
150 170 0
150 171 0
146 167 0
148 168 0
147 167 0
148 168 0
146 166 0
146 166 0
149 170 0
147 168 0
147 167 0
148 168 0
137 157 0
138 157 0
142 161 0
139 159 0
140 160 0
142 162 0
142 162 0
137 158 0
141 161 0
137 155 0
133 152 0
125 144 0
145 164 0
130 149 0
135 153 0
135 153 0
126 144 0
124 143 0
125 141 0
127 144 0
126 145 0
121 138 0
119 135 0
113 129 16
117 135 48
102 120 36
92 109 48
89 106 48
99 116 35
82 99 37
86 103 39
73 91 61
70 89 44
65 84 61
70 89 49
67 86 56
53 73 58
62 80 45
48 69 54
58 77 48
53 72 53
50 67 32
50 69 35
51 71 40
50 69 44
72 90 51
86 102 24
97 114 43
100 119 33
107 125 42
115 133 27
142 161 62
140 158 68
145 162 88
159 180 22
173 197 0
171 194 0
172 196 0
174 197 0
174 197 0
149 171 46
46 73 78
53 83 96
52 82 103
51 81 92
54 86 113
54 86 114
55 87 107
55 88 118
54 86 104
54 86 109
54 86 109
56 89 118
56 89 108
57 89 113
53 85 107
54 86 102
55 87 115
56 89 118
56 89 108
56 89 115
56 89 111
57 90 124
57 90 114
58 91 115
57 91 124
55 88 112
55 87 110
59 92 132
57 90 121
57 90 120
55 88 118
57 90 112
57 91 123
57 90 110
56 88 101
58 91 124
56 89 119
57 89 115
59 93 129
59 93 122
58 92 121
57 90 124
57 90 119
58 92 125
57 90 120
57 90 117
56 89 118
58 91 125
58 92 128
58 91 117
56 89 111
57 90 118
58 91 118
58 92 122
57 91 114
57 90 126
58 91 120
59 93 129
57 90 117
59 93 123
57 89 108
59 92 115
60 93 125
57 89 104
58 92 124
59 93 129
58 90 120
58 91 122
58 91 117
58 91 126
56 88 102
58 91 131
57 89 121
57 89 119
55 87 108
55 88 114
56 87 113
57 89 110
56 87 111
56 88 117
57 89 120
56 88 113
57 88 113
55 86 108
56 87 101
55 85 107
55 85 98
55 86 112
54 84 111
54 83 112
54 83 96
48 75 80
50 77 86
53 82 105
48 74 88
45 69 74
139 161 42
173 197 0
176 198 0
173 196 0
174 197 0
174 197 0
160 179 19
95 91 37
82 80 23
84 83 24
73 72 24
75 74 20
60 61 18
69 70 21
79 79 19
75 75 26
75 75 20
76 79 14
72 74 31
72 74 24
78 77 24
76 77 27
80 82 15
95 95 19
85 87 29
99 98 39
92 94 30
101 101 35
94 94 36
103 103 37
107 106 43
106 104 40
120 119 40
102 103 34
119 116 46
115 114 40
116 115 45
121 118 49
118 115 46
122 121 41
119 117 47
123 121 44
118 115 43
126 123 45
131 127 56
131 127 49
134 130 52
132 129 44
139 134 58
142 137 56
139 135 57
146 141 54
133 130 52
147 142 62
148 143 61
140 135 55
145 140 64
139 135 53
148 143 58
149 144 65
144 140 55
142 137 56
148 143 56
155 149 62
150 144 59
147 143 58
151 145 62
151 145 64
154 148 68
147 143 57
158 151 61
149 144 51
156 151 57
154 148 62
149 145 49
153 148 60
155 148 64
151 147 48
163 157 69
157 150 66
159 152 65
152 146 51
149 144 53
154 147 54
150 145 57
163 156 73
157 151 62
161 155 71
156 149 66
160 154 62
159 153 70
159 153 60
159 153 62
159 153 63
152 146 58
164 157 69
166 159 71
156 150 64
153 148 57
158 150 71
161 154 69
150 144 57
159 152 66
160 153 67
160 154 62
157 152 58
156 150 61
156 150 66
158 152 68
148 144 51
161 155 70
158 151 67
160 154 65
164 158 68
158 153 64
154 149 57
160 153 60
155 148 69
151 146 59
154 148 58
156 149 69
159 152 68
155 149 68
151 145 61
155 148 64
155 149 68
154 148 65
157 151 68
161 154 66
153 147 69
157 151 70
161 154 74
149 145 58
157 150 66
154 147 67
155 149 64
153 147 63
158 152 71
146 141 58
153 147 65
156 150 70
151 146 59
152 146 70
157 151 70
146 140 63
151 146 66
156 149 71
149 143 58
156 150 67
161 154 73
150 145 59
151 144 69
166 185 114
163 182 97
163 182 99
165 183 104
165 183 94
163 182 91
160 179 82
160 180 72
162 181 99
162 181 82
162 182 88
160 180 79
157 177 60
159 179 68
162 181 91
158 178 60
160 180 82
159 178 72
159 179 75
157 177 56
154 174 51
157 177 64
154 175 51
158 178 56
158 178 51
155 177 22
157 177 45
155 176 39
157 177 39
156 176 39
153 174 22
157 177 39
153 173 32
154 176 0
151 171 0
152 174 0
154 175 0
154 175 0
150 171 0
153 174 0
154 176 0
153 174 0
153 174 0
152 173 0
153 173 0
153 173 0
153 174 0
152 174 0
152 173 0
153 174 0
154 174 0
149 170 0
152 173 0
154 174 0
155 175 0
153 173 0
152 172 0
148 169 0
151 172 0
152 173 0
150 171 0
150 171 0
152 172 0
152 173 0
150 171 0
147 168 0
153 173 0
150 171 0
153 174 0
150 171 0
150 171 0
147 168 0
148 168 0
147 168 0
148 169 0
148 169 0
151 171 0
144 165 0
148 167 0
140 161 0
147 168 0
147 167 0
145 166 0
149 169 0
146 167 0
149 169 0
148 169 0
142 162 0
145 166 0
143 163 0
143 163 0
143 163 0
142 162 0
140 159 0
142 162 0
142 163 0
138 156 0
144 165 0
141 161 0
138 158 0
133 152 0
142 161 0
137 156 0
132 151 0
137 157 0
132 151 0
131 149 0
125 143 0
130 148 0
128 144 0
125 141 0
125 142 0
128 145 0
116 132 0
115 131 16
104 121 22
104 120 16
111 128 28
106 123 42
105 123 38
83 99 28
78 95 45
83 99 32
72 90 56
77 96 50
71 89 47
69 87 52
68 86 48
65 82 32
56 76 53
62 80 48
53 73 57
61 78 40
65 82 39
69 87 43
73 89 21
78 95 40
77 94 28
93 110 26
104 122 29
108 126 34
128 146 16
142 162 39
140 157 51
142 159 82
173 197 0
174 198 0
176 198 0
174 197 0
173 197 0
173 196 0
174 197 0
60 84 75
46 74 79
50 80 97
54 85 115
54 85 115
55 88 118
55 86 109
54 86 102
54 85 109
55 88 110
57 88 122
56 88 115
57 89 112
54 87 110
54 87 113
55 87 108
56 88 110
56 89 119
57 90 116
57 90 113
56 88 121
54 86 100
56 89 118
55 86 110
56 89 106
56 88 111
59 93 127
57 90 113
58 91 118
54 87 110
57 89 120
56 89 113
59 93 126
58 91 119
57 90 114
56 89 113
58 92 122
56 88 108
58 91 125
59 94 131
59 92 115
59 93 126
59 92 121
57 90 126
58 91 124
58 91 124
59 93 128
58 91 126
57 91 118
57 91 114
57 90 117
58 91 113
57 90 121
59 92 125
59 92 128
56 89 117
57 90 118
58 91 118
59 92 130
55 87 118
57 90 111
58 91 120
55 87 108
57 90 117
56 88 117
57 90 119
57 90 112
57 89 115
57 89 113
57 89 118
57 89 111
56 88 116
55 87 100
55 85 109
58 91 121
57 89 113
56 86 101
55 87 110
56 88 110
56 88 103
54 85 108
55 85 111
56 88 121
53 83 98
54 85 110
53 83 109
55 86 114
53 82 95
53 82 101
53 82 94
51 79 89
52 80 102
51 79 95
49 75 77
47 72 68
83 103 64
171 195 8
174 197 0
171 195 0
173 197 0
173 196 0
173 196 0
174 197 0
100 101 25
81 81 18
78 75 19
68 69 16
79 77 19
70 70 15
74 74 13
68 68 18
69 71 15
66 68 15
58 58 14
76 77 26
78 78 21
72 72 14
70 71 31
88 87 25
94 93 23
84 85 35
89 88 17
85 86 34
87 87 34
96 96 42
90 90 30
101 100 38
105 106 38
116 115 38
96 95 34
123 120 46
114 114 44
120 116 40
126 123 44
119 116 46
127 122 53
123 121 39
121 119 47
113 110 46
123 120 38
131 127 48
127 125 53
128 125 42
126 123 38
141 135 52
131 126 50
136 133 58
140 135 57
134 130 52
143 138 56
150 144 61
134 130 50
132 128 48
146 142 55
140 135 56
137 133 49
142 136 55
146 140 55
150 146 56
147 141 52
151 145 55
148 143 57
148 143 59
151 146 63
153 147 64
155 150 60
149 144 55
148 143 57
153 147 62
156 150 61
156 149 63
160 152 74
147 143 51
158 152 59
152 146 55
154 148 65
154 149 55
155 149 68
156 149 61
158 152 59
158 152 68
157 150 60
155 149 59
156 150 64
156 150 62
151 145 59
155 149 61
158 151 62
160 153 70
155 149 58
165 158 75
159 153 64
162 154 74
156 150 63
155 149 65
158 153 64
158 151 67
157 152 57
154 148 66
158 152 69
155 148 64
156 150 62
155 149 62
161 155 65
159 152 69
156 150 61
158 151 66
153 148 67
154 149 57
154 149 63
152 148 59
151 146 60
153 147 67
156 150 69
149 142 63
155 150 61
160 154 65
155 149 65
151 146 67
152 146 66
154 148 65
150 145 60
159 152 67
162 155 74
152 146 65
156 150 61
156 149 72
153 147 64
152 146 63
152 147 61
157 150 67
149 143 65
157 151 70
152 147 58
153 147 60
153 147 59
154 148 68
149 143 59
152 145 66
150 144 64
161 154 69
154 148 69
145 139 64
156 150 71
143 138 62
151 145 67
147 141 66
154 148 65
159 178 79
163 182 88
159 179 64
157 178 60
160 179 75
158 178 56
160 179 82
162 181 94
162 182 88
155 176 51
159 178 72
159 178 56
158 178 45
158 178 64
159 179 64
154 175 45
154 175 45
156 176 39
155 176 45
152 173 32
155 176 32
155 175 39
156 176 22
156 176 22
156 176 22
150 171 32
155 175 32
153 174 0
154 174 0
152 174 0
153 174 0
151 172 0
153 173 0
153 174 0
151 172 0
152 173 0
152 174 0
152 172 0
151 172 0
152 172 0
152 173 0
155 175 0
153 173 0
153 173 0
151 172 0
154 176 0
153 174 0
152 173 0
152 172 0
150 171 0
155 175 0
152 172 0
150 172 0
150 171 0
149 170 0
151 172 0
153 174 0
149 170 0
153 173 0
151 172 0
151 171 0
150 171 0
145 166 0
151 172 0
148 169 0
150 171 0
149 170 0
150 171 0
145 166 0
149 169 0
148 169 0
146 167 0
151 171 0
147 167 0
149 170 0
149 170 0
148 169 0
148 169 0
146 168 0
147 167 0
148 168 0
145 166 0
143 162 0
143 163 0
145 164 0
143 164 0
144 164 0
145 164 0
147 167 0
140 159 0
148 166 0
144 164 0
144 164 0
147 167 0
140 161 0
143 163 0
136 156 0
142 162 0
141 160 0
139 158 0
136 156 0
133 152 0
136 155 0
126 145 0
127 146 0
126 144 0
128 146 0
125 144 0
123 142 0
121 140 0
127 146 0
117 134 0
111 128 0
115 133 16
115 132 22
107 124 0
103 119 16
98 113 22
99 117 32
99 115 22
92 108 32
95 112 46
84 101 39
83 100 57
79 96 53
74 91 34
62 81 52
52 71 45
60 76 36
69 86 52
74 90 45
76 93 39
63 79 33
68 85 48
68 84 33
74 91 26
76 92 0
93 111 16
105 123 24
117 135 16
132 151 0
130 150 22
137 156 45
135 152 51
160 182 45
173 197 0
173 197 0
173 196 0
169 194 0
172 195 0
172 195 0
171 195 0
133 156 45
48 76 84
52 82 92
51 81 88
52 82 102
52 83 100
55 86 114
54 85 103
56 88 108
55 88 106
55 86 115
56 88 113
58 91 123
56 89 117
55 87 101
57 90 115
55 87 106
57 90 113
58 91 131
56 89 113
57 90 116
56 88 111
56 89 121
57 90 125
57 90 116
55 87 111
55 87 105
55 88 117
57 90 111
58 91 109
57 90 113
57 90 112
58 91 121
57 90 121
58 91 120
55 88 107
55 88 111
58 91 120
60 94 126
57 89 117
57 90 106
56 89 115
58 91 117
58 91 114
57 91 114
58 92 111
58 92 121
58 91 118
58 91 118
58 91 123
56 88 115
57 90 119
58 91 110
57 89 110
55 87 104
58 91 114
59 93 124
57 90 115
57 90 115
57 89 120
58 92 135
58 92 114
58 91 118
57 91 114
56 89 114
54 85 96
55 88 113
56 89 113
57 88 117
56 88 112
56 88 113
54 86 106
56 87 111
57 88 118
54 85 108
54 85 105
56 88 104
55 87 108
56 88 113
54 85 109
57 89 114
55 87 108
57 89 122
54 84 109
54 84 107
54 84 98
55 87 113
51 79 95
51 79 104
53 83 104
52 80 101
51 78 101
51 77 91
48 75 87
45 67 71
120 140 63
173 196 0
172 195 0
171 194 0
174 198 0
174 197 0
173 197 0
173 197 0
150 168 18
79 77 28
93 90 40
66 67 18
72 73 19
78 77 27
71 71 14
66 67 10
60 61 12
69 71 8
77 78 6
66 68 19
78 79 23
87 88 23
78 80 30
84 83 17
76 77 23
90 91 25
88 89 25
94 94 24
95 95 37
98 96 32
107 105 30
93 94 37
88 90 39
116 113 43
108 106 38
119 116 46
108 106 36
109 107 44
121 117 46
116 113 43
130 127 53
126 123 45
128 125 47
132 128 45
115 113 45
130 127 46
125 121 43
130 128 46
133 129 41
135 132 48
144 140 57
139 135 52
146 141 63
133 129 51
146 140 57
136 132 52
143 138 49
139 134 53
140 135 51
142 138 49
147 141 59
140 135 52
149 145 54
145 141 55
143 138 53
147 141 54
150 144 64
149 144 54
147 141 54
147 142 57
156 150 61
155 147 61
152 145 57
148 144 49
155 149 61
156 149 65
146 141 52
156 150 59
159 152 66
147 142 54
158 152 66
148 142 58
151 146 49
153 147 56
150 144 58
151 145 61
156 150 58
152 147 60
157 150 57
153 148 59
154 148 60
147 142 50
154 148 60
157 151 62
159 153 65
157 151 60
157 151 65
157 151 66
161 155 65
159 152 64
156 149 69
157 151 68
159 152 63
156 150 58
157 150 64
160 154 65
153 147 58
154 147 58
148 143 61
160 154 60
151 144 61
152 146 60
159 151 65
161 153 71
158 152 62
156 150 67
157 151 68
159 152 70
153 147 65
151 145 61
152 146 61
150 145 58
154 148 63
154 146 67
150 144 61
153 147 68
150 145 52
151 145 58
156 149 65
157 150 66
155 151 61
156 149 71
154 147 68
154 148 62
140 134 54
151 145 59
155 148 67
146 142 57
146 141 61
148 142 60
149 144 66
148 143 63
151 145 58
148 143 60
158 151 64
148 141 58
144 139 62
141 136 57
148 142 64
148 142 62
148 142 61
149 143 59
143 137 60
160 180 79
161 180 85
162 182 91
162 181 91
161 181 82
160 179 64
156 177 56
161 181 85
159 179 72
160 180 75
157 177 72
153 174 32
159 178 45
158 178 64
154 175 0
156 177 32
154 175 39
153 174 32
156 176 32
155 176 32
155 175 22
154 175 22
154 174 22
153 174 0
152 173 0
153 174 0
152 172 0
154 175 0
151 172 0
156 176 0
155 175 0
152 173 0
151 172 0
153 174 0
152 173 0
151 171 0
153 175 0
152 173 0
150 171 0
151 172 0
151 172 0
152 174 0
155 175 0
149 170 0
153 174 0
151 172 0
153 174 0
148 169 0
152 173 0
149 168 0
151 172 0
152 172 0
151 171 0
153 173 0
152 174 0
152 173 0
151 172 0
150 171 0
151 172 0
150 171 0
150 170 0
147 169 0
150 170 0
151 172 0
150 170 0
146 167 0
150 171 0
151 171 0
153 174 0
154 175 0
150 170 0
151 172 0
146 166 0
144 165 0
151 172 0
146 167 0
145 165 0
143 163 0
145 165 0
143 164 0
146 167 0
142 162 0
143 163 0
142 162 0
146 166 0
146 166 0
144 164 0
139 160 0
147 168 0
140 160 0
139 159 0
138 158 0
143 163 0
139 159 0
139 158 0
144 164 0
144 164 0
135 155 0
132 151 0
140 159 0
134 153 0
139 159 0
132 152 0
129 149 0
128 147 0
132 150 0
125 142 0
125 143 0
126 145 0
122 140 0
131 149 0
128 145 0
112 130 0
122 140 0
111 129 0
113 130 16
111 128 32
107 123 28
94 111 36
84 100 31
101 118 16
76 93 32
91 108 42
87 103 33
80 97 38
76 93 39
81 99 40
66 81 39
73 89 30
79 95 25
71 88 22
75 90 38
74 91 38
72 89 21
81 98 30
85 101 33
93 109 18
95 112 21
108 125 21
125 144 16
126 146 14
139 158 0
138 157 60
135 152 64
172 195 0
171 196 0
173 197 0
176 198 0
173 196 0
171 196 0
171 195 0
173 195 0
157 180 0
50 77 81
48 76 90
49 78 81
54 86 117
51 80 96
53 84 93
54 85 110
57 89 120
54 86 107
57 89 117
56 89 104
55 87 109
56 88 108
54 85 108
57 89 118
57 90 116
57 89 118
53 83 97
56 89 111
54 86 107
54 86 111
56 90 103
55 87 111
57 90 114
56 90 111
56 89 106
58 92 119
56 88 112
58 91 122
57 90 113
57 90 113
58 91 112
58 91 121
56 89 114
56 89 112
55 87 95
59 93 129
59 93 125
57 91 120
57 89 112
58 91 126
56 89 111
58 91 129
56 89 112
57 90 121
55 87 117
57 89 114
55 87 105
58 92 120
55 87 99
55 87 118
57 90 115
57 90 117
55 88 113
58 91 122
57 90 114
57 90 120
57 90 117
55 87 114
58 91 122
55 87 102
57 89 113
57 89 111
58 91 124
56 89 110
57 89 117
57 90 125
56 88 117
58 91 117
56 87 112
57 89 120
56 88 113
56 88 107
54 85 97
56 88 105
55 86 113
56 88 110
55 86 106
56 88 110
53 84 110
54 84 100
53 84 105
55 86 115
56 87 119
53 82 88
50 79 91
52 81 101
51 79 93
52 81 102
53 82 99
47 73 88
49 76 90
46 72 83
51 76 80
162 185 25
173 196 0
172 195 0
173 196 0
172 196 0
172 196 0
172 195 0
174 197 0
171 194 0
108 114 24
86 84 30
82 80 28
75 74 18
68 69 20
88 86 18
71 70 10
68 69 20
76 76 20
77 76 14
80 79 26
79 77 16
76 79 22
84 84 16
83 82 19
94 93 25
82 82 18
86 84 28
100 98 23
98 98 30
95 94 35
100 99 33
110 108 39
113 111 40
112 110 47
105 104 31
121 119 43
112 111 41
113 110 40
118 116 34
122 119 47
122 119 42
116 114 41
134 130 52
122 119 47
131 126 43
130 127 51
136 132 49
137 132 53
142 136 47
131 128 49
143 138 59
133 130 53
134 131 53
134 129 39
137 133 53
140 135 51
146 140 46
137 133 48
134 131 51
147 142 61
136 132 51
149 144 65
150 145 54
150 144 60
144 140 49
145 140 52
145 141 51
151 145 57
150 145 61
152 146 56
153 147 65
154 149 59
156 150 63
152 147 47
160 154 67
157 150 61
156 151 54
147 143 51
156 151 59
152 147 52
151 145 60
144 140 50
150 144 54
154 148 57
154 150 53
149 144 48
156 150 60
154 147 62
156 150 61
153 146 60
156 149 66
152 146 58
159 153 60
156 151 60
158 151 63
157 150 66
156 151 63
154 149 61
150 145 53
155 149 69
154 148 62
165 158 74
152 147 57
160 153 67
159 153 62
155 149 54
156 152 59
155 149 63
161 153 73
159 152 65
157 151 68
153 147 61
159 151 68
151 145 57
154 147 66
153 146 62
156 149 65
155 149 61
152 146 64
156 149 66
159 153 63
159 152 66
151 144 52
154 148 63
154 147 66
158 152 63
156 150 75
151 145 63
156 149 67
162 156 65
151 146 62
152 146 63
156 149 66
157 150 63
151 145 66
149 143 60
149 145 56
149 142 54
152 147 62
158 152 73
152 145 65
153 148 59
151 145 67
153 146 72
153 146 54
156 150 75
160 153 72
145 139 57
149 142 62
151 146 65
152 146 69
149 143 64
146 140 58
158 178 68
160 179 75
158 177 68
156 176 60
160 180 72
159 178 64
155 176 32
156 176 64
155 176 32
156 176 39
154 175 22
156 175 51
154 175 32
155 175 51
155 176 0
155 176 22
154 175 22
155 176 0
155 175 0
153 174 0
154 176 0
152 173 0
153 174 0
154 175 0
152 173 0
154 175 0
156 176 0
154 174 0
153 174 0
152 173 0
154 174 0
153 174 0
154 174 0
153 173 0
152 172 0
152 174 0
154 175 0
150 171 0
153 174 0
151 173 0
153 174 0
154 174 0
153 173 0
153 174 0
151 172 0
149 170 0
154 175 0
151 172 0
153 173 0
151 172 0
150 172 0
151 171 0
151 171 0
149 170 0
150 171 0
148 169 0
151 172 0
150 171 0
151 172 0
150 170 0
150 172 0
149 170 0
149 169 0
150 171 0
150 171 0
152 174 0
144 166 0
149 170 0
150 171 0
146 166 0
151 172 0
147 168 0
147 167 0
143 165 0
147 168 0
147 168 0
145 166 0
149 169 0
140 160 0
145 165 0
150 169 0
139 160 0
143 162 0
145 165 0
140 160 0
148 168 0
144 164 0
144 164 0
140 160 0
139 159 0
139 158 0
143 163 0
137 156 0
143 163 0
139 159 0
140 160 0
136 156 0
138 158 0
131 151 0
135 155 0
135 156 0
133 152 0
133 153 0
131 150 0
136 154 0
132 151 0
128 147 0
128 147 0
125 143 0
125 144 0
128 147 0
119 137 0
120 137 0
119 136 0
110 126 0
115 132 0
110 126 0
122 139 0
98 115 28
101 117 27
93 108 22
92 108 22
96 111 36
80 95 36
74 89 28
76 91 28
79 95 14
80 95 14
73 88 31
71 86 28
73 89 22
84 101 41
78 94 31
81 96 17
87 102 31
96 113 26
98 113 21
108 124 21
129 147 0
136 155 0
130 150 0
133 151 39
133 149 72
162 184 45
173 197 0
172 195 0
170 193 0
170 194 0
170 194 0
175 198 0
171 195 0
171 194 0
174 197 0
106 127 51
50 79 91
52 82 87
50 80 85
52 83 100
52 83 100
51 82 95
49 79 80
54 85 113
55 87 109
54 86 104
56 88 116
56 89 107
54 86 92
55 88 101
56 88 117
54 86 110
54 86 106
54 86 98
54 85 102
57 90 115
56 89 104
56 89 116
56 89 117
56 88 110
56 88 109
56 88 114
57 91 121
58 92 129
55 88 108
56 89 112
59 93 124
58 92 120
57 90 102
57 90 111
56 88 108
57 89 105
58 91 120
54 87 103
55 88 113
59 94 127
58 92 115
56 89 113
56 90 107
56 89 102
57 90 121
57 89 111
58 92 110
57 89 117
58 91 122
57 91 117
57 89 114
57 90 111
57 90 113
56 89 103
55 87 111
57 90 118
58 91 118
57 90 115
57 89 111
57 90 117
59 93 128
57 90 113
60 93 130
56 88 105
55 86 102
58 91 125
55 87 104
58 91 118
57 89 120
58 91 121
57 90 121
57 89 108
57 89 115
54 85 94
53 83 101
55 87 106
56 88 119
55 86 107
55 86 106
54 85 98
54 84 108
54 85 104
54 84 104
55 85 95
53 81 107
53 83 90
51 80 89
54 83 97
48 75 80
49 76 89
50 77 92
46 71 74
103 124 61
172 195 0
169 192 0
170 194 0
174 197 0
173 196 0
172 196 0
174 196 0
172 196 0
171 195 0
157 175 21
92 89 32
82 78 26
80 78 30
69 69 12
65 66 14
66 67 17
76 75 18
76 77 24
73 73 18
77 75 14
70 72 16
82 82 14
79 81 21
82 82 26
83 83 24
88 88 28
99 98 27
105 104 26
94 93 23
94 93 25
106 104 37
94 93 27
94 95 35
101 101 33
117 113 38
111 109 37
103 103 34
112 110 43
124 120 40
117 116 37
124 121 38
115 113 43
126 121 50
123 120 37
124 121 39
126 123 49
130 125 44
125 123 37
125 122 40
125 122 40
132 127 51
124 121 49
136 132 48
133 129 48
136 132 44
138 134 46
130 127 50
137 134 46
140 137 50
141 136 51
140 135 51
151 144 52
146 140 57
146 141 56
141 136 52
142 138 49
143 138 53
141 137 47
151 147 53
153 147 50
152 146 56
148 142 50
152 146 55
151 146 49
136 133 34
145 140 45
150 146 51
154 147 54
157 150 56
150 145 56
147 142 58
148 143 58
152 146 57
146 140 51
153 148 51
158 152 57
153 147 58
156 150 60
154 147 62
150 145 60
156 151 63
149 143 56
160 152 68
156 150 62
153 147 53
157 150 68
158 151 60
155 150 57
158 152 57
155 148 60
150 145 49
160 154 63
150 144 59
153 148 58
154 147 64
159 154 63
156 149 63
153 148 49
155 149 62
162 155 67
151 146 57
154 147 58
156 150 56
147 142 59
153 147 61
154 147 62
155 148 63
156 148 63
155 149 56
154 149 63
150 144 67
153 146 65
152 147 57
154 147 63
148 143 60
156 150 60
150 144 58
155 148 61
152 147 63
154 148 64
149 144 59
158 152 66
150 144 54
159 152 66
148 143 59
151 145 60
154 147 66
142 136 53
151 145 59
152 147 58
151 146 61
153 145 69
150 143 56
149 144 62
150 144 64
156 150 63
147 142 54
153 147 63
153 146 68
150 143 65
146 140 65
151 145 62
144 138 60
156 176 51
159 178 56
157 177 56
157 177 45
157 177 56
158 177 56
157 177 32
156 177 32
155 176 32
155 176 32
154 175 39
154 175 0
153 174 22
154 175 0
154 175 0
154 175 0
155 176 0
153 174 0
153 173 0
154 174 0
154 175 0
153 174 0
154 175 0
154 175 0
154 175 0
154 174 0
150 171 0
149 171 0
151 172 0
152 173 0
153 174 0
153 174 0
153 174 0
154 174 0
152 173 0
152 173 0
154 174 0
151 172 0
150 171 0
152 173 0
152 173 0
153 174 0
151 172 0
153 174 0
149 169 0
152 172 0
152 173 0
152 173 0
153 173 0
151 171 0
153 174 0
153 174 0
150 170 0
152 172 0
149 169 0
148 169 0
151 171 0
152 173 0
152 173 0
150 171 0
146 167 0
146 167 0
150 170 0
152 172 0
147 167 0
150 171 0
148 168 0
148 169 0
150 170 0
148 169 0
151 171 0
151 172 0
150 170 0
145 166 0
145 166 0
147 168 0
146 166 0
148 168 0
147 168 0
145 166 0
146 166 0
142 161 0
145 165 0
143 164 0
140 160 0
141 161 0
148 168 0
146 167 0
140 161 0
146 167 0
139 158 0
137 157 0
142 162 0
138 158 0
137 157 0
137 158 0
137 156 0
139 158 0
137 157 0
135 153 0
136 155 0
134 152 0
135 154 0
132 151 0
131 150 0
128 146 0
130 149 0
121 139 0
121 139 0
118 135 0
129 147 0
118 138 0
121 138 0
118 135 0
115 133 0
114 130 0
109 125 0
111 128 22
99 115 16
100 117 0
93 109 16
92 108 0
84 100 22
92 108 32
89 105 22
71 86 21
78 93 16
72 88 32
78 92 38
80 96 30
74 90 29
85 100 16
84 99 27
87 103 28
103 120 22
91 107 0
106 123 22
120 137 9
129 148 0
130 149 0
133 152 0
131 149 32
140 157 82
171 195 0
171 195 0
173 196 0
172 195 0
171 194 0
172 196 0
171 195 0
169 193 0
170 194 0
169 192 0
157 179 46
52 80 74
51 80 92
51 82 98
52 83 100
55 87 111
53 84 110
54 85 102
54 85 95
54 86 103
54 85 100
54 86 104
55 86 109
56 89 115
56 88 103
55 87 108
53 85 98
56 89 112
57 90 115
55 87 108
55 88 109
59 92 119
57 90 111
57 90 115
56 89 108
57 91 118
57 90 115
56 88 117
58 91 117
55 89 107
56 89 108
54 86 116
56 88 109
56 88 114
57 90 114
57 89 117
58 91 128
57 91 117
59 93 125
57 90 115
56 89 114
58 91 122
57 90 128
57 90 117
56 88 108
58 92 111
55 88 108
58 91 114
55 87 108
58 91 121
59 93 124
56 89 107
57 90 117
58 91 117
56 89 110
59 92 124
59 92 120
57 90 117
55 87 100
55 87 114
57 90 120
57 90 116
57 90 113
57 90 110
58 91 101
54 85 102
54 85 99
55 86 98
55 87 111
57 90 123
53 84 107
59 91 120
55 87 117
56 87 108
53 83 94
56 87 114
54 85 99
56 88 109
57 89 118
52 82 91
54 84 103
55 86 110
56 88 107
51 81 93
52 83 96
53 82 92
52 82 103
51 79 89
52 81 99
53 82 100
52 79 101
48 73 79
46 71 66
156 178 26
168 191 0
170 194 0
169 192 0
169 191 0
169 193 0
174 197 0
173 196 0
171 194 0
172 194 0
171 195 0
111 118 24
84 80 27
79 77 22
76 75 11
78 78 21
78 76 14
76 75 15
69 68 11
69 69 16
78 77 12
75 76 11
74 75 16
77 78 16
79 78 12
89 88 18
87 85 23
83 83 21
87 86 20
101 99 31
93 93 22
104 104 32
107 107 38
104 102 30
105 103 34
110 108 30
102 99 34
109 108 40
112 110 26
115 113 32
123 120 34
130 125 42
128 124 41
127 124 35
127 125 42
121 117 45
134 127 50
128 125 45
131 127 41
129 125 44
124 121 37
138 134 53
124 120 37
133 130 45
138 135 37
146 142 51
137 132 45
145 141 49
143 138 51
142 138 44
142 137 49
146 141 56
141 137 51
132 127 46
136 132 30
143 138 52
149 146 45
148 143 52
146 141 54
154 147 58
154 148 62
155 149 61
151 145 57
147 142 52
152 147 55
149 143 61
148 142 55
151 146 54
149 144 54
154 149 58
148 142 56
153 146 47
154 148 41
160 153 63
151 145 60
155 148 57
148 143 54
149 143 53
159 153 62
155 150 59
151 146 52
160 154 64
153 147 58
157 150 63
156 149 57
155 148 58
155 149 62
160 154 62
156 149 58
143 138 44
160 153 62
150 144 57
152 147 49
152 146 61
156 149 58
152 146 59
155 150 56
155 148 61
157 150 68
155 150 62
147 143 53
159 153 58
149 143 63
159 153 64
154 146 63
155 149 57
156 149 68
153 148 54
155 149 63
156 150 62
152 147 60
156 149 68
154 147 58
146 140 57
154 147 64
156 149 62
154 146 60
157 151 66
162 154 73
147 141 57
149 142 56
154 147 68
147 142 59
154 149 68
148 141 64
149 142 62
150 144 57
152 146 65
153 146 67
150 144 64
140 136 48
150 144 63
149 144 57
155 150 62
146 140 62
148 142 59
148 142 62
150 143 62
147 142 60
152 145 62
147 141 57
136 130 56
146 141 60
155 148 71
159 178 60
155 175 56
153 173 32
156 177 45
154 175 22
157 177 51
156 176 22
155 176 0
153 174 0
154 175 0
155 176 0
154 175 0
156 176 0
153 174 0
151 172 0
155 175 0
153 173 0
153 174 0
154 175 0
151 172 0
153 173 0
154 175 0
154 174 0
151 172 0
150 171 0
154 174 0
152 172 0
151 171 0
152 174 0
151 172 0
154 175 0
153 173 0
152 173 0
154 175 0
152 173 0
155 176 0
152 173 0
152 173 0
153 174 0
153 173 0
152 172 0
151 172 0
150 171 0
151 170 0
151 172 0
148 169 0
152 172 0
151 172 0
154 175 0
151 171 0
152 173 0
151 171 0
148 169 0
149 169 0
151 172 0
151 171 0
151 172 0
150 170 0
149 170 0
150 170 0
150 172 0
147 168 0
150 171 0
148 168 0
148 168 0
149 170 0
150 170 0
148 169 0
150 170 0
145 164 0
148 168 0
147 167 0
145 165 0
148 168 0
147 168 0
143 164 0
148 168 0
138 159 0
142 163 0
147 166 0
147 168 0
144 164 0
143 162 0
142 162 0
144 165 0
145 166 0
146 166 0
142 163 0
141 161 0
141 162 0
140 160 0
138 158 0
144 164 0
136 155 0
141 161 0
140 159 0
138 157 0
135 153 0
137 158 0
134 154 0
136 156 0
135 154 0
122 142 0
128 146 0
120 139 0
130 149 0
124 143 0
128 148 0
127 146 0
117 136 0
127 146 0
123 141 0
122 139 0
110 128 0
113 130 0
112 130 0
107 123 0
107 124 0
102 119 22
105 120 0
84 100 0
99 115 0
79 95 28
94 108 20
76 91 22
82 97 22
81 96 16
79 94 14
78 93 22
78 94 26
82 97 0
75 90 32
90 105 16
90 106 27
94 110 21
113 130 0
109 126 0
127 145 0
119 137 0
133 153 0
134 152 0
120 136 51
168 190 39
171 194 0
173 196 0
171 194 0
172 195 0
171 193 0
172 195 0
170 194 0
169 193 0
172 196 0
173 196 0
169 193 0
102 124 71
45 72 81
46 74 74
49 78 82
53 84 98
51 82 100
52 83 99
53 84 96
55 86 107
55 86 108
53 84 90
56 88 96
54 86 93
56 89 109
56 88 117
54 85 101
55 87 108
56 89 101
56 89 103
56 89 108
57 89 110
58 91 117
55 88 109
57 90 109
55 88 102
57 89 115
55 88 115
57 90 115
55 88 109
58 91 110
55 88 99
59 92 123
55 87 106
58 91 114
56 88 107
55 88 114
57 91 114
58 91 112
57 90 117
57 90 112
57 90 108
57 91 120
57 89 111
57 90 120
55 87 111
58 91 122
54 86 105
56 89 99
56 88 107
56 88 103
56 89 113
57 90 111
56 88 111
55 88 108
56 89 108
56 89 107
57 90 107
56 89 114
57 90 114
57 89 108
56 89 117
57 90 113
57 89 115
56 89 116
57 90 117
56 88 108
58 92 115
56 89 115
56 88 111
56 88 128
56 88 112
56 87 113
56 89 120
56 88 107
55 87 101
56 88 116
52 82 97
56 88 103
55 86 104
53 82 100
56 88 96
53 83 103
53 82 100
53 83 107
52 81 93
50 78 73
55 84 103
52 80 86
48 74 73
49 76 86
46 71 71
97 116 46
171 194 0
172 194 0
172 196 0
171 194 0
171 195 0
173 196 0
172 196 0
173 196 0
169 192 0
170 193 0
171 194 0
158 177 19
89 87 31
86 83 21
81 78 16
76 73 14
76 74 6
81 79 19
82 79 16
84 84 14
71 70 14
79 80 20
85 84 16
79 81 16
81 81 12
87 86 28
84 84 13
97 95 18
93 90 14
94 93 20
89 87 31
96 94 27
104 102 25
108 106 36
97 96 34
106 104 30
104 103 33
115 112 47
119 117 38
114 113 34
118 116 38
119 116 30
116 113 36
124 121 38
124 122 36
123 120 28
128 124 37
126 121 40
125 121 34
118 115 36
128 124 40
122 119 35
137 133 45
142 136 51
141 136 50
133 130 43
132 127 48
144 138 48
138 133 53
141 137 40
144 138 49
144 139 47
148 141 60
138 134 47
148 143 50
137 132 41
145 140 50
143 138 44
141 135 49
142 136 48
146 141 54
145 138 54
145 141 50
146 141 49
154 149 58
150 145 60
146 141 54
144 138 51
154 149 48
147 140 56
152 145 57
149 143 49
157 150 52
147 142 52
149 143 54
153 147 54
151 145 58
155 148 66
147 140 54
155 148 62
153 147 53
156 149 65
150 144 52
153 147 57
150 144 48
151 145 53
157 151 59
160 152 69
156 149 61
155 148 60
151 144 53
155 147 62
156 149 54
153 149 57
154 148 57
153 148 53
158 152 62
159 153 62
155 148 58
153 148 56
155 148 60
153 146 62
152 147 57
161 153 70
150 143 59
152 146 58
151 146 57
151 145 61
157 150 66
158 152 66
146 140 57
152 147 58
156 148 60
151 145 51
157 149 68
155 149 61
156 150 61
153 146 61
153 147 64
155 147 67
151 144 65
149 143 57
152 146 62
154 147 63
151 144 62
144 137 54
151 145 64
146 140 63
154 147 64
152 147 63
148 142 63
135 131 53
148 142 65
149 143 54
152 146 64
147 142 53
155 149 61
150 143 63
152 145 67
142 136 58
146 141 63
148 141 63
147 141 61
144 137 67
154 174 39
155 175 32
157 177 45
153 174 0
154 174 0
153 173 0
153 174 0
154 175 0
155 176 0
153 174 0
153 174 0
153 174 0
154 175 0
152 173 0
156 176 0
153 174 0
153 174 0
151 172 0
153 173 0
154 175 0
152 173 0
151 172 0
150 171 0
155 175 0
151 173 0
154 174 0
151 171 0
153 174 0
153 174 0
152 172 0
152 173 0
151 172 0
153 173 0
152 173 0
152 173 0
152 172 0
153 173 0
150 171 0
150 170 0
153 174 0
151 172 0
151 172 0
152 173 0
149 170 0
150 171 0
146 166 0
151 171 0
146 167 0
151 172 0
148 167 0
153 174 0
151 172 0
143 165 0
148 169 0
152 172 0
147 167 0
147 167 0
149 169 0
150 171 0
149 170 0
148 169 0
147 168 0
144 164 0
149 169 0
150 171 0
143 164 0
147 167 0
145 166 0
148 168 0
142 162 0
147 166 0
137 158 0
143 164 0
147 167 0
144 164 0
145 166 0
145 165 0
146 167 0
141 161 0
144 165 0
143 163 0
147 167 0
136 157 0
137 157 0
147 167 0
143 163 0
148 168 0
145 165 0
140 160 0
142 162 0
143 163 0
143 162 0
138 157 0
141 161 0
137 157 0
136 155 0
134 153 0
140 160 0
138 157 0
132 152 0
132 151 0
134 153 0
126 145 0
125 144 0
124 144 0
130 149 0
129 148 0
125 144 0
130 148 0
118 136 0
123 142 0
122 139 0
121 139 0
116 132 0
115 132 0
115 133 0
116 133 0
117 133 0
109 125 0
97 114 16
94 110 0
94 109 0
96 112 16
87 102 16
93 108 21
86 100 22
86 101 22
80 94 0
83 99 16
94 109 28
89 104 0
87 102 0
99 115 14
97 112 0
98 115 10
108 125 0
126 144 0
122 140 0
131 150 0
132 151 0
128 145 22
134 152 22
172 196 0
171 195 0
172 195 0
170 193 0
169 192 0
169 193 0
167 191 0
170 193 0
171 194 0
168 191 0
172 196 0
170 194 0
153 175 35
54 79 68
50 79 80
52 83 99
55 86 104
55 87 108
51 81 103
52 83 97
52 83 102
55 88 96
55 86 107
54 86 94
54 86 106
55 87 114
51 82 104
54 86 99
55 88 108
54 86 104
53 84 99
55 87 109
55 88 108
57 89 116
53 85 97
57 90 113
55 86 98
56 89 113
55 88 100
57 90 109
55 88 110
55 87 99
57 90 114
55 88 106
58 92 120
57 90 121
57 89 114
56 89 108
54 86 100
58 91 120
53 85 107
57 91 123
57 90 115
57 90 108
57 90 118
56 89 111
56 89 97
56 89 114
57 89 111
57 90 112
56 88 108
57 90 116
58 91 115
56 89 113
56 89 117
57 90 114
56 88 111
56 89 115
56 88 107
55 87 108
56 89 107
55 87 103
56 88 105
57 89 116
55 87 104
53 83 103
56 89 107
56 89 107
54 85 105
57 90 116
55 87 112
57 90 111
54 86 115
54 85 113
53 85 103
57 89 109
55 86 100
56 87 108
56 88 115
53 83 101
52 82 90
52 82 87
54 84 105
54 85 99
53 81 96
53 82 95
52 82 93
51 79 89
51 79 86
52 80 101
50 78 77
46 71 68
50 76 71
162 184 8
170 192 0
172 195 0
170 192 0
171 193 0
172 195 0
172 194 0
168 191 0
167 190 0
173 196 0
170 193 0
168 190 0
170 192 0
136 144 42
95 91 31
79 76 24
82 80 16
80 78 20
82 82 18
75 74 16
78 80 18
76 76 15
86 86 9
81 79 18
87 87 12
74 75 16
95 93 14
81 81 18
92 89 16
88 87 19
98 97 26
82 84 27
100 99 32
92 93 28
100 99 32
104 102 28
101 100 33
105 103 31
109 107 34
110 108 28
111 108 36
127 123 31
114 111 35
118 115 34
122 121 44
118 114 38
127 124 39
124 122 35
125 121 47
125 121 40
122 118 39
129 124 47
137 133 52
126 122 35
134 130 37
127 125 41
133 129 44
134 129 46
130 126 42
137 131 41
140 134 49
139 135 52
141 136 49
138 134 45
129 125 36
145 139 51
139 134 40
143 139 50
148 142 55
145 139 44
143 139 52
148 143 45
145 138 49
146 140 56
150 145 55
137 132 47
149 144 57
153 147 54
143 138 51
142 137 44
153 147 51
152 146 59
140 133 46
146 141 45
148 143 47
147 142 45
156 150 53
154 148 56
153 147 57
157 151 57
152 146 57
152 146 52
157 150 58
154 148 54
158 152 60
149 143 58
152 146 49
158 151 59
153 148 51
157 151 62
149 143 47
153 146 60
150 145 53
152 145 59
154 148 59
157 151 60
153 146 62
150 144 57
155 149 51
155 148 61
153 148 56
150 145 53
149 144 51
149 144 63
156 150 63
156 150 65
152 146 56
152 147 59
153 147 60
152 147 54
150 145 58
148 142 54
153 146 57
153 148 60
149 143 59
154 147 65
149 144 56
156 150 68
151 145 68
147 141 59
150 143 62
161 154 64
146 138 64
145 139 51
151 146 58
153 147 61
144 139 52
146 140 60
152 146 56
146 139 59
144 137 64
148 142 56
152 146 59
143 136 65
153 148 61
155 149 59
145 140 54
150 143 60
158 151 69
147 141 62
140 134 59
143 137 51
151 144 66
154 147 69
139 135 52
155 176 0
155 175 0
153 174 0
152 173 0
155 175 0
152 173 0
153 175 0
153 175 0
155 175 0
153 174 0
154 175 0
153 175 0
155 175 0
151 172 0
154 175 0
155 175 0
153 174 0
153 173 0
153 174 0
153 174 0
151 172 0
156 176 0
153 174 0
151 172 0
152 173 0
153 174 0
153 173 0
152 172 0
155 175 0
152 173 0
153 174 0
154 174 0
149 171 0
153 173 0
151 173 0
152 173 0
151 172 0
153 174 0
149 171 0
149 170 0
151 172 0
152 173 0
149 169 0
150 171 0
151 172 0
153 173 0
153 174 0
147 168 0
150 171 0
149 169 0
150 171 0
150 171 0
148 168 0
151 172 0
150 170 0
150 170 0
149 170 0
149 169 0
149 170 0
146 168 0
146 166 0
148 168 0
148 169 0
153 174 0
144 165 0
147 167 0
147 167 0
144 164 0
151 172 0
143 163 0
147 167 0
147 167 0
148 168 0
140 161 0
144 165 0
143 163 0
142 163 0
143 162 0
146 167 0
146 167 0
147 168 0
140 161 0
144 164 0
142 162 0
144 164 0
143 162 0
144 165 0
140 160 0
141 161 0
141 160 0
141 161 0
134 154 0
136 154 0
143 163 0
133 151 0
146 166 0
136 156 0
136 155 0
131 151 0
130 149 0
135 154 0
131 151 0
126 145 0
130 149 0
129 149 0
130 149 0
125 143 0
131 149 0
126 145 0
127 145 0
125 143 0
120 139 0
116 133 0
122 140 0
115 132 0
122 140 0
119 136 0
117 135 0
108 125 0
106 121 0
100 116 0
95 109 0
86 102 0
92 106 0
98 112 16
93 107 22
92 107 0
95 109 0
90 104 14
106 121 0
95 111 0
100 115 0
94 110 0
111 127 10
116 133 0
116 134 0
126 144 0
128 146 0
122 140 0
127 145 0
133 151 39
167 190 0
169 192 0
168 191 0
166 190 0
167 190 0
169 193 0
172 195 0
172 195 0
167 191 0
172 194 0
168 190 0
169 192 0
167 190 0
167 191 0
112 134 58
50 78 89
51 81 89
52 82 89
52 82 90
50 80 83
53 84 95
55 87 97
54 84 103
51 82 88
51 82 91
55 87 106
56 89 115
54 84 99
55 87 101
56 89 106
54 86 107
53 85 105
56 89 105
55 87 103
57 89 113
58 92 120
57 90 115
54 86 100
56 89 106
58 92 127
57 90 124
59 92 125
53 85 98
56 89 107
57 89 111
56 89 105
55 87 102
55 88 97
59 92 129
55 87 94
59 92 120
56 88 107
57 90 106
55 88 114
58 91 123
57 89 120
56 89 111
54 86 107
58 91 119
58 91 118
57 91 118
56 89 113
55 86 107
58 91 118
54 86 107
56 88 99
57 90 110
56 88 107
54 86 105
55 87 90
57 90 115
56 88 113
56 88 121
56 87 122
55 87 103
56 89 120
55 87 104
55 87 108
55 86 102
56 88 108
56 87 112
56 88 112
56 88 107
55 87 94
54 85 98
53 83 87
55 87 105
55 86 109
53 83 104
56 87 112
53 83 97
53 83 100
54 84 103
54 84 106
53 83 97
54 84 108
52 81 101
53 82 101
51 79 91
52 82 89
49 76 69
46 69 70
47 73 78
109 128 41
171 195 0
166 189 0
166 188 0
171 194 0
171 192 0
169 192 0
170 192 0
170 194 0
167 190 0
168 190 0
172 195 0
170 192 0
173 197 0
166 189 0
109 111 28
95 90 22
95 91 30
86 84 28
81 80 12
83 81 18
87 86 28
70 71 9
77 77 14
67 67 15
85 84 11
78 76 11
77 75 16
84 83 23
88 87 25
88 86 19
90 89 18
98 95 20
95 93 18
89 88 14
100 97 29
100 97 22
96 93 26
102 101 26
105 104 37
98 97 24
102 102 28
113 110 28
107 105 30
111 108 30
124 121 32
127 123 42
121 118 35
116 114 38
126 123 35
124 120 37
125 122 39
125 121 45
120 117 36
128 125 31
130 125 40
141 135 51
133 129 40
130 126 47
136 131 45
133 128 34
136 132 34
140 133 47
133 128 45
127 124 37
141 136 47
148 142 54
137 133 50
142 138 41
142 136 42
141 136 53
144 138 47
144 139 45
142 137 54
147 142 53
156 150 65
150 144 44
152 146 51
148 142 52
147 142 48
149 143 51
144 138 41
145 139 50
153 148 51
154 149 55
152 145 49
152 145 50
150 144 52
159 152 51
153 147 59
151 145 51
151 145 51
153 146 53
154 149 57
148 142 49
146 141 42
139 135 47
151 144 54
148 143 54
156 149 57
147 142 50
155 148 62
148 142 52
148 143 52
159 153 63
153 148 54
152 145 53
158 151 62
156 150 59
150 144 58
150 145 52
147 142 44
157 151 61
157 152 56
148 142 56
150 142 65
147 141 56
146 140 53
151 146 54
151 145 54
151 145 56
143 137 49
151 145 58
146 141 59
156 150 58
153 147 61
153 146 60
146 140 51
155 149 61
155 149 60
147 140 52
153 147 70
146 141 51
150 143 58
143 138 51
146 140 58
148 141 54
153 147 60
151 145 64
151 145 53
152 146 64
155 149 65
151 144 63
147 142 57
149 143 54
150 144 63
152 146 62
145 139 62
150 143 67
146 140 58
147 143 52
147 141 62
137 132 51
158 151 68
143 138 54
143 137 58
154 174 0
155 176 0
154 175 0
155 175 0
154 174 0
153 174 0
152 173 0
153 175 0
154 175 0
155 175 0
153 174 0
155 176 0
149 170 0
150 172 0
154 174 0
155 176 0
152 174 0
152 173 0
153 174 0
153 174 0
153 173 0
150 171 0
152 173 0
151 172 0
151 172 0
152 172 0
149 170 0
153 173 0
150 171 0
154 175 0
151 170 0
151 172 0
152 173 0
152 173 0
150 170 0
151 171 0
150 170 0
151 171 0
149 170 0
152 172 0
151 172 0
150 171 0
149 170 0
148 169 0
153 173 0
148 169 0
150 170 0
150 171 0
149 170 0
148 168 0
145 166 0
153 173 0
149 169 0
148 168 0
149 168 0
151 172 0
151 171 0
147 167 0
150 171 0
150 170 0
148 169 0
150 170 0
147 168 0
144 165 0
148 168 0
146 166 0
140 161 0
150 170 0
147 168 0
149 169 0
148 169 0
144 164 0
144 166 0
142 163 0
142 163 0
142 162 0
144 164 0
147 168 0
142 162 0
140 160 0
143 164 0
142 162 0
139 160 0
140 159 0
148 167 0
145 166 0
138 158 0
142 161 0
140 160 0
135 154 0
137 157 0
140 161 0
135 154 0
143 162 0
138 157 0
133 153 0
135 155 0
131 150 0
138 157 0
139 159 0
129 148 0
134 152 0
127 145 0
129 148 0
128 147 0
125 144 0
119 138 0
128 146 0
130 149 0
126 144 0
129 147 0
118 136 0
120 138 0
113 130 0
113 130 0
113 130 0
106 122 0
119 136 0
108 125 0
110 125 0
110 125 0
95 110 0
110 125 0
90 105 0
101 116 0
84 98 0
98 113 0
88 101 0
99 114 0
88 102 0
107 122 0
99 115 0
103 118 0
111 127 0
118 135 0
116 134 0
129 147 0
130 148 0
126 144 0
117 135 22
163 185 39
168 191 0
169 191 0
170 194 0
170 194 0
165 190 0
170 194 0
165 188 0
165 188 0
171 194 0
172 195 0
169 192 0
168 192 0
167 190 0
170 193 0
165 189 0
66 90 62
52 82 91
48 77 68
50 79 81
50 80 90
53 84 87
52 82 96
50 79 92
52 84 100
54 87 103
54 85 95
53 84 100
53 83 88
53 84 94
55 87 101
56 89 108
54 85 100
55 87 94
55 87 111
54 86 100
57 89 118
57 89 108
54 86 98
55 87 108
54 86 113
54 86 109
56 88 102
55 87 90
56 89 112
54 87 102
55 88 100
55 88 103
57 89 115
57 90 110
56 88 108
55 87 99
56 88 105
56 88 108
56 88 111
57 90 108
57 89 113
58 92 124
55 87 110
57 90 114
55 86 97
56 89 108
55 87 108
56 88 114
57 89 107
56 89 117
56 89 113
56 88 111
56 89 108
56 89 113
54 85 105
54 86 95
55 87 111
57 89 107
55 86 100
55 86 110
56 88 110
56 88 112
56 89 111
54 85 99
56 87 102
56 88 103
56 87 111
57 90 121
54 85 98
55 87 107
54 84 98
56 89 117
54 85 97
54 85 99
52 82 93
52 82 85
55 86 106
52 81 94
51 80 72
53 82 110
53 82 93
51 80 85
49 77 78
51 79 84
53 82 99
50 77 88
42 65 60
75 95 56
161 184 18
170 193 0
169 191 0
163 184 0
171 194 0
170 192 0
166 189 0
164 186 0
171 192 0
167 189 0
168 191 0
168 190 0
170 193 0
169 192 0
170 193 0
156 175 16
89 88 31
99 95 37
93 90 32
82 80 21
81 79 16
77 76 8
90 85 19
85 84 18
88 85 8
81 80 22
79 78 14
94 92 18
82 81 14
91 90 16
90 89 15
87 88 14
107 105 27
93 92 16
106 103 34
94 91 27
101 97 1
110 107 30
95 94 25
101 99 28
118 115 25
118 114 26
114 111 26
108 105 28
110 107 27
115 111 33
119 117 33
123 120 33
118 115 31
132 128 34
119 117 33
129 126 36
126 122 30
124 120 38
130 125 43
118 115 42
131 127 43
131 127 39
136 133 37
133 130 47
138 135 39
143 137 49
143 138 56
130 127 30
137 132 36
137 134 42
136 132 39
144 139 42
141 135 42
139 134 39
142 136 49
137 133 42
145 140 46
146 139 53
152 146 64
141 135 50
144 139 51
146 139 56
146 141 48
151 146 52
152 146 57
146 142 42
145 140 52
148 142 53
144 138 48
149 143 52
151 147 47
151 145 56
144 138 37
144 137 52
151 145 48
146 142 47
154 147 56
153 147 56
149 143 57
150 144 57
146 140 51
156 150 64
153 147 59
155 148 60
150 143 61
144 138 42
156 148 60
147 141 49
148 144 42
149 144 52
152 144 53
148 142 51
150 143 53
149 143 53
145 139 51
147 141 49
149 143 58
151 144 56
153 146 53
154 147 61
146 141 53
149 142 52
145 139 54
150 144 63
154 147 65
148 143 54
152 146 60
151 145 59
149 143 52
145 140 49
155 149 62
151 144 59
155 149 58
150 143 51
154 147 63
148 142 53
149 143 56
150 144 56
151 146 57
149 142 57
149 143 58
151 144 64
144 139 49
151 144 57
134 128 45
145 138 56
146 139 61
151 145 67
157 150 69
149 143 64
144 139 52
140 134 59
146 140 58
149 143 58
144 137 62
143 138 54
143 137 58
150 144 59
141 135 58
148 142 59
154 175 0
153 174 0
155 175 0
150 171 0
154 175 0
155 176 0
155 176 0
153 173 0
154 174 0
153 173 0
152 173 0
151 172 0
153 173 0
152 173 0
155 175 0
153 174 0
154 175 0
148 168 0
153 174 0
156 176 0
154 174 0
151 173 0
155 175 0
154 174 0
153 174 0
152 172 0
152 172 0
152 172 0
149 169 0
151 172 0
150 171 0
149 169 0
152 173 0
149 169 0
150 171 0
151 172 0
151 173 0
151 173 0
150 172 0
151 172 0
151 172 0
148 169 0
148 169 0
147 168 0
148 168 0
150 171 0
151 171 0
152 172 0
147 167 0
148 168 0
148 168 0
145 166 0
146 167 0
143 163 0
149 169 0
150 171 0
146 166 0
146 167 0
148 169 0
148 168 0
145 165 0
144 164 0
148 167 0
143 163 0
146 167 0
150 170 0
151 171 0
147 167 0
141 162 0
145 165 0
144 163 0
146 166 0
142 162 0
145 165 0
144 164 0
148 168 0
145 165 0
141 161 0
137 155 0
145 165 0
142 162 0
141 161 0
147 167 0
138 158 0
136 155 0
134 153 0
144 165 0
140 159 0
139 158 0
143 163 0
137 157 0
136 155 0
134 153 0
136 156 0
135 153 0
137 156 0
128 148 0
131 149 0
134 153 0
133 152 0
135 155 0
127 146 0
132 152 0
126 144 0
119 137 0
122 140 0
126 146 0
125 144 0
132 151 0
118 135 0
119 137 0
111 129 0
118 136 0
109 127 0
111 127 0
107 123 0
103 120 0
121 137 0
107 124 0
115 130 0
114 130 0
98 113 0
106 122 0
86 102 0
98 113 0
97 111 0
85 98 0
101 116 0
96 111 0
105 121 0
98 114 0
108 124 0
103 118 0
108 125 0
106 123 0
121 139 0
127 145 0
119 137 0
123 140 0
139 158 0
169 192 0
168 191 0
169 192 0
168 192 0
168 190 0
170 193 0
167 190 0
170 193 0
167 189 0
167 190 0
164 188 0
168 190 0
170 193 0
164 187 0
169 192 0
167 190 0
139 161 32
46 74 64
50 79 94
51 81 87
52 82 97
52 83 94
51 82 85
53 83 103
55 87 108
52 83 103
54 85 106
52 83 91
54 85 111
55 88 103
56 88 110
53 85 102
54 86 101
54 86 99
55 88 103
55 87 106
55 87 112
55 87 104
52 83 92
56 89 104
55 87 110
56 89 115
54 85 96
54 86 97
55 87 97
56 89 106
56 88 110
54 86 110
55 87 103
57 90 114
55 88 88
56 89 114
56 89 111
58 91 120
55 88 105
55 87 105
55 87 100
55 88 94
56 89 113
56 89 114
56 88 115
57 90 111
56 88 113
56 88 110
56 88 99
56 89 113
57 90 117
55 87 108
55 87 110
57 89 114
57 90 122
54 86 99
54 87 99
54 86 107
55 87 107
55 86 104
58 91 121
55 87 108
57 90 113
56 88 105
56 87 100
56 89 108
54 86 108
54 85 95
56 88 105
54 85 96
53 83 101
53 82 99
53 83 96
57 89 113
57 89 105
54 85 100
52 81 93
55 86 110
52 82 96
50 79 83
51 79 95
52 81 96
50 78 85
49 76 77
48 75 83
48 75 69
47 72 89
136 155 42
166 188 0
164 186 0
166 187 0
166 187 0
167 188 0
164 185 0
166 189 0
167 189 0
166 189 0
166 189 0
165 188 0
169 192 0
170 193 0
164 186 0
168 191 0
166 188 0
133 146 22
102 99 34
96 93 23
83 79 18
78 72 12
82 81 18
81 80 12
88 85 18
84 82 12
85 83 14
91 91 12
90 87 14
88 86 16
87 85 11
98 95 18
81 79 26
102 100 19
94 94 16
97 94 18
100 100 18
117 113 29
98 94 29
112 109 24
105 103 32
104 105 23
105 103 19
110 106 23
112 109 29
118 114 30
114 112 27
125 123 31
118 115 26
122 118 24
111 109 26
108 106 29
116 114 31
125 121 29
122 119 34
121 118 26
130 127 37
127 124 39
129 124 34
132 127 44
138 132 40
125 120 41
138 135 39
133 129 44
141 137 45
131 127 42
135 130 38
138 133 45
139 134 49
136 131 44
144 139 47
139 133 42
135 131 41
144 137 41
142 136 50
146 141 49
148 141 51
145 140 45
141 136 42
145 140 45
138 132 41
149 143 59
147 142 48
146 141 41
143 137 57
149 143 51
149 143 49
146 141 49
147 141 57
148 142 44
145 140 53
151 145 53
153 147 58
148 143 53
150 144 53
147 142 45
152 145 51
148 142 44
149 143 47
147 141 47
148 143 48
148 141 52
150 144 54
149 142 44
146 140 47
149 143 52
148 142 49
156 148 60
153 146 60
145 140 49
152 146 57
154 148 62
154 147 61
150 143 61
140 135 49
149 143 51
147 141 49
154 147 67
154 147 61
146 139 52
148 142 57
151 145 57
146 141 52
143 138 51
156 149 63
145 140 54
153 147 57
153 147 59
144 137 49
154 147 61
149 142 59
152 146 61
148 142 54
148 141 52
148 141 58
151 145 61
150 144 58
149 142 57
148 142 53
143 136 57
150 143 59
145 138 60
154 148 61
152 145 60
153 146 64
146 140 57
151 144 65
148 143 60
136 130 53
149 142 63
146 140 59
150 144 63
140 135 56
137 132 52
147 141 61
140 134 56
146 140 59
154 175 0
154 175 0
152 173 0
154 175 0
153 173 0
154 175 0
154 174 0
152 172 0
151 172 0
153 174 0
154 175 0
151 172 0
151 172 0
153 174 0
153 174 0
153 174 0
149 171 0
153 173 0
153 173 0
150 171 0
153 173 0
151 171 0
153 174 0
152 173 0
152 173 0
152 173 0
151 172 0
150 171 0
152 173 0
151 172 0
152 172 0
152 172 0
152 173 0
148 169 0
152 174 0
152 172 0
149 169 0
150 170 0
150 171 0
147 168 0
152 172 0
151 171 0
148 168 0
149 169 0
151 171 0
148 169 0
146 167 0
149 170 0
150 171 0
151 171 0
145 165 0
150 170 0
147 168 0
149 169 0
149 170 0
147 167 0
148 169 0
149 169 0
144 165 0
150 170 0
148 169 0
150 169 0
149 168 0
146 167 0
147 167 0
146 166 0
151 172 0
142 163 0
141 161 0
143 165 0
144 164 0
145 164 0
144 165 0
146 165 0
145 165 0
146 167 0
141 160 0
143 163 0
145 164 0
144 164 0
141 161 0
140 160 0
141 161 0
141 161 0
141 160 0
142 161 0
143 163 0
137 157 0
135 155 0
138 157 0
137 156 0
141 160 0
133 152 0
130 149 0
126 145 0
140 160 0
134 154 0
137 157 0
133 153 0
128 148 0
128 147 0
128 147 0
131 150 0
131 150 0
129 149 0
135 154 0
126 144 0
128 146 0
123 141 0
122 140 0
130 148 0
122 140 0
111 128 0
114 131 0
110 128 0
109 126 0
98 113 0
114 130 0
112 129 0
107 123 0
108 124 0
105 121 0
103 119 0
94 108 0
106 121 0
104 118 0
99 113 0
108 123 0
102 117 0
93 108 0
91 105 0
114 131 0
115 132 0
111 129 0
121 139 0
123 140 0
122 140 0
112 127 0
130 149 0
169 192 0
169 192 0
160 183 0
167 190 0
166 189 0
169 191 0
168 190 0
166 191 0
168 191 0
166 189 0
171 194 0
162 185 0
166 189 0
165 189 0
166 190 0
165 188 0
163 186 0
162 185 0
105 127 56
49 77 69
50 79 94
52 82 93
51 81 100
50 81 82
52 82 87
50 80 86
52 84 86
52 82 86
52 82 96
54 86 102
56 88 107
55 87 114
54 85 100
54 85 97
55 87 103
53 84 102
56 89 113
54 86 103
54 86 96
55 86 111
56 88 111
57 90 108
55 87 112
57 89 118
55 87 103
54 86 100
57 90 118
56 89 94
55 88 97
54 85 88
54 86 94
57 90 121
57 90 117
52 83 95
56 89 114
58 91 109
54 85 102
53 84 92
56 88 110
54 86 113
56 89 113
55 87 104
54 85 102
55 87 103
55 87 100
55 88 95
57 89 110
57 90 113
55 87 108
54 85 100
52 83 94
56 88 110
54 86 97
57 89 113
56 89 103
53 84 99
54 86 102
55 87 107
56 88 103
54 86 101
54 85 99
57 88 113
55 86 100
55 86 104
55 87 95
53 84 97
53 83 112
56 88 105
53 83 98
52 81 88
53 83 91
53 84 91
53 83 97
52 81 89
53 84 96
52 82 93
52 82 99
51 80 81
51 80 86
51 79 82
49 76 77
48 73 67
48 74 72
101 118 49
163 185 0
164 186 0
164 184 0
166 187 0
161 183 0
166 186 0
167 189 0
165 187 0
163 186 0
164 185 0
163 186 0
168 190 0
165 186 0
163 185 0
164 185 0
164 185 0
166 187 0
164 187 11
109 117 26
85 81 26
94 91 29
77 75 19
83 82 26
88 85 18
75 73 22
92 88 16
77 76 0
79 78 5
80 79 8
88 86 6
86 86 11
98 96 16
94 93 18
93 92 22
97 95 8
95 92 16
95 94 16
103 100 19
96 94 23
99 98 20
97 96 25
111 109 15
106 104 28
104 100 21
115 112 27
113 110 26
107 106 25
111 108 33
121 117 36
114 110 30
125 120 36
130 126 38
120 117 33
115 112 30
123 119 32
116 112 30
122 119 33
130 124 44
123 120 28
138 133 35
128 123 36
120 117 29
139 135 39
126 123 42
141 135 49
135 130 37
134 130 42
136 132 33
136 132 37
132 129 40
136 132 41
140 136 35
141 136 41
145 139 45
142 137 45
141 136 42
144 139 45
144 139 35
146 141 54
129 125 39
147 141 51
147 142 46
142 138 45
139 135 41
144 138 45
151 145 39
149 142 45
146 141 48
151 146 53
154 147 61
148 142 48
151 145 56
148 142 51
148 142 44
153 147 49
146 139 52
152 146 54
148 142 48
151 145 51
147 141 52
146 141 48
150 144 59
140 134 47
149 145 56
147 140 54
153 147 59
148 141 59
158 151 58
144 139 49
152 145 53
154 147 59
151 144 49
150 143 56
149 143 53
144 137 51
147 141 52
145 140 54
145 140 48
148 142 54
153 147 53
156 149 61
154 147 58
151 145 59
151 146 54
142 136 47
146 139 51
152 147 56
145 139 53
143 137 57
141 135 49
152 146 49
148 141 52
146 141 49
151 144 60
148 142 52
149 142 62
158 151 65
153 146 63
146 141 51
144 138 52
152 146 63
149 142 60
150 143 62
143 136 58
134 129 58
150 144 58
150 143 56
145 140 57
149 143 61
145 140 57
140 134 52
144 139 53
147 141 57
145 139 53
150 144 65
145 138 62
150 143 60
154 175 0
152 173 0
151 171 0
152 173 0
153 174 0
153 174 0
153 173 0
153 174 0
152 173 0
152 174 0
154 175 0
152 173 0
152 172 0
151 171 0
153 172 0
152 173 0
151 172 0
154 175 0
153 174 0
152 173 0
152 173 0
153 174 0
152 173 0
150 170 0
152 171 0
150 170 0
154 174 0
149 169 0
154 174 0
147 168 0
150 172 0
153 174 0
150 171 0
151 171 0
152 172 0
152 172 0
152 173 0
150 170 0
152 173 0
149 169 0
148 168 0
152 173 0
150 170 0
147 167 0
149 170 0
150 170 0
146 167 0
150 171 0
148 168 0
147 167 0
149 169 0
150 171 0
147 167 0
149 170 0
149 169 0
143 163 0
149 168 0
147 168 0
145 165 0
146 167 0
148 169 0
144 164 0
148 169 0
144 164 0
145 164 0
148 168 0
144 165 0
148 168 0
145 165 0
148 168 0
147 167 0
141 162 0
146 166 0
146 165 0
142 161 0
143 162 0
145 165 0
145 164 0
139 158 0
137 157 0
143 164 0
140 159 0
144 165 0
134 153 0
144 164 0
136 155 0
141 160 0
137 157 0
133 152 0
143 163 0
134 152 0
141 160 0
136 155 0
138 159 0
142 161 0
131 150 0
134 152 0
130 149 0
136 155 0
136 155 0
136 156 0
128 147 0
129 147 0
128 146 0
122 141 0
123 142 0
121 139 0
126 144 0
127 145 0
106 123 0
122 140 0
122 140 0
111 128 0
118 136 0
112 130 0
113 130 0
112 130 0
118 134 0
105 122 0
97 112 0
104 120 0
102 118 0
103 119 0
99 114 0
95 110 0
109 124 0
96 112 0
98 114 0
112 128 0
104 118 0
109 124 0
112 129 0
114 131 0
124 141 0
120 136 0
120 137 0
124 142 0
128 146 0
158 179 0
165 188 0
161 184 0
161 184 0
166 189 0
157 180 0
164 187 0
168 191 0
161 183 0
163 187 0
162 184 0
165 188 0
164 187 0
163 185 0
163 186 0
165 188 0
162 184 0
162 185 0
163 187 0
147 169 41
70 93 59
51 81 86
49 78 74
52 82 93
52 83 93
53 84 94
50 80 82
53 83 99
54 85 106
53 84 98
51 81 84
55 87 109
54 85 111
56 88 115
55 87 97
54 85 105
55 86 103
55 86 103
55 87 103
54 85 100
56 88 101
54 85 90
57 90 115
55 87 107
57 90 112
55 87 100
55 88 105
56 88 110
55 87 102
56 89 105
57 90 112
55 87 108
55 87 95
55 87 95
57 90 111
57 90 107
58 91 111
56 89 108
54 85 94
57 90 108
55 86 105
54 86 95
54 85 82
54 85 100
54 85 105
54 86 97
54 84 105
52 82 95
56 88 107
55 87 104
55 86 103
53 84 86
56 87 103
56 88 95
57 89 116
55 87 105
57 89 102
55 87 99
55 86 110
54 85 100
54 85 107
56 88 107
57 88 110
52 83 95
54 85 104
54 85 112
54 85 103
53 84 90
53 83 95
54 85 97
56 89 114
53 83 99
53 83 101
52 82 92
52 81 98
52 81 88
51 81 89
50 78 94
51 79 87
49 77 76
50 78 93
49 76 83
47 73 81
69 89 52
157 177 18
157 179 0
166 188 0
159 178 0
165 188 0
162 184 0
161 183 0
163 184 0
161 181 0
161 183 0
163 183 0
167 187 0
163 184 0
157 178 0
165 186 0
162 183 0
162 185 0
163 183 0
166 187 0
157 176 11
111 112 36
90 86 28
86 83 24
80 76 23
72 70 19
84 82 18
80 79 16
94 88 12
74 72 6
96 92 12
90 89 14
91 87 18
90 89 16
81 81 16
94 93 8
83 83 19
92 90 19
91 88 11
98 95 14
92 90 3
93 91 11
101 98 19
101 97 25
117 113 30
108 105 30
114 111 24
111 108 31
115 114 28
113 110 22
123 120 25
118 114 28
123 120 21
118 115 25
128 124 21
112 109 30
135 132 40
120 116 35
134 128 39
126 122 31
114 111 19
124 120 33
123 119 40
131 126 38
140 134 46
142 137 42
141 135 36
134 129 29
126 123 25
137 132 39
145 139 47
140 136 44
138 133 47
136 129 49
134 130 28
141 134 48
139 134 40
146 140 52
136 131 42
139 133 38
142 138 42
145 141 34
141 136 37
142 137 51
135 131 36
144 139 36
142 135 44
146 140 49
144 138 39
146 140 44
149 143 41
147 141 48
147 141 49
140 136 48
141 136 48
151 145 53
145 140 42
136 131 34
152 146 58
147 142 49
144 138 48
149 142 47
150 144 51
147 142 45
148 143 54
143 137 49
147 142 39
156 149 54
144 140 39
145 139 41
153 146 54
148 143 45
142 137 44
143 137 49
153 146 49
150 144 56
149 143 51
152 146 58
154 147 56
148 141 53
150 143 58
149 144 56
152 143 59
156 149 53
154 148 60
139 135 48
143 139 48
146 140 52
140 135 47
149 143 57
152 146 64
144 139 47
150 144 58
142 137 49
150 143 60
142 135 57
145 139 53
143 139 51
149 142 58
159 153 64
145 141 59
139 133 44
145 139 58
154 148 66
146 138 54
151 144 61
147 141 57
140 136 45
145 140 53
146 140 57
146 139 61
147 140 65
146 139 57
150 144 62
145 139 56
148 142 68
140 134 47
141 135 59
150 143 59
152 173 0
152 173 0
155 174 0
153 173 0
154 174 0
154 175 0
152 172 0
154 175 0
152 172 0
152 172 0
153 173 0
153 174 0
152 173 0
152 172 0
152 173 0
152 172 0
150 171 0
156 175 0
149 170 0
149 170 0
152 172 0
152 171 0
151 170 0
152 173 0
152 173 0
152 172 0
151 171 0
152 173 0
149 170 0
151 172 0
153 173 0
147 168 0
153 174 0
149 169 0
149 169 0
149 169 0
149 170 0
151 171 0
146 166 0
151 171 0
149 169 0
151 171 0
149 169 0
150 170 0
152 172 0
151 171 0
149 168 0
149 170 0
146 165 0
147 167 0
144 164 0
148 169 0
148 169 0
153 173 0
150 171 0
146 166 0
148 168 0
147 168 0
148 168 0
145 165 0
149 169 0
145 165 0
147 167 0
146 166 0
147 167 0
138 158 0
140 160 0
139 158 0
145 165 0
144 164 0
142 161 0
140 161 0
145 165 0
143 163 0
145 165 0
140 160 0
147 168 0
144 164 0
147 167 0
140 160 0
140 159 0
133 152 0
139 159 0
138 157 0
135 154 0
142 160 0
132 150 0
136 155 0
137 156 0
141 160 0
140 159 0
127 146 0
136 156 0
141 160 0
138 157 0
136 155 0
131 150 0
131 150 0
129 148 0
133 152 0
130 149 0
138 157 0
127 145 0
127 145 0
125 144 0
127 142 0
124 142 0
125 143 0
127 144 0
126 144 0
124 142 0
118 135 0
117 134 0
120 139 0
104 121 0
117 134 0
109 125 0
118 134 0
100 116 0
114 129 0
109 126 0
114 130 0
111 127 0
103 119 0
105 120 0
99 115 0
102 118 0
110 126 0
110 126 0
105 120 0
115 130 0
117 134 0
105 122 0
128 145 0
115 132 0
121 138 0
122 139 22
155 178 0
167 190 0
161 184 0
164 188 0
164 187 0
165 188 0
160 185 0
162 184 0
163 186 0
163 185 0
161 185 0
163 185 0
161 184 0
166 189 0
164 187 0
166 189 0
160 184 0
158 181 0
163 185 0
161 185 0
159 183 0
143 165 31
53 80 69
49 77 82
49 79 82
48 77 56
50 79 95
51 80 75
51 81 80
52 82 82
50 80 94
52 83 100
54 85 102
52 82 95
55 86 108
55 86 109
53 83 99
52 83 88
55 87 100
54 86 109
57 90 107
57 89 113
57 89 115
55 87 111
54 86 95
55 87 104
55 87 97
55 87 102
54 86 93
54 86 110
54 86 94
55 87 95
53 84 97
56 88 107
54 85 95
55 86 92
55 87 99
54 87 102
58 92 118
56 88 99
55 86 102
54 86 108
57 90 107
52 84 94
54 85 102
55 88 94
57 89 113
53 84 100
56 89 107
54 85 102
54 85 102
55 87 108
56 88 105
54 86 95
56 89 110
57 89 113
54 86 101
55 87 111
54 85 97
54 84 100
54 84 94
53 85 94
56 88 117
55 87 97
54 86 98
53 83 95
53 84 90
52 83 92
50 79 97
54 84 99
53 83 100
55 85 106
53 83 96
54 84 99
52 81 106
53 82 85
53 83 98
51 80 85
48 75 68
50 77 96
50 78 79
49 75 80
47 73 75
53 77 67
138 159 36
157 176 0
157 177 0
165 186 0
160 181 0
159 179 0
163 184 0
164 185 0
165 187 0
159 181 0
158 179 0
165 187 0
160 179 0
163 184 0
160 180 0
158 179 0
161 182 0
156 176 0
163 183 0
164 184 0
167 189 0
149 165 16
101 98 35
83 79 20
92 88 22
85 81 22
85 83 16
86 84 11
87 83 11
90 87 14
89 85 0
91 89 12
81 79 14
88 85 3
81 78 8
88 86 14
85 83 8
93 91 16
86 83 12
92 91 16
96 94 16
96 92 16
102 99 16
105 103 25
97 95 18
111 107 28
119 115 28
106 104 28
104 103 20
120 118 18
118 115 25
108 104 27
108 106 30
118 115 25
119 114 34
114 110 22
114 112 34
117 112 28
120 117 27
126 122 34
128 123 25
132 129 38
129 126 39
129 124 32
133 128 37
128 125 32
136 131 40
133 130 32
128 124 38
129 125 28
140 137 39
139 133 41
135 130 42
142 136 44
134 129 30
139 132 44
135 130 37
142 136 41
143 138 44
139 134 45
133 129 32
139 134 44
143 138 48
134 129 34
144 139 45
138 131 44
144 138 48
145 138 44
144 141 42
144 140 41
138 133 41
148 143 41
150 144 49
142 137 36
146 141 45
144 140 34
141 135 36
149 143 45
142 137 39
145 138 47
144 139 49
139 134 45
154 147 48
149 144 45
145 139 53
145 139 44
148 143 47
150 144 48
146 141 47
149 144 45
152 146 57
140 135 48
146 140 56
151 145 53
152 146 48
141 134 48
148 143 54
151 144 45
141 136 49
145 138 52
147 141 54
143 137 52
158 151 61
139 133 39
142 136 49
139 133 47
151 146 52
144 139 48
145 139 53
144 139 47
143 137 47
143 138 56
145 140 54
155 149 54
143 137 54
145 140 56
140 134 47
147 140 54
144 139 57
146 139 51
144 138 53
145 140 60
144 138 49
142 137 52
145 139 58
145 139 44
143 137 57
149 142 58
144 139 52
143 137 54
147 142 56
141 135 56
131 126 48
145 139 56
148 141 59
145 139 54
147 141 60
145 140 53
141 136 54
152 173 0
153 173 0
154 175 0
151 172 0
152 173 0
156 176 0
155 175 0
150 171 0
156 176 0
151 172 0
152 173 0
152 172 0
153 174 0
152 172 0
150 171 0
151 171 0
153 175 0
152 173 0
151 171 0
150 171 0
152 172 0
149 170 0
150 171 0
152 172 0
152 172 0
146 167 0
149 169 0
147 168 0
145 166 0
150 170 0
153 173 0
150 171 0
151 172 0
150 171 0
147 168 0
150 170 0
149 171 0
152 173 0
150 170 0
150 171 0
148 168 0
150 171 0
147 167 0
150 171 0
145 165 0
150 169 0
147 167 0
150 170 0
145 166 0
146 166 0
146 166 0
148 168 0
146 167 0
147 167 0
146 166 0
147 168 0
147 167 0
147 168 0
148 169 0
148 168 0
145 164 0
146 166 0
150 171 0
142 162 0
143 162 0
144 164 0
145 165 0
140 159 0
141 161 0
146 166 0
151 170 0
143 163 0
143 163 0
145 164 0
143 162 0
146 164 0
141 161 0
141 161 0
142 163 0
133 153 0
142 161 0
141 161 0
136 156 0
138 158 0
135 154 0
138 157 0
140 160 0
136 155 0
146 164 0
137 156 0
137 157 0
131 150 0
137 156 0
135 155 0
134 154 0
126 145 0
128 146 0
138 157 0
129 148 0
135 154 0
130 148 0
131 149 0
122 139 0
119 137 0
126 144 0
130 147 0
117 135 0
127 145 0
114 132 0
118 135 0
111 127 0
114 131 0
112 129 0
121 139 0
125 143 0
109 126 0
121 138 0
113 129 0
114 130 0
113 130 0
113 129 0
106 122 0
109 125 0
101 116 0
108 123 0
117 133 0
112 129 0
103 118 0
113 128 0
107 123 0
111 126 0
110 127 0
116 132 0
117 133 0
118 134 0
114 129 0
151 171 0
164 186 0
168 190 0
160 183 0
164 186 0
160 183 0
160 183 0
169 191 0
161 183 0
166 188 0
158 181 0
158 181 0
162 185 0
159 181 0
166 189 0
158 181 0
153 176 0
161 184 0
162 185 0
162 185 0
157 179 0
154 177 0
156 179 0
129 150 44
47 75 70
51 81 78
49 79 74
48 76 69
52 83 94
52 82 100
51 81 94
53 84 96
52 83 94
52 83 84
53 84 102
50 80 87
52 83 98
54 86 98
54 85 91
54 85 106
53 85 88
53 84 99
56 88 103
55 87 105
53 85 95
54 86 97
54 86 94
55 87 108
57 89 107
54 86 91
54 86 103
53 85 91
56 89 113
53 85 100
53 84 97
55 86 86
54 85 105
52 82 88
56 88 105
55 87 99
55 87 103
56 89 97
54 85 99
54 86 103
55 88 100
53 83 92
54 86 102
54 86 97
55 88 103
54 85 111
51 81 84
55 87 107
55 86 108
56 88 110
58 91 121
55 86 101
53 84 94
52 82 100
53 84 91
55 86 107
52 84 94
54 85 99
52 83 87
54 86 94
55 86 99
55 87 102
54 84 97
52 82 87
52 81 92
53 82 98
51 81 103
53 83 104
53 83 91
54 84 108
54 84 103
52 81 94
52 82 87
50 77 88
49 78 77
49 78 78
51 80 77
48 77 77
45 70 60
47 73 78
120 140 28
158 178 0
161 181 0
157 178 0
152 171 0
158 177 0
157 177 0
161 181 0
156 177 0
163 185 0
157 175 0
158 179 0
153 173 0
166 187 0
162 182 0
158 178 0
158 177 0
154 175 0
159 179 0
165 186 0
162 183 0
161 181 0
160 180 0
142 157 11
106 101 33
96 92 22
83 81 14
88 83 24
77 75 12
85 81 14
86 83 16
77 75 12
85 81 18
80 79 8
103 99 18
84 81 11
87 84 14
97 95 18
94 91 18
99 97 21
93 90 12
89 87 0
93 92 20
106 103 11
99 99 18
97 95 16
114 110 24
115 111 32
101 98 29
117 114 24
114 111 16
109 107 25
103 100 20
113 111 28
116 112 32
121 115 24
120 117 30
110 108 21
117 114 32
122 118 28
130 126 42
124 120 36
126 123 16
136 130 37
133 127 32
129 126 36
134 129 30
137 132 33
136 131 34
128 124 31
133 127 37
128 124 40
135 131 36
135 130 34
134 127 38
131 126 29
143 137 37
136 132 37
142 136 42
135 131 32
141 136 47
138 131 39
135 130 37
134 128 41
140 133 49
139 135 42
141 136 42
141 136 36
138 133 40
146 140 48
140 134 37
141 137 37
148 142 44
143 138 47
143 137 37
144 139 45
139 134 44
145 140 47
143 136 51
147 143 42
143 136 49
150 143 56
144 138 42
144 139 39
147 141 49
149 143 49
141 136 45
148 142 42
144 138 47
143 138 48
150 144 49
145 140 42
141 135 48
148 142 52
143 138 51
142 136 42
146 140 41
144 138 48
149 142 45
150 143 53
147 142 47
145 138 44
137 132 39
145 138 49
149 143 49
145 139 56
146 141 54
148 141 58
151 145 52
152 146 57
148 142 63
151 144 60
143 138 47
143 137 54
146 140 59
146 139 49
148 142 53
146 140 45
146 139 54
142 136 48
141 136 51
145 140 52
149 144 56
143 136 52
144 137 58
147 141 57
146 140 51
145 140 52
142 136 51
145 139 57
140 134 57
138 133 53
141 136 58
146 139 59
135 129 57
151 144 61
140 135 51
144 139 58
146 140 54
139 134 52
156 175 0
153 174 0
151 173 0
152 172 0
153 174 0
153 174 0
153 174 0
152 173 0
152 173 0
154 174 0
153 174 0
153 174 0
154 174 0
152 172 0
154 175 0
154 174 0
150 171 0
152 172 0
152 173 0
151 172 0
154 175 0
155 174 0
151 171 0
149 170 0
151 172 0
150 170 0
149 170 0
149 169 0
150 170 0
150 170 0
149 170 0
150 170 0
150 170 0
149 169 0
152 172 0
149 170 0
152 172 0
155 174 0
146 166 0
147 166 0
149 169 0
148 168 0
147 167 0
146 167 0
150 170 0
145 165 0
147 167 0
148 168 0
149 169 0
148 168 0
149 168 0
147 167 0
143 163 0
151 171 0
149 169 0
147 167 0
144 164 0
148 168 0
148 169 0
147 169 0
146 166 0
145 164 0
149 168 0
147 168 0
143 162 0
141 159 0
144 165 0
148 169 0
143 164 0
149 168 0
146 167 0
138 158 0
137 158 0
139 158 0
144 164 0
140 159 0
143 164 0
143 162 0
139 158 0
139 158 0
142 161 0
143 163 0
142 161 0
142 161 0
139 158 0
137 156 0
135 154 0
144 164 0
139 158 0
136 156 0
137 156 0
138 158 0
139 157 0
133 152 0
134 153 0
135 154 0
131 149 0
127 146 0
129 148 0
133 151 0
132 150 0
127 145 0
129 149 0
124 142 0
133 151 0
127 146 0
133 152 0
123 141 0
117 135 0
122 139 0
120 137 0
114 129 0
115 132 0
111 127 0
114 131 0
115 131 0
115 131 0
116 132 0
113 128 0
103 118 0
123 138 0
108 123 0
93 107 0
107 123 0
108 123 0
110 126 0
114 130 0
105 120 0
121 137 0
107 123 0
115 131 0
115 132 0
116 133 0
114 130 0
116 132 0
135 154 0
165 188 0
163 184 0
161 183 0
164 187 0
162 184 0
164 185 0
160 182 0
161 183 0
161 184 0
165 188 0
154 176 0
160 183 0
166 187 0
162 185 0
161 184 0
155 177 0
150 171 0
158 181 0
160 183 0
157 179 0
155 177 0
158 180 0
156 179 0
163 184 0
103 124 43
49 78 71
49 78 73
51 80 80
49 78 81
53 84 91
51 81 87
51 82 91
51 82 84
51 80 82
52 83 97
52 83 95
54 86 108
52 82 102
54 85 92
53 85 97
54 86 97
54 86 97
54 86 97
55 88 99
55 86 112
50 81 80
51 82 82
53 85 102
53 84 98
55 87 108
54 86 99
54 86 99
55 88 102
54 86 108
52 83 94
55 88 105
53 84 90
55 87 102
55 87 103
55 88 99
55 87 99
56 89 110
57 90 113
55 88 113
55 87 110
55 88 107
55 86 107
56 88 105
55 86 99
54 86 97
53 85 88
55 86 99
55 87 107
52 83 85
55 86 102
54 85 99
56 89 110
55 88 99
55 86 102
56 88 102
55 86 100
53 85 100
53 83 85
54 85 98
55 86 110
53 84 88
53 84 92
54 86 102
54 85 102
54 85 98
53 83 93
53 84 101
51 80 83
52 81 95
53 83 98
52 82 91
54 85 95
51 81 87
53 82 96
50 77 85
49 77 68
46 72 73
45 70 64
97 116 40
151 169 0
155 176 0
158 177 0
154 173 0
153 172 0
151 172 0
157 177 0
158 176 0
164 184 0
153 171 0
152 171 0
163 182 0
158 178 0
161 180 0
165 184 0
149 166 0
161 182 0
164 185 0
165 185 0
157 178 0
162 179 0
162 182 0
157 176 0
161 181 0
127 138 24
91 88 21
93 88 18
91 87 28
92 88 18
78 75 0
96 92 20
98 95 12
89 85 8
87 83 9
89 88 16
101 98 19
92 89 14
96 93 19
92 89 11
100 97 16
105 99 18
101 97 12
97 96 11
98 95 12
102 98 8
101 99 8
101 97 18
107 103 18
103 101 25
112 108 25
111 107 32
101 98 22
123 119 31
110 107 30
114 111 23
111 109 16
116 113 25
118 117 24
127 122 36
123 118 33
121 119 23
124 119 28
120 116 21
135 130 34
129 125 29
120 115 33
127 123 34
126 121 28
132 127 33
127 123 21
134 131 31
128 124 31
129 124 35
136 132 42
131 126 31
135 130 40
138 132 37
136 132 39
131 126 37
143 138 44
137 129 47
142 136 36
135 130 39
135 130 44
142 137 47
143 137 44
140 134 39
145 139 45
136 132 39
140 134 45
146 141 44
149 143 49
137 132 37
153 146 48
142 137 34
147 141 47
145 140 45
139 134 32
143 137 49
141 135 42
142 136 39
145 139 42
141 135 42
139 134 39
149 143 48
138 131 36
145 140 42
150 144 44
150 144 48
148 142 52
144 138 51
150 143 52
144 138 47
145 140 47
142 136 47
140 136 39
146 140 52
152 146 51
149 143 52
154 149 53
133 129 22
144 138 45
137 131 42
147 140 47
154 146 59
147 142 54
143 137 48
145 139 48
141 135 42
148 141 60
149 141 56
149 143 54
149 142 58
147 141 54
140 135 48
148 141 53
155 148 60
145 139 51
149 142 64
148 142 60
136 131 47
143 137 51
133 129 48
144 138 54
148 141 56
145 138 63
142 137 54
144 138 52
145 139 52
139 133 51
138 134 48
144 138 60
140 134 51
148 143 58
143 137 54
136 130 45
145 138 53
135 129 49
144 137 57
142 136 51
153 173 0
152 173 0
154 174 0
153 173 0
154 175 0
149 170 0
152 172 0
150 171 0
152 172 0
150 170 0
153 173 0
153 173 0
154 175 0
151 171 0
152 172 0
152 173 0
152 173 0
152 173 0
150 171 0
152 172 0
150 170 0
152 172 0
150 171 0
151 171 0
148 169 0
152 173 0
147 167 0
152 172 0
149 169 0
151 171 0
149 170 0
151 171 0
151 171 0
150 170 0
147 167 0
149 170 0
152 173 0
149 169 0
151 171 0
150 170 0
151 172 0
146 167 0
149 169 0
150 171 0
148 167 0
148 167 0
150 170 0
148 168 0
150 170 0
149 169 0
145 164 0
146 166 0
146 165 0
144 165 0
146 166 0
145 164 0
143 163 0
144 164 0
150 170 0
141 161 0
145 165 0
144 164 0
141 160 0
147 166 0
145 166 0
144 164 0
144 164 0
143 163 0
140 160 0
141 161 0
142 162 0
144 164 0
142 161 0
143 163 0
144 163 0
144 164 0
141 160 0
139 158 0
144 164 0
137 156 0
140 159 0
140 160 0
139 158 0
132 151 0
137 157 0
142 162 0
138 157 0
133 152 0
136 154 0
139 159 0
136 155 0
131 150 0
133 151 0
136 156 0
137 156 0
128 146 0
130 148 0
129 148 0
131 149 0
129 148 0
124 142 0
126 143 0
132 151 0
126 144 0
130 147 0
119 136 0
118 134 0
114 131 0
123 140 0
128 146 0
120 136 0
119 136 0
119 137 0
120 137 0
118 134 0
117 133 0
116 131 0
112 127 0
115 131 0
114 130 0
107 122 0
104 120 0
98 113 0
116 131 0
114 130 0
113 129 0
111 126 0
108 124 0
118 134 0
118 135 0
116 132 0
110 126 0
116 132 0
108 123 0
134 152 0
162 185 0
160 181 0
156 178 0
162 184 0
157 179 0
163 185 0
151 173 0
157 180 0
163 186 0
161 183 0
157 180 0
163 185 0
162 185 0
157 180 0
153 175 0
164 186 0
161 183 0
160 182 0
150 172 0
160 182 0
151 173 0
159 181 0
150 173 0
159 181 0
154 176 0
152 173 0
85 106 62
45 72 71
47 76 81
46 74 68
49 79 81
50 80 89
50 79 78
51 81 96
52 82 87
53 84 95
51 81 88
52 83 78
52 83 84
54 85 98
53 84 98
55 87 97
55 86 104
53 84 90
55 86 105
54 85 97
54 86 108
57 91 112
54 86 102
54 85 96
53 85 94
54 85 103
54 84 99
55 88 103
53 84 94
52 83 88
57 89 114
56 87 111
54 86 97
54 86 100
56 88 110
56 88 108
56 89 108
55 87 105
57 89 113
55 87 105
54 86 97
53 84 97
54 86 100
55 87 100
56 88 102
54 85 99
54 85 94
54 85 95
54 85 113
55 87 97
55 86 103
53 85 84
51 81 92
55 87 99
54 85 99
54 86 100
54 85 109
56 89 105
53 83 103
55 87 94
55 86 100
55 87 100
52 82 97
50 80 78
52 81 96
53 84 99
51 80 83
51 81 89
51 80 90
51 79 94
49 78 86
52 79 92
49 78 87
48 75 79
48 75 65
45 71 67
47 73 71
90 108 48
151 172 18
147 167 0
151 170 0
151 170 0
155 174 0
157 176 0
151 171 0
157 178 0
148 167 0
152 172 0
152 171 0
155 175 0
156 178 0
153 172 0
160 179 0
154 173 0
148 167 0
158 176 0
157 176 0
157 177 0
161 179 0
157 175 0
152 171 0
158 176 0
155 174 0
159 178 0
131 140 22
87 82 22
97 94 30
92 88 23
93 89 19
81 80 12
93 90 0
92 89 8
82 79 16
84 81 8
93 89 8
84 81 14
95 93 8
98 94 13
103 98 14
100 97 16
90 85 10
101 98 14
104 101 19
99 96 10
94 89 12
112 109 14
90 88 14
98 98 8
109 105 14
117 112 25
113 111 18
111 105 24
116 113 24
121 116 19
117 113 24
111 107 14
118 115 24
122 117 14
117 112 19
108 104 24
125 121 24
118 113 30
134 129 34
127 122 31
125 122 31
127 121 30
126 121 36
127 123 31
128 124 36
129 126 21
135 128 37
130 125 28
121 117 32
139 134 30
144 138 43
138 131 46
132 126 37
138 132 30
134 128 35
132 127 37
134 128 41
139 132 37
142 139 34
143 136 41
137 133 28
138 134 36
133 128 36
132 127 32
140 135 36
142 136 37
140 134 42
138 131 44
144 138 32
146 140 37
144 139 41
137 132 37
149 143 45
142 136 34
144 136 41
138 133 30
142 136 41
144 139 39
138 133 42
149 142 52
142 136 45
146 140 51
141 136 34
147 142 44
137 131 44
145 139 41
140 134 39
146 139 49
142 138 34
145 140 44
147 141 51
146 139 49
138 134 44
146 140 49
152 144 58
147 141 44
141 136 44
140 135 42
145 140 52
144 139 48
145 139 62
138 133 45
148 143 51
149 142 56
141 135 41
147 140 56
149 143 56
153 148 51
142 136 51
148 140 59
148 140 53
138 133 49
142 135 53
138 132 49
147 141 49
139 133 52
148 142 59
139 134 52
141 134 47
141 135 54
141 136 51
137 131 49
145 140 51
139 134 36
143 136 45
141 136 49
144 137 53
142 136 59
131 125 52
131 125 42
144 138 45
139 132 54
144 138 51
136 131 52
137 132 47
150 171 0
153 173 0
152 173 0
155 175 0
152 172 0
151 171 0
153 174 0
153 173 0
154 175 0
152 173 0
153 173 0
151 172 0
153 173 0
151 172 0
147 168 0
152 173 0
151 171 0
147 168 0
150 171 0
151 171 0
150 170 0
153 173 0
151 172 0
153 173 0
152 172 0
154 174 0
149 168 0
150 170 0
152 173 0
152 172 0
148 169 0
149 169 0
152 172 0
146 167 0
150 170 0
149 169 0
147 167 0
152 172 0
150 170 0
150 170 0
143 162 0
148 168 0
149 170 0
148 168 0
147 167 0
145 165 0
145 165 0
145 165 0
148 168 0
144 164 0
149 169 0
146 166 0
148 168 0
143 162 0
146 166 0
146 166 0
146 166 0
143 162 0
148 167 0
141 160 0
144 165 0
142 162 0
147 168 0
146 167 0
144 164 0
144 164 0
141 160 0
147 166 0
136 156 0
145 165 0
140 161 0
142 161 0
145 164 0
144 165 0
140 159 0
138 157 0
138 157 0
142 161 0
138 158 0
141 159 0
138 157 0
140 158 0
138 157 0
140 160 0
137 156 0
137 155 0
136 156 0
138 157 0
139 157 0
135 154 0
133 152 0
142 161 0
131 150 0
131 150 0
127 146 0
132 151 0
133 151 0
129 147 0
128 145 0
129 148 0
131 150 0
123 141 0
128 147 0
127 144 0
122 139 0
126 144 0
117 135 0
126 143 0
127 145 0
121 139 0
122 139 0
121 138 0
109 125 0
104 120 0
115 131 0
118 135 0
113 129 0
121 138 0
110 126 0
114 130 0
119 135 0
104 120 0
114 129 0
107 122 0
111 127 0
113 128 0
110 126 0
103 119 0
114 130 0
117 133 0
106 121 0
115 130 0
115 131 0
130 148 0
155 177 0
164 186 0
159 181 0
155 177 0
159 181 0
161 185 0
160 181 0
158 180 0
158 179 0
155 177 0
162 183 0
146 168 0
154 175 0
157 178 0
157 179 0
158 181 0
152 173 0
148 170 0
158 180 0
155 178 0
157 178 0
151 172 0
149 172 0
155 178 0
153 174 0
148 170 0
157 179 0
141 163 25
73 94 47
48 77 62
47 75 74
51 81 83
51 80 90
51 82 78
50 80 74
50 79 92
52 82 87
54 85 101
50 80 86
51 82 92
54 85 100
53 84 91
54 85 106
55 86 91
51 82 91
52 83 97
55 87 95
53 84 99
54 86 94
53 84 100
55 87 107
55 87 105
56 89 108
54 85 102
52 83 95
54 85 98
55 87 92
55 87 105
55 87 99
52 82 102
54 85 97
56 88 114
51 81 95
55 87 99
55 86 102
52 82 92
54 85 100
56 88 97
55 87 90
54 86 103
55 87 95
55 86 103
54 85 99
53 84 105
53 84 102
54 86 100
54 86 105
53 83 102
54 85 97
53 83 90
52 82 90
51 81 90
52 82 92
55 86 108
51 81 101
53 84 92
52 81 87
53 84 90
51 80 90
51 80 79
53 83 95
55 86 103
50 79 73
53 83 99
51 80 91
49 77 71
51 80 65
51 81 97
49 78 84
47 74 75
50 77 91
48 73 73
46 72 62
70 92 64
151 170 0
138 159 0
149 169 0
151 171 0
150 167 0
149 169 0
143 161 0
153 173 0
146 164 0
153 172 0
150 171 0
148 168 0
150 169 0
154 175 0
147 166 0
155 172 0
154 174 0
148 166 0
153 172 0
156 174 0
156 174 0
156 175 0
153 170 0
159 179 0
157 175 0
155 172 0
157 175 0
167 187 0
124 130 25
96 91 29
95 90 25
88 84 16
91 88 14
80 77 11
99 94 17
84 80 16
95 91 0
87 86 8
86 82 0
90 86 0
91 89 16
85 83 14
105 100 20
100 99 12
93 90 18
109 105 14
98 95 14
96 94 12
105 101 19
109 105 24
110 107 27
114 110 18
106 102 18
113 110 3
102 98 16
115 112 19
106 104 22
114 112 26
113 110 24
122 118 23
121 116 24
117 113 31
125 121 26
125 122 25
119 115 16
123 118 24
134 128 32
130 126 29
128 124 28
125 120 32
122 118 16
129 124 19
132 127 31
127 123 24
134 130 36
126 122 25
133 129 25
131 127 29
133 127 40
141 135 36
137 130 41
136 130 30
141 135 34
143 137 45
128 125 22
142 138 36
137 131 35
131 125 32
136 130 37
143 137 39
142 136 41
137 131 32
143 138 34
141 137 36
136 132 28
136 130 30
144 139 34
150 142 49
138 132 39
137 132 37
142 136 41
140 135 37
145 139 37
141 136 41
154 146 47
144 139 42
147 142 48
137 133 39
150 144 52
147 141 49
147 140 45
144 137 45
140 136 39
135 130 41
141 133 42
145 138 53
147 140 47
136 131 41
145 139 45
151 145 48
145 139 44
146 140 51
143 137 47
150 144 56
136 130 45
150 144 49
142 137 39
140 135 37
152 144 56
142 135 44
139 133 34
147 139 49
149 143 56
146 139 53
141 135 48
135 128 45
147 141 53
138 131 54
137 132 41
146 140 51
143 136 52
138 131 48
138 133 48
147 140 59
143 136 54
143 138 45
144 138 53
149 144 56
132 127 51
137 131 48
142 136 51
143 137 48
135 128 51
140 136 52
137 130 56
133 127 49
135 129 47
135 129 45
144 139 60
134 129 44
133 127 47
143 136 49
154 175 0
150 171 0
153 173 0
152 172 0
153 174 0
155 175 0
151 172 0
151 171 0
151 171 0
154 173 0
151 172 0
152 172 0
154 175 0
153 173 0
154 174 0
151 171 0
150 170 0
151 172 0
151 171 0
153 174 0
152 172 0
151 171 0
153 173 0
148 169 0
150 171 0
152 172 0
147 167 0
149 170 0
147 167 0
150 171 0
147 168 0
149 168 0
146 166 0
147 167 0
150 170 0
149 169 0
149 169 0
151 171 0
151 170 0
146 167 0
147 167 0
148 168 0
149 169 0
145 165 0
147 167 0
149 169 0
147 167 0
150 169 0
146 166 0
146 165 0
141 161 0
146 166 0
148 169 0
149 168 0
148 168 0
145 165 0
150 169 0
152 171 0
150 170 0
146 166 0
150 170 0
143 163 0
146 166 0
146 166 0
147 165 0
144 163 0
143 162 0
146 166 0
143 163 0
141 160 0
142 161 0
135 153 0
143 162 0
141 160 0
142 161 0
144 164 0
137 156 0
137 156 0
137 157 0
145 164 0
137 156 0
135 154 0
142 160 0
138 157 0
132 151 0
141 159 0
137 154 0
132 151 0
136 156 0
132 151 0
131 150 0
130 149 0
135 154 0
135 154 0
123 142 0
138 158 0
128 146 0
129 147 0
129 148 0
132 151 0
124 142 0
129 148 0
128 146 0
130 147 0
127 145 0
120 137 0
125 142 0
120 138 0
122 139 0
120 138 0
125 143 0
126 142 0
120 135 0
122 138 0
116 133 0
106 121 0
105 121 0
120 135 0
110 125 0
102 117 0
111 127 0
111 126 0
110 124 0
110 126 0
105 119 0
109 124 0
114 130 0
107 122 0
110 125 0
108 124 0
111 126 0
106 121 0
136 154 0
157 178 0
162 184 0
156 178 0
152 173 0
155 176 0
160 182 0
154 175 0
149 171 0
151 171 0
155 176 0
158 181 0
153 175 0
159 180 0
157 178 0
158 179 0
151 173 0
152 174 0
151 173 0
153 174 0
151 173 0
155 176 0
153 176 0
145 166 0
143 165 0
145 166 0
151 173 0
141 165 0
145 166 0
144 165 0
137 158 25
78 101 56
51 81 83
47 74 71
47 75 73
50 80 71
47 76 76
49 78 81
52 83 95
51 81 86
54 85 99
52 81 95
50 79 78
54 86 95
52 83 84
50 80 86
54 85 96
51 80 88
53 83 99
55 86 95
56 88 107
52 83 84
55 87 108
53 85 98
51 82 86
57 89 117
56 88 107
52 83 82
51 81 76
54 85 95
53 84 97
52 83 100
53 84 82
57 89 113
55 87 103
52 82 80
56 88 103
53 84 94
51 81 102
53 84 103
54 86 100
53 85 97
52 82 82
55 86 105
53 84 110
52 82 95
55 87 103
53 85 97
53 85 101
53 83 103
57 89 111
54 86 95
53 83 90
53 85 86
54 85 90
52 82 92
56 87 119
52 83 89
56 88 92
52 81 95
52 81 90
52 82 82
50 79 87
49 78 83
50 78 84
50 79 83
51 80 80
51 79 93
48 76 80
51 81 94
49 78 79
48 75 80
53 82 92
50 78 82
75 94 51
139 157 18
148 166 0
141 159 0
142 159 0
151 170 0
148 166 0
143 161 0
146 163 0
148 165 0
153 172 0
145 165 0
152 169 0
147 166 0
153 173 0
140 158 0
150 166 0
145 161 0
150 167 0
151 165 0
156 173 0
160 178 0
146 165 0
155 173 0
154 172 0
149 164 0
154 172 0
152 169 0
153 171 0
156 173 0
155 173 0
119 121 22
78 74 19
101 93 30
82 78 16
79 74 16
94 89 11
77 73 2
96 92 14
86 82 14
95 91 11
84 81 3
79 77 14
94 89 14
90 89 8
94 91 16
97 93 3
94 89 19
97 93 0
86 86 16
95 92 16
106 102 14
107 103 22
110 107 0
117 111 14
109 105 8
111 109 18
106 102 24
114 111 21
108 106 19
114 110 19
120 115 22
109 105 23
110 106 17
122 118 19
118 114 21
120 116 30
125 120 25
123 120 25
120 115 16
121 117 24
120 116 27
135 130 32
116 110 30
136 131 34
123 119 34
125 121 20
131 126 36
136 131 44
134 128 22
132 125 28
133 125 22
131 125 30
121 115 33
138 131 39
137 133 28
132 127 36
135 128 39
138 132 41
140 134 22
142 136 34
128 125 25
144 138 42
147 140 41
133 127 34
142 136 36
135 131 41
141 136 41
144 139 37
141 136 36
135 129 41
140 135 28
146 140 42
141 135 39
145 138 44
144 139 39
138 132 34
136 130 34
143 137 39
137 131 36
146 141 45
130 125 30
143 137 39
147 140 47
137 131 39
138 132 39
149 144 44
144 139 36
145 139 48
144 138 48
135 130 39
140 134 39
145 139 42
148 141 52
147 141 53
145 139 48
147 141 51
144 137 42
142 137 47
145 139 49
141 135 48
149 143 53
133 127 44
139 133 45
146 139 51
147 141 48
141 135 52
146 140 49
146 139 56
143 136 47
138 131 52
147 140 49
147 140 56
143 137 54
124 119 28
143 137 48
144 137 47
152 145 57
139 135 45
150 145 53
150 143 60
138 133 45
137 132 54
144 136 53
147 139 53
141 135 47
154 146 61
137 132 36
141 135 49
139 132 45
138 132 47
147 141 52
137 132 49
134 128 47
151 172 0
152 172 0
150 170 0
151 171 0
150 171 0
153 173 0
150 170 0
151 171 0
152 172 0
155 174 0
151 172 0
152 172 0
152 172 0
152 172 0
150 170 0
152 172 0
152 172 0
151 172 0
150 171 0
150 170 0
151 171 0
151 172 0
148 169 0
149 169 0
148 167 0
151 171 0
151 171 0
150 170 0
152 172 0
149 168 0
148 168 0
146 167 0
149 169 0
152 172 0
148 168 0
148 167 0
149 168 0
148 169 0
149 170 0
149 168 0
146 165 0
149 169 0
148 168 0
146 167 0
146 166 0
146 167 0
147 167 0
144 164 0
143 162 0
149 169 0
143 163 0
147 167 0
142 162 0
147 166 0
144 164 0
141 160 0
145 164 0
146 165 0
146 166 0
144 164 0
141 160 0
140 159 0
142 161 0
147 166 0
143 162 0
145 165 0
144 164 0
143 162 0
144 164 0
138 158 0
140 158 0
138 157 0
143 162 0
139 158 0
142 161 0
143 163 0
141 160 0
136 154 0
142 161 0
137 156 0
136 156 0
135 154 0
135 153 0
135 154 0
138 157 0
138 157 0
136 155 0
130 147 0
133 151 0
129 147 0
136 154 0
134 153 0
137 154 0
132 151 0
142 161 0
126 145 0
125 143 0
127 146 0
130 147 0
128 145 0
123 141 0
123 140 0
133 151 0
124 142 0
123 141 0
123 140 0
126 142 0
118 135 0
117 134 0
113 129 0
120 137 0
117 134 0
116 132 0
109 124 0
105 120 0
113 129 0
108 123 0
105 120 0
111 125 0
112 128 0
101 115 0
114 129 0
105 120 0
112 128 0
107 122 0
105 120 0
105 120 0
111 125 0
110 125 0
107 121 0
114 130 0
131 150 0
158 179 0
159 181 0
154 174 0
148 168 0
149 169 0
158 180 0
157 178 0
155 176 0
153 174 0
153 175 0
151 172 0
146 168 0
147 168 0
154 175 0
147 168 0
158 179 0
153 174 0
151 172 0
152 173 0
144 165 0
136 156 0
151 172 0
146 167 0
151 173 0
141 163 0
144 165 0
140 160 0
146 167 0
141 162 0
144 165 0
141 161 0
136 158 18
76 97 51
48 77 61
50 79 78
49 79 82
50 80 90
49 78 76
51 80 85
51 81 91
51 82 91
52 82 91
52 83 98
54 86 100
52 82 84
55 86 102
54 86 105
50 80 90
52 83 102
53 84 98
53 84 95
52 83 97
54 85 105
55 87 113
53 84 92
54 86 103
55 88 92
52 82 99
55 87 108
52 83 82
54 85 100
54 86 94
54 85 95
53 83 97
51 81 90
53 83 83
51 82 84
53 83 92
53 84 94
55 87 92
54 85 82
55 86 97
54 86 97
53 84 100
55 87 102
52 82 83
52 82 91
54 86 92
53 83 101
50 80 82
53 85 81
50 80 74
51 81 88
52 83 89
52 82 94
53 84 94
51 81 88
53 83 100
51 81 92
55 85 105
52 81 84
52 82 94
52 82 83
52 81 79
52 81 95
51 80 83
52 82 96
50 78 90
47 74 77
48 76 78
49 76 75
48 75 68
44 68 51
67 87 64
137 156 0
140 158 0
135 153 0
142 161 0
143 161 0
142 161 0
143 161 0
142 159 0
140 156 0
135 150 0
144 162 0
153 171 0
152 168 0
153 172 0
149 167 0
151 170 0
154 172 0
150 169 0
145 162 0
144 162 0
147 163 0
145 160 0
148 165 0
153 169 0
147 163 0
147 163 0
149 166 0
152 170 0
154 168 0
151 166 0
153 170 0
151 165 0
122 128 25
83 76 22
82 77 19
84 80 16
103 95 19
77 72 0
87 81 12
94 88 11
97 93 0
93 88 8
97 92 11
87 82 14
90 86 8
92 87 1
101 95 14
97 93 14
108 103 11
95 92 8
97 92 15
113 108 16
106 104 14
102 98 8
107 102 14
101 98 8
115 111 11
115 110 22
101 97 19
109 104 0
123 117 22
115 111 27
113 109 24
116 111 11
112 109 16
124 118 16
121 117 11
114 110 16
133 128 34
117 112 22
120 115 20
123 119 19
118 115 26
121 117 31
126 121 19
127 123 30
127 122 19
126 120 21
131 126 22
140 133 39
137 131 30
133 128 30
131 125 22
135 130 37
130 125 32
138 132 28
137 132 37
139 132 32
135 129 31
135 129 37
141 134 44
139 132 36
140 134 39
142 135 39
132 126 34
141 134 45
144 137 44
138 133 37
141 136 22
131 126 28
142 136 39
141 135 30
140 135 36
138 132 28
142 136 37
146 140 42
140 134 36
137 131 39
139 134 41
151 144 52
138 133 32
145 139 45
143 138 39
143 138 39
141 136 41
141 135 37
137 132 39
139 133 41
136 130 45
142 136 45
133 128 28
147 141 48
143 135 45
143 137 45
141 135 41
139 132 39
136 131 49
143 137 45
134 130 36
145 138 47
145 138 44
149 142 54
143 137 48
133 127 34
138 132 42
153 147 52
142 134 51
148 143 48
142 137 44
141 133 49
135 130 41
140 135 45
143 136 44
142 138 45
138 132 52
141 135 52
134 129 41
145 140 52
140 135 47
137 131 49
138 133 47
136 130 51
140 134 47
144 137 54
149 142 58
136 129 48
141 134 45
132 127 37
140 134 45
137 131 57
146 139 59
138 132 45
133 127 42
141 134 53
152 172 0
154 175 0
150 170 0
153 173 0
153 174 0
150 171 0
153 173 0
152 172 0
150 171 0
154 174 0
150 170 0
154 174 0
151 171 0
152 172 0
150 169 0
152 172 0
148 169 0
149 169 0
149 170 0
151 172 0
149 169 0
152 173 0
149 170 0
149 169 0
148 167 0
149 169 0
149 169 0
149 169 0
149 168 0
150 171 0
148 168 0
148 168 0
148 167 0
146 165 0
148 169 0
141 160 0
151 170 0
144 163 0
146 166 0
150 170 0
149 170 0
149 169 0
149 169 0
150 170 0
144 164 0
144 164 0
146 165 0
147 168 0
146 166 0
150 169 0
147 167 0
149 170 0
145 165 0
147 166 0
145 165 0
146 165 0
143 163 0
146 165 0
143 162 0
148 167 0
147 166 0
138 158 0
144 164 0
142 161 0
140 160 0
139 158 0
141 161 0
140 159 0
141 160 0
142 161 0
140 159 0
139 158 0
144 163 0
142 162 0
139 159 0
142 161 0
142 161 0
140 159 0
138 156 0
140 159 0
140 160 0
139 158 0
138 157 0
140 159 0
137 155 0
131 148 0
131 151 0
136 154 0
129 147 0
133 151 0
135 153 0
131 148 0
128 146 0
126 146 0
133 152 0
127 146 0
129 147 0
133 151 0
123 140 0
126 143 0
127 146 0
127 145 0
133 151 0
122 140 0
119 135 0
116 132 0
118 135 0
122 138 0
121 138 0
117 134 0
115 131 0
115 131 0
122 138 0
115 130 0
108 124 0
120 136 0
114 130 0
119 135 0
104 120 0
113 128 0
113 129 0
113 128 0
119 134 0
107 121 0
112 128 0
104 119 0
104 119 0
116 131 0
113 128 0
98 111 0
130 148 0
160 180 0
151 171 0
152 173 0
157 178 0
151 172 0
152 172 0
147 167 0
156 177 0
157 177 0
153 175 0
153 174 0
150 171 0
148 169 0
152 172 0
147 168 0
153 173 0
153 174 0
146 166 0
151 172 0
151 173 0
150 172 0
155 175 0
154 176 0
144 165 0
139 160 0
147 168 0
142 163 0
133 154 0
132 151 0
137 158 0
143 163 0
137 158 0
128 148 0
130 151 25
78 100 51
44 70 66
48 76 82
49 77 71
48 76 75
49 79 78
50 79 78
50 81 80
51 81 91
50 79 78
51 81 86
55 86 99
53 84 94
52 82 84
53 84 88
53 84 86
53 85 86
52 83 97
54 85 100
52 82 86
52 82 80
53 85 94
54 85 102
52 83 88
54 86 97
53 83 97
49 79 84
53 83 93
50 80 82
54 85 88
52 83 80
53 84 95
52 83 88
55 87 97
54 85 92
52 83 97
53 83 90
53 84 90
51 81 94
56 88 103
53 85 78
54 86 92
54 85 99
51 81 89
53 85 88
54 86 88
53 84 86
52 82 102
51 81 88
54 85 108
52 83 90
50 79 88
51 81 86
54 85 92
51 81 88
52 82 95
51 81 94
52 81 92
50 79 80
53 84 97
52 81 96
50 78 76
49 78 83
51 79 90
49 76 81
47 73 78
48 75 73
46 72 76
49 77 73
66 88 60
128 144 0
139 157 0
138 154 0
146 163 0
138 154 0
144 162 0
137 156 0
133 151 0
138 157 0
138 156 0
140 155 0
145 162 0
149 166 0
144 159 0
141 158 0
146 164 0
129 145 0
147 162 0
143 157 0
145 161 0
135 152 0
142 158 0
145 162 0
155 171 0
136 153 0
147 164 0
146 159 0
146 158 0
146 159 0
148 165 0
150 164 0
149 163 0
155 168 0
149 166 0
130 139 16
88 82 11
90 84 21
89 83 16
84 80 3
87 82 16
88 84 11
77 73 8
94 91 11
83 80 0
92 87 5
93 87 0
87 86 3
95 91 8
95 90 0
102 99 0
91 88 0
106 103 0
103 100 8
102 97 0
106 103 0
98 95 8
108 104 3
105 102 8
114 109 25
111 107 8
107 102 11
114 108 14
108 105 16
110 106 14
117 111 22
113 107 14
121 117 19
117 112 11
119 113 15
116 111 24
120 116 11
131 125 30
122 117 26
119 114 18
121 117 16
125 121 28
129 123 25
125 121 16
125 122 34
128 124 34
112 110 18
131 126 25
136 130 25
141 136 19
128 124 31
132 128 19
131 127 28
138 132 36
127 123 30
131 126 30
132 125 30
135 131 30
127 123 32
128 125 19
142 136 34
141 134 39
138 133 34
133 128 25
137 132 19
136 131 37
133 128 30
137 131 32
140 133 39
130 125 34
129 123 34
141 136 32
140 134 32
143 137 41
140 134 39
133 128 39
143 136 37
135 129 39
146 140 47
132 126 30
142 136 41
146 139 49
143 137 32
140 134 41
145 138 44
144 138 47
140 133 44
137 131 44
145 138 44
141 135 41
145 140 48
142 135 42
131 127 39
145 137 48
142 137 45
147 140 49
143 138 32
149 143 54
138 134 37
144 138 51
145 138 48
143 136 42
142 137 41
143 136 51
136 131 41
142 135 47
148 143 41
141 135 45
138 133 34
140 134 37
142 136 48
141 135 51
145 138 54
144 139 48
138 132 42
143 136 44
139 134 41
139 134 47
145 138 51
147 140 48
135 130 51
137 131 39
143 137 58
141 133 48
143 136 52
137 131 39
134 128 56
137 130 51
137 131 49
134 129 53
139 133 57
150 171 0
152 173 0
149 170 0
151 172 0
151 172 0
151 173 0
151 171 0
152 172 0
152 173 0
151 171 0
150 171 0
150 170 0
153 173 0
149 169 0
151 171 0
145 165 0
153 172 0
152 172 0
151 171 0
152 172 0
149 169 0
149 169 0
152 172 0
150 170 0
150 169 0
151 172 0
147 167 0
148 169 0
151 170 0
152 172 0
151 172 0
149 169 0
150 170 0
147 167 0
147 166 0
146 165 0
144 164 0
149 169 0
148 167 0
145 164 0
146 166 0
150 170 0
143 163 0
151 170 0
150 170 0
143 163 0
147 167 0
145 165 0
141 160 0
147 167 0
147 166 0
144 163 0
145 164 0
148 167 0
145 165 0
145 164 0
146 165 0
144 163 0
145 164 0
146 166 0
144 163 0
148 168 0
143 161 0
144 163 0
141 160 0
141 161 0
142 161 0
138 156 0
148 167 0
133 152 0
138 157 0
143 162 0
141 159 0
139 158 0
137 156 0
144 164 0
134 153 0
141 159 0
141 161 0
142 160 0
141 160 0
132 151 0
141 160 0
137 155 0
135 152 0
136 154 0
136 154 0
134 152 0
139 158 0
137 155 0
129 146 0
129 147 0
134 151 0
133 151 0
130 147 0
131 149 0
126 144 0
129 146 0
131 149 0
120 137 0
128 145 0
120 137 0
129 147 0
117 133 0
127 144 0
122 139 0
115 131 0
114 131 0
119 135 0
117 134 0
117 134 0
117 134 0
115 130 0
123 140 0
113 129 0
105 120 0
116 132 0
111 127 0
111 126 0
109 124 0
115 131 0
109 124 0
106 121 0
104 120 0
107 122 0
112 127 0
109 124 0
104 118 0
110 124 0
132 149 0
152 173 0
158 178 0
155 175 0
145 164 0
156 178 0
155 175 0
156 177 0
147 168 0
147 167 0
151 172 0
148 167 0
143 164 0
146 166 0
144 165 0
148 168 0
141 160 0
136 156 0
140 161 0
145 164 0
145 166 0
138 157 0
149 168 0
134 155 0
147 168 0
143 163 0
140 161 0
147 168 0
135 155 0
134 154 0
146 166 0
129 150 0
129 150 0
140 161 0
139 160 0
136 156 0
131 150 0
90 112 53
47 76 76
45 73 69
47 74 71
51 81 88
49 77 72
50 79 91
50 80 62
50 80 85
49 78 74
51 82 89
51 80 92
52 82 84
54 86 102
52 82 89
52 83 80
50 80 84
51 81 72
51 80 88
56 88 108
54 85 90
50 80 80
52 82 97
52 83 95
53 83 97
52 83 95
54 85 91
53 84 95
56 87 107
52 83 94
51 82 84
52 83 88
51 81 86
55 86 105
52 83 84
53 84 102
52 83 94
51 82 90
48 76 74
50 80 81
51 82 90
52 82 94
52 82 82
54 84 103
52 81 94
53 84 92
52 82 95
53 85 97
52 83 84
52 83 90
52 83 82
52 83 77
50 78 84
51 81 84
50 79 85
49 77 85
49 78 73
51 80 97
52 82 99
49 77 88
51 79 92
47 73 72
50 79 80
50 78 87
45 71 65
45 71 72
47 73 71
89 107 54
130 148 18
134 151 0
141 158 0
129 146 0
139 157 0
130 148 0
141 159 0
129 145 0
130 146 0
138 154 0
134 149 0
133 150 0
133 149 0
137 151 0
142 160 0
143 159 0
134 149 0
143 160 0
144 159 0
135 153 0
147 162 0
139 153 0
146 161 0
136 150 0
149 163 0
147 163 0
140 156 0
141 155 0
140 154 0
142 156 0
146 157 0
151 163 0
147 160 0
140 152 0
140 156 0
150 163 0
133 145 0
105 98 32
96 90 19
86 81 20
79 76 11
86 78 0
81 77 19
83 81 14
88 85 8
88 85 0
91 87 8
85 83 8
91 87 0
94 90 0
85 81 0
97 93 11
93 91 8
105 100 8
107 102 8
103 99 0
104 98 0
100 97 11
103 100 14
106 102 14
108 103 20
101 98 12
123 118 19
109 104 15
121 117 20
111 104 11
112 107 13
116 111 0
122 118 14
113 107 16
110 106 0
117 110 28
122 116 14
122 116 29
129 124 16
118 114 11
118 112 19
117 111 24
119 116 19
112 109 14
131 127 28
131 127 31
130 124 28
128 123 31
126 122 25
131 125 19
133 128 25
132 126 28
135 130 32
134 128 30
130 123 30
131 127 22
141 135 28
130 124 31
127 122 28
131 127 34
134 128 30
127 122 22
136 130 34
142 136 37
129 124 25
136 131 28
134 130 22
138 133 37
139 134 37
135 130 28
147 140 47
136 131 39
139 135 37
137 132 39
134 130 39
138 132 41
135 131 42
144 137 44
143 137 45
137 130 32
148 143 42
136 129 48
140 134 49
135 130 36
139 133 48
151 144 56
145 137 47
145 139 42
140 133 36
141 133 44
137 131 42
134 129 44
144 138 37
134 129 41
142 136 48
136 131 39
142 136 48
132 125 44
135 128 34
134 129 28
145 138 45
134 129 39
136 131 41
136 132 39
140 134 45
141 136 42
133 129 47
151 144 49
141 135 44
140 134 51
135 129 37
141 135 47
131 125 42
132 127 42
136 130 45
135 129 39
143 136 45
147 140 51
132 127 44
145 140 41
146 139 53
134 128 44
144 138 56
135 129 44
135 129 44
137 132 42
135 129 44
139 133 53
134 128 52
137 131 51
150 170 0
151 172 0
152 173 0
152 172 0
151 171 0
153 174 0
152 173 0
152 172 0
151 170 0
151 171 0
154 174 0
152 172 0
148 168 0
152 172 0
154 175 0
150 170 0
152 173 0
149 168 0
150 170 0
152 172 0
149 170 0
148 168 0
151 171 0
149 170 0
149 169 0
148 168 0
150 170 0
151 170 0
148 168 0
148 167 0
149 168 0
150 171 0
152 171 0
147 166 0
147 166 0
149 168 0
148 167 0
148 168 0
148 168 0
145 165 0
150 169 0
147 167 0
149 168 0
148 169 0
149 169 0
144 163 0
143 162 0
145 164 0
146 166 0
147 167 0
145 164 0
147 166 0
144 163 0
145 164 0
145 164 0
148 168 0
144 162 0
148 167 0
141 160 0
140 159 0
144 163 0
143 162 0
140 159 0
144 163 0
145 164 0
142 161 0
145 164 0
140 159 0
143 162 0
137 155 0
139 158 0
142 160 0
138 156 0
138 156 0
139 157 0
142 160 0
138 157 0
140 159 0
137 156 0
137 156 0
138 156 0
143 161 0
133 151 0
131 149 0
133 151 0
135 154 0
134 152 0
133 151 0
136 154 0
129 146 0
135 153 0
131 149 0
131 149 0
131 148 0
127 145 0
135 153 0
131 150 0
133 150 0
133 151 0
119 136 0
123 141 0
123 139 0
122 139 0
125 142 0
119 136 0
122 138 0
121 137 0
123 139 0
118 133 0
118 134 0
122 138 0
110 125 0
114 128 0
113 128 0
115 129 0
115 130 0
109 124 0
118 133 0
91 106 0
100 114 0
109 124 0
109 123 0
114 128 0
107 121 0
114 128 0
110 124 0
108 121 0
109 122 0
142 161 0
151 171 0
150 170 0
144 163 0
152 173 0
150 170 0
143 162 0
145 164 0
148 169 0
147 166 0
148 168 0
150 170 0
141 161 0
142 162 0
145 165 0
149 169 0
152 172 0
143 164 0
143 163 0
137 157 0
147 168 0
139 159 0
145 165 0
136 156 0
138 157 0
138 157 0
127 147 0
135 155 0
135 154 0
136 157 0
130 149 0
128 147 0
125 144 0
140 161 0
128 149 0
130 148 0
129 149 0
135 155 0
122 141 0
96 115 50
46 73 71
45 72 65
47 75 78
45 73 62
50 79 86
50 80 82
49 78 90
51 81 82
49 78 86
51 81 82
53 83 93
50 80 72
51 81 84
51 81 80
52 82 78
51 81 97
51 81 74
53 83 88
55 86 102
51 81 86
52 82 90
52 82 90
51 81 94
50 80 76
54 86 88
51 81 92
52 82 82
52 82 95
50 80 88
54 85 92
51 81 86
54 85 99
52 82 80
53 84 100
52 82 84
53 84 90
54 86 97
51 81 90
51 80 92
54 84 100
51 81 84
53 83 92
52 82 105
52 82 97
50 79 85
50 79 77
51 81 84
52 82 87
50 80 65
53 84 92
53 84 92
52 81 90
48 75 86
52 81 92
50 80 75
48 76 70
51 80 83
50 78 81
48 77 78
52 81 95
50 78 88
49 76 80
48 75 77
44 69 70
85 104 54
116 131 0
125 139 0
132 146 0
141 159 0
124 138 0
121 137 0
124 140 0
133 149 0
135 152 0
143 159 0
127 144 0
140 157 0
128 146 0
126 141 0
133 147 0
135 149 0
131 148 0
137 150 0
136 153 0
141 155 0
136 147 0
138 153 0
141 157 0
139 153 0
144 157 0
145 160 0
144 158 0
138 150 0
142 158 0
147 161 0
139 151 0
145 155 0
145 160 0
150 163 0
146 157 0
141 152 0
143 154 0
146 161 0
135 144 0
96 92 30
78 74 11
89 83 19
79 76 16
96 92 0
93 89 11
79 75 2
96 91 0
91 85 0
91 87 0
89 85 0
93 87 3
100 95 8
96 91 11
91 85 3
104 98 11
100 96 8
99 94 0
90 88 8
100 95 0
103 101 0
95 92 0
109 105 0
110 107 0
109 103 18
101 96 8
107 102 0
114 111 11
121 116 0
108 104 11
103 98 11
122 118 16
123 117 18
112 107 8
119 116 8
124 122 21
122 117 28
122 116 19
118 113 0
120 116 28
125 119 16
121 115 19
130 124 35
124 119 16
119 113 19
121 118 16
130 125 14
130 126 30
126 121 19
121 115 25
133 128 32
139 132 32
133 128 30
128 125 22
132 127 22
134 129 28
137 132 32
135 130 36
138 133 30
138 131 37
142 136 36
135 131 30
137 128 39
135 130 30
144 137 37
124 119 22
133 126 34
131 126 30
140 134 34
138 132 34
138 131 44
141 135 42
135 131 22
133 129 30
142 135 39
136 130 25
134 129 41
139 134 37
138 134 28
141 134 37
138 133 30
137 130 36
141 135 47
142 135 37
137 132 34
136 128 39
144 137 48
135 130 37
136 131 34
147 141 52
130 123 28
139 132 42
141 135 37
140 134 42
142 135 51
145 139 51
141 135 48
140 132 51
147 140 53
130 124 39
135 131 39
139 132 41
144 137 48
139 132 41
136 131 39
143 138 42
144 138 54
141 135 51
133 126 45
134 128 34
132 126 41
144 137 57
140 132 51
142 137 52
128 122 37
138 132 39
139 133 44
134 130 36
129 124 32
144 138 51
135 129 52
130 124 37
127 122 44
140 134 51
135 130 41
129 124 42
131 126 37
138 131 57
153 173 0
151 171 0
151 171 0
153 172 0
153 174 0
151 171 0
151 171 0
149 169 0
151 171 0
151 172 0
152 172 0
151 170 0
150 171 0
149 168 0
151 172 0
148 168 0
153 173 0
150 169 0
150 170 0
151 172 0
152 172 0
148 169 0
146 166 0
148 168 0
149 170 0
148 168 0
147 166 0
150 169 0
150 171 0
146 165 0
151 170 0
148 167 0
147 167 0
146 166 0
150 170 0
145 166 0
146 165 0
146 165 0
148 168 0
150 169 0
145 165 0
148 168 0
148 168 0
145 165 0
141 160 0
148 168 0
146 165 0
148 168 0
147 167 0
145 164 0
147 165 0
145 164 0
146 165 0
145 164 0
147 166 0
145 164 0
148 168 0
135 154 0
145 165 0
145 165 0
145 164 0
138 157 0
145 164 0
144 162 0
138 156 0
137 155 0
145 164 0
139 158 0
137 156 0
143 162 0
139 158 0
141 160 0
138 156 0
136 154 0
134 153 0
135 154 0
135 153 0
136 154 0
139 156 0
129 148 0
134 152 0
132 151 0
137 156 0
139 156 0
130 148 0
136 154 0
134 152 0
133 151 0
132 149 0
123 141 0
137 155 0
131 149 0
125 143 0
133 150 0
135 153 0
131 149 0
129 146 0
128 145 0
123 140 0
123 141 0
123 140 0
124 141 0
127 144 0
116 132 0
125 141 0
121 137 0
116 133 0
123 140 0
113 129 0
109 124 0
117 132 0
108 124 0
115 130 0
115 130 0
106 120 0
103 117 0
111 126 0
109 123 0
107 121 0
110 125 0
108 122 0
118 133 0
115 130 0
111 125 0
104 117 0
100 113 0
104 118 0
142 161 0
148 167 0
149 168 0
143 162 0
143 163 0
144 163 0
141 160 0
146 164 0
138 157 0
141 161 0
145 165 0
143 161 0
142 161 0
140 161 0
143 162 0
147 167 0
146 166 0
146 167 0
140 160 0
137 156 0
123 142 0
134 153 0
138 159 0
142 163 0
136 156 0
136 156 0
132 151 0
141 160 0
129 148 0
131 149 0
143 163 0
141 161 0
127 146 0
135 155 0
132 150 0
129 148 0
132 152 0
126 144 0
138 158 0
128 147 0
123 142 0
106 125 16
59 83 62
47 75 65
44 71 56
45 72 56
50 79 78
50 80 86
48 77 65
50 79 92
52 83 100
48 76 74
49 78 78
50 80 80
51 81 86
51 81 78
50 80 86
51 81 86
53 84 99
52 82 97
55 86 103
52 82 84
50 80 86
49 79 80
49 79 76
50 80 84
51 82 90
49 78 80
53 84 97
50 79 74
52 82 97
54 85 102
51 81 90
49 77 80
53 84 99
53 84 97
50 80 84
51 80 92
52 82 88
54 85 97
52 83 95
52 82 88
52 82 84
52 82 92
52 83 90
50 79 82
54 85 102
49 78 86
50 79 79
52 82 81
50 79 80
50 79 86
49 78 75
52 82 90
47 75 72
50 79 82
47 75 76
50 78 78
48 77 76
49 77 77
45 72 65
49 77 68
46 72 72
51 74 60
115 132 25
130 144 0
120 135 0
126 142 0
129 146 0
116 129 0
109 121 0
125 142 0
131 148 0
130 146 0
135 151 0
138 154 0
133 148 0
129 142 0
144 161 0
136 152 0
134 148 0
138 153 0
129 142 0
138 153 0
137 154 0
134 147 0
142 156 0
145 157 0
137 151 0
130 142 0
137 151 0
133 145 0
134 147 0
132 146 0
140 153 0
141 155 0
138 150 0
132 145 0
135 147 0
131 143 0
140 153 0
131 143 0
140 148 0
144 153 0
140 153 0
139 147 11
103 102 16
80 73 12
82 78 0
93 87 11
91 85 16
96 91 22
84 80 14
84 79 11
90 85 11
98 92 0
79 76 0
87 83 0
84 80 0
92 88 8
90 88 0
104 99 0
98 95 14
97 91 8
91 87 8
102 98 0
100 95 0
105 101 0
95 90 11
107 103 0
96 94 16
93 89 0
109 104 14
118 114 11
112 109 0
121 114 14
115 110 16
109 104 11
112 109 8
124 120 18
127 123 16
122 117 16
113 108 16
120 115 16
115 110 11
123 117 19
114 109 25
120 114 16
124 118 28
130 125 22
125 118 16
124 118 22
123 116 19
126 123 25
131 125 30
120 114 25
130 124 25
134 130 19
127 120 25
122 117 25
131 125 28
132 127 16
138 131 32
132 126 32
135 130 28
132 126 30
137 132 41
135 130 32
133 128 25
129 124 36
137 131 22
140 134 32
126 120 34
136 130 37
134 129 34
135 129 25
136 130 36
139 132 36
134 128 34
143 137 39
134 127 41
140 135 36
143 137 36
134 129 32
147 140 49
145 138 41
130 124 39
128 122 36
135 129 37
139 133 42
137 131 42
135 130 41
141 135 42
135 127 34
139 133 45
142 135 49
138 131 39
139 133 42
143 137 44
139 133 34
133 128 39
141 134 45
142 136 39
141 134 47
133 126 39
137 131 37
136 130 44
141 135 45
147 140 51
134 128 37
141 135 49
138 132 42
134 128 45
138 133 39
140 134 49
133 128 42
138 132 45
148 141 58
131 127 34
137 130 44
137 131 48
131 125 45
136 130 32
133 127 48
139 134 44
135 130 39
132 128 30
140 133 53
135 127 51
131 125 37
125 118 47
133 127 49
135 130 52
151 170 0
151 170 0
151 172 0
154 174 0
155 175 0
151 171 0
151 170 0
151 171 0
153 173 0
150 171 0
152 172 0
151 171 0
150 170 0
150 168 0
150 169 0
151 172 0
146 166 0
151 171 0
148 168 0
151 170 0
152 172 0
151 170 0
149 169 0
147 167 0
152 172 0
150 170 0
147 167 0
150 170 0
151 170 0
146 166 0
148 169 0
151 170 0
152 172 0
150 170 0
147 168 0
150 169 0
147 167 0
148 167 0
152 170 0
144 164 0
146 166 0
145 164 0
146 165 0
150 169 0
143 162 0
144 163 0
145 165 0
144 163 0
144 164 0
146 165 0
145 164 0
142 161 0
142 160 0
144 163 0
141 160 0
147 167 0
141 159 0
145 164 0
141 159 0
140 159 0
144 163 0
141 160 0
136 156 0
136 155 0
139 158 0
141 160 0
142 161 0
138 156 0
132 151 0
140 160 0
135 153 0
139 158 0
134 154 0
136 155 0
131 148 0
137 154 0
134 152 0
135 153 0
138 156 0
133 151 0
134 152 0
131 149 0
129 146 0
135 153 0
137 155 0
133 151 0
134 151 0
137 155 0
127 145 0
130 146 0
130 149 0
128 145 0
130 147 0
133 152 0
124 141 0
133 151 0
127 144 0
125 143 0
125 141 0
128 145 0
121 138 0
119 134 0
122 139 0
127 143 0
114 130 0
124 140 0
126 143 0
122 139 0
120 135 0
107 122 0
118 134 0
110 126 0
116 131 0
110 124 0
104 119 0
112 127 0
109 123 0
114 128 0
111 124 0
111 125 0
106 118 0
111 125 0
111 125 0
106 119 0
96 108 0
109 124 0
147 164 0
144 163 0
140 158 0
149 167 0
145 163 0
139 156 0
147 166 0
137 156 0
142 160 0
146 165 0
147 165 0
145 163 0
145 165 0
139 158 0
140 159 0
136 155 0
142 162 0
135 155 0
135 154 0
139 158 0
128 146 0
137 157 0
144 164 0
145 164 0
141 160 0
148 167 0
137 155 0
139 158 0
140 160 0
129 148 0
129 149 0
134 153 0
133 151 0
129 148 0
130 150 0
131 151 0
122 141 0
123 142 0
114 133 0
126 146 0
116 135 0
113 132 0
123 141 0
110 127 25
61 84 62
44 70 70
43 70 56
49 79 81
48 76 78
48 76 74
50 79 74
49 78 78
47 76 70
50 80 90
50 80 88
50 80 82
52 83 88
48 77 80
52 83 94
51 81 76
53 84 97
50 81 74
49 78 84
54 86 93
50 80 94
54 86 99
50 80 94
53 84 82
52 83 90
52 83 94
50 80 80
53 83 90
52 82 82
51 82 82
53 84 94
52 83 90
52 82 95
49 78 72
51 82 86
50 80 84
49 78 80
54 85 102
51 81 82
50 79 84
50 79 78
50 79 84
48 77 81
49 78 63
49 78 86
53 84 90
49 77 82
50 79 82
52 81 102
50 79 84
47 75 78
49 78 87
46 73 78
48 76 76
48 75 76
47 74 60
44 71 51
46 72 65
44 68 65
65 83 63
117 131 25
121 135 0
125 141 0
109 123 0
109 124 0
118 132 0
127 142 0
118 132 0
126 142 0
110 123 0
125 142 0
125 139 0
131 145 0
125 139 0
135 149 0
126 140 0
135 150 0
124 139 0
135 150 0
119 132 0
132 147 0
135 150 0
136 149 0
131 146 0
129 142 0
138 153 0
133 144 0
137 152 0
126 139 0
132 143 0
140 152 0
142 155 0
133 146 0
128 138 0
139 154 0
135 144 0
139 150 0
138 149 0
129 140 0
136 148 0
143 155 0
135 144 0
138 147 0
140 150 0
102 105 22
74 70 11
96 89 22
80 74 16
91 84 16
79 75 0
88 82 0
85 80 11
98 92 8
99 94 11
84 79 0
96 91 0
99 95 0
92 88 0
91 86 0
87 84 0
97 92 0
102 96 0
104 98 8
102 98 0
97 94 8
105 101 14
111 108 0
111 106 0
114 109 0
105 101 0
117 113 3
112 107 0
115 110 19
122 117 3
118 112 0
113 108 0
111 106 0
111 106 0
123 117 19
122 116 0
123 118 19
123 116 11
119 114 19
128 122 16
121 116 19
118 113 16
133 128 26
124 119 19
128 123 22
122 115 19
124 120 16
124 117 19
123 116 24
119 114 16
123 118 16
137 131 34
130 124 28
129 124 25
130 124 19
128 123 25
135 129 34
133 128 25
132 127 16
127 122 22
130 126 30
124 118 28
140 135 36
130 127 25
131 127 22
124 120 16
135 128 36
140 134 34
133 126 42
130 124 22
137 131 30
132 127 28
131 125 32
142 137 36
144 137 39
137 132 34
140 134 32
132 127 22
140 134 37
134 129 36
133 127 34
130 123 34
131 126 32
132 127 34
142 137 34
138 131 42
140 133 45
141 134 41
131 125 36
140 134 39
143 137 45
140 134 37
138 133 42
143 136 44
134 128 36
136 131 44
141 134 41
135 129 42
131 125 32
148 140 52
138 133 41
136 131 36
135 130 42
134 127 39
135 129 45
137 133 41
135 128 49
132 126 44
126 121 39
128 122 44
136 129 42
122 117 30
135 129 42
139 131 45
142 137 47
136 128 47
137 131 47
138 131 37
133 127 44
127 122 48
138 132 45
128 122 48
132 126 45
132 127 47
131 125 44
130 125 39
151 171 0
153 173 0
153 173 0
152 172 0
152 172 0
151 171 0
152 172 0
152 171 0
150 170 0
150 169 0
147 167 0
154 173 0
150 170 0
151 170 0
149 169 0
149 169 0
144 164 0
153 172 0
149 169 0
150 170 0
148 167 0
151 171 0
150 169 0
149 169 0
149 169 0
148 168 0
151 170 0
145 164 0
147 167 0
146 166 0
149 169 0
149 169 0
147 167 0
146 166 0
147 167 0
146 165 0
146 165 0
145 165 0
142 161 0
145 164 0
145 165 0
150 169 0
147 165 0
145 165 0
148 167 0
145 164 0
145 164 0
141 160 0
142 162 0
146 165 0
146 165 0
147 167 0
146 164 0
145 165 0
145 164 0
140 158 0
145 164 0
145 164 0
141 160 0
145 163 0
141 160 0
138 156 0
144 162 0
136 154 0
143 162 0
145 164 0
142 161 0
140 159 0
142 161 0
142 160 0
140 158 0
142 160 0
145 164 0
139 158 0
132 150 0
140 158 0
136 154 0
141 160 0
138 156 0
134 152 0
130 148 0
135 152 0
135 153 0
131 150 0
137 155 0
133 151 0
125 143 0
126 143 0
134 151 0
128 146 0
132 149 0
124 141 0
131 148 0
132 149 0
123 140 0
129 145 0
126 143 0
129 147 0
113 128 0
124 140 0
119 135 0
112 127 0
122 138 0
121 137 0
120 136 0
123 139 0
126 142 0
117 132 0
114 129 0
112 128 0
116 131 0
97 112 0
110 124 0
112 127 0
107 121 0
104 117 0
113 127 0
115 128 0
107 121 0
107 121 0
97 111 0
99 112 0
92 104 0
88 100 0
125 141 0
138 155 0
143 160 0
148 166 0
137 154 0
144 161 0
137 154 0
148 167 0
141 160 0
144 163 0
135 154 0
138 155 0
136 154 0
140 159 0
131 150 0
141 160 0
135 153 0
134 152 0
134 152 0
134 152 0
130 148 0
135 154 0
136 155 0
134 153 0
135 154 0
128 147 0
131 150 0
140 157 0
130 148 0
131 148 0
128 147 0
120 139 0
135 155 0
132 152 0
137 157 0
130 149 0
122 140 0
121 139 0
127 144 0
121 140 0
125 143 0
131 149 0
118 136 0
125 143 0
115 132 0
112 131 0
114 131 0
72 90 31
53 77 54
45 72 47
43 70 57
48 76 84
50 80 92
47 75 70
50 80 80
46 75 74
50 79 86
50 79 74
51 80 90
48 76 74
47 75 69
49 77 86
49 78 74
51 80 92
50 80 82
51 81 90
51 81 88
46 75 72
53 83 84
50 80 95
52 82 88
52 83 86
49 79 74
52 83 92
52 82 95
50 79 88
49 78 76
50 80 84
50 80 76
52 82 95
49 78 88
52 82 76
51 81 95
49 78 82
52 83 84
48 76 82
49 78 82
49 78 83
49 78 79
50 79 90
50 78 94
50 78 85
48 76 70
50 78 86
49 77 87
52 81 81
51 81 83
51 79 85
50 78 74
45 71 77
46 72 60
47 74 74
46 70 61
46 70 65
81 100 44
100 115 0
122 137 0
115 128 0
121 133 0
108 121 0
111 125 0
112 127 0
116 130 0
115 129 0
123 136 0
129 144 0
116 129 0
125 143 0
128 145 0
115 128 0
121 135 0
124 138 0
131 146 0
118 131 0
133 147 0
126 140 0
114 128 0
143 160 0
121 133 0
133 146 0
138 153 0
129 142 0
139 151 0
134 146 0
134 146 0
127 140 0
122 134 0
124 135 0
116 128 0
127 136 0
132 146 0
134 143 0
137 148 0
134 144 0
139 149 0
132 142 0
133 141 0
126 134 0
140 147 0
134 140 0
132 140 0
107 112 0
91 85 29
84 79 16
79 74 16
90 86 11
101 95 16
75 72 14
89 83 11
78 71 0
100 94 0
95 90 0
98 95 11
91 85 0
86 79 0
92 87 0
105 100 0
104 99 0
98 93 0
95 89 8
98 93 8
109 102 0
102 98 14
107 103 0
108 102 0
105 101 0
112 104 16
110 105 0
104 98 0
103 99 11
116 109 11
105 100 8
118 112 11
111 106 11
118 112 11
120 115 11
116 112 0
122 117 11
132 126 19
124 119 11
113 108 19
116 109 16
121 117 19
128 123 16
127 121 19
132 127 14
109 105 16
124 118 11
121 117 16
128 123 11
134 128 32
130 122 25
129 124 19
126 122 16
129 123 19
129 124 25
124 119 19
131 125 19
132 125 25
132 127 28
127 122 25
129 122 11
126 122 28
125 119 11
134 128 34
135 130 32
130 124 32
133 128 28
140 132 36
142 137 28
133 127 30
138 132 36
133 127 34
134 129 25
128 122 28
132 127 25
136 130 34
135 129 34
135 130 19
139 132 36
140 134 32
134 128 28
127 120 34
149 142 47
135 128 36
139 133 37
140 133 47
134 128 32
133 128 36
140 134 49
135 129 41
133 127 36
139 134 44
134 128 41
131 126 37
129 123 34
129 125 32
133 127 30
142 137 41
137 131 45
135 130 37
131 125 37
142 134 48
131 125 41
135 129 42
137 130 47
129 123 41
136 129 52
133 128 34
137 131 45
140 133 51
131 126 47
144 139 39
137 130 44
141 136 41
129 123 39
130 124 41
136 129 44
135 129 41
124 118 39
140 133 53
130 124 39
136 130 49
120 115 41
133 126 48
129 123 44
150 169 0
154 173 0
151 171 0
150 169 0
152 173 0
149 168 0
150 171 0
150 169 0
151 171 0
149 169 0
147 167 0
156 175 0
152 172 0
151 171 0
148 168 0
146 165 0
151 171 0
150 170 0
151 170 0
149 169 0
150 170 0
151 171 0
150 170 0
150 169 0
148 168 0
151 171 0
145 164 0
149 169 0
147 166 0
149 168 0
150 169 0
148 167 0
146 165 0
144 163 0
146 165 0
148 167 0
146 165 0
143 162 0
149 168 0
147 167 0
146 165 0
144 163 0
145 164 0
145 164 0
139 158 0
144 164 0
146 165 0
147 167 0
145 164 0
146 165 0
145 164 0
144 163 0
138 156 0
146 165 0
146 165 0
144 162 0
144 163 0
142 161 0
134 152 0
144 162 0
140 159 0
144 162 0
145 164 0
142 161 0
144 163 0
134 152 0
143 160 0
139 157 0
138 156 0
137 155 0
137 156 0
139 157 0
136 154 0
136 155 0
135 153 0
141 159 0
135 153 0
139 158 0
131 149 0
131 150 0
131 149 0
133 149 0
140 158 0
133 151 0
135 153 0
138 156 0
133 150 0
131 148 0
133 149 0
125 143 0
133 151 0
132 150 0
129 146 0
129 146 0
133 149 0
121 138 0
119 135 0
121 137 0
124 141 0
125 142 0
125 141 0
120 135 0
126 142 0
122 138 0
119 134 0
113 128 0
123 139 0
113 128 0
110 124 0
114 129 0
116 131 0
111 126 0
108 123 0
108 122 0
105 119 0
102 116 0
106 120 0
109 122 0
111 125 0
109 123 0
98 111 0
98 110 0
94 106 0
125 141 0
138 156 0
146 164 0
132 149 0
133 150 0
130 146 0
138 156 0
128 146 0
132 150 0
134 152 0
133 150 0
133 151 0
127 145 0
135 153 0
140 158 0
132 149 0
130 147 0
122 140 0
142 160 0
128 146 0
127 145 0
128 147 0
131 149 0
132 151 0
138 158 0
135 155 0
135 154 0
119 137 0
126 146 0
135 154 0
122 140 0
135 154 0
131 149 0
130 148 0
133 152 0
116 134 0
114 131 0
130 149 0
127 144 0
115 133 0
110 126 0
115 132 0
121 138 0
122 140 0
102 119 0
108 125 0
118 135 0
111 128 0
104 120 0
98 115 18
75 95 62
43 69 70
45 73 57
46 74 65
46 74 74
47 74 82
46 75 65
50 80 80
44 71 60
51 81 80
46 74 67
50 80 88
51 82 74
51 81 84
51 81 88
48 77 80
50 79 74
51 80 90
51 81 86
48 76 80
51 81 90
52 82 90
52 82 82
51 81 72
50 80 67
52 83 88
51 81 78
49 79 86
51 81 76
48 76 84
50 79 92
48 77 80
51 81 90
47 75 78
51 81 80
50 80 84
49 77 83
46 73 72
52 81 100
49 78 86
48 76 74
47 75 65
51 80 86
49 77 84
48 75 74
48 76 76
45 71 65
46 73 82
47 74 78
43 68 63
46 72 65
45 70 70
41 64 57
58 77 54
94 108 25
94 108 0
107 121 0
100 114 0
109 123 0
106 121 0
108 123 0
117 131 0
118 132 0
115 129 0
118 129 0
115 128 0
115 130 0
107 121 0
127 142 0
121 137 0
123 137 0
122 134 0
136 152 0
131 141 0
126 139 0
131 146 0
126 138 0
121 133 0
131 144 0
121 132 0
133 146 0
120 129 0
131 146 0
126 139 0
130 142 0
134 147 0
128 139 0
127 137 0
132 143 0
127 140 0
133 145 0
130 138 0
136 143 0
129 137 0
126 133 0
133 142 0
120 127 0
121 131 0
130 139 0
125 131 0
124 130 0
128 136 0
136 143 0
121 126 11
100 97 16
80 75 16
91 85 16
83 76 19
90 84 11
95 90 0
77 71 0
85 79 0
93 88 0
97 91 0
96 88 3
103 97 8
97 93 0
104 98 0
93 89 0
91 86 0
92 88 8
96 91 0
105 98 11
105 100 0
93 91 0
95 90 0
105 99 0
111 105 0
111 105 0
104 99 0
111 107 0
99 96 8
120 115 11
109 104 0
109 105 0
121 116 11
116 112 11
119 113 14
118 113 11
126 121 0
118 113 0
119 113 11
117 111 0
126 120 16
121 116 19
121 116 19
118 113 11
112 106 16
130 124 22
122 119 0
128 122 22
129 123 19
124 118 19
123 119 16
128 122 25
131 127 19
127 121 19
126 122 16
125 120 22
127 122 19
127 122 22
131 124 28
136 130 30
132 126 25
137 130 30
135 128 19
129 124 36
129 124 28
131 125 28
135 129 28
131 125 34
147 140 41
133 127 34
143 136 36
134 129 36
130 125 28
135 129 37
132 128 22
132 126 34
138 131 32
138 132 39
135 129 28
126 119 16
133 126 36
130 127 28
130 126 11
128 124 30
133 129 36
133 127 37
140 132 37
135 130 36
127 121 34
130 126 34
139 133 37
137 129 37
142 134 44
140 135 37
137 131 41
135 129 39
136 130 42
140 133 44
138 132 47
132 126 34
130 125 30
134 128 45
133 128 30
132 127 32
135 127 39
138 131 42
129 124 44
133 128 44
129 123 45
132 126 41
137 131 48
120 115 34
133 127 39
143 136 51
130 125 39
127 121 42
126 119 44
134 127 39
128 122 42
136 130 41
130 124 44
132 126 45
138 132 42
136 129 57
152 173 0
151 170 0
149 168 0
151 172 0
150 170 0
152 173 0
147 168 0
149 168 0
150 168 0
150 169 0
147 168 0
151 171 0
153 173 0
151 170 0
150 170 0
149 169 0
147 167 0
149 169 0
145 164 0
151 171 0
150 170 0
151 170 0
149 169 0
148 167 0
149 168 0
146 165 0
148 167 0
145 165 0
142 161 0
145 164 0
147 166 0
149 167 0
142 160 0
146 166 0
146 165 0
144 163 0
146 165 0
146 166 0
140 160 0
148 167 0
146 165 0
145 164 0
141 161 0
145 165 0
145 164 0
147 166 0
139 157 0
145 164 0
142 161 0
140 157 0
145 164 0
143 160 0
148 167 0
145 164 0
145 164 0
144 163 0
145 164 0
140 159 0
134 151 0
140 157 0
141 160 0
137 156 0
142 161 0
133 151 0
142 160 0
137 154 0
139 158 0
140 158 0
139 158 0
140 158 0
136 155 0
136 154 0
136 153 0
136 153 0
138 156 0
138 156 0
138 156 0
137 154 0
134 151 0
137 155 0
133 150 0
133 151 0
138 156 0
133 151 0
125 143 0
129 146 0
128 145 0
128 145 0
128 144 0
125 142 0
131 147 0
118 134 0
118 135 0
124 140 0
123 139 0
129 145 0
130 147 0
123 139 0
130 147 0
131 147 0
124 139 0
120 136 0
115 129 0
115 131 0
118 133 0
114 130 0
109 125 0
111 126 0
113 127 0
115 130 0
120 135 0
118 132 0
112 126 0
104 118 0
113 126 0
103 116 0
105 119 0
116 130 0
110 123 0
97 109 0
102 115 0
111 125 0
134 150 0
129 145 0
138 154 0
130 146 0
136 153 0
131 148 0
135 152 0
125 141 0
133 151 0
131 148 0
123 140 0
134 151 0
121 138 0
132 150 0
128 145 0
135 153 0
129 147 0
137 154 0
124 141 0
127 144 0
131 149 0
126 143 0
136 153 0
127 145 0
123 140 0
132 149 0
136 154 0
124 143 0
118 136 0
125 143 0
115 134 0
121 139 0
121 140 0
128 146 0
119 138 0
121 140 0
116 134 0
128 147 0
106 123 0
113 131 0
115 132 0
121 139 0
124 142 0
115 132 0
115 133 0
108 125 0
98 115 0
99 116 0
111 129 0
100 117 0
95 112 0
105 120 0
85 101 36
44 67 60
48 77 78
48 77 71
46 74 60
45 72 64
49 78 80
44 71 57
45 72 67
49 78 82
48 77 67
48 77 76
50 81 70
49 78 90
49 78 80
48 76 74
48 77 82
49 78 74
45 73 70
48 77 74
51 81 92
49 79 78
49 77 80
51 81 82
48 77 76
46 74 78
50 79 78
48 77 65
49 79 80
48 77 65
48 77 80
48 78 72
52 82 82
46 74 77
50 78 84
47 76 72
49 78 70
46 73 67
48 77 80
44 71 65
45 71 72
50 79 78
49 77 76
47 75 68
48 76 76
48 76 68
47 74 57
43 68 62
44 69 68
42 66 70
49 72 55
97 111 18
95 107 0
95 108 0
90 102 0
95 107 0
108 122 0
112 127 0
104 117 0
103 116 0
119 134 0
112 126 0
118 133 0
120 134 0
118 130 0
121 134 0
120 134 0
116 133 0
121 133 0
125 138 0
119 134 0
128 144 0
124 136 0
123 135 0
123 136 0
117 134 0
124 138 0
132 146 0
124 137 0
124 135 0
131 143 0
127 138 0
128 141 0
117 128 0
125 138 0
124 135 0
134 143 0
128 139 0
130 140 0
125 135 0
124 133 0
128 139 0
124 134 0
127 135 0
126 134 0
124 133 0
131 141 0
132 140 0
128 133 0
130 138 0
126 135 0
129 137 0
134 141 0
130 133 0
105 103 11
83 77 11
86 79 19
74 69 11
87 80 0
87 80 0
88 83 0
94 88 21
80 74 0
103 96 0
88 83 11
97 91 0
90 84 0
98 93 0
96 93 0
96 91 8
94 89 3
107 101 0
101 96 3
111 106 0
97 91 0
99 92 0
100 95 0
106 100 0
102 95 0
113 108 0
100 94 0
116 110 0
104 100 0
112 106 0
114 107 0
108 104 11
128 122 0
111 106 0
121 116 11
118 113 16
113 108 0
129 123 16
124 117 16
116 111 11
120 115 16
123 118 24
115 110 11
125 120 16
127 121 19
129 124 16
121 117 11
120 114 19
128 120 11
128 122 16
127 121 19
139 131 22
131 126 22
133 129 30
131 124 25
134 127 16
131 127 19
122 117 19
129 123 32
132 126 30
120 115 19
133 126 30
134 127 30
129 123 19
131 126 19
133 125 28
129 124 25
129 124 28
135 128 34
132 125 28
133 127 32
132 126 25
132 126 32
126 121 32
134 127 19
139 133 34
137 131 45
138 133 39
128 122 28
127 122 19
135 129 32
137 130 37
137 131 39
137 130 37
135 129 41
136 129 37
133 126 41
139 133 44
139 132 47
133 126 39
137 131 41
141 133 51
140 133 48
136 130 41
135 130 30
131 126 32
134 129 42
135 129 47
140 133 42
132 126 30
125 120 32
131 125 45
130 124 30
139 133 39
137 131 49
129 123 34
128 123 36
133 126 42
132 127 39
130 124 37
134 128 36
124 118 28
133 126 41
134 127 52
133 127 42
126 122 44
131 125 39
139 132 47
134 129 36
132 127 37
130 124 41
124 117 36
153 172 0
151 172 0
151 171 0
148 167 0
149 168 0
151 171 0
151 170 0
150 169 0
148 168 0
152 172 0
150 169 0
150 170 0
149 170 0
148 168 0
148 167 0
148 168 0
150 170 0
150 171 0
152 171 0
147 167 0
149 168 0
150 170 0
151 171 0
147 166 0
148 167 0
148 167 0
147 166 0
147 166 0
149 168 0
149 168 0
146 165 0
147 166 0
144 162 0
144 163 0
147 167 0
144 163 0
153 172 0
148 167 0
142 160 0
146 166 0
142 161 0
141 160 0
141 159 0
146 164 0
143 162 0
142 160 0
142 161 0
144 162 0
143 162 0
143 162 0
146 164 0
141 159 0
147 167 0
140 157 0
143 162 0
138 156 0
139 157 0
147 165 0
142 161 0
142 160 0
140 159 0
143 161 0
142 160 0
138 156 0
141 158 0
133 152 0
141 158 0
141 160 0
139 158 0
139 157 0
139 157 0
140 158 0
132 150 0
137 154 0
136 155 0
134 152 0
133 151 0
135 152 0
135 153 0
136 154 0
134 152 0
136 153 0
133 151 0
135 151 0
127 144 0
130 147 0
128 146 0
131 147 0
121 138 0
124 141 0
124 140 0
122 137 0
125 141 0
123 139 0
120 136 0
117 134 0
118 133 0
124 138 0
116 131 0
117 132 0
123 139 0
112 127 0
122 137 0
111 125 0
116 132 0
116 131 0
113 129 0
119 135 0
114 130 0
118 132 0
109 123 0
110 124 0
101 115 0
109 122 0
106 118 0
102 115 0
98 111 0
105 117 0
93 105 0
89 100 0
118 132 0
134 150 0
136 152 0
133 149 0
137 153 0
137 153 0
137 153 0
135 152 0
124 140 0
132 149 0
132 148 0
129 145 0
131 147 0
130 148 0
129 146 0
137 154 0
134 152 0
124 141 0
130 148 0
134 150 0
125 145 0
125 142 0
129 146 0
141 159 0
125 143 0
132 150 0
140 158 0
125 144 0
125 143 0
123 141 0
117 134 0
127 146 0
116 134 0
115 133 0
121 139 0
118 136 0
125 141 0
116 134 0
124 142 0
127 144 0
119 137 0
115 131 0
112 130 0
113 130 0
103 120 0
124 142 0
122 138 0
107 124 0
109 125 0
105 123 0
105 121 0
99 115 0
103 119 0
101 116 0
82 97 0
87 101 0
72 88 31
52 75 61
48 77 69
40 65 40
44 71 60
46 74 62
45 72 62
46 73 74
44 72 67
48 77 76
48 76 78
47 76 65
49 78 76
50 80 65
49 78 82
48 77 67
48 76 67
47 75 67
52 83 88
46 74 67
48 76 74
47 76 51
49 78 72
48 76 72
51 80 76
48 77 82
48 77 90
50 80 80
44 71 60
48 75 78
47 75 84
47 75 76
47 75 77
49 78 82
46 74 70
47 75 80
47 76 78
49 78 76
48 75 70
49 77 81
48 76 72
48 77 78
46 74 65
44 70 63
41 66 48
41 65 57
50 70 40
77 89 18
80 93 0
79 89 0
90 104 0
83 96 0
98 112 0
107 118 0
86 97 0
107 120 0
106 118 0
89 103 0
103 114 0
115 129 0
103 116 0
115 128 0
117 131 0
116 131 0
126 136 0
115 129 0
125 140 0
124 137 0
119 133 0
120 136 0
120 134 0
129 139 0
126 140 0
123 137 0
111 122 0
120 132 0
121 132 0
124 136 0
117 129 0
120 130 0
116 128 0
121 135 0
122 132 0
127 136 0
124 133 0
130 140 0
123 131 0
125 133 0
119 126 0
123 131 0
120 125 0
120 128 0
123 131 0
124 129 0
123 132 0
115 118 0
123 128 0
126 130 0
121 127 0
132 138 0
125 126 0
121 124 0
121 127 0
111 116 0
89 85 16
73 68 11
84 77 0
81 74 0
71 66 0
88 81 11
94 86 0
97 89 11
84 79 8
97 90 0
89 81 0
92 85 0
92 87 8
103 98 0
92 84 0
105 98 0
98 93 0
99 93 0
108 102 0
97 91 0
99 95 8
102 97 8
110 104 0
109 103 0
110 104 0
118 111 0
111 108 0
117 110 0
108 103 0
113 108 0
114 109 0
115 110 8
110 106 0
110 105 11
124 118 0
114 108 11
116 110 0
117 112 11
110 105 11
115 109 0
126 121 0
122 116 16
122 117 11
121 114 16
126 118 11
123 117 0
131 125 11
121 116 16
121 114 19
122 117 19
126 120 22
125 120 19
127 118 16
129 123 19
124 117 22
132 124 28
129 124 19
123 117 25
136 130 19
134 128 32
131 123 25
128 122 30
137 130 28
131 125 39
123 117 22
135 130 19
129 122 28
129 124 25
127 121 25
130 124 32
126 121 28
140 134 36
128 122 34
125 121 25
137 131 34
134 128 34
142 137 34
137 131 19
142 135 42
134 128 34
136 130 30
139 132 30
136 130 34
133 127 37
131 125 37
133 127 32
131 125 30
138 132 36
138 132 36
140 134 52
132 127 32
136 130 41
141 134 44
128 124 30
131 125 41
131 125 36
133 127 36
134 128 39
137 130 30
126 120 34
134 127 34
128 123 41
131 125 37
135 128 41
131 126 37
131 124 36
129 122 37
131 126 37
123 117 37
125 119 36
128 122 44
142 135 52
127 121 32
132 125 45
127 121 36
128 123 41
135 129 44
124 118 42
140 132 54
132 125 44
153 173 0
149 170 0
153 173 0
149 169 0
148 169 0
152 171 0
148 168 0
153 173 0
152 171 0
149 169 0
147 167 0
152 172 0
149 168 0
151 170 0
146 165 0
149 170 0
150 170 0
150 169 0
151 170 0
144 164 0
150 169 0
149 169 0
150 169 0
150 170 0
148 168 0
151 170 0
147 166 0
147 167 0
148 166 0
149 169 0
148 166 0
146 164 0
148 167 0
146 164 0
144 163 0
148 167 0
148 168 0
143 163 0
143 162 0
147 166 0
143 162 0
142 161 0
146 166 0
146 165 0
142 160 0
140 158 0
142 161 0
145 164 0
147 166 0
141 160 0
149 168 0
142 160 0
145 164 0
140 159 0
135 152 0
140 158 0
143 161 0
143 161 0
138 157 0
140 158 0
137 155 0
138 156 0
142 162 0
137 155 0
136 155 0
135 153 0
135 153 0
136 153 0
138 156 0
136 153 0
136 154 0
128 146 0
134 153 0
135 152 0
133 150 0
133 151 0
133 150 0
127 144 0
130 148 0
141 159 0
135 153 0
134 151 0
131 149 0
133 149 0
125 141 0
131 147 0
131 147 0
132 149 0
124 139 0
128 145 0
125 142 0
128 145 0
128 143 0
126 143 0
122 137 0
122 137 0
122 138 0
118 134 0
122 138 0
122 137 0
116 132 0
124 139 0
117 133 0
117 132 0
113 127 0
112 126 0
110 124 0
118 133 0
116 131 0
118 132 0
109 122 0
104 117 0
101 114 0
102 114 0
99 112 0
92 103 0
94 106 0
87 97 0
112 126 0
130 145 0
129 143 0
136 151 0
134 149 0
126 141 0
129 145 0
120 136 0
132 148 0
119 135 0
129 145 0
125 140 0
130 146 0
129 145 0
128 145 0
123 140 0
132 149 0
130 147 0
129 146 0
125 143 0
123 140 0
118 135 0
116 131 0
130 147 0
125 143 0
132 150 0
127 144 0
123 141 0
122 139 0
126 144 0
132 149 0
125 143 0
116 133 0
121 138 0
125 142 0
114 131 0
126 144 0
127 145 0
123 141 0
115 134 0
133 151 0
116 133 0
121 138 0
109 125 0
117 134 0
118 136 0
112 129 0
120 137 0
102 117 0
87 104 0
107 124 0
106 122 0
106 122 0
98 115 0
105 121 0
98 114 0
96 111 0
90 106 0
83 97 0
85 98 0
66 81 25
43 66 60
44 70 57
43 69 65
44 71 64
43 69 51
47 74 84
51 80 82
45 72 72
47 76 59
45 71 65
46 74 80
46 74 62
51 81 90
48 77 72
48 77 74
44 70 74
47 75 67
46 73 74
47 75 78
51 81 86
45 73 65
46 73 67
48 76 70
48 76 80
47 74 82
45 72 62
51 80 76
46 74 65
47 75 76
49 77 84
50 79 78
49 77 76
49 78 75
49 78 78
44 71 62
44 70 80
43 68 67
45 72 60
45 70 57
45 72 67
43 68 67
55 75 44
67 82 31
93 103 0
95 106 0
95 106 0
94 106 0
92 102 0
87 99 0
91 103 0
93 106 0
99 111 0
101 114 0
101 112 0
95 108 0
109 123 0
99 110 0
103 116 0
112 124 0
122 135 0
115 128 0
112 124 0
111 124 0
122 136 0
109 121 0
111 123 0
120 135 0
116 130 0
132 145 0
119 129 0
116 128 0
123 137 0
119 130 0
116 127 0
125 137 0
123 135 0
122 133 0
115 126 0
122 132 0
112 122 0
117 127 0
121 132 0
122 133 0
128 139 0
124 131 0
126 136 0
117 125 0
113 121 0
122 131 0
133 143 0
130 140 0
122 128 0
118 124 0
123 127 0
116 121 0
125 130 0
121 126 0
116 120 0
112 117 0
118 121 0
120 122 0
116 117 0
103 105 11
77 69 11
88 82 11
83 76 0
83 77 0
92 84 16
89 83 0
90 82 0
90 82 0
85 79 0
97 91 11
84 80 0
90 85 0
102 94 0
104 98 3
99 94 8
93 88 0
104 96 0
108 102 0
96 93 0
103 95 0
99 94 0
112 107 0
103 96 0
109 103 0
103 98 0
100 93 0
102 94 0
114 106 8
108 103 0
110 106 0
104 99 0
111 107 8
112 106 0
118 113 0
114 108 14
101 96 0
119 112 0
118 113 11
124 117 11
119 113 16
123 117 11
121 114 16
122 117 11
120 113 19
124 118 19
120 115 11
118 110 16
122 116 16
107 103 11
121 115 19
121 114 22
131 125 28
129 124 16
128 123 19
129 125 11
126 122 11
132 127 28
119 114 22
130 125 16
125 120 19
127 122 22
135 127 22
131 126 19
118 113 25
137 131 34
130 123 37
125 120 22
130 125 22
127 123 19
137 130 34
131 125 30
133 126 34
133 126 30
136 131 22
134 128 32
126 120 28
131 125 25
124 118 30
142 135 45
133 126 34
139 132 42
138 131 32
127 121 30
125 119 25
139 133 39
132 127 37
129 123 39
141 135 41
126 121 30
129 124 39
130 125 39
125 119 36
125 118 30
133 126 44
133 126 36
133 128 28
132 126 41
134 129 41
127 122 19
129 124 39
127 122 39
125 119 34
126 119 37
128 123 36
120 113 34
129 122 37
128 122 39
130 124 39
130 125 37
127 120 41
125 120 39
133 127 41
131 125 42
122 116 41
131 126 39
133 127 44
120 114 45
122 116 41
151 170 0
147 165 0
150 170 0
151 170 0
148 168 0
148 168 0
148 168 0
151 171 0
151 171 0
149 168 0
150 170 0
152 172 0
150 170 0
146 164 0
147 167 0
149 168 0
149 169 0
151 171 0
150 169 0
150 170 0
151 170 0
147 166 0
148 167 0
148 167 0
150 169 0
148 167 0
142 161 0
150 169 0
145 164 0
147 166 0
144 163 0
145 163 0
147 166 0
148 167 0
147 166 0
146 165 0
146 164 0
143 161 0
144 162 0
141 159 0
146 164 0
142 160 0
142 160 0
145 164 0
145 164 0
143 161 0
145 164 0
143 161 0
146 165 0
145 162 0
143 163 0
142 160 0
142 160 0
145 163 0
141 159 0
145 164 0
144 163 0
143 161 0
137 154 0
140 157 0
133 151 0
142 160 0
138 156 0
144 162 0
139 158 0
141 158 0
142 160 0
135 152 0
133 149 0
136 153 0
133 150 0
130 147 0
134 152 0
132 149 0
132 150 0
141 158 0
132 150 0
133 149 0
126 143 0
134 151 0
133 149 0
133 149 0
127 143 0
133 150 0
127 143 0
132 148 0
129 145 0
134 150 0
127 142 0
121 135 0
131 146 0
128 143 0
132 149 0
121 137 0
131 147 0
127 144 0
123 139 0
121 136 0
123 139 0
123 138 0
117 132 0
119 134 0
110 125 0
118 133 0
114 127 0
115 129 0
100 114 0
104 118 0
114 127 0
108 122 0
111 124 0
105 119 0
98 110 0
90 102 0
94 105 0
94 105 0
95 106 0
123 137 0
124 139 0
120 134 0
134 148 0
131 147 0
113 128 0
121 137 0
122 137 0
127 142 0
129 144 0
121 137 0
134 150 0
132 147 0
126 143 0
136 153 0
124 139 0
123 140 0
120 136 0
124 140 0
134 152 0
125 141 0
126 144 0
125 142 0
132 149 0
131 148 0
118 136 0
116 134 0
131 147 0
128 146 0
125 142 0
125 142 0
114 132 0
119 138 0
121 138 0
116 133 0
118 136 0
113 130 0
118 135 0
115 133 0
123 142 0
109 125 0
118 135 0
126 143 0
114 131 0
110 127 0
106 124 0
99 115 0
111 127 0
101 116 0
98 115 0
111 127 0
107 123 0
97 113 0
109 124 0
114 130 0
86 101 0
94 110 0
83 96 0
83 98 0
93 107 0
84 97 0
89 105 0
80 92 0
70 84 18
58 77 40
48 70 54
45 73 67
45 71 76
44 70 70
40 65 54
46 74 67
46 73 57
47 75 76
44 72 62
49 78 74
45 73 70
49 77 80
44 70 60
48 76 74
45 73 74
45 72 72
45 73 62
45 72 62
43 70 54
46 73 76
44 71 51
48 77 78
47 75 67
42 69 60
47 74 86
45 72 70
45 73 60
51 80 74
46 73 57
43 70 72
44 70 65
43 69 57
44 70 60
43 68 65
39 62 44
41 63 36
53 71 40
77 91 25
61 70 0
89 100 0
66 77 0
86 95 0
96 107 0
85 94 0
95 104 0
98 110 0
91 105 0
99 112 0
107 119 0
98 111 0
102 117 0
107 119 0
111 127 0
104 117 0
106 117 0
107 117 0
109 120 0
112 126 0
121 132 0
116 131 0
112 127 0
101 115 0
119 134 0
114 127 0
114 125 0
117 130 0
118 132 0
120 133 0
111 122 0
111 121 0
121 134 0
122 134 0
117 125 0
123 136 0
120 132 0
120 131 0
114 124 0
108 121 0
110 119 0
121 134 0
117 127 0
120 130 0
121 127 0
127 132 0
121 129 0
108 117 0
114 121 0
111 116 0
116 123 0
113 118 0
120 126 0
125 129 0
115 118 0
112 116 0
113 115 0
106 110 0
125 129 0
108 110 0
116 119 0
120 122 0
115 115 11
88 83 16
80 71 19
83 74 0
82 76 0
84 75 0
98 91 22
91 84 11
74 69 0
100 92 0
92 86 0
89 81 8
82 75 0
84 78 0
93 87 0
92 83 0
95 87 0
104 99 8
104 96 0
109 103 0
101 94 0
106 99 0
104 98 0
112 105 0
110 105 0
118 111 0
115 107 0
110 104 0
101 96 0
117 111 0
107 103 0
118 113 0
116 111 0
116 110 0
114 108 0
114 107 11
125 119 11
119 114 0
116 112 11
127 119 16
127 120 11
125 118 11
120 114 0
117 112 11
121 116 11
125 119 19
125 119 11
112 105 16
125 118 25
118 110 11
120 113 11
122 117 22
129 121 22
119 111 11
125 119 28
122 114 25
123 117 16
131 123 22
130 123 28
126 120 16
129 123 16
127 121 22
132 124 28
121 117 19
128 122 25
127 121 32
126 120 22
130 121 34
130 123 28
121 116 22
126 120 28
129 123 22
132 127 28
130 124 25
132 124 22
130 122 34
130 123 22
135 128 34
123 116 30
130 124 25
130 124 32
129 124 28
126 119 34
140 134 34
135 128 34
132 124 30
132 126 34
128 122 37
128 122 39
133 127 34
140 133 45
132 127 32
131 125 37
125 120 30
124 118 28
127 120 36
132 125 37
136 130 34
131 125 41
132 125 34
139 132 45
126 120 41
130 124 39
133 126 39
135 129 41
124 117 42
131 124 39
135 129 45
128 122 42
133 125 42
127 120 41
127 121 37
130 124 36
135 128 48
137 131 37
125 120 39
122 116 44
127 121 44
154 174 0
151 170 0
150 169 0
150 169 0
151 171 0
148 168 0
152 172 0
148 167 0
148 167 0
150 169 0
147 166 0
152 171 0
149 169 0
151 170 0
150 169 0
148 168 0
151 171 0
151 170 0
148 168 0
150 169 0
144 163 0
149 168 0
149 168 0
146 165 0
147 167 0
149 167 0
147 165 0
149 167 0
147 165 0
147 166 0
145 164 0
141 160 0
149 169 0
146 165 0
146 166 0
147 165 0
143 162 0
147 165 0
149 168 0
148 166 0
144 162 0
143 161 0
141 159 0
144 163 0
143 161 0
146 164 0
143 161 0
142 159 0
140 158 0
146 164 0
141 159 0
140 158 0
145 164 0
139 156 0
143 160 0
141 158 0
138 155 0
141 159 0
138 155 0
139 158 0
136 154 0
143 161 0
140 158 0
141 159 0
138 155 0
131 148 0
134 151 0
136 153 0
134 152 0
140 157 0
140 157 0
137 153 0
134 152 0
133 151 0
132 148 0
133 150 0
136 155 0
131 148 0
127 143 0
132 148 0
122 138 0
135 152 0
133 149 0
135 152 0
129 146 0
131 147 0
121 136 0
124 141 0
128 144 0
120 136 0
120 135 0
121 136 0
120 135 0
125 140 0
119 134 0
122 137 0
119 134 0
123 137 0
117 132 0
123 139 0
109 122 0
116 131 0
108 122 0
110 124 0
108 122 0
109 123 0
106 119 0
104 117 0
99 113 0
107 120 0
105 118 0
90 102 0
96 108 0
77 87 0
75 86 0
108 120 0
118 131 0
118 132 0
118 131 0
115 129 0
120 134 0
125 139 0
116 130 0
119 135 0
115 129 0
117 133 0
114 128 0
122 136 0
130 147 0
119 135 0
123 138 0
120 136 0
122 138 0
116 132 0
121 137 0
120 137 0
104 119 0
120 136 0
121 137 0
119 136 0
128 145 0
116 133 0
124 141 0
122 138 0
130 147 0
119 136 0
125 141 0
118 136 0
130 147 0
113 131 0
115 133 0
116 133 0
112 129 0
116 134 0
126 144 0
114 132 0
115 133 0
116 134 0
122 139 0
117 134 0
106 122 0
107 125 0
109 126 0
112 129 0
105 121 0
115 131 0
106 122 0
97 114 0
104 119 0
106 122 0
101 117 0
111 126 0
99 114 0
89 104 0
88 101 0
87 101 0
87 101 0
73 86 0
79 93 0
75 87 0
74 86 0
74 86 0
64 77 0
56 71 31
49 67 47
39 63 62
42 66 65
42 67 60
44 71 60
44 70 76
45 72 65
41 66 51
44 71 80
45 71 65
46 74 54
47 75 57
46 73 67
42 69 65
45 72 65
41 66 62
44 71 62
44 70 72
44 70 65
42 68 51
43 68 44
40 64 60
45 72 62
40 65 54
41 66 60
45 71 67
44 70 60
41 66 54
44 70 57
40 64 44
40 63 40
48 68 51
57 72 36
51 61 0
66 72 0
71 81 0
85 93 0
73 83 0
71 81 0
76 87 0
85 94 0
95 105 0
99 111 0
93 104 0
91 102 0
97 106 0
97 109 0
95 109 0
101 112 0
100 111 0
100 111 0
105 117 0
115 126 0
100 112 0
113 125 0
107 117 0
102 114 0
115 130 0
118 132 0
126 139 0
107 119 0
123 136 0
112 124 0
109 122 0
113 126 0
114 126 0
109 121 0
125 137 0
111 123 0
113 121 0
116 127 0
113 125 0
111 123 0
116 125 0
115 123 0
117 127 0
118 128 0
120 130 0
117 126 0
118 128 0
125 132 0
127 136 0
108 117 0
129 139 0
126 134 0
113 121 0
107 115 0
109 114 0
111 114 0
106 110 0
110 110 0
117 121 0
111 116 0
104 107 0
118 119 0
115 119 0
116 115 0
126 130 0
116 118 0
101 99 0
102 102 0
84 80 11
68 61 11
80 74 16
87 79 11
91 83 0
77 72 0
90 83 0
100 92 0
87 80 0
91 84 0
97 93 0
85 80 0
87 80 0
95 89 0
93 86 0
101 95 0
111 104 0
100 94 0
107 100 0
97 91 0
113 106 0
90 85 0
102 98 0
103 98 0
109 102 0
104 98 0
112 105 0
113 108 0
113 106 0
106 102 0
107 101 0
116 109 0
114 108 0
116 110 0
112 107 0
118 110 0
117 112 0
114 107 0
110 104 0
129 122 0
112 106 11
122 116 0
124 117 0
123 118 0
115 110 11
112 106 0
123 119 11
130 124 11
118 113 22
133 128 22
127 120 22
120 116 16
124 119 22
116 109 22
114 108 11
129 123 22
127 120 16
133 127 11
127 119 30
123 117 25
133 125 34
127 121 28
124 116 30
129 123 16
124 120 16
131 125 22
129 123 30
119 113 22
129 123 30
130 124 25
135 128 36
135 128 30
135 128 36
138 131 37
128 123 25
137 129 37
131 126 34
136 130 19
120 114 34
125 119 25
135 129 32
127 122 36
133 126 30
126 119 32
133 126 41
125 118 32
134 128 32
126 119 30
128 122 30
126 119 28
131 123 36
122 117 32
127 121 37
133 127 44
125 119 34
131 125 34
129 122 37
128 120 36
128 122 32
128 123 39
125 119 37
128 123 34
126 121 34
130 124 41
121 116 22
132 125 39
126 121 34
126 120 44
128 121 42
119 111 44
124 117 32
131 125 48
119 113 36
114 108 22
119 114 37
152 172 0
149 168 0
149 169 0
147 166 0
150 170 0
151 170 0
152 171 0
152 171 0
151 170 0
149 168 0
150 170 0
151 171 0
145 165 0
150 169 0
146 165 0
146 165 0
149 168 0
144 163 0
149 168 0
149 168 0
150 169 0
143 161 0
146 165 0
146 165 0
149 168 0
147 165 0
147 166 0
147 166 0
150 168 0
142 161 0
145 163 0
142 161 0
145 163 0
147 165 0
146 165 0
145 163 0
143 161 0
146 165 0
142 160 0
145 162 0
149 168 0
143 161 0
140 158 0
145 164 0
146 164 0
146 165 0
145 164 0
142 160 0
145 163 0
138 155 0
141 158 0
144 163 0
142 161 0
139 157 0
138 156 0
138 157 0
143 161 0
140 157 0
138 155 0
143 161 0
131 148 0
141 159 0
136 153 0
135 153 0
135 152 0
134 150 0
134 151 0
136 153 0
138 155 0
135 152 0
138 155 0
134 151 0
133 150 0
139 156 0
133 149 0
134 150 0
133 149 0
132 151 0
130 146 0
135 151 0
133 149 0
134 150 0
128 144 0
127 144 0
130 145 0
130 146 0
127 143 0
131 147 0
129 145 0
125 141 0
127 142 0
125 140 0
130 145 0
121 136 0
125 140 0
118 133 0
129 144 0
118 132 0
113 127 0
115 130 0
108 122 0
115 129 0
115 129 0
113 127 0
103 116 0
111 124 0
112 125 0
103 117 0
91 103 0
102 115 0
92 103 0
99 110 0
87 97 0
105 117 0
117 130 0
114 128 0
108 121 0
117 130 0
115 128 0
120 133 0
116 131 0
129 143 0
118 133 0
116 132 0
126 141 0
125 140 0
118 133 0
124 140 0
117 132 0
121 135 0
123 139 0
126 142 0
118 133 0
121 137 0
125 141 0
116 132 0
120 136 0
116 131 0
123 141 0
122 139 0
125 142 0
124 142 0
123 140 0
124 141 0
127 144 0
119 137 0
123 141 0
127 145 0
114 131 0
124 142 0
117 134 0
113 130 0
106 123 0
123 140 0
130 148 0
121 138 0
117 135 0
124 141 0
103 120 0
117 133 0
113 130 0
116 131 0
113 130 0
103 119 0
109 124 0
118 133 0
109 126 0
87 102 0
107 123 0
99 114 0
88 103 0
93 107 0
101 115 0
87 102 0
79 94 0
80 93 0
84 98 0
83 96 0
84 98 0
69 81 0
78 89 0
83 95 0
70 81 0
62 75 0
96 108 0
57 67 18
67 79 18
58 74 31
46 67 36
38 61 51
41 66 54
44 70 65
40 65 51
44 70 62
44 71 62
42 67 56
39 63 54
38 62 51
42 67 54
43 68 60
40 64 44
44 70 67
42 67 65
41 66 62
44 70 60
42 68 54
41 65 54
40 65 44
41 65 47
41 66 62
35 56 31
45 65 57
50 66 44
64 75 31
59 67 0
51 63 0
59 70 0
78 88 0
73 82 0
78 89 0
86 97 0
89 102 0
83 92 0
88 99 0
83 92 0
92 104 0
100 112 0
69 82 0
95 106 0
99 108 0
101 115 0
102 113 0
101 115 0
103 115 0
101 113 0
103 115 0
104 115 0
119 133 0
105 118 0
110 124 0
107 118 0
113 125 0
116 129 0
118 131 0
116 128 0
118 130 0
119 132 0
114 127 0
115 128 0
107 117 0
120 133 0
113 123 0
130 142 0
119 132 0
106 118 0
107 118 0
127 139 0
119 130 0
116 124 0
122 132 0
115 123 0
116 125 0
121 130 0
123 133 0
119 129 0
111 122 0
110 118 0
126 133 0
104 111 0
111 117 0
116 121 0
114 120 0
120 127 0
103 109 0
116 123 0
109 111 0
106 110 0
112 116 0
94 97 0
99 99 0
111 112 0
109 110 0
108 107 0
110 108 0
110 108 0
100 101 0
95 92 0
79 73 11
68 60 11
80 72 11
79 73 0
71 65 0
83 77 0
90 83 0
94 87 0
92 86 0
98 90 11
92 86 0
89 84 0
98 91 0
100 92 0
97 91 0
105 99 0
104 96 0
105 97 0
100 94 0
107 98 0
105 99 0
112 106 0
114 108 0
103 98 0
100 94 0
105 97 0
116 110 0
109 101 11
105 99 0
114 107 0
113 105 0
114 108 0
107 102 11
115 110 11
115 107 11
125 118 0
120 113 0
113 106 0
116 111 0
118 112 19
117 110 0
116 108 19
115 109 11
113 107 11
122 116 16
116 110 11
118 111 11
124 117 25
127 119 16
128 124 19
122 117 11
125 118 19
118 113 25
117 112 0
128 119 22
128 121 22
126 120 19
126 120 30
125 116 25
126 120 25
120 113 19
134 127 30
126 119 22
122 115 30
131 124 34
117 111 19
124 117 22
130 123 39
127 120 16
130 124 19
122 117 22
132 127 34
131 123 25
132 126 30
132 126 30
125 119 28
136 130 34
123 116 30
132 126 30
125 119 19
131 126 34
121 117 30
132 126 32
121 116 30
131 124 28
127 121 42
132 126 32
130 124 36
127 121 36
118 111 19
129 122 36
124 118 28
127 121 36
120 114 34
133 127 37
132 126 36
128 123 32
129 123 34
129 122 44
133 126 44
115 111 30
125 119 34
127 121 39
132 126 42
123 117 32
135 128 51
129 123 37
117 110 34
121 115 36
117 110 34
135 128 47
121 116 39
133 125 44
148 168 0
150 169 0
149 168 0
148 168 0
152 171 0
149 169 0
150 168 0
151 171 0
151 169 0
150 169 0
150 169 0
148 168 0
149 168 0
148 168 0
148 166 0
150 169 0
147 165 0
148 168 0
147 166 0
146 164 0
149 168 0
150 168 0
146 165 0
144 163 0
144 163 0
147 165 0
148 167 0
149 167 0
147 165 0
145 163 0
145 162 0
146 165 0
145 163 0
143 162 0
145 164 0
144 162 0
147 165 0
147 164 0
144 162 0
143 162 0
139 157 0
140 157 0
144 161 0
143 161 0
142 159 0
138 156 0
145 163 0
146 164 0
144 162 0
143 161 0
143 161 0
141 158 0
138 156 0
139 156 0
138 155 0
143 160 0
141 158 0
133 150 0
136 153 0
138 156 0
134 151 0
136 152 0
136 154 0
140 158 0
137 154 0
132 149 0
137 154 0
138 153 0
137 155 0
133 150 0
134 152 0
134 151 0
135 151 0
129 146 0
130 147 0
132 148 0
132 149 0
125 141 0
128 143 0
127 142 0
130 145 0
134 150 0
128 143 0
128 143 0
129 146 0
123 138 0
130 146 0
119 134 0
125 142 0
124 140 0
120 136 0
121 136 0
121 137 0
116 130 0
122 137 0
117 132 0
121 136 0
112 125 0
114 128 0
112 127 0
117 131 0
109 123 0
104 118 0
103 116 0
102 115 0
110 123 0
110 124 0
98 109 0
96 108 0
88 99 0
79 88 0
102 114 0
102 114 0
111 124 0
115 127 0
120 132 0
114 127 0
106 119 0
104 117 0
112 126 0
122 136 0
114 128 0
122 136 0
109 123 0
118 133 0
118 133 0
119 134 0
119 135 0
118 134 0
125 141 0
123 139 0
117 133 0
117 132 0
120 137 0
124 141 0
123 139 0
122 138 0
119 135 0
131 148 0
124 141 0
129 146 0
119 136 0
131 149 0
113 129 0
122 140 0
115 132 0
118 135 0
124 142 0
118 135 0
116 133 0
132 150 0
118 136 0
110 127 0
119 136 0
127 144 0
128 145 0
113 130 0
107 125 0
110 127 0
110 128 0
113 130 0
111 129 0
99 115 0
113 129 0
100 117 0
99 115 0
101 117 0
102 119 0
93 109 0
104 119 0
96 112 0
95 110 0
98 114 0
99 113 0
88 103 0
97 113 0
93 107 0
87 100 0
92 107 0
75 89 0
71 84 0
88 102 0
66 78 0
70 83 0
79 92 0
47 60 0
74 84 0
59 68 0
61 71 0
61 71 0
58 67 18
49 62 40
47 61 36
47 66 51
39 59 25
38 60 25
42 64 40
40 64 51
40 64 67
39 62 44
39 63 54
38 62 60
39 63 54
37 57 36
41 61 62
41 63 57
32 50 44
45 56 25
49 62 32
64 76 31
66 74 0
50 60 0
76 85 0
57 65 0
55 66 0
61 70 0
65 75 0
78 89 0
83 94 0
84 94 0
68 81 0
80 89 0
80 93 0
79 90 0
95 105 0
97 108 0
80 92 0
102 113 0
94 106 0
100 111 0
106 118 0
94 103 0
84 95 0
97 111 0
100 111 0
92 105 0
109 122 0
106 118 0
114 126 0
92 105 0
107 120 0
121 133 0
113 124 0
107 120 0
111 123 0
112 124 0
116 127 0
110 124 0
107 117 0
108 121 0
120 133 0
111 122 0
119 130 0
117 130 0
114 125 0
109 119 0
114 126 0
119 130 0
109 120 0
107 116 0
122 133 0
126 138 0
116 127 0
112 120 0
112 117 0
117 125 0
108 114 0
123 129 0
117 125 0
104 109 0
113 118 0
109 116 0
111 115 0
102 106 0
107 112 0
112 116 0
106 107 0
108 112 0
100 103 0
115 117 0
116 117 0
107 107 0
103 104 0
111 109 0
110 109 0
102 102 0
97 94 0
109 108 0
86 84 0
77 70 0
84 75 0
98 89 22
72 67 8
78 71 0
85 80 0
84 77 0
85 78 0
83 76 0
96 88 11
104 96 0
94 86 0
91 85 0
91 82 0
97 92 0
92 86 0
97 90 0
94 86 0
92 85 0
100 90 0
94 88 0
101 94 0
105 98 0
103 98 0
114 105 0
108 100 0
109 103 0
110 101 0
117 110 0
117 110 0
118 112 0
119 114 0
112 105 11
115 109 0
112 105 11
111 105 0
121 114 11
114 109 11
112 105 0
113 108 0
119 114 11
112 106 0
122 115 19
125 118 19
115 109 16
124 118 19
126 120 16
121 114 22
136 128 28
127 121 19
122 114 19
117 112 11
122 115 19
125 119 16
123 117 22
124 119 28
124 116 25
121 115 19
129 123 28
124 117 16
126 119 30
120 114 22
131 123 19
127 120 28
128 121 19
118 112 16
122 115 22
118 113 25
117 110 22
128 121 36
131 124 16
136 129 34
126 119 25
125 119 34
128 121 34
133 126 34
126 120 25
121 115 30
129 122 32
129 123 36
123 116 32
122 117 25
128 122 30
125 120 30
127 122 25
123 118 34
129 121 36
139 132 34
133 127 37
122 117 32
126 119 25
125 119 39
129 122 36
125 119 34
117 111 19
131 125 36
119 113 28
132 127 41
137 131 44
125 118 37
129 122 36
130 124 47
126 119 42
133 126 37
120 114 39
120 114 37
119 113 39
134 127 44
128 122 44
138 130 47
128 120 42
144 163 0
142 161 0
149 169 0
147 165 0
149 169 0
148 167 0
150 168 0
149 168 0
151 169 0
149 168 0
145 164 0
150 170 0
150 169 0
150 168 0
147 166 0
148 167 0
149 168 0
151 169 0
148 167 0
147 164 0
147 166 0
145 163 0
143 162 0
146 165 0
148 167 0
147 165 0
146 165 0
148 167 0
148 168 0
147 166 0
146 164 0
143 161 0
144 161 0
142 161 0
149 167 0
149 167 0
144 162 0
146 163 0
140 158 0
147 165 0
142 160 0
142 159 0
140 158 0
142 161 0
135 152 0
143 161 0
149 167 0
140 158 0
140 158 0
141 159 0
145 164 0
141 159 0
140 157 0
142 159 0
140 159 0
135 153 0
142 160 0
136 153 0
136 153 0
138 154 0
139 155 0
135 152 0
136 153 0
132 148 0
142 159 0
135 153 0
137 154 0
140 157 0
134 150 0
135 152 0
135 153 0
128 145 0
131 147 0
134 150 0
132 148 0
134 151 0
134 149 0
127 143 0
130 146 0
130 146 0
129 146 0
127 142 0
130 146 0
126 142 0
130 145 0
124 139 0
122 137 0
120 134 0
127 143 0
123 138 0
127 142 0
121 135 0
117 131 0
119 133 0
122 137 0
126 140 0
114 128 0
109 122 0
112 126 0
105 118 0
110 124 0
120 134 0
104 116 0
93 106 0
94 105 0
111 124 0
98 109 0
88 98 0
85 94 0
82 92 0
100 111 0
100 112 0
110 122 0
113 125 0
100 112 0
125 138 0
111 124 0
110 123 0
111 125 0
119 133 0
115 129 0
114 128 0
127 141 0
110 125 0
110 123 0
127 143 0
104 118 0
117 133 0
115 130 0
119 134 0
110 126 0
126 142 0
115 130 0
127 144 0
120 136 0
110 126 0
119 135 0
119 136 0
125 142 0
128 146 0
126 143 0
117 133 0
123 140 0
119 135 0
118 134 0
121 139 0
117 134 0
123 140 0
119 136 0
121 138 0
120 138 0
124 142 0
114 131 0
115 132 0
113 130 0
115 132 0
117 134 0
127 145 0
115 133 0
120 138 0
117 134 0
115 131 0
114 131 0
117 133 0
105 122 0
115 131 0
102 119 0
105 121 0
110 127 0
106 122 0
112 128 0
95 110 0
94 109 0
105 119 0
82 97 0
92 105 0
91 105 0
87 100 0
79 92 0
71 84 0
81 96 0
67 79 0
68 81 0
78 91 0
68 81 0
81 93 0
72 84 0
77 90 0
75 86 0
63 73 0
67 78 0
58 70 0
57 66 0
49 59 0
61 70 0
53 61 0
56 65 0
55 63 0
48 55 18
41 52 18
65 73 18
63 72 0
47 55 0
60 67 0
45 52 0
55 64 0
75 85 0
57 67 0
56 64 0
42 48 0
51 59 0
73 81 0
46 54 0
76 85 0
74 85 0
75 84 0
48 59 0
77 87 0
71 84 0
73 84 0
73 82 0
75 87 0
68 75 0
82 94 0
90 102 0
90 102 0
98 111 0
99 111 0
107 119 0
106 117 0
90 100 0
97 109 0
110 123 0
95 104 0
102 113 0
117 127 0
109 119 0
109 121 0
110 122 0
113 125 0
110 123 0
110 123 0
113 126 0
126 139 0
105 118 0
112 126 0
125 138 0
119 130 0
119 131 0
125 138 0
131 145 0
115 129 0
120 131 0
115 127 0
115 125 0
115 125 0
108 121 0
106 120 0
105 115 0
121 132 0
100 106 0
111 120 0
103 109 0
126 134 0
124 134 0
111 120 0
109 117 0
110 117 0
109 114 0
107 113 0
111 119 0
104 111 0
125 133 0
119 127 0
114 119 0
105 108 0
102 106 0
100 103 0
119 124 0
105 105 0
99 100 0
118 117 0
90 91 0
108 110 0
111 110 0
100 99 0
112 114 0
101 100 0
96 93 0
103 99 0
85 78 0
64 59 16
75 69 0
86 78 0
90 80 0
94 85 0
78 73 0
83 75 0
88 81 0
93 85 0
87 79 0
96 86 11
100 94 0
106 96 0
111 103 0
84 78 0
103 96 0
91 82 0
97 88 0
108 100 0
95 85 0
103 97 0
109 102 0
111 102 0
103 97 0
108 100 0
106 100 0
111 105 0
124 117 0
113 103 0
111 105 0
113 107 11
114 108 0
108 102 0
112 106 0
113 108 16
113 107 11
114 107 0
115 108 0
120 115 11
110 104 0
121 114 11
121 114 0
123 117 0
117 112 16
122 115 0
114 108 0
120 114 16
115 109 19
119 114 16
117 111 16
125 118 19
120 115 16
121 115 16
115 110 16
124 117 16
134 129 22
124 116 19
127 122 22
121 115 19
118 111 28
123 115 19
126 117 25
121 115 22
118 112 19
129 123 28
127 119 25
116 110 22
122 116 22
131 125 30
131 123 30
131 124 30
127 122 22
123 116 30
134 125 36
129 123 22
125 118 19
125 118 34
125 119 25
127 120 28
128 120 30
131 123 37
125 119 25
128 120 25
126 120 34
136 127 37
125 120 28
133 128 41
127 119 36
125 119 39
130 125 37
119 113 34
125 119 39
125 118 36
121 115 34
128 120 51
133 126 37
111 104 34
121 114 32
128 122 32
127 121 37
128 123 39
137 131 45
127 119 39
129 123 41
122 115 34
129 122 39
117 111 34
114 107 34
115 109 39
138 156 0
142 161 0
142 160 0
146 164 0
144 163 0
144 162 0
146 165 0
151 169 0
151 169 0
148 168 0
150 169 0
148 167 0
150 169 0
147 166 0
148 166 0
145 164 0
151 170 0
151 169 0
149 168 0
146 164 0
145 163 0
146 165 0
147 166 0
144 162 0
146 165 0
148 166 0
148 167 0
144 163 0
146 164 0
143 161 0
146 164 0
147 165 0
139 157 0
145 163 0
141 160 0
144 163 0
145 162 0
141 159 0
139 157 0
144 162 0
143 161 0
143 161 0
144 162 0
142 159 0
143 160 0
140 157 0
141 159 0
143 160 0
140 157 0
140 157 0
144 162 0
140 157 0
144 161 0
138 154 0
141 158 0
140 159 0
139 156 0
138 155 0
137 154 0
135 153 0
139 156 0
130 147 0
134 151 0
139 155 0
130 146 0
139 157 0
138 154 0
138 155 0
134 150 0
138 153 0
134 149 0
131 147 0
138 154 0
130 146 0
133 149 0
133 150 0
128 143 0
126 141 0
132 147 0
126 141 0
122 137 0
127 142 0
123 139 0
130 146 0
128 144 0
124 139 0
120 134 0
133 148 0
123 138 0
119 134 0
120 135 0
110 124 0
113 127 0
120 134 0
108 122 0
116 129 0
106 120 0
115 128 0
112 124 0
114 127 0
103 115 0
105 118 0
110 122 0
89 99 0
90 100 0
75 83 0
84 94 0
97 108 0
101 111 0
105 115 0
106 117 0
109 121 0
108 120 0
116 128 0
114 126 0
108 122 0
115 128 0
118 132 0
112 125 0
114 128 0
113 127 0
110 124 0
128 143 0
116 131 0
126 142 0
112 126 0
118 132 0
122 137 0
119 136 0
118 133 0
112 127 0
113 129 0
114 130 0
114 130 0
124 141 0
122 139 0
116 132 0
122 139 0
120 138 0
115 132 0
115 132 0
123 140 0
118 135 0
109 125 0
121 139 0
133 150 0
115 132 0
123 141 0
122 138 0
118 135 0
124 142 0
122 140 0
126 143 0
123 140 0
106 125 0
118 135 0
108 124 0
115 132 0
118 136 0
114 132 0
119 136 0
114 131 0
117 133 0
104 121 0
111 128 0
106 123 0
99 117 0
114 130 0
88 103 0
106 121 0
108 122 0
98 115 0
98 113 0
93 108 0
104 119 0
95 110 0
83 98 0
101 115 0
88 103 0
94 109 0
78 92 0
85 97 0
83 96 0
74 86 0
87 102 0
81 94 0
64 74 0
76 87 0
70 81 0
61 71 0
65 75 0
55 66 0
58 69 0
60 71 0
61 71 0
75 87 0
71 81 0
64 73 0
68 78 0
59 69 0
45 54 0
78 88 0
53 63 0
56 65 0
65 75 0
50 59 0
67 78 0
68 78 0
65 73 0
67 75 0
62 73 0
79 90 0
64 76 0
75 85 0
86 97 0
77 87 0
89 101 0
76 88 0
74 84 0
81 92 0
76 89 0
95 106 0
94 105 0
81 92 0
96 108 0
100 113 0
93 105 0
90 103 0
98 111 0
100 113 0
94 108 0
101 113 0
107 120 0
88 100 0
110 124 0
104 116 0
116 127 0
98 109 0
96 107 0
104 118 0
105 118 0
110 122 0
111 126 0
104 115 0
111 125 0
112 125 0
107 118 0
112 125 0
116 126 0
129 145 0
114 126 0
120 132 0
118 130 0
116 126 0
120 134 0
115 129 0
125 138 0
123 133 0
124 136 0
116 125 0
119 128 0
124 132 0
116 128 0
118 127 0
108 117 0
120 127 0
121 128 0
113 120 0
114 123 0
110 114 0
108 116 0
107 112 0
111 118 0
109 116 0
116 121 0
105 112 0
111 115 0
106 111 0
108 114 0
103 105 0
102 105 0
108 109 0
107 108 0
108 111 0
85 88 0
107 112 0
108 110 0
96 96 0
96 91 0
87 86 0
93 89 0
63 58 0
85 80 0
77 69 11
91 80 0
85 76 0
90 81 0
75 70 0
77 68 0
73 67 0
84 76 0
88 77 0
96 89 0
98 89 0
88 82 0
92 84 0
96 90 0
102 93 0
101 94 0
99 90 0
106 97 0
96 87 0
102 96 0
113 104 0
98 90 0
102 97 0
109 102 0
115 107 0
103 96 0
106 99 11
103 97 0
102 96 0
111 105 0
114 109 0
108 100 0
101 93 11
113 104 0
116 109 11
118 110 0
113 104 11
104 97 0
122 115 11
118 112 0
115 108 11
124 119 0
114 106 19
112 105 11
120 114 16
123 117 25
122 114 19
121 115 16
118 110 0
114 108 11
120 113 22
116 110 0
125 117 11
113 108 19
119 113 19
126 118 11
125 119 16
125 118 28
119 113 0
127 120 28
126 118 30
118 111 25
119 112 16
122 114 19
121 112 32
127 121 22
126 119 32
134 127 22
133 125 30
120 113 28
118 111 19
134 126 30
129 123 30
123 117 32
130 121 28
123 117 28
118 112 25
122 115 25
129 120 41
120 115 32
129 122 39
123 115 34
131 125 32
124 119 25
117 111 36
112 107 30
131 124 36
122 116 30
124 119 34
129 124 37
130 124 34
113 107 32
124 118 28
124 117 36
122 116 30
121 115 34
122 117 37
128 119 45
121 115 41
122 115 41
131 125 39
116 110 34
123 116 36
120 114 36
131 124 45
118 112 42
118 112 22
131 148 0
140 156 0
132 150 0
140 158 0
146 166 0
141 159 0
142 160 0
146 165 0
144 163 0
149 168 0
145 164 0
148 167 0
150 168 0
152 171 0
147 166 0
146 164 0
145 164 0
148 167 0
149 168 0
147 165 0
147 166 0
143 161 0
142 160 0
143 161 0
147 166 0
149 167 0
146 164 0
144 162 0
144 162 0
144 162 0
145 163 0
143 161 0
143 162 0
145 163 0
147 165 0
143 161 0
148 166 0
142 160 0
141 158 0
141 158 0
144 161 0
145 163 0
142 160 0
141 158 0
144 161 0
148 166 0
138 156 0
142 159 0
143 160 0
142 160 0
139 155 0
143 160 0
136 153 0
137 154 0
137 154 0
137 154 0
138 156 0
137 153 0
138 154 0
134 151 0
131 149 0
136 153 0
135 151 0
138 154 0
129 145 0
135 151 0
133 149 0
135 152 0
134 149 0
131 148 0
134 150 0
128 143 0
129 145 0
125 140 0
126 142 0
127 142 0
131 146 0
119 133 0
131 147 0
133 148 0
126 141 0
123 138 0
130 145 0
127 142 0
128 143 0
122 136 0
115 129 0
118 133 0
117 131 0
119 133 0
119 134 0
116 129 0
117 131 0
119 133 0
116 130 0
105 118 0
118 131 0
110 123 0
116 129 0
92 102 0
104 116 0
92 103 0
87 97 0
83 92 0
87 96 0
85 93 0
99 110 0
90 101 0
103 114 0
110 121 0
104 116 0
111 124 0
110 123 0
104 117 0
110 123 0
104 117 0
109 122 0
111 124 0
105 118 0
110 123 0
116 131 0
111 125 0
125 140 0
119 133 0
113 127 0
120 135 0
128 145 0
119 135 0
120 136 0
122 137 0
113 129 0
120 135 0
121 138 0
128 144 0
128 146 0
121 137 0
122 138 0
120 138 0
122 139 0
125 142 0
120 136 0
123 140 0
122 140 0
131 149 0
120 136 0
106 121 0
114 131 0
121 139 0
122 139 0
125 142 0
111 126 0
122 140 0
112 129 0
118 135 0
127 145 0
118 135 0
114 132 0
125 143 0
110 126 0
112 128 0
109 127 0
103 119 0
105 122 0
111 128 0
102 118 0
112 129 0
124 141 0
107 123 0
99 115 0
93 109 0
100 114 0
109 124 0
88 103 0
100 116 0
97 111 0
92 107 0
91 107 0
90 104 0
93 107 0
72 86 0
90 104 0
77 90 0
91 107 0
91 104 0
73 86 0
74 87 0
68 81 0
80 93 0
83 94 0
85 99 0
66 79 0
69 81 0
58 69 0
69 81 0
78 90 0
69 80 0
70 81 0
56 68 0
60 71 0
65 76 0
52 63 0
68 78 0
71 82 0
64 75 0
73 84 0
86 98 0
55 66 0
77 87 0
68 78 0
79 91 0
68 77 0
89 100 0
67 78 0
82 95 0
79 91 0
70 80 0
83 94 0
83 95 0
96 110 0
86 97 0
77 90 0
85 97 0
95 108 0
96 108 0
87 99 0
92 102 0
103 116 0
87 98 0
114 127 0
92 104 0
103 115 0
92 103 0
96 108 0
104 117 0
104 117 0
106 118 0
95 108 0
113 126 0
110 122 0
118 131 0
106 119 0
116 129 0
118 132 0
112 124 0
112 125 0
111 121 0
111 122 0
109 121 0
120 134 0
112 126 0
121 132 0
109 119 0
123 139 0
115 126 0
123 136 0
115 128 0
110 122 0
121 131 0
111 122 0
128 139 0
118 130 0
126 137 0
115 125 0
105 114 0
130 142 0
112 122 0
125 134 0
116 126 0
120 128 0
112 119 0
119 126 0
107 114 0
115 123 0
114 124 0
115 122 0
115 121 0
104 108 0
117 119 0
104 107 0
106 107 0
107 111 0
104 109 0
109 111 0
96 95 0
103 105 0
117 119 0
103 103 0
107 109 0
94 92 0
100 99 0
91 87 0
95 93 0
96 91 0
81 76 0
89 86 0
75 68 16
81 73 0
79 71 11
80 72 0
78 69 0
89 81 0
92 83 0
89 82 0
97 90 0
88 79 0
88 82 0
91 83 0
93 84 0
101 94 0
96 87 0
97 89 0
105 96 0
84 79 0
107 99 0
109 101 0
112 101 0
109 101 0
94 88 0
111 102 11
99 92 0
106 99 0
115 106 0
115 107 0
123 116 16
106 99 0
117 109 11
121 113 0
114 106 0
100 93 11
114 107 11
116 109 11
117 111 0
118 109 11
113 107 11
109 105 0
118 111 25
115 109 0
117 109 11
117 108 16
117 109 22
122 115 25
117 109 16
119 111 16
110 103 11
119 112 16
123 115 25
121 115 28
129 123 19
122 113 16
125 119 16
124 117 19
123 117 28
122 115 11
115 108 16
120 113 19
113 105 22
109 103 16
120 112 16
123 114 30
126 118 22
116 110 19
127 121 32
121 114 28
130 123 37
122 116 22
122 115 28
126 119 30
119 114 28
123 117 36
121 115 30
123 115 28
124 119 28
120 115 28
127 121 36
120 114 28
120 112 30
126 120 34
123 118 25
118 111 22
120 113 30
120 114 25
125 118 37
128 120 39
129 121 37
134 127 39
116 108 28
118 113 25
120 114 19
131 126 39
130 122 42
124 117 36
125 119 39
123 116 30
115 107 34
120 114 36
120 113 37
127 120 39
134 127 51
125 118 41
116 109 44
124 140 0
131 148 0
137 154 0
131 147 0
137 154 0
136 153 0
137 155 0
140 158 0
139 156 0
138 156 0
143 161 0
143 161 0
145 164 0
146 165 0
144 163 0
150 169 0
147 165 0
148 167 0
147 166 0
145 163 0
144 162 0
147 164 0
147 165 0
145 163 0
149 167 0
145 163 0
142 160 0
147 165 0
144 162 0
144 161 0
147 165 0
138 156 0
146 164 0
145 163 0
142 159 0
140 157 0
143 161 0
145 162 0
140 157 0
141 159 0
147 165 0
143 160 0
142 161 0
137 153 0
142 160 0
142 161 0
142 159 0
136 153 0
140 157 0
134 151 0
142 159 0
143 159 0
136 153 0
140 156 0
136 153 0
141 159 0
132 150 0
135 152 0
133 150 0
133 150 0
136 153 0
132 148 0
135 151 0
139 156 0
139 155 0
133 148 0
132 148 0
132 148 0
137 154 0
135 150 0
132 148 0
130 146 0
135 151 0
124 139 0
132 148 0
134 149 0
133 149 0
131 145 0
127 142 0
119 135 0
127 143 0
129 144 0
123 137 0
109 123 0
125 139 0
117 131 0
119 134 0
112 126 0
125 140 0
118 133 0
118 131 0
116 130 0
114 127 0
106 119 0
107 119 0
108 121 0
102 114 0
106 118 0
91 101 0
87 98 0
91 101 0
80 90 0
80 89 0
88 97 0
97 107 0
103 114 0
109 120 0
110 121 0
102 113 0
103 115 0
105 116 0
112 124 0
110 122 0
109 123 0
111 124 0
102 115 0
105 117 0
113 126 0
114 128 0
112 126 0
114 128 0
124 139 0
114 128 0
117 132 0
122 137 0
112 127 0
123 139 0
115 132 0
122 138 0
117 132 0
125 141 0
118 134 0
119 136 0
127 143 0
120 138 0
118 135 0
125 142 0
135 154 0
131 149 0
114 131 0
124 141 0
120 138 0
114 131 0
126 144 0
130 148 0
125 144 0
123 140 0
117 135 0
125 144 0
115 132 0
125 143 0
124 142 0
120 138 0
120 138 0
115 132 0
129 147 0
116 134 0
116 132 0
131 148 0
114 131 0
107 125 0
121 138 0
114 131 0
103 120 0
109 127 0
113 129 0
101 117 0
93 109 0
101 116 0
104 119 0
108 124 0
105 120 0
91 107 0
103 119 0
105 120 0
103 118 0
84 98 0
89 104 0
80 95 0
96 111 0
98 113 0
82 96 0
78 93 0
90 105 0
78 92 0
73 87 0
63 77 0
76 88 0
101 116 0
91 103 0
82 96 0
85 98 0
79 93 0
71 82 0
87 100 0
65 77 0
69 80 0
76 89 0
71 82 0
95 107 0
77 89 0
68 80 0
54 66 0
81 92 0
75 85 0
83 94 0
78 90 0
69 80 0
72 82 0
79 91 0
86 97 0
79 91 0
81 93 0
74 87 0
76 89 0
77 91 0
84 95 0
93 107 0
84 96 0
94 106 0
100 113 0
91 104 0
81 96 0
96 110 0
101 113 0
96 108 0
114 127 0
97 110 0
103 115 0
105 117 0
110 123 0
101 113 0
106 121 0
101 112 0
104 117 0
95 109 0
96 111 0
103 113 0
109 123 0
104 115 0
103 116 0
112 126 0
130 142 0
103 114 0
109 122 0
125 140 0
122 137 0
106 119 0
118 130 0
122 135 0
102 113 0
121 135 0
117 132 0
130 143 0
122 135 0
122 134 0
113 123 0
116 127 0
116 127 0
112 120 0
117 128 0
116 127 0
126 135 0
112 123 0
115 125 0
115 122 0
116 124 0
121 129 0
120 126 0
109 115 0
112 119 0
114 122 0
109 113 0
107 114 0
114 118 0
120 126 0
109 116 0
107 111 0
120 126 0
120 126 0
112 115 0
95 96 0
117 122 0
114 117 0
100 102 0
97 100 0
96 98 0
98 98 0
106 105 0
105 104 0
95 90 0
105 102 0
88 83 0
84 79 0
93 91 0
82 78 0
87 87 0
69 61 0
68 59 0
73 62 0
79 71 0
85 77 0
83 76 0
89 80 0
89 78 11
70 63 0
99 88 0
102 95 0
92 84 0
85 76 0
99 91 0
95 88 0
92 85 0
94 85 0
98 91 0
96 91 0
107 101 0
95 88 0
93 86 11
101 92 0
100 92 0
103 96 0
112 104 0
104 98 0
106 101 0
109 101 0
112 105 0
111 102 0
115 107 0
107 100 0
116 107 11
116 109 11
118 111 11
112 106 16
104 99 11
105 98 0
118 111 0
119 111 16
122 115 11
117 109 16
106 101 0
118 111 19
117 111 22
123 115 16
119 112 19
112 105 19
119 114 0
116 108 16
120 114 22
117 111 22
117 110 16
110 103 19
124 118 11
125 117 28
117 110 19
123 117 25
120 114 22
119 112 19
127 120 19
115 107 19
130 123 30
115 108 28
118 114 19
121 114 28
125 116 30
128 121 25
124 117 36
116 109 25
126 120 32
125 118 30
119 113 22
130 124 34
119 111 28
132 125 37
119 114 22
124 119 22
123 116 32
126 117 28
132 124 42
123 115 22
119 113 25
125 118 30
129 122 39
132 125 30
128 122 37
130 125 25
131 124 36
113 105 34
112 106 30
110 104 39
122 117 44
113 106 37
124 118 39
121 115 34
117 109 36
116 110 32
108 103 28
124 117 39
111 106 34
117 109 36
125 141 0
130 147 0
123 138 0
130 146 0
133 150 0
134 151 0
134 152 0
136 154 0
139 157 0
135 152 0
140 157 0
138 156 0
141 159 0
144 162 0
145 163 0
146 163 0
148 166 0
142 160 0
148 166 0
145 163 0
148 166 0
145 163 0
144 162 0
140 159 0
144 162 0
151 169 0
143 162 0
145 163 0
141 159 0
143 160 0
140 158 0
143 160 0
142 159 0
139 157 0
144 161 0
142 160 0
142 159 0
146 162 0
144 162 0
143 161 0
142 159 0
141 159 0
137 154 0
141 158 0
140 156 0
136 153 0
144 161 0
141 158 0
141 158 0
142 159 0
136 153 0
138 155 0
138 156 0
141 156 0
136 152 0
136 152 0
138 155 0
137 152 0
135 151 0
132 148 0
141 157 0
138 155 0
138 154 0
138 155 0
130 145 0
130 146 0
128 144 0
131 147 0
126 140 0
132 148 0
132 148 0
131 147 0
131 146 0
121 135 0
127 142 0
125 139 0
123 137 0
126 140 0
122 136 0
121 136 0
126 140 0
118 132 0
127 141 0
124 138 0
126 140 0
118 132 0
117 131 0
116 129 0
112 125 0
120 133 0
111 123 0
108 121 0
111 124 0
106 117 0
102 113 0
100 111 0
92 102 0
94 105 0
89 98 0
82 91 0
85 93 0
90 99 0
89 99 0
104 115 0
95 105 0
99 110 0
101 112 0
107 119 0
112 124 0
100 112 0
111 124 0
106 119 0
103 117 0
105 119 0
123 137 0
117 131 0
112 126 0
108 123 0
116 130 0
117 133 0
124 139 0
119 133 0
127 142 0
113 127 0
111 126 0
121 137 0
122 137 0
120 135 0
130 146 0
120 136 0
121 138 0
127 143 0
133 150 0
123 138 0
120 136 0
125 143 0
122 140 0
115 131 0
136 153 0
123 140 0
129 146 0
130 146 0
126 143 0
127 144 0
129 146 0
137 155 0
118 136 0
126 143 0
132 150 0
112 130 0
119 136 0
122 140 0
121 139 0
119 136 0
122 139 0
111 128 0
120 137 0
121 138 0
102 118 0
121 138 0
114 132 0
120 137 0
110 126 0
114 131 0
106 121 0
108 126 0
107 123 0
109 125 0
101 118 0
111 127 0
107 124 0
95 112 0
89 106 0
94 111 0
96 112 0
101 118 0
95 111 0
95 111 0
96 111 0
94 111 0
90 106 0
90 105 0
97 111 0
94 109 0
101 116 0
79 95 0
86 101 0
90 105 0
82 95 0
93 107 0
80 93 0
75 89 0
88 102 0
88 103 0
69 81 0
91 104 0
78 89 0
79 94 0
75 86 0
78 90 0
96 109 0
101 114 0
61 74 0
93 105 0
69 82 0
82 94 0
87 99 0
78 91 0
80 92 0
77 91 0
88 101 0
89 99 0
77 90 0
87 100 0
83 95 0
85 98 0
90 103 0
82 94 0
87 101 0
79 93 0
92 106 0
98 112 0
100 112 0
96 109 0
91 106 0
96 110 0
92 102 0
98 111 0
108 123 0
107 120 0
93 109 0
108 120 0
109 123 0
108 120 0
107 120 0
112 126 0
106 119 0
106 118 0
104 116 0
110 126 0
110 125 0
107 121 0
120 133 0
102 114 0
118 133 0
103 115 0
113 125 0
119 132 0
113 125 0
113 125 0
110 123 0
113 125 0
126 140 0
110 122 0
115 127 0
113 124 0
134 147 0
127 137 0
121 132 0
123 136 0
115 127 0
119 129 0
126 137 0
123 133 0
109 120 0
115 124 0
130 142 0
125 134 0
108 115 0
119 129 0
111 120 0
124 132 0
120 129 0
118 127 0
108 113 0
120 124 0
109 116 0
126 132 0
114 120 0
110 114 0
114 120 0
113 116 0
114 120 0
104 104 0
117 121 0
108 110 0
106 108 0
103 106 0
95 94 0
109 107 0
100 99 0
86 82 0
97 95 0
82 77 0
96 94 0
86 83 0
91 87 0
88 84 0
86 78 0
67 61 0
71 61 0
80 69 0
79 70 0
72 62 0
72 63 0
89 80 0
90 79 0
76 66 0
87 79 0
97 90 0
82 74 0
86 77 0
93 83 0
96 87 0
110 99 0
96 86 0
95 86 0
105 96 0
103 94 0
94 86 0
107 98 0
102 94 0
110 102 0
113 106 0
106 100 0
103 96 0
109 101 0
105 100 0
110 100 11
104 96 0
107 99 0
109 101 11
114 108 0
128 121 16
100 94 11
113 106 16
113 107 11
115 106 16
117 110 19
118 111 19
116 111 19
118 111 11
113 106 22
127 119 16
118 109 25
109 102 11
113 106 22
112 106 11
122 116 16
118 112 0
118 110 19
113 107 11
111 104 16
123 115 22
117 110 16
106 99 19
119 112 0
123 116 22
114 108 16
123 116 32
124 118 19
120 114 25
129 124 22
119 112 30
117 111 25
113 106 16
115 110 30
117 111 11
128 123 25
127 120 34
119 112 30
127 120 28
122 117 28
119 113 30
123 115 32
126 118 32
125 119 30
121 116 30
121 115 30
117 113 25
121 115 32
119 111 36
117 110 22
107 103 30
113 105 25
113 106 37
118 113 28
108 103 30
112 107 28
126 118 41
121 115 39
116 109 34
119 113 42
121 115 28
115 109 32
114 107 34
115 110 34
119 113 42
116 110 42
130 134 30
171 194 0
164 185 0
142 162 0
126 143 0
124 140 0
122 137 0
125 141 0
123 138 0
131 149 0
132 148 0
141 159 0
140 158 0
136 153 0
138 155 0
143 161 0
142 160 0
142 160 0
145 163 0
142 160 0
142 161 0
146 164 0
142 160 0
144 162 0
147 165 0
148 167 0
143 161 0
144 162 0
147 165 0
145 162 0
140 158 0
146 164 0
148 166 0
143 161 0
142 159 0
144 161 0
142 160 0
144 161 0
143 160 0
144 161 0
145 163 0
140 157 0
135 152 0
140 156 0
144 161 0
139 156 0
139 155 0
141 158 0
142 159 0
139 156 0
135 151 0
140 157 0
131 147 0
137 154 0
140 157 0
132 149 0
134 151 0
134 151 0
134 149 0
136 152 0
137 153 0
135 150 0
133 150 0
127 143 0
135 150 0
133 148 0
132 148 0
133 149 0
131 147 0
130 145 0
126 141 0
128 143 0
127 141 0
127 142 0
127 141 0
130 145 0
124 138 0
124 139 0
124 138 0
116 130 0
116 130 0
124 137 0
120 133 0
119 133 0
110 122 0
114 127 0
126 139 0
113 126 0
115 128 0
115 128 0
105 117 0
92 103 0
103 114 0
101 112 0
106 117 0
92 102 0
90 99 0
82 90 0
76 84 0
85 93 0
92 101 0
88 97 0
90 99 0
99 109 0
98 109 0
104 116 0
110 122 0
92 104 0
99 111 0
107 120 0
113 127 0
103 115 0
109 122 0
103 117 0
118 132 0
119 133 0
118 132 0
115 130 0
122 136 0
123 137 0
123 137 0
120 135 0
117 133 0
126 141 0
116 131 0
118 133 0
135 151 0
109 126 0
115 130 0
126 143 0
121 138 0
122 139 0
131 147 0
116 132 0
122 139 0
117 134 0
129 147 0
114 130 0
129 146 0
116 132 0
127 145 0
127 145 0
111 129 0
121 137 0
120 138 0
118 136 0
129 147 0
115 131 0
133 151 0
121 137 0
127 144 0
125 143 0
117 134 0
128 146 0
109 127 0
116 134 0
120 137 0
112 130 0
124 141 0
110 127 0
112 129 0
107 124 0
116 133 0
110 127 0
116 133 0
122 138 0
118 135 0
110 128 0
117 134 0
106 123 0
107 123 0
108 125 0
102 120 0
99 115 0
97 114 0
105 120 0
83 98 0
103 120 0
104 119 0
103 118 0
107 124 0
96 112 0
89 104 0
99 115 0
89 104 0
94 110 0
88 102 0
99 114 0
86 102 0
98 112 0
97 112 0
92 107 0
84 98 0
81 95 0
95 109 0
82 98 0
82 96 0
81 94 0
97 111 0
90 102 0
87 100 0
84 98 0
86 101 0
81 95 0
97 112 0
81 93 0
97 109 0
60 76 0
81 95 0
89 103 0
69 83 0
86 96 0
94 106 0
86 100 0
91 102 0
89 101 0
93 107 0
90 103 0
98 111 0
95 109 0
98 111 0
98 114 0
99 112 0
96 107 0
107 120 0
99 113 0
103 118 0
95 109 0
108 122 0
106 117 0
102 116 0
97 110 0
110 124 0
104 117 0
86 99 0
114 127 0
108 121 0
111 124 0
114 127 0
111 124 0
113 126 0
114 127 0
114 124 0
115 130 0
112 126 0
114 127 0
112 124 0
116 132 0
113 125 0
115 127 0
110 121 0
127 142 0
111 125 0
115 128 0
115 127 0
110 124 0
108 120 0
115 125 0
120 131 0
116 129 0
118 128 0
113 127 0
121 132 0
121 132 0
126 137 0
123 133 0
116 125 0
114 124 0
114 125 0
108 116 0
118 127 0
121 131 0
123 132 0
107 114 0
113 122 0
119 128 0
117 122 0
116 121 0
113 119 0
113 120 0
114 122 0
109 113 0
111 114 0
94 95 0
111 116 0
106 106 0
100 100 0
96 97 0
111 108 0
113 114 0
106 106 0
103 101 0
85 83 0
93 93 0
100 97 0
92 91 0
92 87 0
96 95 0
91 88 0
101 99 0
76 70 0
86 80 0
78 69 0
50 44 0
74 63 0
78 70 0
79 69 0
83 74 0
97 85 0
86 75 0
90 81 0
94 87 0
80 73 0
91 83 0
94 83 0
100 91 0
100 91 0
97 87 0
95 86 0
91 83 0
90 81 0
111 104 0
106 98 0
100 91 0
105 96 0
107 99 0
109 101 0
101 93 11
108 99 19
103 96 0
108 98 11
113 106 0
118 111 0
112 105 11
106 98 0
101 95 11
114 105 16
111 104 0
113 105 11
103 95 11
119 108 16
118 110 22
115 107 16
104 96 0
112 104 16
114 108 19
120 113 28
121 113 19
116 109 19
122 115 19
114 107 19
122 115 25
114 107 16
123 116 25
122 117 19
119 114 19
125 117 32
113 106 16
117 111 16
118 109 25
121 115 34
115 108 22
122 114 30
116 110 19
121 112 30
116 108 19
115 109 11
121 113 28
120 114 28
126 118 39
112 105 16
117 109 34
128 120 42
117 109 28
119 112 25
109 101 16
117 110 11
126 117 28
120 113 28
122 116 28
127 121 34
123 116 32
114 108 28
128 122 36
123 117 30
129 121 34
115 109 30
117 112 30
117 111 37
114 108 28
104 99 25
118 112 36
117 111 34
119 112 32
114 107 39
121 114 36
117 109 41
127 127 34
145 156 25
157 175 0
169 190 0
171 193 0
169 191 0
169 191 0
168 191 0
160 182 0
139 158 0
130 146 0
133 150 0
123 138 0
120 136 0
125 141 0
130 147 0
122 138 0
134 151 0
134 152 0
136 153 0
136 153 0
137 154 0
139 156 0
137 154 0
139 156 0
138 154 0
142 158 0
141 157 0
147 165 0
144 162 0
142 159 0
144 162 0
143 160 0
145 162 0
142 158 0
140 156 0
144 162 0
142 160 0
142 159 0
143 160 0
140 156 0
139 156 0
144 161 0
144 161 0
140 157 0
142 158 0
138 154 0
142 159 0
142 159 0
137 154 0
140 157 0
136 152 0
143 160 0
134 150 0
132 148 0
136 152 0
141 156 0
138 154 0
133 149 0
133 148 0
133 149 0
133 148 0
137 153 0
132 147 0
134 149 0
134 149 0
134 150 0
130 145 0
130 145 0
132 149 0
131 145 0
124 139 0
131 146 0
126 141 0
130 145 0
133 147 0
125 139 0
131 145 0
128 142 0
120 134 0
119 133 0
118 132 0
111 124 0
116 129 0
117 130 0
119 132 0
117 130 0
119 132 0
113 125 0
114 126 0
107 119 0
103 115 0
97 108 0
98 109 0
93 102 0
93 103 0
83 92 0
84 93 0
81 89 0
84 93 0
80 89 0
89 97 0
92 101 0
100 111 0
106 116 0
102 112 0
96 108 0
116 128 0
103 115 0
105 118 0
105 117 0
104 118 0
117 130 0
108 122 0
121 135 0
117 131 0
120 134 0
114 129 0
126 141 0
109 122 0
118 133 0
120 135 0
111 126 0
118 133 0
116 132 0
121 137 0
114 130 0
122 138 0
130 146 0
127 144 0
124 140 0
125 142 0
124 141 0
131 149 0
125 141 0
129 146 0
130 148 0
128 145 0
121 137 0
122 139 0
124 142 0
121 138 0
125 143 0
125 142 0
123 139 0
125 143 0
123 141 0
124 141 0
120 137 0
124 143 0
118 137 0
125 143 0
125 142 0
110 128 0
119 137 0
112 131 0
127 146 0
124 143 0
121 140 0
129 148 0
126 144 0
116 132 0
111 128 0
127 144 0
108 126 0
112 130 0
115 133 0
109 127 0
119 135 0
114 132 0
103 119 0
107 124 0
125 143 0
123 140 0
106 122 0
110 126 0
104 120 0
98 114 0
112 130 0
103 119 0
107 123 0
108 124 0
106 122 0
91 107 0
97 114 0
89 107 0
100 116 0
98 114 0
105 121 0
91 106 0
97 113 0
100 114 0
93 110 0
89 104 0
108 124 0
84 99 0
79 94 0
89 102 0
95 109 0
89 103 0
100 115 0
76 88 0
87 101 0
93 109 0
88 102 0
82 95 0
82 97 0
85 98 0
86 101 0
83 96 0
85 98 0
87 101 0
80 95 0
94 108 0
91 105 0
98 113 0
94 107 0
99 110 0
94 107 0
96 110 0
92 108 0
102 118 0
100 113 0
90 103 0
91 107 0
103 118 0
110 123 0
94 108 0
108 123 0
98 110 0
103 116 0
99 113 0
105 119 0
98 112 0
103 116 0
114 128 0
107 121 0
112 126 0
120 133 0
113 126 0
124 137 0
127 139 0
117 133 0
106 119 0
111 127 0
111 125 0
111 125 0
120 136 0
113 126 0
119 132 0
110 121 0
121 134 0
116 129 0
119 134 0
122 135 0
122 137 0
119 132 0
115 127 0
123 135 0
119 128 0
119 130 0
122 135 0
128 139 0
117 128 0
123 133 0
112 123 0
129 140 0
121 131 0
122 132 0
118 131 0
122 133 0
129 141 0
112 119 0
126 137 0
121 131 0
108 117 0
113 122 0
133 142 0
117 122 0
113 119 0
109 118 0
118 126 0
115 124 0
120 129 0
120 126 0
109 114 0
110 116 0
108 111 0
107 110 0
118 125 0
98 102 0
98 99 0
107 110 0
99 98 0
108 110 0
108 110 0
97 97 0
102 104 0
92 89 0
105 102 0
88 86 0
100 96 0
91 90 0
80 76 0
80 74 0
87 82 0
77 75 0
81 76 0
81 76 0
78 70 0
89 82 0
72 62 0
75 68 0
87 77 0
75 67 0
88 81 0
83 73 0
87 74 0
98 85 0
86 76 0
102 93 0
91 81 0
106 93 0
87 79 0
111 98 0
99 91 11
90 84 0
90 82 0
106 98 0
103 95 0
109 100 0
86 78 0
103 95 16
115 107 11
107 98 11
109 100 0
109 101 11
103 94 0
111 102 11
99 91 0
105 99 0
104 97 11
115 105 16
105 99 11
106 101 0
106 97 19
118 111 11
114 105 19
105 98 0
110 104 16
106 98 11
118 110 19
113 106 16
100 93 11
122 113 19
115 108 11
116 108 19
115 107 19
113 105 19
122 113 19
113 105 22
117 110 25
119 111 30
115 108 16
112 104 11
113 106 19
115 108 19
125 119 22
119 112 11
111 103 11
121 113 30
112 104 16
112 106 19
107 100 22
110 104 19
119 112 30
113 107 30
122 116 30
119 112 25
115 109 28
106 100 28
103 98 22
113 106 30
120 112 25
121 113 30
124 117 41
121 113 36
113 108 28
121 114 34
119 112 44
117 111 34
116 109 19
115 108 25
113 106 36
118 113 36
115 108 30
110 103 36
133 129 36
138 147 19
156 171 16
164 183 0
167 186 0
172 192 0
169 188 0
170 193 0
171 194 0
171 193 0
169 191 0
167 190 0
169 192 0
168 191 0
165 187 0
149 167 0
126 143 0
117 132 0
119 134 0
125 140 0
127 142 0
123 139 0
138 156 0
136 152 0
135 152 0
133 149 0
140 156 0
135 152 0
139 156 0
137 153 0
142 159 0
139 155 0
134 151 0
142 160 0
141 158 0
142 159 0
143 160 0
144 161 0
143 160 0
144 161 0
144 161 0
137 155 0
145 162 0
142 159 0
140 156 0
138 155 0
137 153 0
144 160 0
139 156 0
140 157 0
134 149 0
138 155 0
137 154 0
136 152 0
142 159 0
135 150 0
134 150 0
137 152 0
137 153 0
138 154 0
135 150 0
135 150 0
132 148 0
132 146 0
131 147 0
129 144 0
128 143 0
131 146 0
139 155 0
125 139 0
132 147 0
124 139 0
125 139 0
130 144 0
133 149 0
132 146 0
131 145 0
128 142 0
121 135 0
127 142 0
129 143 0
126 140 0
121 134 0
119 132 0
116 129 0
116 129 0
124 136 0
105 117 0
115 128 0
112 124 0
108 119 0
107 119 0
101 112 0
98 109 0
95 105 0
86 95 0
84 94 0
84 93 0
79 86 0
94 103 0
88 96 0
79 87 0
82 91 0
92 101 0
97 107 0
107 118 0
92 102 0
103 114 0
102 114 0
100 112 0
121 134 0
117 130 0
113 126 0
110 122 0
111 125 0
111 125 0
121 135 0
122 137 0
120 134 0
106 120 0
125 139 0
108 123 0
128 143 0
121 136 0
122 137 0
126 142 0
124 141 0
130 145 0
116 132 0
124 140 0
127 144 0
110 125 0
126 143 0
119 135 0
124 141 0
131 149 0
122 139 0
113 131 0
126 143 0
136 154 0
125 143 0
125 143 0
130 149 0
124 143 0
128 147 0
127 144 0
133 151 0
123 141 0
127 145 0
122 140 0
122 140 0
121 138 0
124 143 0
127 145 0
124 142 0
118 135 0
121 139 0
129 148 0
129 147 0
121 139 0
117 136 0
134 152 0
119 138 0
114 131 0
117 134 0
121 140 0
112 129 0
125 142 0
120 139 0
119 137 0
111 128 0
114 131 0
115 134 0
113 130 0
108 126 0
122 141 0
112 130 0
110 127 0
112 128 0
113 130 0
97 114 0
119 137 0
97 113 0
102 118 0
103 119 0
113 129 0
103 120 0
101 119 0
97 113 0
112 128 0
110 126 0
100 117 0
105 122 0
100 116 0
102 118 0
96 112 0
94 110 0
101 117 0
90 107 0
76 92 0
93 108 0
102 116 0
93 107 0
90 105 0
100 116 0
93 110 0
87 101 0
88 104 0
90 105 0
90 103 0
85 99 0
77 93 0
81 97 0
99 114 0
97 111 0
96 111 0
90 103 0
96 110 0
90 105 0
106 120 0
103 116 0
107 123 0
107 122 0
107 121 0
103 117 0
106 120 0
100 113 0
104 118 0
98 111 0
108 122 0
115 130 0
113 128 0
100 115 0
116 131 0
102 116 0
111 126 0
112 127 0
112 128 0
118 131 0
102 115 0
114 128 0
110 124 0
107 121 0
123 140 0
104 117 0
122 137 0
111 123 0
113 127 0
122 135 0
119 133 0
117 130 0
115 129 0
111 126 0
117 131 0
124 141 0
114 126 0
112 124 0
122 136 0
124 137 0
131 147 0
130 145 0
125 137 0
119 132 0
113 126 0
126 136 0
111 124 0
125 135 0
115 126 0
119 129 0
119 130 0
121 131 0
116 127 0
107 120 0
120 132 0
123 135 0
117 126 0
120 129 0
125 135 0
122 132 0
133 142 0
121 132 0
116 126 0
120 129 0
130 140 0
121 129 0
109 115 0
117 124 0
113 120 0
119 124 0
112 116 0
113 118 0
120 125 0
108 113 0
121 126 0
112 114 0
103 106 0
115 119 0
108 110 0
116 118 0
97 95 0
113 111 0
105 104 0
92 91 0
116 117 0
95 97 0
91 90 0
103 102 0
93 90 0
76 69 0
89 89 0
79 76 0
81 75 0
69 64 0
91 86 0
71 67 0
71 63 0
71 59 0
77 64 0
76 66 0
74 65 0
72 65 0
85 75 0
87 76 0
92 84 0
97 87 0
92 81 0
93 85 0
99 91 0
100 92 0
77 68 0
92 84 0
100 91 0
98 88 0
100 91 0
98 90 0
111 99 0
101 91 0
106 98 0
107 98 0
114 106 0
107 98 16
117 108 11
98 89 0
112 103 11
114 106 22
108 100 11
124 117 16
108 98 16
106 99 16
113 103 11
108 101 11
104 97 16
103 94 0
112 102 11
120 112 16
111 104 11
110 102 16
110 102 16
114 105 22
117 109 19
112 105 25
104 96 22
118 108 22
117 109 11
120 112 11
120 113 22
108 102 16
123 114 28
118 111 19
125 114 22
121 112 30
119 111 19
106 100 22
107 101 22
117 110 19
120 112 25
120 111 22
120 113 32
112 104 16
115 109 25
111 103 30
118 110 28
115 107 32
119 112 34
120 113 30
122 113 28
118 110 28
113 105 25
117 110 36
123 115 28
113 105 37
119 111 34
111 104 30
107 101 30
116 109 37
100 92 19
110 105 30
132 135 34
141 151 16
158 170 19
168 188 0
167 187 0
166 183 0
171 191 0
167 186 0
169 190 0
167 188 0
171 192 0
171 193 0
169 192 0
168 191 0
168 190 0
170 192 0
168 191 0
169 191 0
168 190 0
171 193 0
164 186 0
152 171 0
141 159 0
130 146 0
120 135 0
127 143 0
133 150 0
123 138 0
125 141 0
129 145 0
134 149 0
136 152 0
140 157 0
134 151 0
136 153 0
137 153 0
132 149 0
133 149 0
136 152 0
136 153 0
135 151 0
135 151 0
140 157 0
137 152 0
137 153 0
139 155 0
143 159 0
142 158 0
143 160 0
139 155 0
139 155 0
138 154 0
134 151 0
140 156 0
137 152 0
138 153 0
134 149 0
136 152 0
137 152 0
139 155 0
133 149 0
137 152 0
134 150 0
136 152 0
134 149 0
134 148 0
135 150 0
130 144 0
126 140 0
128 142 0
129 144 0
125 139 0
125 139 0
134 149 0
125 139 0
127 141 0
129 143 0
126 141 0
123 137 0
118 131 0
122 135 0
124 138 0
117 129 0
121 135 0
121 133 0
115 128 0
107 119 0
107 119 0
114 127 0
102 114 0
110 122 0
104 115 0
98 109 0
96 106 0
107 118 0
88 97 0
86 94 0
79 86 0
75 82 0
88 97 0
91 99 0
90 98 0
97 107 0
99 109 0
98 109 0
113 124 0
108 120 0
96 107 0
105 116 0
104 116 0
110 123 0
114 127 0
103 114 0
116 128 0
118 131 0
118 131 0
127 141 0
112 125 0
115 128 0
117 131 0
111 126 0
120 134 0
124 139 0
122 137 0
129 144 0
130 147 0
122 137 0
124 141 0
129 145 0
123 138 0
117 134 0
127 144 0
125 140 0
121 136 0
113 129 0
127 143 0
125 143 0
124 140 0
127 144 0
135 152 0
130 148 0
123 141 0
136 154 0
126 144 0
128 144 0
136 154 0
130 148 0
124 141 0
131 148 0
125 143 0
120 137 0
135 153 0
124 142 0
137 156 0
117 135 0
129 148 0
115 132 0
126 144 0
129 147 0
126 145 0
126 145 0
116 135 0
130 148 0
123 142 0
109 127 0
127 146 0
122 139 0
121 140 0
114 132 0
119 137 0
116 134 0
120 137 0
114 132 0
120 138 0
113 131 0
123 142 0
117 135 0
121 139 0
116 134 0
103 121 0
100 117 0
116 133 0
116 134 0
113 130 0
112 129 0
110 128 0
98 113 0
109 126 0
112 128 0
112 129 0
104 120 0
110 127 0
91 108 0
113 130 0
110 126 0
103 119 0
89 105 0
94 109 0
95 111 0
96 112 0
106 123 0
100 116 0
101 117 0
99 115 0
116 131 0
109 126 0
101 117 0
93 108 0
97 112 0
103 119 0
88 103 0
95 110 0
87 100 0
92 107 0
107 122 0
98 114 0
95 109 0
93 108 0
111 126 0
102 117 0
89 104 0
90 103 0
104 120 0
100 116 0
95 110 0
101 118 0
87 100 0
99 113 0
108 123 0
111 126 0
108 123 0
108 123 0
106 122 0
94 106 0
100 116 0
109 125 0
121 135 0
111 125 0
105 118 0
111 125 0
121 138 0
116 132 0
121 137 0
112 128 0
101 116 0
109 123 0
105 119 0
110 125 0
119 133 0
118 132 0
114 129 0
113 128 0
125 138 0
107 119 0
116 129 0
117 132 0
121 134 0
121 135 0
117 131 0
115 128 0
124 140 0
115 129 0
128 141 0
115 130 0
120 134 0
122 135 0
127 141 0
123 136 0
112 121 0
123 137 0
122 135 0
127 140 0
128 140 0
116 126 0
119 131 0
114 125 0
121 131 0
119 131 0
136 148 0
121 135 0
121 127 0
124 136 0
113 116 0
109 116 0
122 130 0
116 123 0
117 124 0
128 138 0
120 128 0
117 123 0
125 129 0
118 126 0
107 111 0
110 117 0
115 121 0
113 117 0
114 118 0
117 124 0
108 111 0
116 116 0
113 115 0
113 119 0
114 116 0
119 122 0
97 93 0
105 105 0
102 101 0
106 106 0
107 106 0
107 106 0
106 106 0
88 85 0
97 95 0
91 89 0
88 85 0
86 76 0
83 79 0
84 78 0
84 82 0
82 73 0
80 75 0
77 70 0
70 60 0
80 71 0
76 64 0
84 73 0
75 67 0
94 82 0
83 73 0
82 73 0
94 84 0
91 82 0
92 82 0
87 77 0
99 89 0
93 83 0
94 83 11
98 89 0
94 86 0
90 83 0
105 96 0
102 91 11
101 94 0
103 96 11
111 103 11
106 98 16
103 95 16
108 100 0
96 87 0
107 98 0
110 102 16
104 96 0
103 96 11
101 91 11
110 101 30
119 110 0
120 113 11
115 106 11
104 97 11
115 108 22
111 102 11
109 101 11
109 99 16
108 102 16
119 111 16
120 113 25
113 105 28
107 99 22
108 100 16
117 109 19
117 108 30
104 98 22
108 99 19
111 104 16
98 92 16
111 105 16
113 105 16
114 109 22
113 105 22
111 104 30
118 113 25
122 116 25
117 110 25
117 111 34
120 113 25
111 103 19
114 107 34
119 111 37
114 108 36
108 102 22
107 101 30
106 100 19
125 118 30
108 101 25
116 110 32
122 115 39
127 125 28
120 121 19
142 155 19
159 175 0
165 186 0
162 179 0
166 184 0
165 181 0
169 189 0
168 187 0
165 182 0
168 189 0
171 190 0
167 185 0
172 194 0
168 191 0
172 193 0
169 191 0
169 192 0
166 188 0
167 189 0
169 191 0
168 190 0
170 191 0
169 191 0
170 192 0
170 192 0
166 187 0
161 180 0
154 174 0
142 159 0
125 140 0
110 124 0
128 143 0
123 138 0
123 137 0
129 144 0
124 139 0
119 134 0
129 144 0
133 149 0
138 154 0
127 142 0
128 143 0
131 146 0
141 157 0
135 150 0
128 144 0
133 149 0
132 147 0
134 150 0
137 153 0
132 147 0
129 143 0
138 154 0
133 149 0
133 148 0
133 149 0
136 151 0
134 150 0
134 149 0
134 149 0
133 149 0
129 143 0
136 151 0
126 141 0
133 148 0
133 149 0
131 145 0
127 141 0
129 143 0
132 147 0
130 144 0
131 146 0
127 141 0
126 140 0
126 140 0
128 142 0
124 138 0
119 133 0
123 136 0
115 128 0
118 131 0
108 121 0
118 131 0
118 130 0
115 127 0
113 125 0
107 118 0
107 119 0
112 124 0
109 120 0
90 100 0
86 96 0
94 104 0
102 112 0
89 98 0
93 101 0
84 92 0
84 93 0
94 102 0
94 102 0
97 106 0
89 98 0
97 107 0
90 100 0
105 116 0
92 103 0
110 122 0
107 118 0
102 113 0
111 122 0
112 125 0
114 126 0
117 129 0
115 127 0
113 126 0
117 130 0
117 130 0
119 133 0
111 125 0
121 135 0
130 144 0
121 135 0
122 137 0
127 143 0
130 145 0
122 137 0
128 143 0
128 144 0
124 139 0
126 141 0
128 145 0
124 139 0
122 138 0
120 137 0
120 136 0
131 148 0
130 147 0
124 141 0
125 143 0
124 141 0
131 149 0
125 143 0
119 137 0
114 131 0
127 144 0
123 142 0
126 143 0
118 136 0
123 142 0
126 144 0
135 154 0
132 150 0
119 138 0
114 132 0
105 123 0
128 148 0
122 140 0
120 139 0
120 137 0
128 147 0
123 143 0
127 145 0
127 145 0
119 138 0
125 143 0
128 146 0
131 149 0
123 141 0
120 137 0
118 137 0
119 137 0
113 131 0
118 136 0
128 147 0
116 133 0
107 123 0
123 142 0
115 134 0
108 126 0
112 129 0
113 131 0
121 139 0
121 139 0
126 143 0
118 135 0
114 131 0
108 127 0
116 133 0
107 124 0
101 118 0
99 116 0
99 117 0
112 128 0
121 137 0
113 131 0
100 117 0
96 113 0
92 109 0
101 118 0
99 115 0
103 119 0
114 131 0
102 116 0
101 118 0
96 112 0
99 115 0
105 121 0
103 118 0
99 116 0
104 121 0
108 124 0
92 108 0
99 114 0
111 126 0
98 115 0
91 107 0
97 113 0
111 126 0
97 112 0
102 116 0
95 110 0
89 104 0
90 106 0
94 108 0
95 109 0
112 129 0
103 118 0
104 120 0
107 122 0
109 125 0
115 131 0
103 120 0
106 121 0
101 115 0
111 126 0
106 121 0
99 116 0
108 122 0
99 114 0
116 131 0
101 116 0
110 126 0
116 129 0
105 122 0
114 126 0
113 128 0
103 117 0
111 126 0
125 140 0
108 121 0
110 126 0
122 137 0
121 134 0
117 132 0
121 138 0
117 131 0
128 143 0
117 130 0
114 127 0
120 133 0
119 133 0
128 142 0
117 132 0
121 135 0
118 132 0
119 133 0
131 146 0
131 144 0
132 146 0
124 136 0
125 136 0
128 143 0
125 137 0
132 146 0
118 130 0
115 125 0
129 141 0
128 140 0
142 156 0
130 142 0
126 137 0
126 138 0
116 126 0
125 138 0
123 135 0
121 132 0
124 135 0
113 121 0
127 136 0
135 145 0
119 124 0
123 132 0
119 125 0
104 111 0
124 132 0
115 121 0
119 123 0
119 124 0
121 125 0
120 125 0
102 105 0
104 106 0
118 122 0
111 111 0
109 114 0
107 110 0
109 111 0
109 108 0
88 85 0
113 116 0
103 102 0
101 100 0
106 105 0
103 102 0
89 89 0
103 102 0
90 88 0
96 94 0
99 96 0
103 101 0
75 66 0
89 82 0
78 71 0
91 86 0
75 68 0
87 81 0
82 77 0
75 64 0
71 63 0
77 68 0
83 73 0
79 67 0
81 72 0
95 85 11
90 78 0
77 67 0
89 79 0
90 82 0
98 85 11
92 84 0
90 81 0
102 94 0
96 88 16
106 94 0
92 81 0
98 89 0
100 90 0
88 77 0
103 94 11
109 101 11
100 90 0
103 95 11
103 95 16
105 94 0
105 95 11
108 100 16
104 97 11
105 96 16
103 94 11
98 91 0
107 98 22
115 106 11
107 99 28
113 103 11
106 96 16
102 94 16
110 103 16
116 107 11
99 92 16
106 98 16
106 98 0
107 99 25
94 87 16
112 104 30
110 100 0
117 111 25
108 99 22
108 101 22
116 108 16
111 104 16
106 101 25
112 105 25
114 107 28
108 101 25
116 106 22
111 103 25
105 98 25
102 95 22
109 102 28
108 100 28
110 102 30
108 100 30
106 102 22
96 89 36
103 102 25
125 124 19
145 155 19
157 170 11
166 184 0
162 180 0
163 181 0
166 182 0
163 181 0
166 183 0
168 184 0
165 183 0
167 187 0
163 179 0
167 185 0
162 181 0
168 187 0
166 186 0
170 192 0
171 193 0
169 191 0
168 191 0
170 192 0
164 187 0
167 189 0
166 188 0
168 189 0
165 187 0
171 193 0
170 191 0
171 192 0
169 190 0
166 186 0
166 188 0
167 188 0
168 189 0
161 181 0
143 161 0
140 157 0
134 150 0
125 141 0
119 134 0
113 128 0
126 141 0
119 134 0
122 137 0
120 134 0
123 137 0
127 141 0
129 145 0
129 144 0
135 151 0
128 143 0
133 147 0
128 143 0
130 145 0
131 146 0
130 145 0
133 149 0
131 145 0
129 143 0
130 144 0
133 148 0
131 146 0
131 146 0
129 144 0
134 148 0
127 141 0
133 147 0
130 145 0
133 147 0
130 144 0
124 138 0
126 140 0
126 139 0
122 135 0
123 137 0
126 140 0
122 135 0
124 138 0
109 123 0
116 129 0
123 136 0
120 133 0
120 132 0
107 118 0
109 121 0
102 113 0
113 125 0
107 118 0
110 121 0
108 119 0
98 109 0
103 113 0
90 99 0
90 99 0
86 95 0
92 100 0
93 102 0
99 107 0
100 110 0
96 105 0
92 101 0
93 102 0
96 105 0
102 112 0
99 108 0
102 112 0
109 120 0
100 110 0
104 116 0
117 129 0
108 119 0
118 131 0
118 131 0
119 132 0
116 130 0
115 128 0
118 131 0
118 132 0
116 130 0
114 127 0
117 131 0
113 127 0
119 132 0
119 133 0
118 133 0
125 141 0
119 135 0
121 136 0
124 140 0
129 145 0
126 141 0
119 134 0
130 146 0
124 141 0
123 140 0
124 141 0
125 142 0
129 145 0
128 145 0
116 133 0
116 131 0
130 147 0
131 149 0
124 143 0
139 156 0
133 151 0
131 150 0
128 145 0
134 152 0
127 144 0
120 138 0
128 146 0
135 153 0
129 146 0
121 139 0
138 156 0
121 140 0
132 151 0
125 143 0
128 147 0
123 142 0
134 152 0
127 145 0
132 151 0
126 144 0
133 152 0
139 158 0
123 140 0
121 139 0
133 152 0
126 147 0
129 148 0
119 139 0
122 141 0
118 135 0
115 135 0
116 132 0
118 135 0
131 149 0
117 136 0
127 144 0
120 138 0
118 135 0
117 136 0
118 137 0
125 143 0
114 133 0
112 130 0
119 138 0
112 129 0
109 126 0
117 136 0
113 131 0
126 143 0
109 126 0
117 134 0
109 126 0
104 121 0
112 129 0
100 117 0
106 123 0
114 131 0
109 126 0
105 121 0
100 117 0
103 121 0
94 109 0
115 131 0
93 109 0
98 114 0
101 117 0
106 122 0
93 110 0
103 119 0
102 119 0
101 116 0
109 125 0
108 125 0
95 110 0
107 123 0
114 131 0
106 121 0
103 120 0
104 120 0
102 117 0
108 123 0
104 120 0
114 131 0
95 110 0
103 117 0
100 117 0
108 122 0
103 118 0
103 119 0
104 119 0
113 127 0
110 126 0
121 139 0
106 122 0
112 128 0
109 123 0
114 130 0
113 127 0
107 122 0
110 125 0
119 137 0
115 131 0
123 138 0
101 118 0
122 138 0
110 126 0
122 137 0
114 129 0
118 135 0
110 125 0
114 130 0
123 136 0
113 126 0
120 136 0
111 124 0
131 147 0
128 143 0
117 131 0
128 145 0
122 137 0
117 131 0
116 133 0
119 133 0
127 141 0
123 139 0
123 137 0
123 137 0
130 145 0
123 136 0
123 138 0
136 151 0
123 137 0
138 152 0
126 138 0
123 137 0
125 138 0
120 133 0
131 142 0
114 125 0
126 135 0
120 130 0
128 136 0
126 136 0
130 142 0
118 130 0
119 129 0
133 143 0
123 135 0
120 129 0
122 132 0
127 136 0
119 127 0
114 123 0
117 121 0
119 127 0
109 113 0
119 124 0
113 122 0
103 106 0
117 122 0
112 120 0
101 107 0
114 120 0
108 110 0
113 115 0
110 111 0
105 106 0
116 117 0
105 109 0
104 107 0
113 114 0
120 116 0
112 112 0
112 112 0
101 102 0
98 95 0
104 101 0
102 97 0
98 93 0
111 110 0
85 84 0
94 90 0
97 93 0
76 66 0
82 78 0
85 77 0
76 68 0
92 89 0
86 77 0
84 78 0
78 70 0
77 69 0
85 74 0
80 73 0
84 73 0
73 64 11
71 60 0
79 69 0
97 87 0
91 82 0
94 83 11
96 86 0
100 88 0
89 78 0
102 93 0
103 94 0
94 86 0
94 86 0
93 83 0
95 86 0
98 87 0
99 90 0
98 89 11
109 99 11
103 93 19
111 102 11
109 99 0
110 101 16
108 99 0
101 92 11
106 95 19
101 95 0
108 96 19
100 94 16
105 96 16
94 89 0
107 100 25
102 93 19
103 95 22
102 94 19
105 95 11
113 103 16
116 108 28
115 106 19
105 97 11
119 112 19
115 105 19
112 104 22
114 105 30
103 96 16
112 104 28
110 103 19
110 102 22
113 104 28
108 100 25
109 102 28
99 90 30
112 104 34
110 107 19
131 130 22
133 140 22
144 149 25
155 168 16
163 178 0
162 177 0
161 177 0
166 181 0
165 180 0
159 176 0
165 183 0
163 180 0
161 178 0
166 183 0
164 181 0
166 184 0
161 179 0
166 184 0
168 188 0
166 184 0
168 186 0
171 189 0
169 191 0
168 190 0
170 192 0
169 191 0
171 193 0
167 189 0
168 190 0
168 190 0
168 190 0
168 189 0
166 187 0
169 189 0
166 187 0
167 188 0
168 189 0
168 188 0
167 188 0
168 188 0
165 185 0
165 185 0
166 187 0
164 184 0
163 182 0
159 179 0
151 169 0
136 152 0
132 148 0
121 136 0
126 140 0
113 126 0
116 129 0
115 129 0
120 134 0
120 135 0
118 131 0
116 128 0
131 145 0
119 132 0
116 129 0
117 130 0
118 132 0
123 137 0
126 140 0
128 142 0
124 137 0
123 136 0
125 139 0
128 143 0
122 136 0
124 138 0
128 143 0
125 138 0
117 129 0
122 134 0
120 132 0
112 124 0
123 136 0
122 135 0
109 121 0
114 127 0
119 132 0
118 132 0
102 113 0
110 122 0
107 118 0
107 119 0
91 100 0
107 119 0
94 105 0
98 108 0
97 107 0
91 100 0
92 100 0
96 105 0
83 91 0
100 108 0
104 113 0
109 119 0
102 111 0
103 113 0
106 116 0
97 107 0
95 104 0
102 111 0
110 121 0
101 111 0
102 112 0
110 122 0
110 122 0
106 118 0
116 128 0
112 123 0
111 122 0
112 123 0
109 122 0
112 124 0
120 133 0
119 132 0
122 136 0
119 133 0
115 129 0
124 137 0
120 134 0
117 131 0
117 132 0
132 148 0
131 145 0
127 144 0
118 133 0
124 140 0
122 138 0
127 142 0
122 138 0
127 143 0
130 146 0
126 142 0
132 148 0
125 143 0
123 140 0
131 147 0
129 146 0
122 139 0
124 140 0
129 147 0
130 148 0
120 137 0
128 146 0
133 151 0
139 158 0
125 142 0
130 148 0
127 146 0
132 150 0
134 152 0
127 145 0
127 146 0
122 140 0
131 149 0
128 147 0
134 154 0
126 144 0
126 146 0
120 138 0
134 152 0
129 147 0
130 150 0
125 142 0
130 149 0
135 153 0
135 155 0
126 144 0
133 152 0
134 153 0
124 143 0
133 153 0
134 153 0
116 135 0
125 144 0
119 136 0
124 141 0
118 137 0
124 145 0
119 137 0
131 151 0
112 131 0
121 140 0
126 143 0
112 132 0
125 144 0
120 137 0
110 128 0
114 132 0
116 134 0
111 130 0
115 132 0
112 131 0
123 143 0
110 128 0
115 132 0
109 126 0
100 118 0
104 123 0
128 147 0
106 123 0
108 125 0
116 132 0
115 132 0
99 115 0
100 116 0
114 132 0
112 130 0
110 127 0
97 114 0
104 121 0
108 125 0
101 117 0
104 122 0
109 125 0
92 109 0
102 119 0
118 135 0
108 125 0
105 121 0
107 123 0
115 131 0
112 129 0
101 117 0
104 121 0
98 115 0
109 125 0
115 131 0
108 124 0
99 115 0
113 127 0
112 128 0
117 134 0
99 116 0
115 132 0
98 113 0
125 141 0
113 128 0
112 127 0
104 121 0
118 134 0
118 135 0
124 140 0
115 129 0
97 113 0
107 121 0
114 131 0
108 124 0
115 131 0
114 130 0
120 135 0
120 136 0
126 142 0
119 136 0
118 133 0
115 130 0
132 148 0
113 128 0
124 140 0
113 128 0
121 137 0
130 147 0
127 142 0
133 149 0
122 136 0
123 138 0
117 132 0
127 142 0
123 138 0
117 133 0
127 142 0
117 129 0
126 139 0
118 131 0
124 139 0
132 146 0
118 132 0
126 140 0
124 136 0
131 145 0
116 130 0
131 145 0
122 135 0
121 131 0
131 145 0
115 127 0
118 129 0
128 141 0
133 146 0
125 133 0
129 143 0
112 123 0
123 134 0
123 132 0
130 140 0
133 146 0
117 125 0
105 114 0
113 120 0
123 133 0
107 115 0
122 129 0
112 116 0
107 116 0
122 126 0
122 129 0
123 129 0
109 112 0
108 113 0
122 128 0
119 122 0
117 117 0
116 119 0
113 118 0
118 124 0
114 116 0
121 126 0
112 112 0
102 102 0
112 112 0
106 105 0
114 113 0
112 111 0
110 107 0
91 88 0
106 103 0
104 99 0
94 90 0
94 90 0
109 103 0
91 83 0
97 93 0
103 100 0
86 80 0
96 89 0
95 88 0
86 78 0
88 86 0
90 83 0
89 81 0
84 75 0
90 81 0
89 81 0
76 63 0
80 72 0
88 78 0
83 75 0
85 78 0
91 80 16
83 73 0
90 80 0
97 86 0
89 79 0
100 88 0
84 76 0
96 87 0
100 90 11
91 81 0
93 84 0
97 87 0
98 88 11
98 90 0
103 95 0
101 92 0
99 91 0
100 89 11
106 96 11
96 88 11
106 96 22
95 85 16
107 98 11
110 102 16
101 93 22
99 92 11
98 91 19
102 95 22
106 98 22
107 99 19
112 102 36
117 110 37
106 99 22
115 107 30
105 97 25
101 94 25
104 96 25
110 101 22
108 101 30
112 103 30
116 110 30
120 116 19
131 135 11
139 142 16
148 157 19
149 159 0
159 172 0
166 179 0
161 176 0
165 177 0
165 180 0
163 177 0
160 176 0
161 176 0
165 181 0
161 177 0
159 174 0
161 176 0
164 179 0
163 179 0
162 178 0
165 185 0
163 180 0
167 185 0
165 183 0
170 188 0
169 187 0
163 180 0
170 187 0
167 189 0
168 190 0
169 191 0
169 190 0
168 189 0
170 193 0
168 190 0
164 185 0
168 190 0
167 188 0
170 192 0
166 188 0
168 189 0
166 187 0
164 184 0
164 184 0
167 187 0
163 183 0
167 188 0
162 182 0
164 184 0
164 184 0
163 184 0
164 185 0
166 185 0
159 179 0
161 180 0
161 180 0
159 179 0
155 172 0
150 168 0
143 160 0
140 157 0
136 151 0
132 147 0
122 136 0
122 136 0
121 135 0
109 121 0
104 116 0
115 127 0
109 122 0
106 118 0
120 133 0
122 134 0
113 125 0
110 123 0
115 127 0
110 123 0
111 122 0
110 122 0
117 129 0
116 129 0
121 134 0
110 122 0
115 127 0
107 118 0
106 116 0
106 117 0
108 119 0
101 113 0
95 105 0
97 107 0
110 121 0
102 112 0
105 115 0
100 110 0
105 115 0
105 116 0
107 117 0
106 116 0
109 118 0
101 110 0
107 118 0
108 118 0
109 119 0
106 116 0
103 113 0
108 119 0
102 113 0
105 115 0
108 118 0
113 124 0
117 128 0
112 123 0
114 125 0
102 114 0
108 119 0
114 127 0
119 131 0
117 130 0
122 135 0
123 136 0
122 134 0
123 137 0
110 123 0
122 137 0
127 141 0
125 140 0
119 133 0
120 134 0
122 137 0
131 146 0
123 138 0
116 130 0
117 132 0
119 134 0
124 140 0
139 155 0
123 139 0
117 133 0
125 142 0
117 133 0
129 145 0
133 151 0
127 144 0
127 142 0
131 149 0
130 147 0
132 148 0
125 141 0
135 154 0
131 149 0
136 153 0
133 150 0
131 149 0
133 151 0
127 145 0
128 145 0
125 142 0
128 146 0
133 152 0
127 144 0
129 147 0
135 153 0
131 149 0
129 148 0
126 145 0
118 135 0
127 145 0
139 158 0
132 151 0
127 146 0
127 147 0
138 157 0
124 143 0
134 152 0
126 146 0
124 142 0
128 147 0
134 153 0
133 152 0
123 142 0
122 141 0
126 144 0
127 146 0
120 138 0
132 150 0
128 146 0
128 147 0
126 144 0
126 146 0
129 148 0
130 149 0
115 134 0
126 144 0
119 138 0
125 144 0
130 149 0
119 138 0
123 141 0
120 137 0
113 129 0
118 137 0
128 147 0
122 141 0
110 126 0
122 141 0
112 130 0
104 123 0
107 125 0
112 131 0
116 133 0
105 123 0
111 130 0
110 126 0
113 130 0
108 125 0
102 120 0
115 134 0
115 132 0
114 132 0
104 122 0
120 138 0
107 125 0
111 129 0
106 123 0
121 139 0
116 134 0
113 129 0
107 125 0
116 134 0
111 128 0
115 133 0
104 120 0
104 120 0
106 124 0
108 124 0
102 119 0
106 122 0
112 130 0
102 119 0
98 115 0
95 112 0
118 136 0
123 141 0
112 128 0
114 131 0
112 126 0
120 135 0
118 135 0
112 126 0
111 127 0
114 131 0
123 138 0
110 127 0
116 133 0
116 131 0
120 136 0
113 128 0
125 143 0
112 128 0
129 144 0
119 134 0
127 145 0
123 140 0
118 133 0
111 127 0
115 133 0
113 128 0
135 152 0
125 141 0
120 137 0
123 139 0
122 139 0
123 138 0
129 144 0
125 140 0
127 143 0
121 136 0
116 127 0
121 137 0
118 132 0
136 151 0
125 139 0
118 133 0
122 138 0
130 144 0
131 146 0
128 144 0
130 144 0
117 129 0
133 148 0
130 146 0
129 143 0
120 133 0
138 151 0
121 134 0
118 131 0
128 141 0
133 148 0
128 142 0
129 142 0
128 138 0
127 138 0
132 142 0
137 149 0
129 137 0
130 141 0
120 129 0
117 127 0
112 122 0
113 121 0
113 121 0
126 136 0
122 130 0
119 126 0
118 124 0
126 134 0
119 127 0
124 130 0
120 127 0
113 120 0
126 128 0
126 129 0
118 124 0
104 106 0
113 113 0
119 122 0
124 128 0
118 120 0
116 117 0
120 121 0
105 105 0
115 115 0
109 107 0
107 110 0
110 108 0
116 116 0
103 99 0
104 101 0
111 111 0
116 114 0
101 96 0
96 90 0
99 96 0
98 94 0
112 111 0
97 90 0
102 98 0
90 83 0
93 87 0
86 76 0
83 77 0
94 90 0
107 102 0
99 95 0
95 89 0
95 90 0
92 83 0
95 89 0
104 101 11
98 90 0
100 93 0
99 90 16
97 88 0
80 73 0
88 76 0
82 71 0
96 85 11
93 83 11
85 75 0
83 71 11
99 88 22
99 88 16
105 95 11
91 80 11
91 82 11
84 77 0
94 84 19
95 87 19
90 81 11
97 89 19
96 89 25
93 84 22
85 77 16
100 90 0
101 92 22
116 105 28
105 96 25
98 90 30
101 93 22
99 92 28
111 109 22
109 106 16
117 117 11
130 133 16
130 135 0
138 144 16
152 160 16
156 166 0
154 164 0
155 166 0
158 171 0
159 170 0
155 164 0
154 164 0
159 171 0
165 179 0
157 172 0
165 177 0
160 175 0
160 173 0
156 169 0
164 177 0
161 175 0
162 178 0
162 178 0
164 179 0
159 175 0
163 179 0
167 182 0
166 181 0
164 180 0
164 179 0
166 181 0
167 182 0
163 179 0
169 186 0
165 184 0
168 189 0
170 191 0
168 190 0
165 187 0
166 188 0
170 191 0
167 187 0
168 189 0
168 190 0
167 188 0
169 189 0
165 186 0
164 184 0
165 186 0
169 189 0
164 185 0
162 182 0
166 185 0
163 183 0
164 185 0
162 182 0
163 182 0
159 178 0
165 185 0
162 182 0
161 180 0
164 184 0
157 175 0
162 181 0
160 179 0
158 177 0
161 180 0
158 176 0
160 178 0
154 171 0
155 173 0
156 173 0
157 174 0
147 164 0
149 166 0
147 163 0
145 161 0
137 151 0
128 141 0
141 156 0
133 147 0
134 149 0
128 141 0
133 146 0
124 137 0
121 134 0
124 137 0
121 133 0
129 142 0
123 134 0
123 136 0
123 135 0
118 130 0
113 124 0
119 130 0
119 131 0
130 142 0
113 124 0
123 135 0
122 133 0
118 129 0
112 123 0
118 129 0
118 129 0
117 128 0
113 124 0
114 126 0
121 132 0
113 124 0
107 117 0
109 120 0
120 131 0
119 130 0
111 122 0
112 122 0
114 126 0
112 123 0
107 119 0
121 132 0
115 126 0
117 129 0
123 135 0
119 132 0
117 129 0
125 139 0
125 138 0
124 137 0
116 129 0
119 132 0
123 136 0
123 136 0
117 131 0
128 142 0
137 152 0
128 142 0
132 148 0
116 130 0
130 145 0
125 141 0
124 140 0
126 142 0
125 141 0
137 152 0
121 138 0
128 144 0
120 136 0
140 158 0
132 150 0
126 143 0
138 154 0
128 145 0
133 150 0
135 152 0
131 150 0
137 155 0
123 140 0
136 154 0
133 152 0
141 158 0
136 153 0
135 153 0
130 149 0
133 150 0
139 157 0
132 150 0
131 149 0
137 157 0
132 150 0
128 147 0
133 152 0
124 142 0
123 141 0
133 153 0
131 150 0
134 152 0
133 152 0
125 143 0
132 151 0
128 146 0
125 144 0
137 157 0
133 151 0
132 151 0
126 146 0
134 153 0
128 147 0
120 140 0
140 160 0
136 157 0
125 144 0
131 151 0
126 144 0
127 146 0
127 146 0
120 140 0
139 159 0
128 147 0
126 145 0
119 138 0
134 154 0
119 137 0
119 137 0
125 144 0
112 129 0
130 149 0
120 139 0
130 149 0
121 139 0
117 133 0
112 130 0
123 143 0
128 147 0
120 139 0
121 140 0
117 135 0
115 134 0
125 142 0
107 125 0
108 126 0
99 115 0
117 135 0
104 122 0
112 130 0
98 118 0
109 128 0
112 130 0
114 131 0
118 135 0
123 140 0
107 125 0
106 123 0
94 111 0
110 126 0
112 129 0
104 121 0
117 134 0
113 131 0
119 136 0
104 121 0
109 124 0
108 125 0
111 126 0
114 132 0
115 131 0
111 128 0
107 124 0
121 137 0
116 131 0
117 133 0
106 123 0
117 133 0
110 127 0
117 134 0
121 137 0
111 127 0
110 127 0
120 138 0
124 140 0
114 128 0
107 122 0
124 140 0
125 143 0
115 130 0
119 135 0
120 136 0
115 132 0
129 145 0
117 134 0
119 136 0
115 132 0
124 140 0
121 137 0
116 132 0
120 138 0
124 138 0
118 135 0
123 142 0
130 146 0
117 134 0
126 140 0
124 138 0
132 148 0
119 133 0
118 134 0
132 148 0
121 137 0
131 144 0
132 149 0
129 144 0
122 137 0
126 139 0
126 141 0
128 143 0
127 141 0
127 142 0
127 143 0
141 158 0
126 141 0
126 140 0
129 144 0
120 134 0
121 133 0
121 134 0
124 136 0
116 126 0
130 143 0
123 136 0
123 134 0
122 131 0
128 139 0
123 133 0
128 140 0
124 135 0
125 136 0
133 144 0
135 145 0
117 126 0
126 135 0
127 137 0
121 130 0
122 128 0
126 135 0
123 132 0
126 135 0
123 130 0
118 125 0
122 130 0
118 120 0
112 117 0
119 125 0
119 124 0
128 133 0
130 139 0
121 126 0
114 115 0
119 125 0
125 127 0
110 112 0
116 120 0
123 126 0
116 118 0
108 109 0
112 115 0
115 114 0
107 108 0
112 113 0
109 108 0
102 100 0
100 95 0
103 103 0
104 99 0
109 105 0
106 104 0
92 88 0
102 96 0
108 109 0
102 97 0
90 81 0
93 87 0
98 95 0
113 109 0
83 78 0
107 105 0
109 104 0
92 86 0
105 103 0
110 106 0
110 106 0
111 106 0
112 109 0
108 101 0
123 120 0
111 107 0
111 109 0
112 106 0
118 116 0
118 113 16
102 98 0
116 114 0
112 106 0
127 126 11
115 112 0
112 109 11
111 109 0
126 126 0
121 115 11
112 111 11
129 127 0
122 120 11
139 142 16
131 132 0
135 136 11
134 135 0
137 139 0
132 135 0
135 138 11
146 151 0
142 146 0
139 142 0
146 152 0
147 151 0
155 162 0
147 156 0
153 161 0
147 152 0
155 166 0
152 160 0
158 168 0
155 167 0
150 162 0
157 165 0
158 171 0
158 171 0
158 171 0
165 179 0
157 169 0
159 171 0
161 174 0
164 178 0
156 167 0
160 173 0
162 176 0
165 180 0
162 175 0
158 172 0
162 178 0
162 176 0
163 179 0
163 179 0
167 183 0
168 184 0
164 180 0
167 186 0
166 185 0
165 183 0
167 189 0
167 190 0
166 188 0
165 186 0
166 187 0
163 185 0
167 189 0
165 186 0
167 188 0
166 187 0
169 189 0
160 180 0
165 185 0
167 187 0
163 183 0
160 180 0
162 182 0
162 181 0
161 180 0
162 182 0
165 184 0
163 182 0
160 180 0
163 181 0
164 183 0
160 178 0
156 175 0
159 178 0
160 179 0
160 177 0
159 177 0
154 172 0
149 167 0
158 176 0
160 178 0
158 176 0
155 173 0
151 168 0
152 169 0
154 171 0
152 168 0
151 167 0
150 165 0
149 164 0
147 162 0
142 158 0
145 160 0
142 156 0
135 149 0
143 158 0
137 151 0
148 163 0
145 160 0
137 151 0
127 140 0
130 144 0
134 147 0
135 148 0
135 148 0
134 146 0
134 146 0
126 139 0
119 130 0
124 136 0
122 134 0
126 138 0
124 136 0
120 132 0
122 134 0
118 130 0
118 130 0
119 131 0
117 129 0
114 125 0
121 133 0
120 132 0
125 137 0
125 137 0
110 121 0
122 135 0
114 125 0
118 131 0
126 138 0
119 132 0
121 134 0
124 138 0
134 148 0
120 134 0
113 127 0
131 145 0
131 145 0
124 138 0
130 143 0
133 148 0
126 140 0
122 137 0
120 135 0
126 141 0
127 143 0
137 153 0
127 142 0
138 154 0
133 149 0
140 156 0
121 137 0
137 154 0
128 144 0
135 152 0
131 147 0
128 144 0
130 148 0
133 150 0
139 156 0
139 157 0
128 144 0
136 152 0
131 149 0
139 155 0
130 147 0
127 146 0
135 152 0
130 148 0
139 158 0
124 141 0
130 149 0
135 153 0
134 152 0
136 154 0
130 148 0
138 157 0
127 144 0
130 148 0
136 156 0
138 157 0
141 159 0
120 138 0
128 146 0
128 147 0
128 146 0
126 144 0
128 147 0
136 154 0
136 155 0
125 145 0
141 161 0
129 149 0
119 137 0
130 149 0
129 149 0
125 142 0
129 148 0
136 155 0
124 142 0
128 148 0
128 148 0
125 143 0
113 131 0
122 141 0
129 149 0
124 143 0
129 148 0
120 140 0
126 146 0
130 148 0
123 142 0
130 149 0
127 147 0
130 149 0
127 146 0
123 142 0
125 142 0
120 140 0
112 130 0
125 143 0
115 134 0
122 141 0
114 131 0
115 135 0
125 144 0
127 146 0
128 147 0
113 133 0
114 133 0
109 127 0
128 148 0
118 135 0
121 138 0
111 128 0
116 135 0
121 139 0
121 137 0
126 145 0
115 132 0
105 123 0
112 129 0
118 136 0
104 122 0
108 127 0
119 138 0
126 142 0
121 138 0
113 130 0
120 139 0
120 137 0
113 130 0
130 147 0
115 133 0
102 119 0
118 135 0
122 139 0
103 121 0
119 136 0
123 140 0
107 121 0
114 132 0
131 149 0
120 138 0
117 134 0
123 140 0
111 128 0
126 141 0
116 134 0
127 143 0
111 128 0
119 134 0
123 141 0
113 130 0
112 129 0
128 146 0
105 122 0
123 140 0
120 138 0
115 129 0
117 135 0
120 137 0
121 138 0
122 136 0
121 138 0
122 138 0
126 142 0
117 133 0
126 142 0
122 137 0
129 146 0
114 129 0
128 144 0
130 144 0
121 137 0
124 139 0
134 149 0
122 136 0
129 144 0
118 132 0
127 143 0
132 148 0
126 141 0
131 146 0
130 144 0
132 147 0
131 148 0
132 147 0
133 149 0
134 147 0
134 146 0
128 142 0
141 153 0
123 137 0
122 137 0
132 146 0
141 155 0
134 147 0
131 144 0
142 155 0
131 146 0
125 138 0
132 146 0
127 136 0
122 135 0
122 132 0
123 132 0
118 127 0
135 145 0
128 139 0
124 135 0
139 150 0
133 144 0
126 136 0
129 136 0
124 133 0
122 130 0
125 132 0
114 121 0
117 123 0
123 131 0
137 145 0
135 140 0
119 125 0
118 122 0
122 129 0
121 127 0
125 130 0
120 124 0
116 119 0
115 119 0
120 120 0
110 113 0
114 116 0
119 120 0
115 114 0
122 124 0
122 120 0
110 111 0
111 108 0
100 100 0
119 117 0
104 104 0
120 116 0
120 118 0
113 109 0
105 101 0
115 115 0
118 118 0
112 112 0
106 102 0
108 103 0
113 108 0
113 112 0
104 99 0
104 102 0
99 91 0
122 117 0
115 113 0
104 98 0
114 111 0
107 99 0
105 103 0
113 108 0
121 119 0
111 106 0
107 101 0
122 120 0
119 117 0
108 107 0
125 123 0
126 125 0
136 138 0
121 122 0
127 124 0
130 129 0
133 135 0
129 130 0
140 139 0
136 138 0
133 133 0
132 132 0
133 133 0
131 131 0
139 147 0
145 150 0
147 155 0
149 155 0
142 144 0
149 156 0
151 159 0
149 156 0
146 152 0
152 158 0
147 155 0
158 166 0
150 156 0
155 165 0
148 156 0
156 167 0
157 169 0
151 165 0
159 170 0
155 164 0
154 164 0
156 166 0
162 176 0
159 171 0
160 172 0
155 167 0
159 172 0
160 174 0
156 168 0
158 171 0
155 168 0
159 172 0
165 177 0
161 174 0
166 182 0
162 176 0
164 180 0
160 176 0
158 173 0
163 180 0
156 169 0
165 181 0
165 181 0
170 191 0
169 191 0
169 191 0
165 186 0
169 190 0
166 186 0
164 185 0
165 186 0
169 190 0
166 187 0
163 183 0
164 185 0
161 180 0
162 183 0
165 185 0
167 187 0
168 187 0
166 187 0
165 184 0
158 177 0
162 180 0
162 180 0
161 180 0
158 176 0
157 176 0
157 175 0
158 177 0
160 178 0
158 176 0
155 173 0
157 176 0
159 177 0
157 174 0
158 176 0
155 173 0
157 174 0
146 162 0
157 174 0
152 169 0
146 162 0
148 164 0
148 163 0
147 162 0
147 163 0
141 157 0
135 149 0
142 157 0
144 160 0
141 155 0
138 152 0
135 149 0
139 153 0
139 153 0
133 146 0
135 149 0
139 153 0
130 142 0
120 133 0
134 148 0
133 146 0
131 144 0
131 143 0
123 134 0
128 141 0
126 139 0
124 136 0
125 137 0
122 134 0
123 136 0
124 136 0
121 134 0
121 133 0
117 129 0
124 137 0
124 136 0
116 128 0
125 138 0
121 133 0
132 146 0
122 135 0
131 144 0
131 145 0
136 150 0
128 141 0
131 144 0
121 135 0
128 142 0
120 133 0
133 147 0
136 152 0
125 139 0
124 138 0
132 147 0
126 140 0
134 149 0
130 146 0
131 146 0
131 148 0
133 148 0
136 152 0
138 154 0
132 148 0
126 141 0
128 144 0
139 155 0
139 156 0
136 152 0
128 146 0
133 150 0
131 147 0
134 151 0
130 148 0
134 151 0
138 156 0
126 143 0
139 156 0
135 152 0
125 143 0
137 156 0
131 149 0
131 150 0
136 154 0
138 156 0
136 154 0
139 157 0
138 156 0
139 158 0
139 157 0
138 156 0
133 152 0
134 153 0
129 147 0
130 150 0
134 153 0
133 152 0
132 151 0
133 151 0
131 150 0
145 164 0
132 151 0
138 157 0
133 152 0
131 151 0
133 152 0
124 141 0
133 153 0
135 153 0
134 155 0
131 150 0
126 145 0
127 146 0
133 152 0
125 145 0
129 147 0
128 148 0
137 157 0
123 141 0
125 145 0
130 150 0
129 147 0
133 153 0
139 159 0
132 150 0
125 144 0
132 151 0
119 137 0
124 144 0
128 148 0
127 147 0
121 140 0
129 147 0
134 155 0
124 142 0
120 140 0
122 139 0
120 140 0
121 139 0
130 148 0
124 143 0
115 135 0
120 137 0
114 133 0
124 142 0
123 144 0
116 134 0
131 150 0
111 130 0
117 135 0
133 151 0
117 136 0
104 121 0
109 128 0
113 131 0
120 138 0
117 135 0
112 131 0
109 126 0
125 142 0
124 140 0
115 131 0
112 131 0
110 127 0
121 139 0
121 138 0
126 144 0
105 123 0
115 131 0
128 144 0
113 129 0
117 135 0
113 130 0
119 137 0
123 141 0
110 127 0
117 135 0
119 136 0
127 145 0
119 136 0
121 139 0
107 122 0
113 131 0
114 131 0
122 139 0
112 128 0
124 142 0
125 142 0
113 130 0
119 137 0
126 144 0
129 147 0
120 137 0
119 134 0
114 129 0
117 132 0
121 138 0
125 143 0
119 136 0
124 142 0
130 147 0
121 139 0
120 136 0
128 145 0
127 142 0
125 141 0
125 141 0
123 140 0
116 132 0
133 149 0
121 138 0
125 140 0
125 139 0
128 143 0
136 154 0
123 136 0
132 149 0
132 148 0
126 140 0
129 143 0
130 146 0
128 143 0
131 146 0
128 144 0
135 149 0
136 150 0
130 142 0
125 140 0
137 152 0
124 138 0
124 137 0
126 138 0
131 146 0
135 149 0
132 145 0
132 146 0
132 146 0
121 134 0
137 149 0
128 139 0
121 133 0
142 155 0
131 141 0
117 125 0
131 139 0
132 142 0
119 127 0
122 133 0
125 136 0
127 138 0
130 141 0
128 135 0
120 130 0
127 136 0
131 141 0
131 138 0
120 127 0
126 133 0
109 117 0
129 134 0
131 139 0
120 127 0
122 129 0
112 118 0
125 129 0
125 130 0
119 125 0
118 124 0
129 133 0
119 123 0
114 115 0
120 122 0
109 110 0
132 134 0
117 119 0
112 111 0
120 120 0
117 117 0
116 117 0
112 113 0
119 117 0
117 116 0
116 115 0
112 109 0
101 97 0
113 113 0
108 104 0
115 116 0
113 107 0
124 121 0
112 105 0
104 99 0
115 110 0
116 114 0
111 108 0
116 112 0
100 94 0
106 104 0
114 112 0
119 114 0
108 102 0
117 117 0
121 120 0
125 120 0
122 120 0
129 129 0
124 125 0
121 116 0
123 120 0
124 123 0
134 134 0
127 127 0
129 129 0
131 132 0
137 138 0
138 143 0
138 140 0
144 147 0
137 140 0
142 148 0
139 141 0
148 154 0
149 155 0
141 145 0
151 157 0
145 151 0
146 152 0
144 148 0
147 152 0
149 155 0
145 152 0
140 148 0
152 161 0
143 151 0
149 155 0
150 158 0
153 161 0
156 166 0
156 164 0
162 173 0
154 166 0
151 159 0
161 174 0
158 169 0
153 162 0
155 165 0
159 172 0
160 170 0
160 174 0
162 175 0
159 172 0
154 165 0
161 176 0
164 178 0
160 172 0
158 171 0
161 175 0
163 178 0
166 181 0
162 176 0
162 178 0
166 181 0
167 188 0
164 185 0
165 186 0
167 188 0
164 185 0
169 191 0
167 187 0
164 185 0
169 189 0
163 182 0
167 187 0
166 186 0
164 185 0
163 182 0
167 187 0
163 182 0
166 186 0
164 183 0
159 178 0
161 180 0
160 179 0
162 180 0
164 183 0
162 180 0
157 175 0
160 179 0
154 173 0
158 176 0
161 179 0
161 178 0
160 179 0
155 172 0
152 169 0
158 175 0
157 174 0
156 173 0
152 169 0
151 168 0
149 165 0
146 161 0
148 165 0
149 165 0
146 161 0
147 164 0
145 160 0
144 160 0
137 151 0
144 159 0
145 160 0
134 149 0
142 155 0
142 156 0
137 151 0
139 153 0
139 154 0
130 143 0
129 142 0
137 150 0
132 145 0
131 144 0
131 144 0
128 141 0
131 144 0
138 152 0
129 141 0
130 143 0
130 143 0
128 141 0
117 130 0
128 141 0
117 130 0
125 139 0
121 133 0
128 141 0
130 144 0
123 137 0
128 142 0
124 137 0
120 133 0
131 146 0
127 141 0
114 127 0
123 137 0
129 144 0
130 144 0
121 135 0
125 139 0
127 142 0
127 141 0
131 145 0
135 150 0
130 145 0
131 146 0
137 153 0
132 147 0
128 143 0
130 147 0
134 150 0
132 148 0
130 146 0
127 143 0
128 144 0
141 158 0
126 143 0
132 150 0
142 159 0
128 145 0
136 153 0
138 154 0
135 153 0
127 144 0
144 162 0
139 156 0
135 153 0
132 150 0
130 147 0
140 158 0
137 155 0
127 145 0
135 152 0
128 147 0
136 155 0
133 152 0
131 149 0
129 147 0
137 156 0
133 151 0
132 151 0
134 152 0
142 161 0
131 151 0
136 155 0
139 159 0
132 151 0
138 156 0
140 159 0
135 155 0
136 155 0
134 154 0
137 157 0
147 168 0
140 159 0
138 157 0
139 158 0
129 148 0
138 158 0
136 155 0
134 154 0
132 151 0
129 149 0
136 155 0
125 144 0
127 147 0
129 148 0
129 149 0
123 143 0
137 157 0
127 147 0
124 143 0
122 141 0
124 142 0
124 143 0
128 147 0
126 145 0
134 155 0
129 148 0
129 148 0
127 147 0
133 153 0
123 143 0
127 146 0
132 152 0
122 141 0
138 156 0
116 134 0
115 134 0
125 144 0
133 153 0
123 142 0
123 141 0
126 145 0
131 151 0
118 136 0
130 149 0
123 142 0
124 144 0
125 144 0
133 151 0
128 146 0
125 142 0
124 144 0
117 134 0
127 147 0
124 143 0
120 139 0
126 147 0
118 136 0
113 132 0
119 138 0
109 127 0
119 136 0
112 129 0
122 141 0
122 141 0
119 136 0
119 137 0
112 131 0
122 141 0
123 142 0
116 135 0
120 138 0
118 136 0
122 140 0
113 132 0
111 128 0
124 141 0
116 135 0
123 140 0
123 140 0
126 144 0
125 142 0
118 136 0
111 128 0
120 135 0
116 132 0
122 140 0
120 137 0
119 136 0
128 145 0
134 152 0
120 137 0
130 149 0
130 146 0
132 149 0
132 150 0
134 151 0
128 145 0
132 151 0
121 138 0
134 150 0
127 143 0
124 140 0
127 143 0
128 145 0
127 145 0
129 146 0
122 136 0
128 144 0
127 145 0
125 143 0
121 138 0
127 143 0
131 147 0
130 146 0
127 143 0
127 142 0
131 146 0
125 141 0
117 131 0
127 144 0
141 158 0
132 148 0
122 138 0
127 142 0
134 150 0
138 152 0
125 138 0
138 153 0
133 146 0
130 143 0
127 140 0
134 145 0
130 141 0
137 151 0
132 145 0
140 153 0
135 149 0
131 144 0
130 143 0
126 138 0
122 135 0
131 142 0
131 141 0
127 135 0
121 134 0
138 149 0
129 139 0
133 143 0
130 139 0
126 136 0
130 140 0
131 138 0
124 132 0
122 128 0
123 132 0
132 138 0
131 140 0
128 134 0
137 143 0
123 128 0
121 125 0
133 139 0
113 117 0
126 133 0
115 121 0
126 133 0
115 117 0
122 129 0
129 134 0
117 121 0
120 121 0
128 133 0
118 122 0
117 117 0
120 123 0
124 127 0
125 126 0
118 118 0
119 114 0
115 115 0
116 117 0
117 117 0
119 121 0
119 122 0
108 110 0
115 112 0
115 112 0
115 112 0
114 112 0
118 115 0
101 95 0
99 92 0
122 119 0
108 102 0
115 110 0
115 114 0
124 122 0
119 117 0
111 108 0
111 105 0
116 113 0
123 123 0
123 122 0
123 122 0
122 120 0
116 113 0
124 124 0
118 117 0
128 127 0
127 127 0
137 138 0
135 138 0
132 134 0
129 130 0
139 139 0
137 139 0
138 141 0
135 136 0
141 144 0
142 143 0
147 153 0
135 137 0
137 141 0
143 147 0
143 146 0
147 152 0
142 146 0
149 156 0
140 145 0
144 151 0
152 159 0
153 161 0
153 162 0
148 153 0
140 146 0
152 162 0
155 163 0
152 161 0
159 170 0
158 169 0
152 162 0
158 167 0
155 164 0
159 169 0
158 172 0
162 175 0
157 171 0
157 169 0
159 173 0
162 175 0
158 172 0
159 173 0
161 177 0
164 182 0
160 174 0
166 179 0
165 179 0
164 178 0
161 175 0
161 176 0
171 192 0
166 187 0
168 189 0
165 186 0
164 185 0
167 187 0
167 187 0
165 186 0
166 187 0
166 186 0
166 185 0
165 185 0
165 185 0
162 182 0
160 180 0
161 180 0
165 185 0
157 177 0
161 180 0
161 180 0
160 179 0
162 181 0
164 183 0
162 180 0
154 172 0
158 176 0
157 175 0
157 175 0
155 172 0
154 172 0
159 177 0
161 178 0
157 174 0
157 175 0
152 169 0
154 171 0
155 171 0
151 167 0
149 165 0
142 157 0
145 161 0
145 161 0
147 163 0
145 160 0
146 162 0
142 157 0
141 155 0
148 164 0
146 161 0
143 158 0
138 152 0
135 148 0
140 155 0
135 148 0
135 149 0
126 139 0
132 145 0
129 143 0
136 149 0
131 144 0
128 141 0
123 136 0
131 144 0
134 147 0
135 148 0
129 142 0
124 137 0
137 150 0
130 143 0
126 139 0
130 144 0
120 133 0
126 139 0
128 141 0
125 139 0
128 142 0
119 132 0
130 143 0
128 142 0
129 144 0
125 139 0
119 133 0
131 145 0
133 148 0
130 144 0
131 146 0
129 144 0
126 140 0
131 145 0
123 138 0
138 154 0
140 156 0
124 138 0
134 150 0
138 155 0
125 140 0
135 151 0
133 149 0
135 152 0
132 148 0
132 149 0
130 147 0
130 146 0
137 154 0
134 152 0
134 151 0
135 153 0
140 159 0
139 157 0
127 144 0
136 154 0
130 147 0
134 152 0
141 159 0
135 153 0
124 142 0
135 153 0
128 146 0
132 150 0
137 155 0
133 152 0
133 151 0
138 157 0
126 145 0
143 161 0
133 151 0
131 149 0
131 150 0
127 146 0
136 154 0
140 160 0
137 157 0
142 161 0
142 161 0
140 159 0
140 159 0
142 161 0
132 151 0
131 149 0
137 158 0
134 152 0
131 151 0
140 159 0
137 156 0
133 153 0
128 147 0
125 143 0
130 149 0
143 162 0
125 143 0
141 160 0
129 149 0
124 142 0
131 152 0
142 163 0
123 142 0
133 152 0
123 143 0
127 147 0
132 151 0
114 134 0
138 157 0
124 143 0
134 153 0
131 151 0
120 139 0
124 143 0
132 151 0
130 149 0
137 158 0
126 145 0
127 146 0
122 141 0
123 142 0
129 148 0
125 143 0
124 144 0
136 157 0
123 142 0
129 148 0
122 141 0
114 133 0
106 124 0
132 151 0
127 146 0
113 132 0
116 135 0
118 137 0
129 148 0
123 141 0
125 143 0
130 149 0
117 135 0
122 141 0
115 135 0
120 138 0
122 141 0
123 143 0
120 138 0
121 140 0
121 140 0
124 142 0
123 141 0
125 144 0
118 136 0
130 148 0
120 137 0
121 140 0
121 139 0
116 134 0
126 143 0
116 133 0
118 136 0
123 143 0
125 141 0
123 143 0
126 142 0
121 139 0
115 133 0
117 133 0
115 133 0
127 142 0
114 133 0
120 138 0
121 136 0
116 130 0
121 139 0
122 140 0
127 144 0
126 145 0
115 131 0
121 139 0
126 144 0
133 150 0
125 142 0
128 145 0
133 151 0
125 142 0
133 149 0
129 148 0
117 134 0
133 151 0
124 142 0
128 145 0
135 150 0
124 143 0
132 148 0
130 146 0
139 154 0
122 137 0
129 146 0
135 151 0
129 146 0
128 145 0
124 140 0
134 151 0
135 152 0
135 149 0
135 151 0
137 152 0
126 142 0
129 143 0
134 149 0
135 152 0
118 131 0
125 140 0
133 145 0
133 147 0
141 156 0
133 147 0
138 152 0
134 148 0
136 150 0
131 144 0
129 142 0
136 151 0
137 151 0
134 147 0
131 144 0
137 150 0
137 149 0
131 142 0
134 146 0
132 145 0
135 145 0
137 148 0
129 141 0
128 141 0
141 155 0
130 142 0
127 135 0
136 146 0
142 150 0
134 143 0
121 130 0
135 145 0
127 133 0
120 126 0
127 135 0
132 139 0
126 134 0
116 123 0
134 140 0
120 127 0
136 143 0
120 125 0
125 130 0
124 127 0
120 124 0
128 136 0
118 118 0
117 123 0
119 124 0
120 124 0
120 123 0
128 130 0
128 133 0
122 126 0
121 121 0
125 125 0
133 136 0
115 116 0
120 120 0
113 113 0
118 118 0
118 120 0
107 108 0
114 112 0
118 116 0
119 119 0
110 104 0
115 113 0
129 126 0
120 116 0
115 109 0
120 117 0
120 115 0
117 114 0
120 117 0
116 112 0
104 102 0
123 122 0
116 113 0
127 124 0
128 126 0
128 126 0
124 120 0
120 116 0
138 139 0
138 139 0
126 125 0
128 126 0
130 131 0
134 136 0
131 132 0
131 132 0
131 132 0
137 138 0
131 132 0
142 145 0
146 150 0
146 146 0
141 143 0
143 147 0
145 151 0
139 142 0
143 146 0
145 147 0
149 153 0
143 149 0
147 153 0
146 154 0
153 160 0
146 154 0
152 161 0
154 162 0
157 165 0
156 167 0
150 161 0
153 163 0
145 155 0
157 168 0
152 163 0
158 173 0
160 174 0
165 176 0
153 163 0
165 180 0
163 177 0
162 176 0
159 175 0
163 178 0
158 171 0
159 171 0
156 168 0
161 172 0
160 176 0
162 176 0
160 173 0
161 175 0
168 190 0
162 182 0
166 188 0
168 188 0
167 187 0
162 182 0
166 186 0
164 184 0
167 188 0
165 185 0
163 183 0
162 181 0
159 178 0
163 182 0
161 180 0
159 177 0
162 181 0
164 183 0
159 177 0
163 182 0
158 176 0
160 177 0
165 182 0
156 174 0
157 175 0
156 174 0
155 172 0
153 170 0
153 170 0
153 170 0
154 171 0
154 172 0
152 168 0
149 166 0
149 165 0
154 170 0
148 164 0
152 169 0
149 165 0
148 163 0
148 163 0
145 161 0
143 158 0
144 159 0
142 157 0
141 156 0
141 156 0
134 149 0
133 147 0
141 155 0
134 148 0
140 154 0
141 156 0
139 153 0
133 146 0
141 155 0
136 150 0
138 152 0
136 150 0
137 150 0
143 158 0
131 144 0
134 147 0
136 149 0
128 141 0
136 150 0
136 150 0
121 133 0
136 150 0
131 145 0
134 149 0
138 152 0
130 144 0
134 149 0
126 139 0
126 140 0
131 145 0
136 151 0
131 146 0
138 153 0
128 142 0
133 148 0
124 138 0
123 138 0
137 152 0
127 141 0
134 150 0
133 148 0
133 149 0
125 140 0
130 147 0
132 148 0
132 148 0
140 157 0
137 154 0
134 151 0
137 154 0
132 149 0
130 146 0
129 146 0
139 157 0
143 159 0
140 157 0
129 145 0
143 160 0
142 160 0
137 155 0
138 156 0
145 162 0
138 157 0
135 152 0
133 151 0
131 149 0
132 150 0
140 158 0
134 153 0
146 166 0
133 152 0
139 157 0
140 158 0
134 153 0
121 139 0
145 165 0
140 158 0
137 156 0
137 157 0
138 156 0
139 158 0
147 168 0
144 164 0
133 152 0
133 152 0
143 163 0
140 159 0
132 151 0
128 147 0
135 155 0
142 162 0
137 156 0
134 153 0
132 153 0
127 147 0
135 155 0
140 160 0
135 154 0
140 160 0
133 151 0
127 147 0
138 158 0
132 152 0
125 144 0
132 152 0
142 163 0
126 145 0
134 153 0
128 148 0
124 143 0
127 146 0
134 154 0
133 152 0
128 148 0
125 145 0
130 149 0
134 156 0
126 145 0
123 142 0
125 144 0
124 143 0
122 141 0
127 147 0
124 144 0
124 145 0
128 147 0
130 151 0
119 138 0
120 138 0
141 160 0
136 156 0
122 141 0
123 142 0
122 142 0
128 146 0
125 144 0
115 135 0
122 142 0
125 144 0
126 145 0
119 138 0
133 153 0
121 141 0
122 140 0
130 150 0
120 138 0
132 151 0
117 137 0
121 139 0
131 151 0
110 128 0
109 127 0
121 139 0
131 151 0
119 137 0
116 135 0
125 144 0
126 145 0
119 138 0
112 131 0
129 149 0
127 146 0
125 144 0
123 143 0
126 144 0
110 129 0
125 145 0
112 131 0
110 128 0
125 143 0
127 145 0
123 141 0
123 141 0
118 137 0
126 143 0
130 149 0
124 142 0
130 149 0
124 142 0
128 147 0
132 150 0
132 150 0
128 147 0
116 133 0
126 142 0
129 146 0
115 132 0
127 143 0
134 151 0
130 150 0
120 136 0
123 138 0
122 136 0
131 150 0
124 140 0
119 136 0
125 140 0
125 141 0
126 143 0
127 141 0
123 139 0
130 146 0
126 141 0
131 149 0
129 146 0
136 152 0
135 151 0
129 145 0
125 142 0
127 141 0
130 143 0
128 144 0
129 145 0
134 150 0
135 149 0
125 142 0
140 154 0
125 140 0
135 151 0
127 138 0
121 133 0
135 153 0
131 146 0
139 154 0
131 145 0
130 142 0
137 152 0
133 146 0
131 140 0
136 149 0
132 144 0
124 137 0
138 152 0
141 156 0
137 150 0
121 134 0
131 144 0
138 150 0
124 135 0
126 139 0
134 146 0
128 139 0
132 145 0
131 138 0
136 143 0
130 140 0
132 146 0
133 144 0
135 146 0
129 138 0
136 144 0
130 136 0
124 134 0
124 132 0
130 140 0
135 143 0
129 136 0
122 130 0
128 135 0
134 141 0
132 136 0
128 134 0
128 134 0
128 134 0
123 130 0
135 142 0
121 123 0
118 117 0
116 119 0
109 110 0
129 132 0
123 125 0
111 112 0
129 132 0
118 119 0
118 122 0
122 124 0
124 124 0
124 125 0
123 125 0
116 116 0
121 122 0
113 112 0
131 133 0
127 128 0
126 125 0
129 130 0
130 131 0
125 123 0
123 123 0
115 114 0
132 133 0
120 120 0
120 117 0
112 111 0
128 130 0
119 118 0
129 126 0
133 132 0
132 131 0
129 127 0
126 126 0
132 134 0
131 131 0
124 123 0
132 129 0
132 133 0
135 137 0
132 135 0
145 147 0
139 139 0
125 126 0
137 140 0
138 140 0
142 148 0
143 147 0
144 149 0
147 151 0
145 150 0
148 156 0
136 137 0
144 148 0
145 152 0
146 151 0
149 156 0
148 155 0
153 160 0
149 159 0
144 150 0
154 164 0
148 157 0
154 163 0
154 161 0
152 161 0
151 161 0
151 163 0
151 162 0
154 163 0
154 162 0
162 174 0
163 177 0
155 169 0
147 158 0
154 165 0
161 173 0
154 168 0
158 169 0
156 168 0
157 170 0
164 177 0
160 176 0
163 177 0
162 177 0
166 187 0
166 186 0
162 182 0
167 187 0
165 184 0
168 188 0
165 184 0
160 180 0
158 176 0
164 183 0
162 181 0
162 182 0
160 178 0
159 178 0
161 180 0
161 179 0
163 182 0
161 180 0
159 178 0
163 181 0
159 178 0
160 177 0
159 177 0
156 174 0
155 172 0
156 173 0
159 176 0
155 172 0
154 171 0
149 165 0
148 165 0
157 174 0
151 168 0
151 168 0
153 170 0
148 164 0
147 163 0
147 162 0
144 160 0
146 162 0
149 164 0
140 156 0
139 154 0
147 161 0
136 149 0
145 161 0
141 154 0
139 154 0
144 158 0
139 154 0
131 144 0
135 149 0
138 152 0
138 152 0
134 148 0
144 159 0
135 148 0
136 149 0
136 150 0
131 145 0
138 152 0
135 148 0
123 136 0
134 148 0
140 154 0
138 152 0
134 149 0
137 152 0
141 156 0
130 145 0
138 153 0
132 146 0
133 148 0
129 143 0
129 144 0
130 144 0
137 152 0
123 138 0
140 156 0
140 156 0
134 150 0
138 154 0
132 147 0
138 154 0
136 151 0
137 153 0
136 152 0
139 155 0
135 151 0
134 151 0
135 151 0
130 146 0
141 158 0
138 154 0
139 157 0
140 156 0
139 157 0
136 154 0
135 152 0
143 161 0
142 160 0
140 158 0
136 153 0
134 150 0
144 162 0
135 154 0
140 157 0
135 152 0
136 154 0
133 151 0
140 159 0
138 156 0
138 157 0
135 155 0
137 157 0
136 154 0
134 152 0
133 151 0
133 151 0
130 149 0
130 147 0
141 160 0
129 148 0
137 157 0
122 140 0
139 159 0
136 155 0
139 158 0
139 159 0
138 158 0
132 151 0
138 158 0
135 154 0
131 150 0
138 158 0
136 155 0
132 153 0
131 151 0
138 157 0
142 161 0
140 160 0
136 155 0
134 153 0
141 162 0
145 165 0
139 159 0
131 150 0
134 154 0
134 154 0
130 149 0
136 156 0
135 155 0
130 149 0
130 151 0
134 154 0
143 164 0
131 151 0
129 149 0
141 161 0
125 144 0
133 152 0
123 144 0
134 154 0
135 156 0
136 155 0
131 151 0
133 152 0
136 156 0
123 141 0
133 152 0
126 145 0
119 138 0
125 145 0
132 152 0
127 147 0
117 137 0
125 144 0
131 151 0
132 152 0
126 145 0
128 149 0
129 148 0
119 139 0
121 139 0
121 141 0
117 135 0
118 137 0
126 145 0
115 134 0
129 148 0
132 151 0
116 135 0
129 149 0
122 141 0
131 150 0
133 151 0
124 144 0
115 134 0
126 146 0
121 140 0
127 146 0
114 133 0
120 139 0
117 135 0
133 152 0
121 138 0
124 141 0
124 142 0
112 131 0
120 138 0
123 142 0
112 130 0
129 149 0
121 139 0
114 130 0
126 144 0
128 147 0
129 148 0
117 137 0
113 132 0
133 153 0
121 138 0
123 139 0
131 150 0
132 151 0
130 146 0
132 151 0
118 134 0
123 142 0
130 149 0
133 150 0
119 136 0
129 146 0
126 144 0
127 145 0
126 144 0
132 151 0
135 155 0
132 150 0
124 140 0
127 146 0
131 149 0
130 150 0
136 152 0
124 142 0
127 143 0
139 156 0
138 154 0
133 151 0
136 151 0
128 145 0
134 151 0
125 140 0
139 156 0
131 148 0
128 143 0
133 150 0
134 152 0
122 137 0
120 134 0
136 152 0
123 137 0
127 143 0
137 152 0
136 154 0
132 148 0
124 139 0
145 161 0
132 148 0
136 151 0
143 158 0
137 152 0
125 139 0
134 147 0
122 136 0
131 146 0
133 149 0
129 144 0
133 146 0
137 151 0
134 144 0
128 138 0
137 147 0
140 153 0
135 147 0
141 155 0
131 145 0
131 143 0
136 150 0
134 146 0
143 156 0
126 137 0
136 145 0
132 140 0
123 129 0
135 146 0
141 151 0
138 145 0
117 126 0
135 146 0
138 144 0
132 140 0
131 137 0
130 139 0
129 138 0
127 131 0
130 141 0
121 125 0
125 133 0
127 132 0
121 127 0
123 124 0
127 133 0
130 133 0
127 132 0
127 130 0
125 129 0
129 131 0
129 135 0
122 122 0
135 141 0
136 139 0
124 126 0
128 130 0
132 131 0
122 123 0
132 134 0
121 123 0
123 124 0
116 115 0
128 128 0
126 127 0
118 117 0
124 124 0
120 117 0
129 129 0
123 123 0
127 126 0
126 124 0
126 125 0
132 129 0
120 119 0
127 127 0
119 116 0
131 132 0
131 131 0
123 122 0
133 134 0
133 133 0
123 124 0
129 127 0
130 131 0
126 126 0
132 132 0
135 132 0
129 129 0
136 138 0
137 140 0
139 140 0
141 140 0
143 144 0
137 139 0
142 146 0
140 140 0
136 140 0
143 147 0
148 152 0
146 150 0
148 152 0
148 156 0
144 151 0
145 149 0
143 147 0
153 162 0
143 151 0
153 160 0
149 155 0
148 156 0
149 160 0
147 155 0
152 160 0
153 164 0
158 167 0
156 169 0
154 162 0
150 159 0
150 160 0
163 176 0
151 163 0
161 173 0
162 173 0
160 174 0
155 163 0
158 171 0
161 175 0
159 172 0
165 179 0
161 173 0
158 168 0
163 178 0
166 187 0
164 184 0
164 185 0
162 182 0
165 185 0
166 186 0
162 181 0
168 187 0
165 184 0
160 179 0
159 178 0
161 180 0
162 182 0
164 184 0
159 177 0
161 180 0
161 180 0
164 183 0
156 173 0
161 178 0
164 182 0
161 179 0
156 174 0
156 174 0
157 175 0
154 171 0
155 172 0
155 172 0
150 167 0
152 168 0
149 166 0
155 170 0
150 167 0
154 171 0
149 166 0
153 170 0
151 168 0
150 166 0
148 164 0
145 160 0
150 165 0
143 158 0
146 162 0
140 155 0
142 157 0
140 154 0
144 159 0
139 154 0
145 161 0
140 155 0
137 151 0
143 158 0
139 152 0
139 153 0
138 152 0
142 157 0
133 147 0
135 149 0
135 150 0
133 147 0
136 150 0
134 149 0
141 157 0
135 149 0
144 159 0
140 155 0
135 149 0
133 147 0
142 158 0
137 152 0
139 154 0
134 149 0
141 157 0
137 153 0
128 144 0
137 152 0
134 150 0
126 141 0
134 149 0
136 152 0
134 149 0
138 153 0
146 163 0
134 150 0
139 156 0
134 150 0
141 157 0
139 156 0
138 156 0
137 154 0
137 154 0
140 156 0
137 154 0
140 157 0
134 151 0
136 154 0
142 159 0
138 155 0
136 152 0
139 157 0
136 153 0
139 156 0
141 159 0
142 160 0
141 159 0
135 153 0
139 157 0
133 150 0
135 153 0
142 161 0
134 153 0
139 158 0
136 154 0
142 161 0
133 153 0
138 156 0
135 154 0
143 162 0
142 160 0
136 155 0
146 166 0
137 156 0
137 157 0
134 154 0
130 149 0
131 151 0
134 154 0
127 146 0
140 160 0
136 156 0
140 159 0
138 158 0
140 160 0
136 156 0
136 155 0
148 167 0
140 159 0
135 154 0
138 159 0
140 161 0
143 164 0
142 162 0
145 165 0
137 156 0
141 161 0
134 155 0
145 165 0
134 154 0
139 159 0
127 147 0
136 156 0
139 159 0
140 161 0
135 155 0
127 148 0
132 153 0
130 150 0
136 157 0
132 152 0
135 155 0
125 143 0
136 155 0
129 149 0
130 151 0
140 162 0
138 158 0
131 150 0
122 142 0
135 154 0
134 154 0
129 149 0
134 155 0
125 145 0
126 145 0
127 146 0
121 140 0
119 140 0
130 150 0
126 146 0
128 148 0
122 142 0
123 143 0
137 157 0
120 140 0
116 136 0
120 140 0
111 130 0
133 153 0
122 141 0
127 146 0
114 134 0
121 141 0
116 136 0
115 135 0
129 147 0
126 145 0
108 123 0
122 142 0
115 135 0
134 154 0
131 149 0
125 145 0
123 141 0
123 142 0
123 142 0
123 141 0
123 141 0
117 136 0
122 141 0
131 151 0
140 159 0
118 134 0
124 143 0
125 145 0
120 137 0
125 143 0
129 149 0
110 127 0
127 146 0
126 146 0
129 148 0
133 150 0
121 138 0
123 141 0
117 136 0
131 149 0
125 143 0
128 147 0
130 148 0
134 153 0
127 144 0
138 155 0
125 145 0
137 155 0
134 152 0
133 152 0
134 152 0
127 146 0
132 148 0
130 147 0
134 152 0
125 142 0
129 147 0
134 152 0
142 160 0
130 149 0
126 144 0
138 154 0
131 148 0
133 150 0
124 141 0
125 141 0
135 152 0
128 146 0
136 154 0
133 150 0
133 149 0
132 147 0
143 159 0
121 136 0
131 148 0
123 140 0
137 155 0
133 149 0
137 151 0
135 150 0
134 150 0
135 151 0
131 146 0
140 156 0
126 142 0
132 146 0
137 150 0
127 139 0
139 153 0
138 149 0
136 153 0
135 151 0
140 153 0
133 146 0
135 150 0
131 146 0
135 148 0
127 138 0
136 149 0
126 139 0
129 139 0
127 138 0
139 153 0
135 146 0
135 143 0
131 141 0
126 136 0
135 145 0
137 149 0
131 143 0
137 147 0
134 143 0
130 140 0
131 142 0
132 139 0
129 135 0
138 149 0
136 144 0
130 137 0
124 132 0
135 143 0
122 128 0
123 130 0
135 141 0
129 136 0
119 124 0
141 148 0
119 125 0
130 135 0
136 140 0
129 133 0
135 140 0
128 132 0
133 137 0
123 127 0
132 133 0
126 131 0
131 136 0
127 129 0
125 126 0
126 126 0
132 135 0
126 126 0
121 122 0
126 129 0
126 131 0
131 132 0
119 118 0
125 126 0
125 125 0
122 124 0
130 129 0
126 124 0
127 129 0
135 137 0
122 125 0
123 122 0
122 123 0
131 130 0
128 128 0
138 139 0
130 132 0
126 128 0
137 137 0
133 134 0
129 128 0
130 130 0
122 122 0
126 126 0
145 147 0
138 136 0
127 129 0
132 135 0
131 133 0
138 141 0
135 136 0
139 141 0
151 156 0
133 137 0
145 150 0
139 144 0
141 144 0
140 143 0
144 149 0
153 160 0
141 148 0
140 143 0
148 154 0
146 149 0
151 160 0
153 161 0
147 157 0
152 158 0
151 158 0
153 163 0
159 167 0
149 159 0
153 162 0
153 162 0
155 167 0
161 172 0
153 162 0
159 169 0
162 174 0
155 165 0
157 167 0
158 169 0
151 163 0
157 169 0
159 171 0
160 173 0
159 173 0
165 180 0
158 171 0
162 182 0
163 183 0
166 186 0
168 187 0
164 183 0
160 178 0
159 178 0
161 180 0
162 181 0
156 174 0
160 179 0
157 176 0
157 176 0
161 180 0
161 180 0
158 176 0
160 178 0
158 176 0
162 181 0
159 176 0
159 177 0
158 175 0
155 172 0
155 172 0
157 175 0
159 177 0
150 167 0
152 170 0
152 169 0
150 167 0
154 170 0
155 171 0
152 168 0
150 167 0
149 165 0
140 156 0
150 167 0
143 158 0
147 163 0
145 160 0
144 160 0
146 161 0
153 169 0
148 164 0
142 158 0
150 165 0
146 161 0
141 157 0
146 162 0
139 154 0
144 159 0
141 156 0
138 153 0
144 159 0
137 153 0
137 152 0
146 162 0
145 160 0
139 153 0
140 154 0
136 151 0
136 150 0
135 150 0
136 151 0
140 155 0
139 155 0
142 157 0
141 156 0
131 146 0
142 157 0
141 157 0
130 145 0
144 160 0
145 161 0
146 162 0
139 154 0
139 155 0
136 151 0
140 157 0
142 159 0
133 150 0
144 160 0
140 157 0
140 157 0
143 160 0
141 158 0
134 151 0
129 146 0
141 158 0
136 153 0
149 167 0
136 152 0
145 162 0
144 162 0
132 150 0
131 149 0
137 154 0
137 156 0
138 154 0
140 159 0
140 157 0
139 156 0
144 162 0
138 156 0
145 163 0
143 161 0
140 159 0
134 153 0
137 156 0
144 163 0
137 156 0
138 157 0
138 155 0
140 159 0
146 164 0
136 155 0
127 144 0
141 159 0
142 161 0
141 162 0
143 162 0
135 154 0
144 165 0
142 161 0
139 158 0
138 158 0
135 154 0
146 166 0
143 163 0
145 165 0
130 150 0
136 156 0
147 168 0
141 161 0
133 153 0
138 158 0
143 164 0
137 157 0
132 152 0
143 164 0
140 160 0
141 162 0
147 167 0
129 148 0
137 157 0
131 152 0
135 154 0
134 154 0
137 156 0
136 156 0
137 157 0
141 162 0
137 157 0
139 160 0
145 166 0
135 156 0
125 145 0
127 148 0
133 153 0
134 154 0
124 144 0
143 163 0
132 152 0
132 151 0
137 157 0
136 155 0
123 141 0
130 151 0
133 154 0
133 152 0
129 149 0
130 149 0
130 149 0
126 147 0
132 153 0
137 156 0
133 154 0
130 150 0
132 150 0
128 148 0
129 149 0
127 145 0
131 151 0
133 153 0
132 152 0
124 143 0
127 147 0
124 144 0
117 136 0
134 153 0
116 136 0
127 147 0
125 146 0
121 140 0
117 136 0
132 152 0
132 152 0
124 143 0
132 152 0
112 132 0
135 155 0
120 139 0
124 142 0
128 148 0
130 149 0
127 147 0
129 147 0
131 148 0
123 142 0
129 149 0
132 151 0
119 139 0
121 140 0
124 141 0
126 144 0
122 141 0
125 144 0
130 149 0
124 143 0
126 145 0
135 154 0
124 144 0
131 148 0
118 136 0
123 140 0
129 148 0
127 144 0
129 147 0
135 152 0
129 147 0
135 154 0
126 144 0
124 142 0
128 148 0
124 141 0
130 148 0
130 148 0
123 140 0
131 150 0
132 150 0
132 149 0
124 143 0
138 156 0
135 152 0
134 153 0
140 158 0
139 155 0
141 160 0
131 150 0
130 148 0
130 147 0
139 155 0
131 149 0
139 157 0
138 155 0
135 152 0
130 147 0
141 158 0
138 155 0
130 147 0
131 147 0
130 146 0
132 147 0
133 147 0
141 158 0
139 156 0
138 153 0
135 152 0
146 162 0
138 154 0
139 155 0
140 156 0
139 155 0
132 146 0
140 154 0
134 146 0
143 159 0
136 149 0
146 162 0
140 155 0
131 144 0
135 150 0
132 144 0
143 159 0
133 143 0
136 150 0
137 151 0
130 142 0
131 143 0
126 137 0
136 147 0
141 153 0
130 139 0
133 145 0
134 148 0
136 147 0
132 143 0
140 152 0
127 136 0
123 134 0
140 148 0
141 151 0
134 142 0
132 140 0
143 153 0
139 149 0
142 153 0
135 141 0
128 134 0
126 133 0
128 134 0
129 135 0
126 136 0
137 145 0
134 141 0
133 137 0
130 133 0
130 135 0
131 136 0
130 134 0
121 125 0
132 135 0
130 137 0
123 124 0
128 131 0
127 129 0
129 132 0
124 126 0
127 127 0
132 135 0
126 128 0
128 131 0
134 137 0
117 118 0
119 117 0
135 136 0
127 130 0
128 131 0
127 130 0
128 125 0
131 133 0
135 136 0
128 129 0
132 133 0
133 133 0
133 133 0
137 135 0
131 132 0
124 124 0
126 127 0
135 136 0
132 132 0
130 130 0
136 138 0
143 147 0
134 135 0
133 135 0
129 130 0
133 133 0
133 134 0
138 139 0
139 143 0
143 150 0
135 135 0
140 145 0
146 151 0
143 150 0
149 155 0
137 141 0
146 152 0
145 150 0
148 154 0
147 152 0
154 161 0
149 156 0
144 149 0
153 162 0
142 147 0
150 157 0
151 159 0
152 159 0
151 158 0
156 167 0
154 162 0
154 164 0
154 165 0
145 155 0
155 165 0
155 164 0
157 166 0
151 161 0
155 166 0
152 164 0
155 167 0
160 173 0
151 162 0
158 171 0
155 168 0
161 174 0
156 168 0
166 186 0
164 183 0
164 183 0
162 183 0
162 182 0
163 182 0
163 182 0
162 181 0
163 181 0
161 181 0
164 183 0
157 175 0
159 178 0
157 176 0
158 175 0
162 181 0
158 176 0
157 175 0
161 180 0
153 172 0
156 174 0
157 174 0
158 176 0
152 170 0
157 175 0
152 169 0
151 169 0
154 171 0
155 171 0
148 165 0
155 172 0
159 176 0
157 174 0
152 169 0
154 170 0
146 161 0
144 159 0
139 154 0
150 166 0
138 153 0
144 160 0
142 156 0
153 169 0
149 166 0
147 163 0
150 166 0
147 162 0
146 161 0
142 157 0
146 161 0
141 157 0
145 160 0
145 161 0
139 153 0
143 158 0
136 151 0
134 149 0
138 153 0
142 157 0
136 150 0
139 153 0
134 149 0
133 148 0
140 156 0
146 161 0
137 152 0
145 160 0
146 161 0
139 155 0
135 149 0
142 157 0
136 152 0
136 152 0
137 153 0
142 158 0
134 150 0
134 151 0
133 148 0
137 153 0
143 159 0
136 154 0
137 153 0
142 159 0
143 160 0
140 157 0
133 150 0
145 162 0
138 155 0
143 161 0
146 164 0
146 164 0
143 161 0
137 154 0
142 161 0
142 160 0
140 159 0
140 158 0
138 156 0
146 164 0
140 156 0
136 155 0
143 161 0
140 158 0
141 160 0
145 164 0
142 160 0
143 162 0
146 164 0
145 163 0
144 163 0
138 157 0
142 162 0
137 156 0
143 163 0
146 165 0
134 154 0
134 154 0
140 159 0
149 168 0
139 160 0
135 154 0
140 160 0
139 158 0
139 157 0
139 159 0
127 147 0
142 161 0
139 160 0
137 158 0
138 157 0
136 155 0
134 155 0
141 161 0
139 158 0
140 160 0
141 162 0
141 161 0
139 159 0
137 158 0
139 159 0
136 156 0
139 160 0
132 152 0
137 158 0
142 161 0
125 145 0
139 161 0
136 156 0
139 160 0
131 150 0
143 164 0
140 160 0
142 162 0
130 150 0
138 158 0
136 156 0
130 149 0
131 151 0
134 154 0
126 145 0
143 164 0
132 151 0
129 147 0
129 150 0
137 157 0
132 152 0
128 147 0
131 151 0
127 147 0
125 145 0
125 145 0
134 155 0
128 147 0
138 157 0
124 144 0
126 144 0
117 137 0
128 148 0
132 152 0
128 148 0
136 156 0
133 154 0
136 156 0
141 162 0
128 147 0
130 150 0
136 156 0
124 142 0
120 139 0
129 149 0
116 133 0
132 153 0
131 149 0
128 147 0
128 146 0
139 159 0
135 156 0
126 145 0
120 139 0
132 151 0
132 152 0
122 140 0
132 151 0
135 154 0
122 140 0
134 153 0
129 148 0
126 145 0
127 146 0
134 153 0
135 155 0
129 148 0
119 136 0
120 138 0
127 147 0
120 139 0
132 152 0
132 151 0
132 151 0
138 157 0
133 153 0
125 142 0
139 157 0
132 152 0
128 146 0
128 148 0
131 150 0
133 151 0
121 139 0
133 151 0
132 150 0
134 152 0
129 147 0
128 146 0
132 150 0
132 152 0
127 143 0
133 151 0
131 148 0
131 148 0
127 145 0
142 162 0
139 158 0
139 159 0
136 155 0
128 147 0
128 145 0
138 155 0
135 151 0
125 142 0
131 148 0
130 146 0
127 145 0
142 161 0
136 156 0
135 152 0
135 151 0
140 157 0
135 150 0
137 154 0
136 151 0
133 149 0
135 152 0
135 154 0
132 149 0
141 158 0
130 144 0
135 151 0
137 154 0
137 152 0
131 145 0
136 150 0
136 152 0
128 145 0
143 161 0
138 152 0
130 145 0
139 155 0
136 149 0
131 144 0
134 149 0
137 153 0
131 143 0
145 161 0
140 153 0
130 143 0
130 144 0
136 149 0
140 152 0
141 153 0
133 146 0
138 152 0
137 147 0
137 148 0
135 148 0
141 150 0
138 150 0
128 138 0
135 146 0
122 129 0
132 139 0
137 149 0
138 149 0
137 146 0
134 143 0
139 149 0
132 141 0
139 151 0
130 138 0
129 134 0
122 129 0
133 140 0
134 142 0
118 125 0
131 135 0
131 138 0
138 147 0
133 139 0
134 139 0
135 143 0
134 138 0
123 130 0
137 143 0
130 135 0
138 144 0
121 123 0
134 138 0
128 132 0
127 129 0
131 133 0
136 136 0
124 128 0
126 128 0
139 142 0
129 131 0
134 134 0
124 126 0
140 142 0
138 138 0
132 130 0
122 122 0
128 127 0
136 140 0
132 133 0
129 132 0
136 139 0
131 134 0
134 136 0
131 133 0
142 144 0
139 141 0
138 140 0
134 136 0
132 135 0
134 137 0
142 144 0
138 140 0
136 138 0
138 140 0
141 145 0
145 150 0
134 136 0
145 150 0
141 144 0
135 137 0
139 143 0
138 140 0
133 132 0
146 150 0
144 150 0
149 156 0
156 164 0
143 150 0
141 146 0
155 163 0
148 153 0
156 163 0
149 158 0
148 156 0
151 159 0
151 159 0
150 160 0
149 155 0
154 162 0
148 156 0
146 154 0
151 160 0
154 163 0
148 159 0
155 165 0
151 161 0
163 177 0
159 172 0
155 166 0
160 173 0
160 171 0
155 166 0
159 171 0
164 175 0
160 175 0
165 184 0
160 180 0
166 186 0
164 183 0
165 184 0
165 184 0
162 182 0
162 182 0
165 184 0
162 181 0
163 183 0
163 183 0
160 179 0
158 177 0
162 182 0
158 177 0
156 173 0
161 180 0
159 176 0
156 175 0
154 172 0
158 176 0
154 171 0
153 170 0
143 159 0
152 168 0
153 170 0
159 177 0
148 165 0
145 161 0
156 172 0
153 169 0
152 169 0
143 158 0
152 168 0
153 169 0
150 166 0
150 167 0
144 159 0
148 163 0
142 159 0
149 165 0
148 164 0
141 157 0
140 155 0
145 160 0
145 160 0
141 155 0
137 152 0
142 158 0
142 158 0
140 155 0
139 155 0
141 156 0
143 159 0
136 151 0
146 162 0
140 156 0
146 162 0
148 163 0
137 152 0
133 148 0
136 150 0
147 163 0
141 158 0
149 166 0
140 155 0
143 159 0
142 158 0
140 156 0
135 151 0
147 163 0
141 156 0
148 165 0
133 150 0
138 155 0
137 152 0
149 168 0
143 161 0
135 152 0
143 161 0
141 158 0
141 158 0
145 162 0
137 154 0
139 156 0
138 155 0
147 165 0
151 170 0
139 157 0
147 166 0
142 160 0
129 146 0
145 164 0
141 158 0
134 152 0
144 162 0
141 158 0
140 159 0
134 152 0
137 155 0
138 156 0
138 157 0
142 161 0
144 164 0
134 152 0
145 164 0
143 162 0
135 153 0
142 161 0
131 149 0
136 155 0
140 159 0
148 168 0
143 161 0
136 157 0
136 155 0
147 166 0
141 161 0
139 159 0
137 156 0
139 159 0
133 152 0
141 162 0
146 165 0
145 166 0
141 161 0
146 166 0
139 159 0
139 159 0
138 159 0
138 159 0
143 164 0
144 166 0
144 164 0
134 152 0
135 154 0
142 163 0
134 154 0
140 160 0
136 156 0
142 162 0
144 164 0
133 153 0
140 160 0
139 159 0
144 164 0
134 155 0
129 149 0
132 153 0
141 161 0
128 149 0
132 153 0
139 160 0
136 156 0
124 144 0
141 162 0
136 156 0
136 156 0
129 150 0
139 159 0
145 166 0
131 151 0
138 159 0
117 137 0
124 144 0
133 153 0
126 145 0
131 150 0
132 153 0
133 152 0
140 161 0
124 146 0
126 147 0
140 161 0
130 150 0
136 156 0
123 143 0
132 153 0
133 154 0
141 162 0
132 153 0
136 156 0
125 144 0
128 149 0
127 146 0
129 149 0
135 154 0
130 148 0
132 151 0
121 141 0
134 153 0
134 154 0
121 141 0
135 155 0
125 144 0
127 148 0
126 146 0
123 142 0
132 150 0
128 148 0
137 157 0
126 144 0
131 149 0
129 147 0
134 154 0
125 144 0
128 148 0
125 144 0
137 157 0
132 152 0
134 153 0
129 148 0
125 141 0
132 152 0
128 147 0
122 142 0
127 145 0
131 151 0
134 154 0
118 136 0
124 142 0
134 153 0
142 161 0
137 157 0
137 155 0
137 155 0
134 153 0
118 136 0
117 135 0
136 154 0
123 143 0
130 149 0
138 157 0
138 155 0
123 139 0
133 153 0
124 143 0
120 139 0
132 151 0
131 150 0
130 150 0
133 152 0
133 151 0
133 152 0
134 152 0
140 159 0
137 155 0
132 149 0
136 155 0
134 149 0
137 155 0
139 156 0
134 153 0
131 148 0
137 156 0
141 156 0
141 160 0
143 162 0
127 144 0
134 152 0
128 145 0
135 150 0
141 159 0
143 161 0
134 150 0
143 159 0
136 149 0
143 160 0
138 155 0
135 151 0
135 149 0
146 162 0
134 148 0
141 157 0
132 147 0
129 143 0
134 150 0
142 159 0
135 150 0
132 147 0
139 154 0
136 150 0
142 154 0
138 154 0
128 140 0
131 143 0
129 139 0
130 143 0
139 152 0
138 153 0
137 150 0
132 142 0
139 153 0
128 139 0
136 150 0
144 157 0
130 143 0
134 143 0
137 149 0
134 144 0
129 139 0
133 142 0
135 148 0
129 137 0
134 144 0
138 147 0
149 160 0
134 144 0
142 151 0
139 149 0
137 147 0
134 142 0
137 146 0
132 138 0
134 141 0
132 139 0
137 144 0
126 133 0
124 131 0
128 136 0
133 140 0
139 146 0
127 131 0
134 138 0
139 146 0
132 138 0
118 121 0
132 133 0
136 142 0
130 135 0
133 136 0
128 130 0
123 125 0
133 136 0
129 129 0
132 136 0
138 142 0
131 134 0
129 132 0
131 133 0
142 146 0
132 133 0
128 132 0
135 139 0
136 140 0
140 144 0
138 140 0
129 131 0
134 136 0
131 134 0
132 136 0
129 130 0
130 132 0
134 137 0
136 140 0
124 123 0
136 139 0
143 150 0
140 142 0
143 148 0
145 151 0
141 144 0
139 143 0
147 154 0
139 145 0
138 138 0
140 145 0
139 145 0
146 150 0
144 145 0
150 157 0
141 145 0
145 150 0
151 159 0
151 157 0
143 149 0
150 155 0
154 163 0
140 144 0
144 147 0
149 157 0
153 162 0
142 148 0
143 148 0
153 164 0
149 157 0
162 176 0
150 159 0
152 162 0
157 165 0
156 166 0
160 172 0
157 169 0
157 165 0
158 172 0
160 172 0
158 170 0
157 170 0
160 173 0
159 179 0
163 182 0
164 183 0
164 183 0
162 181 0
157 176 0
161 180 0
163 181 0
161 181 0
163 182 0
161 180 0
164 182 0
155 173 0
157 175 0
157 175 0
164 182 0
153 170 0
155 173 0
161 179 0
158 176 0
154 171 0
151 168 0
156 174 0
159 177 0
151 168 0
155 172 0
152 169 0
154 170 0
149 166 0
150 167 0
152 169 0
148 164 0
153 170 0
155 173 0
155 171 0
153 169 0
153 170 0
145 160 0
147 164 0
149 165 0
146 162 0
146 163 0
152 168 0
153 168 0
141 156 0
144 159 0
145 161 0
146 162 0
140 155 0
144 160 0
145 160 0
142 158 0
149 165 0
143 159 0
143 159 0
142 158 0
143 159 0
149 164 0
140 156 0
147 163 0
144 160 0
144 160 0
144 160 0
140 156 0
141 157 0
138 154 0
142 160 0
139 154 0
149 166 0
144 160 0
146 163 0
139 156 0
137 152 0
141 158 0
148 165 0
132 149 0
138 156 0
141 158 0
136 153 0
133 149 0
139 156 0
146 164 0
137 153 0
148 165 0
146 163 0
136 152 0
138 156 0
136 153 0
143 161 0
144 161 0
139 157 0
142 160 0
145 164 0
146 164 0
141 160 0
141 159 0
142 159 0
134 152 0
143 162 0
151 170 0
138 157 0
151 170 0
143 163 0
141 160 0
144 163 0
142 162 0
145 164 0
133 151 0
134 152 0
143 163 0
141 160 0
147 167 0
149 169 0
147 165 0
150 169 0
144 164 0
141 160 0
141 161 0
143 162 0
142 162 0
150 171 0
143 164 0
138 158 0
140 161 0
144 163 0
140 161 0
136 158 0
145 165 0
148 169 0
141 160 0
135 155 0
138 159 0
138 159 0
142 162 0
137 157 0
140 159 0
144 163 0
144 165 0
144 164 0
140 161 0
139 158 0
138 159 0
141 162 0
143 163 0
129 149 0
146 167 0
143 163 0
135 155 0
139 161 0
142 162 0
136 157 0
132 151 0
134 155 0
130 150 0
140 161 0
138 157 0
137 156 0
130 151 0
140 160 0
141 161 0
132 152 0
141 161 0
134 154 0
131 152 0
140 161 0
136 157 0
137 157 0
136 157 0
119 138 0
131 152 0
132 153 0
129 147 0
134 154 0
137 158 0
126 146 0
129 149 0
130 150 0
127 147 0
131 152 0
133 154 0
127 146 0
134 156 0
128 148 0
131 150 0
132 153 0
122 143 0
130 150 0
134 155 0
124 144 0
121 140 0
132 152 0
132 150 0
133 152 0
131 150 0
131 151 0
126 147 0
132 151 0
122 141 0
133 153 0
133 152 0
136 155 0
130 151 0
129 149 0
123 144 0
139 160 0
124 144 0
140 160 0
127 146 0
127 145 0
130 149 0
134 154 0
124 144 0
134 154 0
132 152 0
119 138 0
129 147 0
136 155 0
126 145 0
133 154 0
137 156 0
135 154 0
128 146 0
133 152 0
135 154 0
137 157 0
132 151 0
135 154 0
133 152 0
139 157 0
132 151 0
129 146 0
136 156 0
132 150 0
131 149 0
124 142 0
137 157 0
131 149 0
131 151 0
140 159 0
131 149 0
135 155 0
133 151 0
135 153 0
133 150 0
138 157 0
144 163 0
134 153 0
136 156 0
136 156 0
140 158 0
138 157 0
137 157 0
135 155 0
138 155 0
134 153 0
127 144 0
145 165 0
143 162 0
142 160 0
138 153 0
137 155 0
132 147 0
130 145 0
140 155 0
134 151 0
135 152 0
128 146 0
141 158 0
134 149 0
141 157 0
133 151 0
134 152 0
134 150 0
135 147 0
143 158 0
134 149 0
133 149 0
132 146 0
144 159 0
138 153 0
132 148 0
144 159 0
144 159 0
133 147 0
134 149 0
132 145 0
136 149 0
135 150 0
133 146 0
138 151 0
144 159 0
142 158 0
137 151 0
139 152 0
137 149 0
136 150 0
141 153 0
141 150 0
132 140 0
143 155 0
133 144 0
139 150 0
135 146 0
142 155 0
135 146 0
139 148 0
137 146 0
141 152 0
137 150 0
135 143 0
136 142 0
134 140 0
135 142 0
137 146 0
130 138 0
131 137 0
134 142 0
129 134 0
128 135 0
128 134 0
134 141 0
133 139 0
136 145 0
132 138 0
138 142 0
129 137 0
129 133 0
133 141 0
131 133 0
127 132 0
139 144 0
130 136 0
135 138 0
136 142 0
137 141 0
135 139 0
143 149 0
137 140 0
139 143 0
138 142 0
134 137 0
130 134 0
131 135 0
139 142 0
138 142 0
137 142 0
124 127 0
141 144 0
141 145 0
131 131 0
138 137 0
131 135 0
133 133 0
137 139 0
140 144 0
133 137 0
143 147 0
139 140 0
137 141 0
143 147 0
139 140 0
142 141 0
142 146 0
144 149 0
151 156 0
140 144 0
137 140 0
147 152 0
142 148 0
144 146 0
149 152 0
141 145 0
141 146 0
150 154 0
147 155 0
149 157 0
149 157 0
148 155 0
144 153 0
146 153 0
157 164 0
148 157 0
152 158 0
144 152 0
151 159 0
154 160 0
152 163 0
157 167 0
155 166 0
154 164 0
154 164 0
157 167 0
154 164 0
155 166 0
153 163 0
157 167 0
155 164 0
157 168 0
154 166 0
153 163 0
163 182 0
162 182 0
167 186 0
162 183 0
160 179 0
163 182 0
158 177 0
160 179 0
161 179 0
163 181 0
164 182 0
154 173 0
161 179 0
159 178 0
161 180 0
158 175 0
153 171 0
153 171 0
161 179 0
164 182 0
154 171 0
157 175 0
153 170 0
151 169 0
159 176 0
152 169 0
161 178 0
158 175 0
156 174 0
151 167 0
149 166 0
154 171 0
153 170 0
145 161 0
144 160 0
153 170 0
149 165 0
151 167 0
151 167 0
155 172 0
150 166 0
147 164 0
146 162 0
144 160 0
147 163 0
149 165 0
146 162 0
147 163 0
145 162 0
145 162 0
143 159 0
148 164 0
143 160 0
141 156 0
141 157 0
144 159 0
132 147 0
147 164 0
143 159 0
142 159 0
153 170 0
142 159 0
150 166 0
146 161 0
145 162 0
146 163 0
143 160 0
148 165 0
147 163 0
139 157 0
136 152 0
139 156 0
146 163 0
144 161 0
142 159 0
146 164 0
146 163 0
144 162 0
150 168 0
142 159 0
139 156 0
136 153 0
146 164 0
142 158 0
136 154 0
145 164 0
142 160 0
150 168 0
150 168 0
146 164 0
135 154 0
140 158 0
142 161 0
143 162 0
146 166 0
142 161 0
145 165 0
138 156 0
140 158 0
148 166 0
135 153 0
139 158 0
141 160 0
143 163 0
138 157 0
139 158 0
141 161 0
147 166 0
147 165 0
144 163 0
135 154 0
140 160 0
140 160 0
140 159 0
148 168 0
148 168 0
140 161 0
135 154 0
145 166 0
145 164 0
138 158 0
139 159 0
136 156 0
142 161 0
145 166 0
137 156 0
136 155 0
134 154 0
139 158 0
145 167 0
141 163 0
140 161 0
138 159 0
135 154 0
133 152 0
143 162 0
139 159 0
150 172 0
139 159 0
137 158 0
140 161 0
149 169 0
146 167 0
145 166 0
134 154 0
134 154 0
134 154 0
142 162 0
138 158 0
139 160 0
145 165 0
136 156 0
136 157 0
141 162 0
137 157 0
147 167 0
134 153 0
140 161 0
135 156 0
141 160 0
134 155 0
137 158 0
133 153 0
133 155 0
136 156 0
134 155 0
141 162 0
127 148 0
139 160 0
133 153 0
132 152 0
139 159 0
142 163 0
127 147 0
136 157 0
138 158 0
126 144 0
141 161 0
132 152 0
124 144 0
135 156 0
130 150 0
128 149 0
129 149 0
130 150 0
122 142 0
134 153 0
133 153 0
132 151 0
134 153 0
135 155 0
126 145 0
131 151 0
135 155 0
143 163 0
138 157 0
141 161 0
133 154 0
138 158 0
136 154 0
125 142 0
127 148 0
127 147 0
135 156 0
128 149 0
139 159 0
131 151 0
115 133 0
132 150 0
135 154 0
132 153 0
135 155 0
126 145 0
134 153 0
125 142 0
130 149 0
126 146 0
128 147 0
136 155 0
134 153 0
140 159 0
134 153 0
136 157 0
130 149 0
138 158 0
127 145 0
131 152 0
115 133 0
130 148 0
126 146 0
132 150 0
132 150 0
133 152 0
124 142 0
138 158 0
135 154 0
135 152 0
138 156 0
134 152 0
132 150 0
138 156 0
126 143 0
138 156 0
141 159 0
132 150 0
141 158 0
136 154 0
135 152 0
139 158 0
135 156 0
145 165 0
133 149 0
134 151 0
135 152 0
138 156 0
130 149 0
137 153 0
138 155 0
129 148 0
148 164 0
143 158 0
139 156 0
140 155 0
136 153 0
139 155 0
139 154 0
139 156 0
140 160 0
140 157 0
140 157 0
133 147 0
137 153 0
130 144 0
140 158 0
134 148 0
137 151 0
140 155 0
139 155 0
138 155 0
133 148 0
128 141 0
136 151 0
130 144 0
144 158 0
138 150 0
138 153 0
127 140 0
134 148 0
132 147 0
137 152 0
139 151 0
144 157 0
141 153 0
137 152 0
134 146 0
134 144 0
145 159 0
142 153 0
143 153 0
150 163 0
149 163 0
136 148 0
141 152 0
143 156 0
132 142 0
135 146 0
143 155 0
141 152 0
136 147 0
133 145 0
134 146 0
134 144 0
138 147 0
144 155 0
140 148 0
138 148 0
138 148 0
136 145 0
137 145 0
134 140 0
137 143 0
127 133 0
141 150 0
126 134 0
135 144 0
132 141 0
134 139 0
128 134 0
135 141 0
141 147 0
136 142 0
144 150 0
136 139 0
145 154 0
136 142 0
140 146 0
143 148 0
132 139 0
139 145 0
131 134 0
148 154 0
133 137 0
124 124 0
134 138 0
138 143 0
134 139 0
131 136 0
133 138 0
139 145 0
130 133 0
136 142 0
144 149 0
138 143 0
146 151 0
141 146 0
131 132 0
140 145 0
130 134 0
132 134 0
132 135 0
144 147 0
136 136 0
141 143 0
137 139 0
146 150 0
147 149 0
145 151 0
139 143 0
145 149 0
145 151 0
146 152 0
150 157 0
144 151 0
144 147 0
146 153 0
142 148 0
147 154 0
141 146 0
153 161 0
145 154 0
153 162 0
146 154 0
155 164 0
143 150 0
152 159 0
151 159 0
150 158 0
150 160 0
154 162 0
151 160 0
150 160 0
156 166 0
152 160 0
157 168 0
159 169 0
161 172 0
156 167 0
159 170 0
159 170 0
158 172 0
163 182 0
157 176 0
162 182 0
160 179 0
163 183 0
159 178 0
161 180 0
161 180 0
156 175 0
159 178 0
163 182 0
159 177 0
159 177 0
157 175 0
162 180 0
156 174 0
153 170 0
157 174 0
160 179 0
153 170 0
153 171 0
157 175 0
151 169 0
155 172 0
154 171 0
156 172 0
153 170 0
148 165 0
150 167 0
155 171 0
154 171 0
161 178 0
151 168 0
152 169 0
154 172 0
148 164 0
154 170 0
149 166 0
149 166 0
148 165 0
142 158 0
146 162 0
148 165 0
140 156 0
147 163 0
141 156 0
147 164 0
144 161 0
148 164 0
143 159 0
147 163 0
145 161 0
143 159 0
154 171 0
139 155 0
144 159 0
147 164 0
146 162 0
141 157 0
146 163 0
144 159 0
149 166 0
141 156 0
144 161 0
141 158 0
146 163 0
142 160 0
143 159 0
145 163 0
141 158 0
145 161 0
148 165 0
148 166 0
139 155 0
146 163 0
139 157 0
148 166 0
143 160 0
140 157 0
144 162 0
145 163 0
143 160 0
146 164 0
149 168 0
143 161 0
149 167 0
146 164 0
144 161 0
143 162 0
141 159 0
148 167 0
145 164 0
140 159 0
143 162 0
143 163 0
143 163 0
136 154 0
143 162 0
141 160 0
139 158 0
152 171 0
141 160 0
139 158 0
141 160 0
137 155 0
141 159 0
147 166 0
141 161 0
144 163 0
145 165 0
140 160 0
137 156 0
144 162 0
136 156 0
135 154 0
138 158 0
145 165 0
145 164 0
137 157 0
138 156 0
137 157 0
139 159 0
142 162 0
140 159 0
141 161 0
139 159 0
133 153 0
140 161 0
138 158 0
137 158 0
143 164 0
137 158 0
139 159 0
147 168 0
137 158 0
137 158 0
143 163 0
145 166 0
141 162 0
140 161 0
145 166 0
137 158 0
143 164 0
144 165 0
139 159 0
127 148 0
129 149 0
140 160 0
144 165 0
136 156 0
141 162 0
138 159 0
134 154 0
147 168 0
137 158 0
141 161 0
133 153 0
140 160 0
143 164 0
147 165 0
143 163 0
145 165 0
140 159 0
136 156 0
133 154 0
135 156 0
140 161 0
138 159 0
136 156 0
129 149 0
137 156 0
136 154 0
138 159 0
134 154 0
147 167 0
135 156 0
134 154 0
128 148 0
134 153 0
141 162 0
143 164 0
130 151 0
137 157 0
137 157 0
133 153 0
134 154 0
141 162 0
135 154 0
134 154 0
131 150 0
126 145 0
134 153 0
132 152 0
138 157 0
137 157 0
134 153 0
130 148 0
130 150 0
136 156 0
133 153 0
131 151 0
132 153 0
131 150 0
124 144 0
125 145 0
133 152 0
131 150 0
129 148 0
133 153 0
132 152 0
125 144 0
125 144 0
136 154 0
124 142 0
130 149 0
130 148 0
128 148 0
139 157 0
131 150 0
136 154 0
134 154 0
127 147 0
129 147 0
130 147 0
130 148 0
136 155 0
128 146 0
136 155 0
138 156 0
137 156 0
130 149 0
137 155 0
139 160 0
130 149 0
139 157 0
137 156 0
131 147 0
134 154 0
132 152 0
137 155 0
130 148 0
128 145 0
135 154 0
140 159 0
138 156 0
129 145 0
139 156 0
139 159 0
142 161 0
149 168 0
128 145 0
128 144 0
140 159 0
142 161 0
131 148 0
140 157 0
138 155 0
140 159 0
131 148 0
136 153 0
135 153 0
135 153 0
142 159 0
136 152 0
142 160 0
130 149 0
138 157 0
144 160 0
138 156 0
147 165 0
136 155 0
128 146 0
147 165 0
143 161 0
135 150 0
138 153 0
141 158 0
131 146 0
136 150 0
128 143 0
137 152 0
135 150 0
143 157 0
137 151 0
138 153 0
149 163 0
135 151 0
140 154 0
139 156 0
138 155 0
137 150 0
136 151 0
140 152 0
136 151 0
135 150 0
139 155 0
137 151 0
136 149 0
137 150 0
137 150 0
136 148 0
137 150 0
142 153 0
138 148 0
142 154 0
129 140 0
137 146 0
134 144 0
140 152 0
135 146 0
148 161 0
142 155 0
137 148 0
129 137 0
141 151 0
132 143 0
141 151 0
139 148 0
146 157 0
124 132 0
139 149 0
132 141 0
138 147 0
134 140 0
141 150 0
136 145 0
135 141 0
139 146 0
140 148 0
143 150 0
144 152 0
141 149 0
138 146 0
136 139 0
133 139 0
143 147 0
137 144 0
132 135 0
141 146 0
136 142 0
133 138 0
142 149 0
143 149 0
135 139 0
136 137 0
135 140 0
140 149 0
141 148 0
139 142 0
140 144 0
126 129 0
140 144 0
141 144 0
131 134 0
148 152 0
146 150 0
133 136 0
142 148 0
146 150 0
134 139 0
141 147 0
148 155 0
140 143 0
142 148 0
141 148 0
146 154 0
149 153 0
144 149 0
147 155 0
135 136 0
146 152 0
141 147 0
143 148 0
149 153 0
137 139 0
149 154 0
156 162 0
148 153 0
151 156 0
146 158 0
152 158 0
149 155 0
152 159 0
144 152 0
150 157 0
146 152 0
152 159 0
151 160 0
151 160 0
151 159 0
149 158 0
150 160 0
157 167 0
148 156 0
157 166 0
153 165 0
154 163 0
157 167 0
157 169 0
157 172 0
160 179 0
161 180 0
166 185 0
156 175 0
164 184 0
157 175 0
161 180 0
157 175 0
159 178 0
160 179 0
162 181 0
158 176 0
157 175 0
160 178 0
157 175 0
156 174 0
160 178 0
154 171 0
157 175 0
153 170 0
155 172 0
155 172 0
154 171 0
156 173 0
155 173 0
155 173 0
148 164 0
155 172 0
149 166 0
159 177 0
153 171 0
154 172 0
155 172 0
150 167 0
146 163 0
152 170 0
149 165 0
149 166 0
144 160 0
145 162 0
145 163 0
147 164 0
146 163 0
151 168 0
148 165 0
150 167 0
151 168 0
149 166 0
150 166 0
149 165 0
151 168 0
145 161 0
152 168 0
146 163 0
146 162 0
143 158 0
151 167 0
148 165 0
145 163 0
146 162 0
147 164 0
145 163 0
147 164 0
148 165 0
139 156 0
143 160 0
150 167 0
144 162 0
144 161 0
136 153 0
147 164 0
145 162 0
145 162 0
142 159 0
145 162 0
146 165 0
143 161 0
142 158 0
144 161 0
147 164 0
140 158 0
138 155 0
142 160 0
139 157 0
145 164 0
139 157 0
145 163 0
145 163 0
147 166 0
149 168 0
144 162 0
150 169 0
146 166 0
143 162 0
144 163 0
146 165 0
146 165 0
151 170 0
149 169 0
151 170 0
140 160 0
138 158 0
142 161 0
143 163 0
146 166 0
141 161 0
141 161 0
147 167 0
143 162 0
142 163 0
145 165 0
146 166 0
142 161 0
139 160 0
146 166 0
143 164 0
140 159 0
149 169 0
145 166 0
140 160 0
145 166 0
141 162 0
139 160 0
145 166 0
148 167 0
145 165 0
144 164 0
146 165 0
136 156 0
139 159 0
146 167 0
148 170 0
145 167 0
146 166 0
146 167 0
138 160 0
140 161 0
148 169 0
147 168 0
135 155 0
144 165 0
140 161 0
150 171 0
129 149 0
130 151 0
139 159 0
132 153 0
138 158 0
138 159 0
139 161 0
143 165 0
144 166 0
141 162 0
148 169 0
136 156 0
137 158 0
132 154 0
139 158 0
135 156 0
133 153 0
139 160 0
140 160 0
138 157 0
136 156 0
139 160 0
138 159 0
129 150 0
136 155 0
136 156 0
137 158 0
129 149 0
128 148 0
144 165 0
142 164 0
135 154 0
136 155 0
132 152 0
139 161 0
135 154 0
135 155 0
133 154 0
130 151 0
135 155 0
131 152 0
136 155 0
136 155 0
129 149 0
129 148 0
133 154 0
127 146 0
139 158 0
142 163 0
125 146 0
126 146 0
124 144 0
137 156 0
131 152 0
133 153 0
135 156 0
135 156 0
128 148 0
134 151 0
129 148 0
128 147 0
130 149 0
132 150 0
138 158 0
132 152 0
140 160 0
128 146 0
130 150 0
135 155 0
126 148 0
132 152 0
129 149 0
131 151 0
134 153 0
138 158 0
131 151 0
134 153 0
130 148 0
140 160 0
138 157 0
135 155 0
134 154 0
127 147 0
136 154 0
143 161 0
128 147 0
133 154 0
142 161 0
123 139 0
139 160 0
130 148 0
132 151 0
132 151 0
133 150 0
133 151 0
132 150 0
138 157 0
140 159 0
146 166 0
137 156 0
146 165 0
138 157 0
139 159 0
134 154 0
141 160 0
145 162 0
136 154 0
138 157 0
140 158 0
137 154 0
144 161 0
142 161 0
144 160 0
139 155 0
140 158 0
140 159 0
140 158 0
140 157 0
140 158 0
145 162 0
134 150 0
139 156 0
148 167 0
147 165 0
146 162 0
139 155 0
142 159 0
141 159 0
131 149 0
142 159 0
140 157 0
140 157 0
139 156 0
146 162 0
139 156 0
135 148 0
141 159 0
136 153 0
146 164 0
135 149 0
136 151 0
140 157 0
148 164 0
137 151 0
137 152 0
125 138 0
139 154 0
139 154 0
143 157 0
141 155 0
137 149 0
137 151 0
144 160 0
138 150 0
143 157 0
141 155 0
143 157 0
146 158 0
137 149 0
141 154 0
138 150 0
135 148 0
133 146 0
142 154 0
141 153 0
126 135 0
140 154 0
139 153 0
138 150 0
141 153 0
142 157 0
145 156 0
139 147 0
128 135 0
147 157 0
139 146 0
136 147 0
133 142 0
142 152 0
138 149 0
138 149 0
139 146 0
135 144 0
142 153 0
134 144 0
132 140 0
138 147 0
143 154 0
133 138 0
131 137 0
125 134 0
136 143 0
140 146 0
138 143 0
140 147 0
132 139 0
142 146 0
153 160 0
132 136 0
146 152 0
131 136 0
133 134 0
132 138 0
143 151 0
135 139 0
135 143 0
150 156 0
136 140 0
140 144 0
142 147 0
138 140 0
142 149 0
141 145 0
137 140 0
146 152 0
138 143 0
143 150 0
136 138 0
139 143 0
137 142 0
135 140 0
135 140 0
138 141 0
144 149 0
140 145 0
145 154 0
142 148 0
142 148 0
136 143 0
146 153 0
147 153 0
142 148 0
142 146 0
146 148 0
150 157 0
152 160 0
151 159 0
146 150 0
143 150 0
152 157 0
153 160 0
146 153 0
150 158 0
148 157 0
148 156 0
153 163 0
150 158 0
156 165 0
156 167 0
154 162 0
152 161 0
156 167 0
148 159 0
153 163 0
156 162 0
158 169 0
151 163 0
164 183 0
162 181 0
163 183 0
160 178 0
165 184 0
162 181 0
161 179 0
159 177 0
164 183 0
162 181 0
156 174 0
157 175 0
159 178 0
161 180 0
156 174 0
157 174 0
155 174 0
161 180 0
149 167 0
152 171 0
152 170 0
155 173 0
158 176 0
149 167 0
160 177 0
153 170 0
154 171 0
155 174 0
155 173 0
152 170 0
154 171 0
152 170 0
148 165 0
150 166 0
150 168 0
153 170 0
146 162 0
156 173 0
142 159 0
149 166 0
148 165 0
153 170 0
153 170 0
143 159 0
151 168 0
147 164 0
150 168 0
150 167 0
152 170 0
149 166 0
148 165 0
149 165 0
150 167 0
152 169 0
145 162 0
145 162 0
151 168 0
155 173 0
142 160 0
147 164 0
148 166 0
151 169 0
141 157 0
145 162 0
140 157 0
146 163 0
145 163 0
131 148 0
150 168 0
151 169 0
143 160 0
148 167 0
143 161 0
141 158 0
147 164 0
152 170 0
142 161 0
147 163 0
146 163 0
146 164 0
148 167 0
140 159 0
138 157 0
145 163 0
149 168 0
145 164 0
144 162 0
146 165 0
143 162 0
144 162 0
145 165 0
136 156 0
146 165 0
143 163 0
147 167 0
140 158 0
138 157 0
145 164 0
143 162 0
147 166 0
144 163 0
147 167 0
150 170 0
145 164 0
144 163 0
150 170 0
145 164 0
139 158 0
143 162 0
147 168 0
139 159 0
149 169 0
138 159 0
144 164 0
142 163 0
134 154 0
145 165 0
138 159 0
144 165 0
144 164 0
144 165 0
146 167 0
149 168 0
140 160 0
139 160 0
142 163 0
140 160 0
136 156 0
151 171 0
146 167 0
147 168 0
134 155 0
145 166 0
141 161 0
139 160 0
139 159 0
147 167 0
136 156 0
139 160 0
140 161 0
137 158 0
145 166 0
132 153 0
140 162 0
143 164 0
135 155 0
139 159 0
148 169 0
140 162 0
138 159 0
141 163 0
136 157 0
144 163 0
141 162 0
135 156 0
139 160 0
143 163 0
136 156 0
136 158 0
135 155 0
137 158 0
135 156 0
138 159 0
139 159 0
134 155 0
138 158 0
141 162 0
140 161 0
134 154 0
126 146 0
132 153 0
131 151 0
136 157 0
138 160 0
134 154 0
135 157 0
138 159 0
141 162 0
133 153 0
143 164 0
137 158 0
129 149 0
143 164 0
139 160 0
139 157 0
133 154 0
137 157 0
130 151 0
122 140 0
140 162 0
141 161 0
133 155 0
141 162 0
132 152 0
139 159 0
135 154 0
129 150 0
137 156 0
132 153 0
131 152 0
129 148 0
135 155 0
137 157 0
122 142 0
141 162 0
134 153 0
128 148 0
128 146 0
137 156 0
127 146 0
139 160 0
125 145 0
132 153 0
142 160 0
142 163 0
133 153 0
138 157 0
133 152 0
146 165 0
144 163 0
135 156 0
130 149 0
131 149 0
128 147 0
138 156 0
126 144 0
118 136 0
142 163 0
137 158 0
132 153 0
137 156 0
125 144 0
138 156 0
138 157 0
129 150 0
143 164 0
140 158 0
137 155 0
149 167 0
130 146 0
143 161 0
137 155 0
148 167 0
141 160 0
130 149 0
131 149 0
133 152 0
141 158 0
141 161 0
147 166 0
144 163 0
129 145 0
139 159 0
142 160 0
138 155 0
130 148 0
142 159 0
144 160 0
138 156 0
134 152 0
132 148 0
135 155 0
137 152 0
143 159 0
143 159 0
146 165 0
140 157 0
137 155 0
140 156 0
142 157 0
134 153 0
144 159 0
135 151 0
137 153 0
138 152 0
142 158 0
138 154 0
143 160 0
140 154 0
138 153 0
138 153 0
147 164 0
142 158 0
136 153 0
137 150 0
145 161 0
143 160 0
136 152 0
138 154 0
139 152 0
135 149 0
136 152 0
135 150 0
146 161 0
147 162 0
142 156 0
143 157 0
143 155 0
152 167 0
136 151 0
137 151 0
143 157 0
127 139 0
144 156 0
141 152 0
147 161 0
140 153 0
138 154 0
136 146 0
137 151 0
136 146 0
141 154 0
135 146 0
149 160 0
133 145 0
137 149 0
144 159 0
138 147 0
144 157 0
137 147 0
143 154 0
143 155 0
147 158 0
134 146 0
140 149 0
142 152 0
134 144 0
138 148 0
140 145 0
138 145 0
135 143 0
143 151 0
132 140 0
144 154 0
138 145 0
129 135 0
138 147 0
139 146 0
132 138 0
150 159 0
128 132 0
139 148 0
135 140 0
138 148 0
138 147 0
143 151 0
137 143 0
139 145 0
141 147 0
138 143 0
145 152 0
145 149 0
143 149 0
147 153 0
142 148 0
132 135 0
144 151 0
143 147 0
142 146 0
135 141 0
148 155 0
133 135 0
144 150 0
141 143 0
140 148 0
146 150 0
143 150 0
137 140 0
146 153 0
145 151 0
147 152 0
144 151 0
148 154 0
145 149 0
148 155 0
148 156 0
145 148 0
147 154 0
144 152 0
149 154 0
148 156 0
148 154 0
147 153 0
143 150 0
147 153 0
152 161 0
151 158 0
154 162 0
151 159 0
152 161 0
158 167 0
152 159 0
156 167 0
155 166 0
155 166 0
148 157 0
153 163 0
152 164 0
153 164 0
154 164 0
165 185 0
163 182 0
156 175 0
158 176 0
166 185 0
163 182 0
163 182 0
160 179 0
162 181 0
159 177 0
159 176 0
156 175 0
159 177 0
161 179 0
159 178 0
161 179 0
152 170 0
152 170 0
157 175 0
151 169 0
153 171 0
152 170 0
150 168 0
156 174 0
152 169 0
156 175 0
151 168 0
152 169 0
151 169 0
157 174 0
150 166 0
151 167 0
158 176 0
153 170 0
148 165 0
159 176 0
146 162 0
157 174 0
144 161 0
144 160 0
150 167 0
150 167 0
145 161 0
156 173 0
148 164 0
152 169 0
149 166 0
151 167 0
152 169 0
147 164 0
151 168 0
147 164 0
147 163 0
149 166 0
148 166 0
148 165 0
155 172 0
149 166 0
151 169 0
150 168 0
153 169 0
153 171 0
150 167 0
144 161 0
135 152 0
147 164 0
144 162 0
148 166 0
144 162 0
140 159 0
142 159 0
150 169 0
149 167 0
135 152 0
146 163 0
142 161 0
145 163 0
139 157 0
148 168 0
142 160 0
143 161 0
152 171 0
145 164 0
149 167 0
151 169 0
148 166 0
147 167 0
148 167 0
150 170 0
142 161 0
147 167 0
142 161 0
148 168 0
151 171 0
143 163 0
147 167 0
152 171 0
146 166 0
147 166 0
149 171 0
144 164 0
153 173 0
153 173 0
148 168 0
140 160 0
147 167 0
140 159 0
147 167 0
144 164 0
144 164 0
154 175 0
144 163 0
138 157 0
152 173 0
145 166 0
142 162 0
151 170 0
141 161 0
151 172 0
150 171 0
139 160 0
139 159 0
144 163 0
148 169 0
139 159 0
141 162 0
142 162 0
137 159 0
143 163 0
147 168 0
146 166 0
140 160 0
134 154 0
148 169 0
144 164 0
138 160 0
142 163 0
142 162 0
143 163 0
136 156 0
141 162 0
142 164 0
140 161 0
151 173 0
135 156 0
144 165 0
142 164 0
137 156 0
151 172 0
132 153 0
137 158 0
142 163 0
141 161 0
139 160 0
133 153 0
139 160 0
139 159 0
140 162 0
142 163 0
138 160 0
143 164 0
139 159 0
136 158 0
139 161 0
140 161 0
146 166 0
140 161 0
133 153 0
130 152 0
145 167 0
140 162 0
135 156 0
137 158 0
140 162 0
134 153 0
145 167 0
137 159 0
142 165 0
149 170 0
131 152 0
143 162 0
134 154 0
141 162 0
133 154 0
129 148 0
136 157 0
137 158 0
133 153 0
118 139 0
125 146 0
141 161 0
137 156 0
137 158 0
131 151 0
136 156 0
133 151 0
133 154 0
136 155 0
144 166 0
131 149 0
139 159 0
131 151 0
135 154 0
140 160 0
142 163 0
130 148 0
138 157 0
133 154 0
134 151 0
132 151 0
136 156 0
138 158 0
135 155 0
132 152 0
142 163 0
130 150 0
132 150 0
140 160 0
135 155 0
134 155 0
132 152 0
133 153 0
148 168 0
133 152 0
131 151 0
139 158 0
139 156 0
137 156 0
134 153 0
129 148 0
141 159 0
134 152 0
143 164 0
134 154 0
134 153 0
146 166 0
129 146 0
135 154 0
140 159 0
139 157 0
141 159 0
145 163 0
136 157 0
137 158 0
142 159 0
132 150 0
143 162 0
131 152 0
140 158 0
138 157 0
136 154 0
147 166 0
143 162 0
139 158 0
142 161 0
139 158 0
138 158 0
137 155 0
140 158 0
144 165 0
135 153 0
144 161 0
145 162 0
134 152 0
142 160 0
135 151 0
142 158 0
147 166 0
143 161 0
144 162 0
135 154 0
145 160 0
148 165 0
143 161 0
136 154 0
141 159 0
139 157 0
146 162 0
137 153 0
147 162 0
139 155 0
140 157 0
140 156 0
136 151 0
140 156 0
139 153 0
138 153 0
142 157 0
134 147 0
137 150 0
145 159 0
139 156 0
142 156 0
149 166 0
137 153 0
141 155 0
148 163 0
144 156 0
144 159 0
147 161 0
143 156 0
137 149 0
142 156 0
137 150 0
138 152 0
145 158 0
137 152 0
146 160 0
135 147 0
142 154 0
129 140 0
139 152 0
138 151 0
139 151 0
141 153 0
136 144 0
138 148 0
138 150 0
139 150 0
141 152 0
143 155 0
132 142 0
134 144 0
143 156 0
140 151 0
146 155 0
147 158 0
147 158 0
139 147 0
141 150 0
140 151 0
134 139 0
143 152 0
144 152 0
143 150 0
145 155 0
143 151 0
135 143 0
150 157 0
130 137 0
149 156 0
139 145 0
135 141 0
140 149 0
137 144 0
139 146 0
136 144 0
140 145 0
149 159 0
135 141 0
141 148 0
150 157 0
146 153 0
142 150 0
147 154 0
144 149 0
154 164 0
148 153 0
141 147 0
144 150 0
138 145 0
142 145 0
147 152 0
141 148 0
142 148 0
155 162 0
146 150 0
149 155 0
139 143 0
144 150 0
141 145 0
146 152 0
146 155 0
146 154 0
150 156 0
149 157 0
151 159 0
154 162 0
145 150 0
139 143 0
150 158 0
151 159 0
145 151 0
150 156 0
147 155 0
153 162 0
148 155 0
155 164 0
148 157 0
156 167 0
151 159 0
150 159 0
151 161 0
156 169 0
147 157 0
159 170 0
157 168 0
149 160 0
154 163 0
157 169 0
157 175 0
164 183 0
160 180 0
161 180 0
158 177 0
160 178 0
159 179 0
159 178 0
153 172 0
159 177 0
163 181 0
156 174 0
157 175 0
161 179 0
157 174 0
156 174 0
156 173 0
157 176 0
154 173 0
151 168 0
159 177 0
151 168 0
159 177 0
157 175 0
153 171 0
157 174 0
153 171 0
153 170 0
156 173 0
158 176 0
154 172 0
156 174 0
153 171 0
150 167 0
154 170 0
153 170 0
153 170 0
148 165 0
154 171 0
148 166 0
147 163 0
149 167 0
149 167 0
153 170 0
151 167 0
151 169 0
150 168 0
147 165 0
148 166 0
146 163 0
153 170 0
149 166 0
145 162 0
145 163 0
146 162 0
152 170 0
144 162 0
153 170 0
145 163 0
145 163 0
147 164 0
156 174 0
141 156 0
144 161 0
147 165 0
146 164 0
147 164 0
152 171 0
147 164 0
140 157 0
141 158 0
143 160 0
144 163 0
148 166 0
146 164 0
146 164 0
151 168 0
152 171 0
148 167 0
149 167 0
147 166 0
145 163 0
149 168 0
142 161 0
146 165 0
148 167 0
156 175 0
149 168 0
144 164 0
148 167 0
143 161 0
151 170 0
149 167 0
144 164 0
140 159 0
148 168 0
142 161 0
140 160 0
140 159 0
151 171 0
144 164 0
145 163 0
135 154 0
147 167 0
146 167 0
142 163 0
144 163 0
141 161 0
148 168 0
148 168 0
142 162 0
151 172 0
140 159 0
152 173 0
149 169 0
147 166 0
148 168 0
149 169 0
143 163 0
148 168 0
142 162 0
145 164 0
153 173 0
142 162 0
145 166 0
137 156 0
141 162 0
145 167 0
142 162 0
147 168 0
135 156 0
147 168 0
148 170 0
143 163 0
149 169 0
138 158 0
143 164 0
152 172 0
144 165 0
147 168 0
139 160 0
140 162 0
142 163 0
142 163 0
146 168 0
137 158 0
138 159 0
138 160 0
142 163 0
140 161 0
145 167 0
136 157 0
147 166 0
135 158 0
141 162 0
138 158 0
152 173 0
133 155 0
147 169 0
141 163 0
143 164 0
138 159 0
142 162 0
136 157 0
140 161 0
139 158 0
140 159 0
137 158 0
144 165 0
135 156 0
137 157 0
138 159 0
139 159 0
128 149 0
147 169 0
136 157 0
129 151 0
134 153 0
143 164 0
135 156 0
143 164 0
128 146 0
135 157 0
138 158 0
143 164 0
130 151 0
139 160 0
138 159 0
136 156 0
138 159 0
143 165 0
134 154 0
138 158 0
125 145 0
134 154 0
134 155 0
139 159 0
145 166 0
144 164 0
137 158 0
138 158 0
141 161 0
134 154 0
143 162 0
125 145 0
130 149 0
134 154 0
140 159 0
143 161 0
147 168 0
136 158 0
133 153 0
131 150 0
134 154 0
132 150 0
138 159 0
128 148 0
138 159 0
138 158 0
137 155 0
140 160 0
133 152 0
140 160 0
139 158 0
127 147 0
146 164 0
136 155 0
135 155 0
146 165 0
140 159 0
132 153 0
140 161 0
129 149 0
129 146 0
135 153 0
136 154 0
138 156 0
131 150 0
136 154 0
143 164 0
148 168 0
141 161 0
142 161 0
136 156 0
139 158 0
133 150 0
140 157 0
148 165 0
148 167 0
145 164 0
138 155 0
139 157 0
144 163 0
145 165 0
142 160 0
147 165 0
143 159 0
144 161 0
140 158 0
145 165 0
140 157 0
144 162 0
148 165 0
143 160 0
141 157 0
142 158 0
143 163 0
142 160 0
146 163 0
142 160 0
145 165 0
143 160 0
147 164 0
141 158 0
136 151 0
135 152 0
139 156 0
145 160 0
144 161 0
145 162 0
132 149 0
141 157 0
140 156 0
142 159 0
148 165 0
142 155 0
139 153 0
145 160 0
131 145 0
141 157 0
137 152 0
149 163 0
139 153 0
143 158 0
131 146 0
145 159 0
143 157 0
144 157 0
141 157 0
145 160 0
136 150 0
140 154 0
138 152 0
136 149 0
143 156 0
144 155 0
142 154 0
137 149 0
140 153 0
140 154 0
129 137 0
140 151 0
141 153 0
143 156 0
142 153 0
146 158 0
134 145 0
140 151 0
147 157 0
143 154 0
142 152 0
149 161 0
143 153 0
148 162 0
142 149 0
142 154 0
137 148 0
136 146 0
146 158 0
145 156 0
146 156 0
141 153 0
132 139 0
144 153 0
138 148 0
141 147 0
147 157 0
138 145 0
147 156 0
134 141 0
141 149 0
129 136 0
145 150 0
141 151 0
148 157 0
144 151 0
145 155 0
141 149 0
143 152 0
140 143 0
139 144 0
139 145 0
148 159 0
137 142 0
140 148 0
141 148 0
146 154 0
145 151 0
142 147 0
137 145 0
137 142 0
142 147 0
146 154 0
144 151 0
143 147 0
147 153 0
136 139 0
146 153 0
144 149 0
146 153 0
145 154 0
149 155 0
147 156 0
150 155 0
152 158 0
152 160 0
148 155 0
147 153 0
141 147 0
150 157 0
148 155 0
148 156 0
148 157 0
147 155 0
152 158 0
151 160 0
149 158 0
151 161 0
153 162 0
150 159 0
152 161 0
154 164 0
152 163 0
148 156 0
156 165 0
146 152 0
153 161 0
153 163 0
157 166 0
158 171 0
158 177 0
158 177 0
161 180 0
161 180 0
163 183 0
161 180 0
159 178 0
162 180 0
157 175 0
160 178 0
160 178 0
159 177 0
158 176 0
154 173 0
163 182 0
159 177 0
156 174 0
153 171 0
157 173 0
155 174 0
155 174 0
158 175 0
152 170 0
157 176 0
151 168 0
153 170 0
154 171 0
148 165 0
153 169 0
152 170 0
154 172 0
154 173 0
150 168 0
155 172 0
151 168 0
153 170 0
152 170 0
158 176 0
152 169 0
149 166 0
151 170 0
149 166 0
152 170 0
152 170 0
149 168 0
151 169 0
147 164 0
142 159 0
147 165 0
153 170 0
156 174 0
153 171 0
146 163 0
153 172 0
151 167 0
148 166 0
162 180 0
148 165 0
149 167 0
151 170 0
141 158 0
148 166 0
147 164 0
147 166 0
148 165 0
153 172 0
151 168 0
143 160 0
148 166 0
143 161 0
142 161 0
154 173 0
155 173 0
150 169 0
147 166 0
147 166 0
143 162 0
147 167 0
147 166 0
148 167 0
151 169 0
149 168 0
143 163 0
143 162 0
148 167 0
147 167 0
151 170 0
153 174 0
151 171 0
149 171 0
147 166 0
147 166 0
141 161 0
146 164 0
150 168 0
159 179 0
147 166 0
152 173 0
149 168 0
141 161 0
140 161 0
136 157 0
145 165 0
146 166 0
154 175 0
141 162 0
142 161 0
149 170 0
143 164 0
144 165 0
146 166 0
140 161 0
139 158 0
145 165 0
141 161 0
149 169 0
142 162 0
149 170 0
146 166 0
141 162 0
146 167 0
140 159 0
140 161 0
141 162 0
140 160 0
145 166 0
143 164 0
139 159 0
144 165 0
141 162 0
141 162 0
135 155 0
146 167 0
143 165 0
143 163 0
145 166 0
145 167 0
147 167 0
151 172 0
145 166 0
145 165 0
143 163 0
145 166 0
144 164 0
136 158 0
135 155 0
147 168 0
145 165 0
138 159 0
143 163 0
146 168 0
145 166 0
139 160 0
139 158 0
137 159 0
136 156 0
147 169 0
143 164 0
143 164 0
139 159 0
146 167 0
143 165 0
145 166 0
146 169 0
138 160 0
141 162 0
142 163 0
143 163 0
140 162 0
133 153 0
141 163 0
135 156 0
130 150 0
141 161 0
143 166 0
138 159 0
139 159 0
136 157 0
139 160 0
132 153 0
134 156 0
137 158 0
134 154 0
141 162 0
132 152 0
136 155 0
132 152 0
143 165 0
141 162 0
147 168 0
143 163 0
139 161 0
144 165 0
132 153 0
133 154 0
139 160 0
141 162 0
137 157 0
137 158 0
138 159 0
134 155 0
128 148 0
135 155 0
142 163 0
133 153 0
141 161 0
134 154 0
137 157 0
140 161 0
142 163 0
148 167 0
135 157 0
143 164 0
138 159 0
136 155 0
129 148 0
129 148 0
135 157 0
142 162 0
141 162 0
133 152 0
137 156 0
129 150 0
141 161 0
137 157 0
133 152 0
144 164 0
135 154 0
125 144 0
141 160 0
143 162 0
134 153 0
140 159 0
139 157 0
134 153 0
143 164 0
133 152 0
149 170 0
142 162 0
140 161 0
140 159 0
139 161 0
145 163 0
147 166 0
142 160 0
139 158 0
144 162 0
139 157 0
140 159 0
137 155 0
141 163 0
146 166 0
148 169 0
143 161 0
138 155 0
143 163 0
145 164 0
145 164 0
146 163 0
153 172 0
147 167 0
138 153 0
145 163 0
144 163 0
136 155 0
142 159 0
138 158 0
132 148 0
145 164 0
134 150 0
138 156 0
141 158 0
145 163 0
144 162 0
147 165 0
144 162 0
130 147 0
142 160 0
137 155 0
146 163 0
149 166 0
137 152 0
138 154 0
144 161 0
147 162 0
139 154 0
151 168 0
137 152 0
147 162 0
139 156 0
135 152 0
136 151 0
145 163 0
141 156 0
145 160 0
136 149 0
144 160 0
145 160 0
139 154 0
144 158 0
140 154 0
138 153 0
143 158 0
139 153 0
144 159 0
140 152 0
144 157 0
147 163 0
142 154 0
141 153 0
140 150 0
147 163 0
146 159 0
138 152 0
145 159 0
136 148 0
138 150 0
139 152 0
144 156 0
141 152 0
145 156 0
138 149 0
145 157 0
141 154 0
141 152 0
146 156 0
138 148 0
142 153 0
130 139 0
150 163 0
131 140 0
141 153 0
140 147 0
136 147 0
131 137 0
130 139 0
148 155 0
137 145 0
141 148 0
142 148 0
135 140 0
135 142 0
144 154 0
143 150 0
146 152 0
137 146 0
140 149 0
138 147 0
140 148 0
140 147 0
140 144 0
151 160 0
149 159 0
144 150 0
147 154 0
145 149 0
144 150 0
145 152 0
145 154 0
146 154 0
138 146 0
146 153 0
149 155 0
144 152 0
145 151 0
145 153 0
150 157 0
153 164 0
154 161 0
149 153 0
147 154 0
147 153 0
142 150 0
149 156 0
152 157 0
146 154 0
149 155 0
145 152 0
148 153 0
147 156 0
144 150 0
146 154 0
147 154 0
151 161 0
158 167 0
149 158 0
152 160 0
151 159 0
155 164 0
140 144 0
151 159 0
151 157 0
150 159 0
149 157 0
155 166 0
153 162 0
157 165 0
157 167 0
155 168 0
155 165 0
163 181 0
160 178 0
167 187 0
159 178 0
163 181 0
159 177 0
160 179 0
160 179 0
155 173 0
156 174 0
161 180 0
163 182 0
161 179 0
154 171 0
157 174 0
157 174 0
156 174 0
155 173 0
159 176 0
154 171 0
153 171 0
151 168 0
155 171 0
156 175 0
158 176 0
146 164 0
150 167 0
153 170 0
153 171 0
152 169 0
152 169 0
155 172 0
157 174 0
150 167 0
152 170 0
150 167 0
152 170 0
152 169 0
156 175 0
149 166 0
153 170 0
148 167 0
149 166 0
146 164 0
151 168 0
144 161 0
149 167 0
153 170 0
153 171 0
152 169 0
150 168 0
152 172 0
148 165 0
160 178 0
147 165 0
157 175 0
152 170 0
149 167 0
155 173 0
149 168 0
152 170 0
141 158 0
151 169 0
151 169 0
144 162 0
148 166 0
149 167 0
149 169 0
147 165 0
155 174 0
149 168 0
151 171 0
149 167 0
149 168 0
150 169 0
146 165 0
145 163 0
148 166 0
145 164 0
147 166 0
146 165 0
149 168 0
141 159 0
146 166 0
148 167 0
143 163 0
143 162 0
144 163 0
143 162 0
139 158 0
145 165 0
148 168 0
143 163 0
149 169 0
149 169 0
144 164 0
152 173 0
146 166 0
152 170 0
145 165 0
141 161 0
148 168 0
145 165 0
150 170 0
146 166 0
148 168 0
144 165 0
146 167 0
140 160 0
145 165 0
140 160 0
148 168 0
140 160 0
144 165 0
143 163 0
140 160 0
147 168 0
149 169 0
149 170 0
143 163 0
153 174 0
137 158 0
146 166 0
148 169 0
145 168 0
143 162 0
144 166 0
154 175 0
139 160 0
141 162 0
133 153 0
144 164 0
149 169 0
142 163 0
141 162 0
152 174 0
147 167 0
150 171 0
149 171 0
144 165 0
142 163 0
145 166 0
147 168 0
142 163 0
134 154 0
139 159 0
135 156 0
137 157 0
139 159 0
151 172 0
131 152 0
139 160 0
138 159 0
144 166 0
145 166 0
148 170 0
130 150 0
140 160 0
140 160 0
136 157 0
148 169 0
152 173 0
138 160 0
132 153 0
133 155 0
137 158 0
139 160 0
132 153 0
139 160 0
140 161 0
136 157 0
145 166 0
139 160 0
137 156 0
135 156 0
139 160 0
143 164 0
147 168 0
134 156 0
138 158 0
137 157 0
151 172 0
137 157 0
132 151 0
145 166 0
136 157 0
130 149 0
139 159 0
136 158 0
139 159 0
140 161 0
142 161 0
131 151 0
139 160 0
144 164 0
132 152 0
140 161 0
135 156 0
138 158 0
138 158 0
143 165 0
138 158 0
146 167 0
134 154 0
126 147 0
137 158 0
134 153 0
139 160 0
138 159 0
135 153 0
137 157 0
139 158 0
137 158 0
135 155 0
143 163 0
141 161 0
145 164 0
140 161 0
143 165 0
136 153 0
130 150 0
144 163 0
133 152 0
137 157 0
137 155 0
135 153 0
136 155 0
139 160 0
141 158 0
136 156 0
128 148 0
138 158 0
146 165 0
135 153 0
147 167 0
142 162 0
132 151 0
143 163 0
140 162 0
149 169 0
133 152 0
139 158 0
134 153 0
142 160 0
137 155 0
143 161 0
145 164 0
140 160 0
141 159 0
137 155 0
150 170 0
143 163 0
146 166 0
135 153 0
148 169 0
136 154 0
142 160 0
148 167 0
142 161 0
149 167 0
135 152 0
145 162 0
140 160 0
145 164 0
141 160 0
152 169 0
133 151 0
136 152 0
147 165 0
146 162 0
147 166 0
136 153 0
137 152 0
145 162 0
143 159 0
142 155 0
146 164 0
135 151 0
144 161 0
140 156 0
142 160 0
134 152 0
149 165 0
137 153 0
144 160 0
148 167 0
150 167 0
144 158 0
146 164 0
146 161 0
144 159 0
148 164 0
140 153 0
147 161 0
143 160 0
143 158 0
140 154 0
147 163 0
139 154 0
141 155 0
141 156 0
137 149 0
143 158 0
142 156 0
143 157 0
133 145 0
135 150 0
147 164 0
138 149 0
138 151 0
144 158 0
136 150 0
146 159 0
147 158 0
145 157 0
144 159 0
146 159 0
149 159 0
140 153 0
140 150 0
142 152 0
144 156 0
145 158 0
138 150 0
136 146 0
136 145 0
136 144 0
148 159 0
143 153 0
138 147 0
141 151 0
144 156 0
146 158 0
142 152 0
138 147 0
136 145 0
147 156 0
147 154 0
144 154 0
140 149 0
141 148 0
145 154 0
143 149 0
136 145 0
144 151 0
147 156 0
146 154 0
141 149 0
144 152 0
137 143 0
148 156 0
148 157 0
148 154 0
145 155 0
138 144 0
149 156 0
154 161 0
146 153 0
143 149 0
137 142 0
148 155 0
142 149 0
146 152 0
154 163 0
142 147 0
141 147 0
148 156 0
144 150 0
144 153 0
149 157 0
152 162 0
151 159 0
144 151 0
148 156 0
142 149 0
145 150 0
148 157 0
144 152 0
149 157 0
148 157 0
147 154 0
145 154 0
147 154 0
149 158 0
147 153 0
147 153 0
150 159 0
150 156 0
147 157 0
151 158 0
151 160 0
154 165 0
151 159 0
148 155 0
151 159 0
154 164 0
156 164 0
157 168 0
147 153 0
157 166 0
161 180 0
156 175 0
162 182 0
159 178 0
157 176 0
159 178 0
159 177 0
157 175 0
163 182 0
160 179 0
160 179 0
161 179 0
158 177 0
157 177 0
155 173 0
157 176 0
159 177 0
156 174 0
153 170 0
156 174 0
155 172 0
162 181 0
154 172 0
159 176 0
156 174 0
155 174 0
151 169 0
154 172 0
152 169 0
157 175 0
154 171 0
152 170 0
155 174 0
147 165 0
150 168 0
155 173 0
153 170 0
157 175 0
150 167 0
154 172 0
148 166 0
147 164 0
150 167 0
149 167 0
157 175 0
149 167 0
148 166 0
156 175 0
149 169 0
150 168 0
151 170 0
151 168 0
152 170 0
149 167 0
148 167 0
151 170 0
151 169 0
151 169 0
156 175 0
147 164 0
150 168 0
151 170 0
147 164 0
144 162 0
149 168 0
147 165 0
152 171 0
153 173 0
149 167 0
150 169 0
142 160 0
149 168 0
147 166 0
143 162 0
146 165 0
148 167 0
140 159 0
148 168 0
150 168 0
144 163 0
154 173 0
149 168 0
148 166 0
145 164 0
143 162 0
149 168 0
146 165 0
149 169 0
143 162 0
151 172 0
148 169 0
150 169 0
148 167 0
148 167 0
143 162 0
146 166 0
151 170 0
146 165 0
142 160 0
155 175 0
150 170 0
144 163 0
153 174 0
150 170 0
142 160 0
147 168 0
134 155 0
151 171 0
145 167 0
150 171 0
147 168 0
148 169 0
146 168 0
149 169 0
154 175 0
151 171 0
147 168 0
146 167 0
150 173 0
146 168 0
147 169 0
149 170 0
143 163 0
145 167 0
142 163 0
149 170 0
147 168 0
148 168 0
146 165 0
148 170 0
145 165 0
142 162 0
144 166 0
151 172 0
144 165 0
146 166 0
147 170 0
146 166 0
144 164 0
155 176 0
143 164 0
137 157 0
149 171 0
143 165 0
148 168 0
145 165 0
137 157 0
132 153 0
142 163 0
148 169 0
147 169 0
138 159 0
143 164 0
144 166 0
135 155 0
141 164 0
142 164 0
145 167 0
133 153 0
142 163 0
139 160 0
136 156 0
142 163 0
136 156 0
135 156 0
139 160 0
136 158 0
137 158 0
140 161 0
144 165 0
137 158 0
139 161 0
143 164 0
144 166 0
148 171 0
137 157 0
134 155 0
138 159 0
139 159 0
142 163 0
140 163 0
144 164 0
145 165 0
138 159 0
141 161 0
127 147 0
138 158 0
140 161 0
132 151 0
134 153 0
142 162 0
147 168 0
136 155 0
144 164 0
143 164 0
143 164 0
130 150 0
144 166 0
136 158 0
135 156 0
142 164 0
148 169 0
142 162 0
138 157 0
140 160 0
131 151 0
141 161 0
128 148 0
140 161 0
141 162 0
135 156 0
140 160 0
131 151 0
138 159 0
142 161 0
142 164 0
130 151 0
135 155 0
134 153 0
139 160 0
135 154 0
144 163 0
130 151 0
136 155 0
153 174 0
137 158 0
147 166 0
136 156 0
142 163 0
147 166 0
132 151 0
137 157 0
138 157 0
144 164 0
143 161 0
143 162 0
142 161 0
131 151 0
146 166 0
136 154 0
141 161 0
142 163 0
145 165 0
134 152 0
139 160 0
148 168 0
142 160 0
141 160 0
143 161 0
140 159 0
140 160 0
144 163 0
147 167 0
147 166 0
152 171 0
139 159 0
141 160 0
146 165 0
144 163 0
134 154 0
142 158 0
145 162 0
143 162 0
143 161 0
137 156 0
140 159 0
135 151 0
142 159 0
138 156 0
150 168 0
142 160 0
147 165 0
140 159 0
145 163 0
141 158 0
144 162 0
133 150 0
145 162 0
142 159 0
153 172 0
151 167 0
138 155 0
147 163 0
145 162 0
145 162 0
143 158 0
138 156 0
140 157 0
150 167 0
152 171 0
153 170 0
138 153 0
129 145 0
134 148 0
142 158 0
147 163 0
147 162 0
145 162 0
143 160 0
144 160 0
145 159 0
138 152 0
139 154 0
143 157 0
142 157 0
147 164 0
140 152 0
141 157 0
143 157 0
143 156 0
144 157 0
142 157 0
139 151 0
145 158 0
146 159 0
144 158 0
138 151 0
148 161 0
141 157 0
143 156 0
147 159 0
130 140 0
133 144 0
145 155 0
143 155 0
141 151 0
138 148 0
145 157 0
138 150 0
144 155 0
137 150 0
148 160 0
148 160 0
143 155 0
150 163 0
137 147 0
141 150 0
139 149 0
144 156 0
140 150 0
142 153 0
143 153 0
139 149 0
140 147 0
141 147 0
148 161 0
142 152 0
146 150 0
140 149 0
139 147 0
148 157 0
147 155 0
143 152 0
148 156 0
142 148 0
147 156 0
148 157 0
152 160 0
147 157 0
147 156 0
144 150 0
140 148 0
152 161 0
145 153 0
147 156 0
144 150 0
147 156 0
146 155 0
152 161 0
139 148 0
146 153 0
147 156 0
136 144 0
153 160 0
142 149 0
140 147 0
153 159 0
148 157 0
146 154 0
147 156 0
147 157 0
147 154 0
147 156 0
151 156 0
148 156 0
152 159 0
147 155 0
149 158 0
148 154 0
152 161 0
153 162 0
149 159 0
153 160 0
149 159 0
152 163 0
151 160 0
150 159 0
155 166 0
152 163 0
153 164 0
156 175 0
159 178 0
157 176 0
160 179 0
158 176 0
163 182 0
158 177 0
159 178 0
158 178 0
155 173 0
162 180 0
154 173 0
157 175 0
155 173 0
159 177 0
162 180 0
156 174 0
157 175 0
154 172 0
158 176 0
157 176 0
154 172 0
156 174 0
155 174 0
157 176 0
155 172 0
152 170 0
156 173 0
153 170 0
154 172 0
152 170 0
157 175 0
161 180 0
157 174 0
157 175 0
154 172 0
154 173 0
150 168 0
156 173 0
145 162 0
145 163 0
149 166 0
151 170 0
154 171 0
159 178 0
151 170 0
154 172 0
152 171 0
149 167 0
156 175 0
150 168 0
148 166 0
150 170 0
154 172 0
150 169 0
153 172 0
147 165 0
144 163 0
147 166 0
148 166 0
150 169 0
150 169 0
152 171 0
145 164 0
156 175 0
149 168 0
154 172 0
144 163 0
150 169 0
152 171 0
147 166 0
153 173 0
147 166 0
147 167 0
153 173 0
152 172 0
148 169 0
147 166 0
145 164 0
150 169 0
150 170 0
142 162 0
143 163 0
148 168 0
142 161 0
141 161 0
149 169 0
147 169 0
145 165 0
153 172 0
149 169 0
143 162 0
152 172 0
148 167 0
146 166 0
149 169 0
143 165 0
146 166 0
143 164 0
153 173 0
150 171 0
154 175 0
140 159 0
151 171 0
155 176 0
146 166 0
138 157 0
146 166 0
146 166 0
151 171 0
145 166 0
140 161 0
143 164 0
150 171 0
147 168 0
146 166 0
139 160 0
141 160 0
146 167 0
150 171 0
142 162 0
146 168 0
144 166 0
143 164 0
144 165 0
146 167 0
147 167 0
144 165 0
146 167 0
143 165 0
147 169 0
149 171 0
141 162 0
145 167 0
143 165 0
140 161 0
148 168 0
147 166 0
145 165 0
141 163 0
144 164 0
142 164 0
138 159 0
140 162 0
137 159 0
137 158 0
137 157 0
143 165 0
145 165 0
141 163 0
149 170 0
143 164 0
140 162 0
144 166 0
144 164 0
153 175 0
142 163 0
150 172 0
139 161 0
147 169 0
146 167 0
145 167 0
142 164 0
144 166 0
138 160 0
131 151 0
147 168 0
147 169 0
141 163 0
139 160 0
133 153 0
141 163 0
132 153 0
143 165 0
142 162 0
145 167 0
134 155 0
140 160 0
144 164 0
142 162 0
145 166 0
140 161 0
139 160 0
145 165 0
148 169 0
138 159 0
133 153 0
134 156 0
138 158 0
138 159 0
132 153 0
146 167 0
141 161 0
144 164 0
139 158 0
140 160 0
138 158 0
141 163 0
137 157 0
145 165 0
139 161 0
136 155 0
128 147 0
139 161 0
142 162 0
148 167 0
144 164 0
144 166 0
139 160 0
135 156 0
140 159 0
127 146 0
137 157 0
141 161 0
143 164 0
129 148 0
127 148 0
143 162 0
135 154 0
139 159 0
142 162 0
131 153 0
142 161 0
140 161 0
141 161 0
138 159 0
146 165 0
142 161 0
141 159 0
145 167 0
140 159 0
141 160 0
138 158 0
145 167 0
145 164 0
141 162 0
137 157 0
150 169 0
142 161 0
140 158 0
140 159 0
142 160 0
149 167 0
144 163 0
136 155 0
146 166 0
138 158 0
146 165 0
143 164 0
153 172 0
140 160 0
147 165 0
137 155 0
146 165 0
140 161 0
140 157 0
148 167 0
140 159 0
142 160 0
138 156 0
140 159 0
139 159 0
146 163 0
139 157 0
141 159 0
143 162 0
141 159 0
149 168 0
140 159 0
137 155 0
138 155 0
143 160 0
147 165 0
141 158 0
142 160 0
143 160 0
148 166 0
142 159 0
142 159 0
158 176 0
141 158 0
148 167 0
139 156 0
145 162 0
150 168 0
142 160 0
144 158 0
142 159 0
146 161 0
147 164 0
143 159 0
139 156 0
148 164 0
142 158 0
146 162 0
148 167 0
142 159 0
143 160 0
139 153 0
143 158 0
147 163 0
146 160 0
144 157 0
144 159 0
155 172 0
151 166 0
143 159 0
145 159 0
145 159 0
140 156 0
152 166 0
144 160 0
145 159 0
142 156 0
144 156 0
148 163 0
140 154 0
139 153 0
142 153 0
143 156 0
154 168 0
146 159 0
148 161 0
149 163 0
148 161 0
147 160 0
143 153 0
152 167 0
141 153 0
140 154 0
133 144 0
147 161 0
144 154 0
146 155 0
137 148 0
144 154 0
135 147 0
144 155 0
142 150 0
153 163 0
148 158 0
143 155 0
146 156 0
130 136 0
146 158 0
143 154 0
133 143 0
150 160 0
148 158 0
150 159 0
142 152 0
147 158 0
141 147 0
143 152 0
152 162 0
148 157 0
148 155 0
148 158 0
155 162 0
139 147 0
144 153 0
136 141 0
151 160 0
150 159 0
146 154 0
142 151 0
147 155 0
137 145 0
141 149 0
145 152 0
151 160 0
146 153 0
146 152 0
141 150 0
152 161 0
149 161 0
144 151 0
140 148 0
142 146 0
153 162 0
147 157 0
150 156 0
155 167 0
144 151 0
148 157 0
153 160 0
157 166 0
160 170 0
155 163 0
155 164 0
152 164 0
150 158 0
155 167 0
150 158 0
152 160 0
151 159 0
145 151 0
154 163 0
155 167 0
154 163 0
157 176 0
160 179 0
163 181 0
156 175 0
158 177 0
151 170 0
162 181 0
156 175 0
158 177 0
156 174 0
160 178 0
160 178 0
163 182 0
159 177 0
160 178 0
153 172 0
157 176 0
157 175 0
153 172 0
159 177 0
156 173 0
153 172 0
153 172 0
152 170 0
152 170 0
153 171 0
156 175 0
156 174 0
155 173 0
151 169 0
156 175 0
151 169 0
150 169 0
155 173 0
157 175 0
161 179 0
150 168 0
154 173 0
157 175 0
151 170 0
155 173 0
153 171 0
153 172 0
151 170 0
154 173 0
149 168 0
146 164 0
149 167 0
147 165 0
147 164 0
154 172 0
155 173 0
152 171 0
151 170 0
157 176 0
145 164 0
156 175 0
157 175 0
153 172 0
150 169 0
153 172 0
148 167 0
151 170 0
147 165 0
146 165 0
141 161 0
152 171 0
141 161 0
149 168 0
150 168 0
148 168 0
149 168 0
144 163 0
143 164 0
147 166 0
155 175 0
149 169 0
149 170 0
154 173 0
153 172 0
150 169 0
145 164 0
147 167 0
141 161 0
150 170 0
147 167 0
144 163 0
148 168 0
150 169 0
147 167 0
145 166 0
150 171 0
148 169 0
151 170 0
149 169 0
142 161 0
153 173 0
146 167 0
143 164 0
147 167 0
146 166 0
151 171 0
147 168 0
146 167 0
143 164 0
147 167 0
148 167 0
154 175 0
148 168 0
156 177 0
146 167 0
154 175 0
142 162 0
151 173 0
144 166 0
144 166 0
139 160 0
151 173 0
141 163 0
150 170 0
144 164 0
137 157 0
150 172 0
147 168 0
138 159 0
148 169 0
144 165 0
142 163 0
150 171 0
144 165 0
147 167 0
146 167 0
143 163 0
146 167 0
147 168 0
146 166 0
143 165 0
148 169 0
151 172 0
138 160 0
146 167 0
142 164 0
149 171 0
143 164 0
149 170 0
147 168 0
148 171 0
144 166 0
137 158 0
140 162 0
146 166 0
140 161 0
145 167 0
141 163 0
147 167 0
140 161 0
142 163 0
147 170 0
146 168 0
147 169 0
142 162 0
134 154 0
141 162 0
148 169 0
148 169 0
141 163 0
136 157 0
145 166 0
140 162 0
139 160 0
142 164 0
142 164 0
142 163 0
143 163 0
147 169 0
144 166 0
145 165 0
139 160 0
136 157 0
142 163 0
136 157 0
139 161 0
132 153 0
138 158 0
146 167 0
141 162 0
135 156 0
142 163 0
150 171 0
130 152 0
145 166 0
136 157 0
144 166 0
143 164 0
141 161 0
141 162 0
147 168 0
142 163 0
137 158 0
136 156 0
140 160 0
141 162 0
139 159 0
138 159 0
148 168 0
134 155 0
135 155 0
134 153 0
137 157 0
141 161 0
125 144 0
140 162 0
132 151 0
133 153 0
144 164 0
145 165 0
148 169 0
143 163 0
139 160 0
145 164 0
145 166 0
141 162 0
137 158 0
134 153 0
129 148 0
149 167 0
138 158 0
144 164 0
137 157 0
139 159 0
141 162 0
133 152 0
139 157 0
136 158 0
142 163 0
140 158 0
146 167 0
139 159 0
140 160 0
141 161 0
141 161 0
146 166 0
149 169 0
134 153 0
137 155 0
147 167 0
148 167 0
151 170 0
142 161 0
141 160 0
143 161 0
151 171 0
145 166 0
146 164 0
144 163 0
135 156 0
139 159 0
144 162 0
140 160 0
135 154 0
139 159 0
131 149 0
145 162 0
145 162 0
140 158 0
143 160 0
147 164 0
145 162 0
145 163 0
147 165 0
140 157 0
148 165 0
150 168 0
146 164 0
144 163 0
143 163 0
147 167 0
147 167 0
145 163 0
140 157 0
137 154 0
134 152 0
138 155 0
139 156 0
142 158 0
137 151 0
144 163 0
140 156 0
143 160 0
139 156 0
153 169 0
134 150 0
148 165 0
149 166 0
148 163 0
137 154 0
144 159 0
153 171 0
140 156 0
143 158 0
144 160 0
147 162 0
141 157 0
146 161 0
148 163 0
147 162 0
146 159 0
151 166 0
150 165 0
144 160 0
142 159 0
144 157 0
143 157 0
144 157 0
144 158 0
154 169 0
146 160 0
144 156 0
145 160 0
150 163 0
143 153 0
141 152 0
135 149 0
145 156 0
138 146 0
143 156 0
144 159 0
146 159 0
151 166 0
143 155 0
138 150 0
148 162 0
139 147 0
141 153 0
143 155 0
144 156 0
140 148 0
141 153 0
144 155 0
144 156 0
136 147 0
142 153 0
140 149 0
152 165 0
150 162 0
139 148 0
144 154 0
153 163 0
145 154 0
147 157 0
146 157 0
141 149 0
148 158 0
146 155 0
150 161 0
142 151 0
142 152 0
139 146 0
145 156 0
143 152 0
149 158 0
146 155 0
145 152 0
144 153 0
151 160 0
155 163 0
148 157 0
148 155 0
148 160 0
144 151 0
147 159 0
146 156 0
147 155 0
151 160 0
146 155 0
154 163 0
144 152 0
141 149 0
146 153 0
144 151 0
151 161 0
156 167 0
149 158 0
144 150 0
149 158 0
148 155 0
137 144 0
153 164 0
146 155 0
157 168 0
149 159 0
147 156 0
145 151 0
151 163 0
155 165 0
151 160 0
155 162 0
155 164 0
152 161 0
160 171 0
157 176 0
159 179 0
157 176 0
159 177 0
159 178 0
157 175 0
159 177 0
157 175 0
157 175 0
155 174 0
164 184 0
162 181 0
157 176 0
157 176 0
156 175 0
159 178 0
156 176 0
156 174 0
158 177 0
155 174 0
156 174 0
152 171 0
158 176 0
160 178 0
156 175 0
151 170 0
156 174 0
155 173 0
156 175 0
154 173 0
154 172 0
154 173 0
156 174 0
154 172 0
149 167 0
155 173 0
152 170 0
154 172 0
145 163 0
148 166 0
151 170 0
153 171 0
153 172 0
159 177 0
151 170 0
150 168 0
147 164 0
154 172 0
153 172 0
145 163 0
151 168 0
142 159 0
151 170 0
152 170 0
154 174 0
151 171 0
148 166 0
150 169 0
155 175 0
146 165 0
147 166 0
157 177 0
150 169 0
161 181 0
154 174 0
152 170 0
150 170 0
145 164 0
141 160 0
147 167 0
154 174 0
148 167 0
149 169 0
145 164 0
151 171 0
146 166 0
149 169 0
153 172 0
151 171 0
152 172 0
147 167 0
151 171 0
153 172 0
157 177 0
155 175 0
147 167 0
152 171 0
147 168 0
154 174 0
154 174 0
149 169 0
149 169 0
140 160 0
153 173 0
143 163 0
150 171 0
154 175 0
149 169 0
146 166 0
154 175 0
148 169 0
144 164 0
142 162 0
145 166 0
144 164 0
148 170 0
146 167 0
146 167 0
150 172 0
146 166 0
145 166 0
152 174 0
142 163 0
141 160 0
142 161 0
149 171 0
147 167 0
146 168 0
146 166 0
147 167 0
146 167 0
149 170 0
145 166 0
143 165 0
142 164 0
151 173 0
137 158 0
148 169 0
148 169 0
154 175 0
151 173 0
147 167 0
154 176 0
154 175 0
141 162 0
148 169 0
143 163 0
145 166 0
147 168 0
146 168 0
148 171 0
148 170 0
138 159 0
147 167 0
150 171 0
151 173 0
140 161 0
136 158 0
145 167 0
138 160 0
137 160 0
149 171 0
141 162 0
144 164 0
143 164 0
146 167 0
150 171 0
138 160 0
145 166 0
143 165 0
139 160 0
143 164 0
148 170 0
137 158 0
142 163 0
154 176 0
139 159 0
140 161 0
141 162 0
140 160 0
137 159 0
133 154 0
144 165 0
145 166 0
142 163 0
141 162 0
144 165 0
144 164 0
145 166 0
144 165 0
142 162 0
148 168 0
138 159 0
143 164 0
138 158 0
139 160 0
142 162 0
141 161 0
143 164 0
144 164 0
147 169 0
139 161 0
139 161 0
141 163 0
143 164 0
137 159 0
142 162 0
148 169 0
138 159 0
141 163 0
143 164 0
147 169 0
137 157 0
145 166 0
139 160 0
135 156 0
143 165 0
145 166 0
152 173 0
139 159 0
142 163 0
141 160 0
140 158 0
141 162 0
149 170 0
140 160 0
147 169 0
139 159 0
143 163 0
145 166 0
143 163 0
138 160 0
142 162 0
144 164 0
136 154 0
148 169 0
139 157 0
145 165 0
147 168 0
145 166 0
143 163 0
142 162 0
142 162 0
142 163 0
135 154 0
144 163 0
143 163 0
134 153 0
144 165 0
144 163 0
142 162 0
148 169 0
137 157 0
149 169 0
144 164 0
137 157 0
137 155 0
143 162 0
141 159 0
142 164 0
143 160 0
151 171 0
137 156 0
142 163 0
133 151 0
148 168 0
146 164 0
145 163 0
140 159 0
145 164 0
141 158 0
144 160 0
136 153 0
137 155 0
142 160 0
143 162 0
137 154 0
151 170 0
147 165 0
145 165 0
147 167 0
143 161 0
143 161 0
147 164 0
138 158 0
142 159 0
141 159 0
152 168 0
144 163 0
150 166 0
147 166 0
151 169 0
148 167 0
146 164 0
134 154 0
152 169 0
146 165 0
147 165 0
142 158 0
139 154 0
151 171 0
149 167 0
148 165 0
142 159 0
146 163 0
143 161 0
148 166 0
140 155 0
138 152 0
145 161 0
158 174 0
152 169 0
146 163 0
148 161 0
150 165 0
148 163 0
148 162 0
150 164 0
148 161 0
149 163 0
152 165 0
151 165 0
144 161 0
134 147 0
150 165 0
145 158 0
137 151 0
137 151 0
143 155 0
142 157 0
150 166 0
141 156 0
151 167 0
149 161 0
146 158 0
149 163 0
150 163 0
146 160 0
137 148 0
150 165 0
152 165 0
143 155 0
145 158 0
153 165 0
151 164 0
149 159 0
147 158 0
140 151 0
146 159 0
143 152 0
144 156 0
144 155 0
147 158 0
146 157 0
151 163 0
148 157 0
147 158 0
147 158 0
159 172 0
152 164 0
144 154 0
148 159 0
149 160 0
140 150 0
144 156 0
148 159 0
147 159 0
146 158 0
144 153 0
145 156 0
154 163 0
143 152 0
147 156 0
144 154 0
143 148 0
143 150 0
143 151 0
148 159 0
148 156 0
144 151 0
149 158 0
155 164 0
152 164 0
152 160 0
143 149 0
149 158 0
147 156 0
147 155 0
150 163 0
147 154 0
146 156 0
149 157 0
149 155 0
150 160 0
152 160 0
152 161 0
151 162 0
146 155 0
149 157 0
145 152 0
153 165 0
154 165 0
157 169 0
150 159 0
157 169 0
153 162 0
148 160 0
151 161 0
151 163 0
154 161 0
157 176 0
156 174 0
160 178 0
158 177 0
163 181 0
158 177 0
159 177 0
154 172 0
157 176 0
155 173 0
155 175 0
157 176 0
157 175 0
154 172 0
155 174 0
157 176 0
162 180 0
155 174 0
154 173 0
154 173 0
157 176 0
154 172 0
153 172 0
158 177 0
154 172 0
152 171 0
154 173 0
152 171 0
157 174 0
156 175 0
156 175 0
153 171 0
151 169 0
155 174 0
152 171 0
159 177 0
155 173 0
156 176 0
156 174 0
151 170 0
149 167 0
146 164 0
157 176 0
152 172 0
156 175 0
150 169 0
148 167 0
153 172 0
148 166 0
157 176 0
150 169 0
153 172 0
155 174 0
146 165 0
153 173 0
147 166 0
155 175 0
151 171 0
153 172 0
150 169 0
150 170 0
148 166 0
153 172 0
150 169 0
152 173 0
157 176 0
141 160 0
147 166 0
145 163 0
151 170 0
150 169 0
153 173 0
149 168 0
159 178 0
146 166 0
149 169 0
152 172 0
151 171 0
154 174 0
153 173 0
152 173 0
151 171 0
153 174 0
149 170 0
145 165 0
141 161 0
157 177 0
152 171 0
153 172 0
151 171 0
152 173 0
145 165 0
154 175 0
146 167 0
149 169 0
152 172 0
147 167 0
150 170 0
153 173 0
141 162 0
145 165 0
153 174 0
146 167 0
155 175 0
146 166 0
147 166 0
149 171 0
146 166 0
148 167 0
152 174 0
150 170 0
148 170 0
148 169 0
155 176 0
148 169 0
150 171 0
153 174 0
143 163 0
146 167 0
149 170 0
149 170 0
148 170 0
141 161 0
151 173 0
149 171 0
140 161 0
149 170 0
149 170 0
144 165 0
140 162 0
142 164 0
145 166 0
149 170 0
148 170 0
150 170 0
150 170 0
143 164 0
150 172 0
139 159 0
145 166 0
147 169 0
142 163 0
146 166 0
140 159 0
145 166 0
145 164 0
144 164 0
154 174 0
142 164 0
151 172 0
141 163 0
145 166 0
149 170 0
142 162 0
140 162 0
152 173 0
142 163 0
138 160 0
138 160 0
148 169 0
146 167 0
147 168 0
140 161 0
144 166 0
149 171 0
148 169 0
138 159 0
132 154 0
144 165 0
144 164 0
142 163 0
148 169 0
139 160 0
151 172 0
138 159 0
142 162 0
144 165 0
142 163 0
143 163 0
145 166 0
129 149 0
143 164 0
138 159 0
138 159 0
145 166 0
141 163 0
150 171 0
139 159 0
143 164 0
140 160 0
152 172 0
143 164 0
130 151 0
143 164 0
140 160 0
154 175 0
143 165 0
135 156 0
141 162 0
147 168 0
140 160 0
134 153 0
145 167 0
142 162 0
140 160 0
139 160 0
138 158 0
142 162 0
129 149 0
144 165 0
141 161 0
146 166 0
145 167 0
135 156 0
144 165 0
140 161 0
141 163 0
146 166 0
136 155 0
148 167 0
131 151 0
140 161 0
141 162 0
134 154 0
145 166 0
145 165 0
131 150 0
141 160 0
137 157 0
142 161 0
130 149 0
149 169 0
136 155 0
148 167 0
147 169 0
148 167 0
150 171 0
141 158 0
144 166 0
148 167 0
143 163 0
137 155 0
142 161 0
140 161 0
142 163 0
147 167 0
149 170 0
151 171 0
146 165 0
146 166 0
135 154 0
134 153 0
151 171 0
143 164 0
143 162 0
139 159 0
141 161 0
143 163 0
139 159 0
142 161 0
144 164 0
154 174 0
149 168 0
145 162 0
139 157 0
152 171 0
146 166 0
146 165 0
146 165 0
141 159 0
144 164 0
141 158 0
141 160 0
144 161 0
141 159 0
145 163 0
144 162 0
146 165 0
149 167 0
148 167 0
145 163 0
140 156 0
147 163 0
149 168 0
146 165 0
145 162 0
156 175 0
145 162 0
146 163 0
152 170 0
145 164 0
148 166 0
141 156 0
146 164 0
136 152 0
145 164 0
143 160 0
140 158 0
153 172 0
145 160 0
152 167 0
151 168 0
146 163 0
148 164 0
134 151 0
149 168 0
152 167 0
148 165 0
140 157 0
147 162 0
146 163 0
146 162 0
151 167 0
144 161 0
146 160 0
148 161 0
143 157 0
144 156 0
135 148 0
152 167 0
154 169 0
146 160 0
138 152 0
149 167 0
148 160 0
145 157 0
141 154 0
151 165 0
145 157 0
150 165 0
143 154 0
149 161 0
141 154 0
151 167 0
152 166 0
148 162 0
149 162 0
148 158 0
149 160 0
142 151 0
146 157 0
145 156 0
143 155 0
150 163 0
144 154 0
146 155 0
145 157 0
149 160 0
145 154 0
147 153 0
148 157 0
143 154 0
147 158 0
143 151 0
145 156 0
142 154 0
146 157 0
150 161 0
149 159 0
145 154 0
150 161 0
147 156 0
150 159 0
145 156 0
139 148 0
150 159 0
142 149 0
149 159 0
144 152 0
150 160 0
155 166 0
149 157 0
148 158 0
142 150 0
148 156 0
145 155 0
147 156 0
144 151 0
146 153 0
147 158 0
146 153 0
150 161 0
156 165 0
151 159 0
156 164 0
151 160 0
149 160 0
152 162 0
152 162 0
153 164 0
152 158 0
151 159 0
149 158 0
152 162 0
155 166 0
150 161 0
153 163 0
155 165 0
148 157 0
157 169 0
163 183 0
162 181 0
157 176 0
160 180 0
155 175 0
157 176 0
157 176 0
158 176 0
153 172 0
158 176 0
158 178 0
156 175 0
158 177 0
154 171 0
159 178 0
157 176 0
162 180 0
158 177 0
156 175 0
158 177 0
157 176 0
157 174 0
156 175 0
150 168 0
157 176 0
159 178 0
155 174 0
158 176 0
154 172 0
156 176 0
154 174 0
157 176 0
152 169 0
157 175 0
158 176 0
152 172 0
150 167 0
149 166 0
148 167 0
148 166 0
150 168 0
149 166 0
155 174 0
154 173 0
154 173 0
156 175 0
150 169 0
156 175 0
148 168 0
150 170 0
157 177 0
153 172 0
150 169 0
153 172 0
150 169 0
149 169 0
153 172 0
153 172 0
155 173 0
158 177 0
154 174 0
144 164 0
150 169 0
150 169 0
153 172 0
144 162 0
147 166 0
144 164 0
148 167 0
147 167 0
155 175 0
148 168 0
149 169 0
151 172 0
147 167 0
152 172 0
157 176 0
155 174 0
151 171 0
147 167 0
150 169 0
149 168 0
148 168 0
151 171 0
151 172 0
152 173 0
144 164 0
149 169 0
156 177 0
157 177 0
143 164 0
149 171 0
146 167 0
147 168 0
151 171 0
148 169 0
150 170 0
149 171 0
141 161 0
156 179 0
152 171 0
141 162 0
146 167 0
150 170 0
150 171 0
149 170 0
145 166 0
145 165 0
148 169 0
152 173 0
150 171 0
146 168 0
154 176 0
159 181 0
142 163 0
153 173 0
141 160 0
149 171 0
153 175 0
139 161 0
151 172 0
148 168 0
151 173 0
141 162 0
148 170 0
142 162 0
147 169 0
145 165 0
151 172 0
140 161 0
152 173 0
146 166 0
145 166 0
149 171 0
151 172 0
146 167 0
154 175 0
145 167 0
143 164 0
152 172 0
147 167 0
146 167 0
140 161 0
145 166 0
145 166 0
150 172 0
146 168 0
146 166 0
142 163 0
147 168 0
149 171 0
139 159 0
144 165 0
153 174 0
141 163 0
143 165 0
148 169 0
140 161 0
137 158 0
137 157 0
147 169 0
146 168 0
147 169 0
147 169 0
139 161 0
144 164 0
142 164 0
147 169 0
144 163 0
141 162 0
147 168 0
150 171 0
135 155 0
140 162 0
145 167 0
145 167 0
148 169 0
147 167 0
143 166 0
146 167 0
139 160 0
145 166 0
147 168 0
140 161 0
136 157 0
131 152 0
135 157 0
141 161 0
138 159 0
145 167 0
139 160 0
146 167 0
140 160 0
142 162 0
146 167 0
137 157 0
137 156 0
135 155 0
141 162 0
135 155 0
144 166 0
147 168 0
143 164 0
140 161 0
137 158 0
142 162 0
142 163 0
145 166 0
140 161 0
139 161 0
148 169 0
141 162 0
134 155 0
139 159 0
141 161 0
148 169 0
140 163 0
139 160 0
143 163 0
145 165 0
138 159 0
146 166 0
144 164 0
144 165 0
148 170 0
136 156 0
144 164 0
148 168 0
148 168 0
145 165 0
141 161 0
144 165 0
149 169 0
139 160 0
138 158 0
146 165 0
139 159 0
144 163 0
143 164 0
141 162 0
148 168 0
142 163 0
144 163 0
151 169 0
147 166 0
137 158 0
142 161 0
155 174 0
140 160 0
137 157 0
142 162 0
141 159 0
138 156 0
140 159 0
138 157 0
146 164 0
137 157 0
144 162 0
140 158 0
141 160 0
137 156 0
145 164 0
143 162 0
141 160 0
145 165 0
145 163 0
142 161 0
147 164 0
146 165 0
145 164 0
144 165 0
146 165 0
152 171 0
146 166 0
139 158 0
143 161 0
148 168 0
140 158 0
134 153 0
145 164 0
138 154 0
145 162 0
144 163 0
150 168 0
137 155 0
151 171 0
146 164 0
145 165 0
151 170 0
151 169 0
143 160 0
143 160 0
143 163 0
144 161 0
150 167 0
143 160 0
147 165 0
146 164 0
146 162 0
150 167 0
140 157 0
150 162 0
136 152 0
148 164 0
149 166 0
149 165 0
146 162 0
148 164 0
147 161 0
149 163 0
146 161 0
149 164 0
150 167 0
150 164 0
145 160 0
146 162 0
142 156 0
149 167 0
150 166 0
148 162 0
138 152 0
148 162 0
144 155 0
150 164 0
147 161 0
148 160 0
145 161 0
148 161 0
145 159 0
142 154 0
153 168 0
145 158 0
151 165 0
147 161 0
142 154 0
142 156 0
150 165 0
149 162 0
145 156 0
148 161 0
147 158 0
146 158 0
148 157 0
141 150 0
152 162 0
145 158 0
139 152 0
150 161 0
148 159 0
146 155 0
148 156 0
145 156 0
149 160 0
139 148 0
156 167 0
147 156 0
156 165 0
153 166 0
144 154 0
150 160 0
143 154 0
146 157 0
149 161 0
139 146 0
150 163 0
147 155 0
145 153 0
140 149 0
148 158 0
151 161 0
150 161 0
155 167 0
154 164 0
147 156 0
147 153 0
147 158 0
151 161 0
149 159 0
151 159 0
149 159 0
151 160 0
148 156 0
157 167 0
154 164 0
152 161 0
148 156 0
148 157 0
149 159 0
152 159 0
146 155 0
152 161 0
149 158 0
156 167 0
161 172 0
154 164 0
151 161 0
149 158 0
160 171 0
146 156 0
154 164 0
158 178 0
162 182 0
158 176 0
153 171 0
159 177 0
162 181 0
160 179 0
154 173 0
164 184 0
160 179 0
157 175 0
153 172 0
161 181 0
156 175 0
161 180 0
158 176 0
160 178 0
157 176 0
160 179 0
158 177 0
152 171 0
156 174 0
159 178 0
159 177 0
157 175 0
156 173 0
163 182 0
159 178 0
158 177 0
156 175 0
156 175 0
160 180 0
154 173 0
152 171 0
149 168 0
152 171 0
158 177 0
153 172 0
159 179 0
151 169 0
154 173 0
154 173 0
152 171 0
152 171 0
158 179 0
158 176 0
157 176 0
151 170 0
154 173 0
149 169 0
157 177 0
151 170 0
151 171 0
146 165 0
147 166 0
150 169 0
154 174 0
145 164 0
154 174 0
156 176 0
152 171 0
149 169 0
153 173 0
145 164 0
151 171 0
146 165 0
144 164 0
158 178 0
152 172 0
150 169 0
155 174 0
154 174 0
151 171 0
158 178 0
154 173 0
151 170 0
155 175 0
151 171 0
145 165 0
151 171 0
148 168 0
149 169 0
156 176 0
153 173 0
147 168 0
147 168 0
149 169 0
151 169 0
145 166 0
154 174 0
157 177 0
151 172 0
152 171 0
144 165 0
153 175 0
144 164 0
145 167 0
146 167 0
147 167 0
152 173 0
150 171 0
145 165 0
149 170 0
147 167 0
145 166 0
143 164 0
150 170 0
148 170 0
152 174 0
156 178 0
144 165 0
151 172 0
152 174 0
138 159 0
146 167 0
142 163 0
141 163 0
145 167 0
141 162 0
152 173 0
153 174 0
146 169 0
149 170 0
144 166 0
156 176 0
142 162 0
145 165 0
139 160 0
143 163 0
144 165 0
145 166 0
154 176 0
146 167 0
150 171 0
151 173 0
144 165 0
142 164 0
151 171 0
148 170 0
144 165 0
153 174 0
140 161 0
150 171 0
147 169 0
151 173 0
152 174 0
144 165 0
147 169 0
149 170 0
146 166 0
138 160 0
147 168 0
148 170 0
147 169 0
149 170 0
140 162 0
148 170 0
144 165 0
142 163 0
149 170 0
141 162 0
143 165 0
140 159 0
150 170 0
156 177 0
135 157 0
148 168 0
141 161 0
147 168 0
147 169 0
149 170 0
141 162 0
135 156 0
144 164 0
133 154 0
150 170 0
143 165 0
134 154 0
142 164 0
142 163 0
145 168 0
142 163 0
131 151 0
146 168 0
140 162 0
137 158 0
138 158 0
148 169 0
139 159 0
145 165 0
140 159 0
144 164 0
136 156 0
139 159 0
137 158 0
140 162 0
135 156 0
143 163 0
144 165 0
147 168 0
134 155 0
147 169 0
148 168 0
148 169 0
138 159 0
149 171 0
144 165 0
148 170 0
145 166 0
144 165 0
134 154 0
145 165 0
145 166 0
149 171 0
136 156 0
142 163 0
139 159 0
143 165 0
142 162 0
141 162 0
141 161 0
145 165 0
147 168 0
142 163 0
141 161 0
147 167 0
141 163 0
142 163 0
142 163 0
141 162 0
142 162 0
142 162 0
145 165 0
142 163 0
134 154 0
143 163 0
141 162 0
149 169 0
148 168 0
146 167 0
153 173 0
143 163 0
142 164 0
150 170 0
142 161 0
142 161 0
139 158 0
139 159 0
149 169 0
146 166 0
152 172 0
141 161 0
149 167 0
141 160 0
147 165 0
149 169 0
142 162 0
137 156 0
144 163 0
147 168 0
143 162 0
139 158 0
145 165 0
144 162 0
140 158 0
151 168 0
137 155 0
137 156 0
149 170 0
147 166 0
151 170 0
143 161 0
146 164 0
149 168 0
146 165 0
147 164 0
141 159 0
149 168 0
151 171 0
149 167 0
146 164 0
145 162 0
146 165 0
147 165 0
147 164 0
143 160 0
146 165 0
141 160 0
150 169 0
137 153 0
148 165 0
143 159 0
143 160 0
151 169 0
150 165 0
144 161 0
147 163 0
149 165 0
144 159 0
139 156 0
151 167 0
149 167 0
147 162 0
150 167 0
147 163 0
147 164 0
142 158 0
142 159 0
151 169 0
149 164 0
146 162 0
149 165 0
143 158 0
153 171 0
148 165 0
145 160 0
152 169 0
153 169 0
146 159 0
139 154 0
154 171 0
146 161 0
143 156 0
145 158 0
146 159 0
145 160 0
150 165 0
150 165 0
138 151 0
153 169 0
146 159 0
149 164 0
147 160 0
140 154 0
151 163 0
147 161 0
144 158 0
148 161 0
145 158 0
138 150 0
145 158 0
145 155 0
139 152 0
144 154 0
150 162 0
144 157 0
155 166 0
146 158 0
146 158 0
150 162 0
139 148 0
153 161 0
152 162 0
145 157 0
146 157 0
151 164 0
152 164 0
145 157 0
146 156 0
148 156 0
146 157 0
154 164 0
150 163 0
137 149 0
142 151 0
149 158 0
142 154 0
152 163 0
148 159 0
147 156 0
140 152 0
146 155 0
148 157 0
151 161 0
150 160 0
151 159 0
149 157 0
154 165 0
142 148 0
154 164 0
150 159 0
155 166 0
158 169 0
159 170 0
146 156 0
153 164 0
144 152 0
155 165 0
154 164 0
158 169 0
150 162 0
154 163 0
151 159 0
152 160 0
147 159 0
147 157 0
149 157 0
155 166 0
157 169 0
146 153 0
158 178 0
155 174 0
158 177 0
159 178 0
154 172 0
158 177 0
155 174 0
155 174 0
156 175 0
156 175 0
156 175 0
156 175 0
153 171 0
158 177 0
153 171 0
164 183 0
159 179 0
160 180 0
161 180 0
158 178 0
155 174 0
159 179 0
153 172 0
156 174 0
155 174 0
157 176 0
162 182 0
163 182 0
155 175 0
159 177 0
163 181 0
157 175 0
152 171 0
150 170 0
148 168 0
150 169 0
154 172 0
158 179 0
155 174 0
154 173 0
155 174 0
155 174 0
154 174 0
147 166 0
154 174 0
157 177 0
159 179 0
145 164 0
155 173 0
157 176 0
155 174 0
147 166 0
153 172 0
149 168 0
158 179 0
158 178 0
151 170 0
149 169 0
157 178 0
150 170 0
154 174 0
155 174 0
150 169 0
155 176 0
157 177 0
155 174 0
156 176 0
151 170 0
147 167 0
154 175 0
156 176 0
152 173 0
155 175 0
148 168 0
149 170 0
144 164 0
150 169 0
147 168 0
152 172 0
151 172 0
152 172 0
155 174 0
147 168 0
147 167 0
156 177 0
151 172 0
155 177 0
152 171 0
142 162 0
150 169 0
148 169 0
150 170 0
149 169 0
151 172 0
149 170 0
157 177 0
150 170 0
143 165 0
144 165 0
151 172 0
156 177 0
149 170 0
154 175 0
154 176 0
148 169 0
150 171 0
152 173 0
150 170 0
151 172 0
150 170 0
152 173 0
150 172 0
154 177 0
147 168 0
152 174 0
148 169 0
149 170 0
156 178 0
146 167 0
151 174 0
150 171 0
146 168 0
149 170 0
148 169 0
148 170 0
151 173 0
145 166 0
150 171 0
145 166 0
147 167 0
153 174 0
140 162 0
150 172 0
152 173 0
149 170 0
148 169 0
143 165 0
149 172 0
155 176 0
148 169 0
148 170 0
146 168 0
149 169 0
148 169 0
145 167 0
150 171 0
148 169 0
144 167 0
152 172 0
142 164 0
139 160 0
150 172 0
141 160 0
145 167 0
152 173 0
137 159 0
139 159 0
149 171 0
146 168 0
145 167 0
138 160 0
149 171 0
150 172 0
140 161 0
147 170 0
139 160 0
151 173 0
136 156 0
136 155 0
145 168 0
150 171 0
139 160 0
144 166 0
144 165 0
148 171 0
138 160 0
145 166 0
145 164 0
138 159 0
134 154 0
145 168 0
142 163 0
153 175 0
140 160 0
145 164 0
148 168 0
136 155 0
149 169 0
148 169 0
146 167 0
141 160 0
138 159 0
145 167 0
135 157 0
142 162 0
138 159 0
137 157 0
139 160 0
139 160 0
136 157 0
143 164 0
153 174 0
137 157 0
141 163 0
145 166 0
145 165 0
138 158 0
147 167 0
148 170 0
141 162 0
146 166 0
133 154 0
151 172 0
142 162 0
151 171 0
134 154 0
131 150 0
137 158 0
148 169 0
134 155 0
142 162 0
140 161 0
146 167 0
135 156 0
141 162 0
149 171 0
142 163 0
130 149 0
147 167 0
141 161 0
136 154 0
144 166 0
144 164 0
146 165 0
144 164 0
141 160 0
148 169 0
144 163 0
144 165 0
143 164 0
150 170 0
146 168 0
142 163 0
151 171 0
149 168 0
146 166 0
146 165 0
140 158 0
136 154 0
140 160 0
143 163 0
150 170 0
135 156 0
142 163 0
148 166 0
144 165 0
140 159 0
150 170 0
149 170 0
146 166 0
144 164 0
143 162 0
144 164 0
147 167 0
137 157 0
146 165 0
142 162 0
144 162 0
143 160 0
143 161 0
153 173 0
149 166 0
150 168 0
141 160 0
145 162 0
151 170 0
145 164 0
151 169 0
147 166 0
147 167 0
151 168 0
145 161 0
134 150 0
143 162 0
153 171 0
147 164 0
146 164 0
143 162 0
144 162 0
147 166 0
150 168 0
145 163 0
151 169 0
141 158 0
145 163 0
139 156 0
140 157 0
145 161 0
138 153 0
153 170 0
141 159 0
149 166 0
153 169 0
148 166 0
147 164 0
136 153 0
145 161 0
146 162 0
138 152 0
143 158 0
154 170 0
149 166 0
144 161 0
139 155 0
142 157 0
150 165 0
136 153 0
134 147 0
151 168 0
134 147 0
148 166 0
147 164 0
148 163 0
146 161 0
152 167 0
144 159 0
147 163 0
146 161 0
140 155 0
147 160 0
141 155 0
149 164 0
143 157 0
150 165 0
149 161 0
144 155 0
146 159 0
144 157 0
151 166 0
142 155 0
152 163 0
153 166 0
144 157 0
144 156 0
145 158 0
142 155 0
152 165 0
145 159 0
142 154 0
148 160 0
147 158 0
152 164 0
141 152 0
146 158 0
145 155 0
150 162 0
146 158 0
146 155 0
152 165 0
153 164 0
152 163 0
145 156 0
150 164 0
150 161 0
148 159 0
146 155 0
145 153 0
152 164 0
147 155 0
152 164 0
153 164 0
151 163 0
147 159 0
157 170 0
154 167 0
156 168 0
142 150 0
148 157 0
147 160 0
148 159 0
149 158 0
152 163 0
147 156 0
149 158 0
154 164 0
147 156 0
146 156 0
154 167 0
146 157 0
149 158 0
149 163 0
151 158 0
149 160 0
150 160 0
157 168 0
159 173 0
152 163 0
149 159 0
155 164 0
158 170 0
162 181 0
159 178 0
159 177 0
154 172 0
159 179 0
160 179 0
161 180 0
156 174 0
157 176 0
158 177 0
158 176 0
159 177 0
154 173 0
153 172 0
159 178 0
156 175 0
159 177 0
152 171 0
158 178 0
162 181 0
152 171 0
154 173 0
160 180 0
149 167 0
156 175 0
155 175 0
159 177 0
158 177 0
156 175 0
152 171 0
155 174 0
152 171 0
159 179 0
154 173 0
153 174 0
158 177 0
154 172 0
152 172 0
155 175 0
149 167 0
156 175 0
156 176 0
151 170 0
152 172 0
154 173 0
153 173 0
151 170 0
144 163 0
157 177 0
153 173 0
156 175 0
150 169 0
155 175 0
157 177 0
156 175 0
155 175 0
154 174 0
152 172 0
152 171 0
154 174 0
149 168 0
149 169 0
152 172 0
143 164 0
150 168 0
156 175 0
152 171 0
147 167 0
138 158 0
152 172 0
151 171 0
148 168 0
150 171 0
148 168 0
149 168 0
154 174 0
147 168 0
148 169 0
148 168 0
154 176 0
150 169 0
159 179 0
153 174 0
151 172 0
146 167 0
156 177 0
150 171 0
150 170 0
153 173 0
157 177 0
156 178 0
148 168 0
149 170 0
153 174 0
144 164 0
151 171 0
151 171 0
155 176 0
151 172 0
148 168 0
146 167 0
150 170 0
144 165 0
143 163 0
154 176 0
151 173 0
150 171 0
147 167 0
146 167 0
153 174 0
150 173 0
144 165 0
155 177 0
155 177 0
145 165 0
148 170 0
149 170 0
153 175 0
145 167 0
150 172 0
147 169 0
147 168 0
147 168 0
149 170 0
149 170 0
151 173 0
142 163 0
142 162 0
147 169 0
154 174 0
151 174 0
148 169 0
148 170 0
144 165 0
144 167 0
151 172 0
141 163 0
155 177 0
141 162 0
144 165 0
153 174 0
142 163 0
139 160 0
140 161 0
141 161 0
147 169 0
152 174 0
147 169 0
147 169 0
148 169 0
146 167 0
145 167 0
145 166 0
137 159 0
140 162 0
149 170 0
145 166 0
134 155 0
145 165 0
145 167 0
150 171 0
149 171 0
145 167 0
145 166 0
152 174 0
139 161 0
143 165 0
145 166 0
152 174 0
143 165 0
139 162 0
145 166 0
137 158 0
130 150 0
145 167 0
143 165 0
153 175 0
142 163 0
143 165 0
147 167 0
142 162 0
137 158 0
135 156 0
135 156 0
148 169 0
139 160 0
149 171 0
142 163 0
137 157 0
135 156 0
146 168 0
133 154 0
148 169 0
143 164 0
132 152 0
137 157 0
143 163 0
146 167 0
141 161 0
146 167 0
144 165 0
149 170 0
146 167 0
142 164 0
145 165 0
133 154 0
145 167 0
139 158 0
146 166 0
148 168 0
141 163 0
138 158 0
148 170 0
145 165 0
148 169 0
141 163 0
140 160 0
147 169 0
143 164 0
143 163 0
146 167 0
143 165 0
150 170 0
149 171 0
143 164 0
144 164 0
142 162 0
145 166 0
140 160 0
151 173 0
144 165 0
139 159 0
145 165 0
142 162 0
145 166 0
145 166 0
145 163 0
139 160 0
153 173 0
141 161 0
146 168 0
148 170 0
141 161 0
144 163 0
148 169 0
150 170 0
149 169 0
138 157 0
141 164 0
140 160 0
146 166 0
149 169 0
147 167 0
142 162 0
143 162 0
142 161 0
150 171 0
142 161 0
152 172 0
144 164 0
139 159 0
140 159 0
145 163 0
155 175 0
140 160 0
154 174 0
145 164 0
145 165 0
144 161 0
142 159 0
137 155 0
147 166 0
138 157 0
154 172 0
149 169 0
151 169 0
149 168 0
148 166 0
144 163 0
147 164 0
145 162 0
145 162 0
145 163 0
152 173 0
139 156 0
142 159 0
139 157 0
147 162 0
146 163 0
148 167 0
143 162 0
149 167 0
153 171 0
149 165 0
147 164 0
151 167 0
142 160 0
146 163 0
150 169 0
147 162 0
143 160 0
148 165 0
148 163 0
143 157 0
145 162 0
144 161 0
144 160 0
154 171 0
150 167 0
148 165 0
141 157 0
144 160 0
152 167 0
143 160 0
145 163 0
149 164 0
147 162 0
148 164 0
151 169 0
144 159 0
151 165 0
147 162 0
149 166 0
146 159 0
145 159 0
151 167 0
144 157 0
144 160 0
148 163 0
150 167 0
151 165 0
152 165 0
145 161 0
153 167 0
144 156 0
143 156 0
145 156 0
147 160 0
146 162 0
145 160 0
143 153 0
154 166 0
142 155 0
147 162 0
145 160 0
150 161 0
152 167 0
147 160 0
147 158 0
145 156 0
152 163 0
150 163 0
148 161 0
144 157 0
153 167 0
147 159 0
144 157 0
150 162 0
150 160 0
153 166 0
148 160 0
146 158 0
149 161 0
154 166 0
141 150 0
156 166 0
145 153 0
145 157 0
152 163 0
149 161 0
147 158 0
153 163 0
152 163 0
149 157 0
152 160 0
149 161 0
152 160 0
151 163 0
148 159 0
150 162 0
154 165 0
153 163 0
155 166 0
154 168 0
151 161 0
151 161 0
148 157 0
150 159 0
157 168 0
159 174 0
149 158 0
157 164 0
146 154 0
155 165 0
157 168 0
149 159 0
153 164 0
157 167 0
152 164 0
161 171 0
160 180 0
156 174 0
160 179 0
163 182 0
156 175 0
161 181 0
156 175 0
163 183 0
155 173 0
155 175 0
157 176 0
160 178 0
155 174 0
159 178 0
146 165 0
155 174 0
156 175 0
158 177 0
154 174 0
157 175 0
155 175 0
155 174 0
157 176 0
158 177 0
155 174 0
156 174 0
161 180 0
161 180 0
154 173 0
158 178 0
153 172 0
158 178 0
152 170 0
155 175 0
155 174 0
159 178 0
154 174 0
154 172 0
158 178 0
162 182 0
153 173 0
149 169 0
153 172 0
157 176 0
156 174 0
149 169 0
149 168 0
154 173 0
155 175 0
151 170 0
155 175 0
160 180 0
157 178 0
150 170 0
148 168 0
151 170 0
154 174 0
154 174 0
152 173 0
153 173 0
157 178 0
159 179 0
157 176 0
150 170 0
158 178 0
152 172 0
153 174 0
153 174 0
151 171 0
150 171 0
156 177 0
145 166 0
151 172 0
154 175 0
148 168 0
152 172 0
155 176 0
143 163 0
150 171 0
159 181 0
152 172 0
154 175 0
144 162 0
149 170 0
150 170 0
153 175 0
153 174 0
150 172 0
150 171 0
146 166 0
153 175 0
155 176 0
151 172 0
153 174 0
150 172 0
157 178 0
141 161 0
149 169 0
141 162 0
150 172 0
150 171 0
154 175 0
139 160 0
152 173 0
155 176 0
148 169 0
145 166 0
151 171 0
151 172 0
151 172 0
151 172 0
150 171 0
149 171 0
148 169 0
143 165 0
155 178 0
151 171 0
145 167 0
148 170 0
153 176 0
145 164 0
151 172 0
146 167 0
151 171 0
154 177 0
148 169 0
141 162 0
151 172 0
146 167 0
154 175 0
151 171 0
152 174 0
155 176 0
153 175 0
143 165 0
148 169 0
144 166 0
152 174 0
151 173 0
152 174 0
147 169 0
138 159 0
149 171 0
144 165 0
138 159 0
143 165 0
153 175 0
142 163 0
143 165 0
147 168 0
146 166 0
146 167 0
139 160 0
143 163 0
147 169 0
145 167 0
139 162 0
146 167 0
142 163 0
147 169 0
143 166 0
151 173 0
146 168 0
152 174 0
147 168 0
142 162 0
144 166 0
149 171 0
137 156 0
142 163 0
145 166 0
153 174 0
136 157 0
140 160 0
144 164 0
147 168 0
137 158 0
142 162 0
136 157 0
141 163 0
150 172 0
139 160 0
142 163 0
144 166 0
149 170 0
146 168 0
145 167 0
141 162 0
151 172 0
135 156 0
149 170 0
142 162 0
144 165 0
145 166 0
136 158 0
147 167 0
138 157 0
143 163 0
145 166 0
146 167 0
133 154 0
143 164 0
145 165 0
134 154 0
154 175 0
144 166 0
143 163 0
144 166 0
134 156 0
140 161 0
142 163 0
150 171 0
143 164 0
146 167 0
133 154 0
139 161 0
136 156 0
140 160 0
149 170 0
142 162 0
149 169 0
144 167 0
152 174 0
146 167 0
145 166 0
138 159 0
137 159 0
143 163 0
141 161 0
146 167 0
151 172 0
148 168 0
149 170 0
140 160 0
145 166 0
143 164 0
142 161 0
148 167 0
144 165 0
141 160 0
152 173 0
147 167 0
142 161 0
146 166 0
143 162 0
142 161 0
141 162 0
146 166 0
152 172 0
149 168 0
143 163 0
141 162 0
151 171 0
150 170 0
144 163 0
130 148 0
145 165 0
148 167 0
147 166 0
136 155 0
145 166 0
152 172 0
139 159 0
140 156 0
147 166 0
145 164 0
148 168 0
151 170 0
150 169 0
150 170 0
148 169 0
141 160 0
147 164 0
134 153 0
150 168 0
144 163 0
148 167 0
156 175 0
154 172 0
142 160 0
143 162 0
144 163 0
136 154 0
139 155 0
140 158 0
147 166 0
150 168 0
151 168 0
148 166 0
151 170 0
148 167 0
148 164 0
155 172 0
146 167 0
147 165 0
149 166 0
140 156 0
146 164 0
149 168 0
146 163 0
146 164 0
146 164 0
150 169 0
141 158 0
150 168 0
149 166 0
143 160 0
148 165 0
156 172 0
152 169 0
150 166 0
148 164 0
148 166 0
145 161 0
151 168 0
144 160 0
148 162 0
155 172 0
155 169 0
152 167 0
145 159 0
148 164 0
149 165 0
152 168 0
144 158 0
154 168 0
151 167 0
146 159 0
146 160 0
153 171 0
149 166 0
139 152 0
146 158 0
154 168 0
153 168 0
149 163 0
151 166 0
141 156 0
149 165 0
145 158 0
147 160 0
153 169 0
144 158 0
151 164 0
140 153 0
152 165 0
151 167 0
149 162 0
144 156 0
154 168 0
149 161 0
151 162 0
155 169 0
143 155 0
145 156 0
151 164 0
152 166 0
154 168 0
146 159 0
142 155 0
145 155 0
141 151 0
147 161 0
152 165 0
150 163 0
148 159 0
141 151 0
139 149 0
151 165 0
158 171 0
146 155 0
147 159 0
150 161 0
153 164 0
148 155 0
150 161 0
151 161 0
148 159 0
153 165 0
156 169 0
148 159 0
149 158 0
154 166 0
151 160 0
151 161 0
145 154 0
153 163 0
149 159 0
150 163 0
151 163 0
158 168 0
157 170 0
154 165 0
156 166 0
153 164 0
153 165 0
154 164 0
155 167 0
152 163 0
152 165 0
157 177 0
157 177 0
162 182 0
168 188 0
161 180 0
158 177 0
159 179 0
160 179 0
157 177 0
159 179 0
162 181 0
159 179 0
157 177 0
155 174 0
157 175 0
159 179 0
158 177 0
158 178 0
158 176 0
157 176 0
160 179 0
154 173 0
157 175 0
156 175 0
165 184 0
154 173 0
155 174 0
158 178 0
160 180 0
160 179 0
158 177 0
166 186 0
157 176 0
152 171 0
150 169 0
154 173 0
155 174 0
154 174 0
154 173 0
159 179 0
157 177 0
154 173 0
156 176 0
148 167 0
152 171 0
151 170 0
150 170 0
157 178 0
156 176 0
154 173 0
156 176 0
155 175 0
159 180 0
160 180 0
149 168 0
148 169 0
149 168 0
150 170 0
158 180 0
146 166 0
154 175 0
155 175 0
155 176 0
152 171 0
159 179 0
153 173 0
156 176 0
149 169 0
154 175 0
151 171 0
155 176 0
154 174 0
150 170 0
150 171 0
150 171 0
148 169 0
151 171 0
142 162 0
153 173 0
147 168 0
151 171 0
145 165 0
150 170 0
152 173 0
154 174 0
159 181 0
149 169 0
150 171 0
150 171 0
152 173 0
153 175 0
149 170 0
152 173 0
148 169 0
152 173 0
145 165 0
147 168 0
156 178 0
151 172 0
150 170 0
154 176 0
145 167 0
156 178 0
151 171 0
159 180 0
149 171 0
150 171 0
153 174 0
148 169 0
149 169 0
149 170 0
152 173 0
145 167 0
151 172 0
152 173 0
146 166 0
148 171 0
150 172 0
146 167 0
147 169 0
144 165 0
153 174 0
152 174 0
150 171 0
148 170 0
147 168 0
142 163 0
150 171 0
152 174 0
154 177 0
151 173 0
150 170 0
151 173 0
150 171 0
146 167 0
150 171 0
151 172 0
154 176 0
146 167 0
155 178 0
136 156 0
147 168 0
151 173 0
150 172 0
146 167 0
151 173 0
152 175 0
150 172 0
149 170 0
146 167 0
150 172 0
144 166 0
154 177 0
147 168 0
147 169 0
141 162 0
144 166 0
145 167 0
143 164 0
145 165 0
141 163 0
149 172 0
153 175 0
140 162 0
146 168 0
151 173 0
148 169 0
155 176 0
152 173 0
141 162 0
149 171 0
152 174 0
144 164 0
140 162 0
146 167 0
142 163 0
144 166 0
151 174 0
138 159 0
137 157 0
147 170 0
148 169 0
146 169 0
145 168 0
146 169 0
141 163 0
142 163 0
152 174 0
138 158 0
141 163 0
146 168 0
152 174 0
143 165 0
146 167 0
153 175 0
142 163 0
146 166 0
144 165 0
139 161 0
145 166 0
143 165 0
139 161 0
145 165 0
145 165 0
147 168 0
147 168 0
142 162 0
146 168 0
143 164 0
141 163 0
143 165 0
143 163 0
139 158 0
145 168 0
137 156 0
141 163 0
146 167 0
147 167 0
149 171 0
144 165 0
151 172 0
138 158 0
143 163 0
147 168 0
139 160 0
139 159 0
146 166 0
147 167 0
140 161 0
140 161 0
150 171 0
146 166 0
143 164 0
143 163 0
139 161 0
158 178 0
142 163 0
149 170 0
150 170 0
141 161 0
151 171 0
136 156 0
144 163 0
150 171 0
151 172 0
145 167 0
145 165 0
147 167 0
144 162 0
142 163 0
145 164 0
146 165 0
149 170 0
140 159 0
145 165 0
148 168 0
149 170 0
149 169 0
145 165 0
144 163 0
150 170 0
147 167 0
142 161 0
150 171 0
146 165 0
155 175 0
155 175 0
144 163 0
154 177 0
141 161 0
138 157 0
153 171 0
152 173 0
144 163 0
147 165 0
150 172 0
143 163 0
152 170 0
143 159 0
154 174 0
146 164 0
145 165 0
152 169 0
145 165 0
145 165 0
147 164 0
147 163 0
143 161 0
144 162 0
152 169 0
147 164 0
150 168 0
154 172 0
142 160 0
158 175 0
148 165 0
148 165 0
146 164 0
145 161 0
147 164 0
143 161 0
149 166 0
147 166 0
145 162 0
146 164 0
146 164 0
157 174 0
148 167 0
153 169 0
149 166 0
153 171 0
150 165 0
142 158 0
152 170 0
146 165 0
152 168 0
147 165 0
154 170 0
151 166 0
147 163 0
146 163 0
142 155 0
149 164 0
147 162 0
144 160 0
147 164 0
148 163 0
150 163 0
150 164 0
147 162 0
154 171 0
145 161 0
150 165 0
145 161 0
152 167 0
150 165 0
147 161 0
152 166 0
151 164 0
151 165 0
142 155 0
152 168 0
151 164 0
159 172 0
152 166 0
146 161 0
143 155 0
150 162 0
145 157 0
146 158 0
151 168 0
140 154 0
149 161 0
145 156 0
159 175 0
152 162 0
147 160 0
151 166 0
154 165 0
146 157 0
153 165 0
146 159 0
154 169 0
151 164 0
149 158 0
149 163 0
146 157 0
153 166 0
151 163 0
144 152 0
147 159 0
156 169 0
153 165 0
145 157 0
152 165 0
150 162 0
153 166 0
153 161 0
159 170 0
152 166 0
146 154 0
153 165 0
153 164 0
147 158 0
155 167 0
155 168 0
154 166 0
151 165 0
150 164 0
151 161 0
156 168 0
150 159 0
152 164 0
151 159 0
154 167 0
157 169 0
154 163 0
155 168 0
154 165 0
156 168 0
163 182 0
158 178 0
155 175 0
159 179 0
163 182 0
163 184 0
156 175 0
159 179 0
156 176 0
161 181 0
155 174 0
160 180 0
158 178 0
160 179 0
156 176 0
154 173 0
159 179 0
157 176 0
158 178 0
155 175 0
155 175 0
157 176 0
157 176 0
154 172 0
155 174 0
148 167 0
157 177 0
159 179 0
158 177 0
159 178 0
150 169 0
153 174 0
154 174 0
158 179 0
163 182 0
157 177 0
148 167 0
158 178 0
158 178 0
159 178 0
150 171 0
153 173 0
152 172 0
151 170 0
162 182 0
158 178 0
155 174 0
154 174 0
158 178 0
152 173 0
155 176 0
157 177 0
152 173 0
156 176 0
153 173 0
155 176 0
156 176 0
159 179 0
148 168 0
155 175 0
160 181 0
147 168 0
145 165 0
152 173 0
153 173 0
156 176 0
153 173 0
154 174 0
153 174 0
155 175 0
151 172 0
157 176 0
151 171 0
159 178 0
155 176 0
160 181 0
151 171 0
151 172 0
151 172 0
151 171 0
148 169 0
160 180 0
157 178 0
151 171 0
155 176 0
147 168 0
151 172 0
151 172 0
148 169 0
149 168 0
152 172 0
149 170 0
147 169 0
156 178 0
157 178 0
149 170 0
152 173 0
145 166 0
156 177 0
152 174 0
154 176 0
154 176 0
148 169 0
151 173 0
153 174 0
150 170 0
154 175 0
152 173 0
142 162 0
154 177 0
147 168 0
154 175 0
156 178 0
151 172 0
144 165 0
140 161 0
151 171 0
145 166 0
149 170 0
144 165 0
153 174 0
144 165 0
149 170 0
150 171 0
159 180 0
157 178 0
154 175 0
154 175 0
143 165 0
143 163 0
152 175 0
156 178 0
153 175 0
150 170 0
151 171 0
151 173 0
152 173 0
153 176 0
149 171 0
149 171 0
156 177 0
148 169 0
144 165 0
140 162 0
147 168 0
147 169 0
150 172 0
148 169 0
151 173 0
149 169 0
147 168 0
144 166 0
146 166 0
152 175 0
147 167 0
145 167 0
152 174 0
151 173 0
150 171 0
144 166 0
138 160 0
148 170 0
144 166 0
148 170 0
141 164 0
142 164 0
152 174 0
147 169 0
142 162 0
149 169 0
151 171 0
148 170 0
144 165 0
148 169 0
149 171 0
143 164 0
144 165 0
143 165 0
146 167 0
146 167 0
151 172 0
150 171 0
156 178 0
148 170 0
136 158 0
145 166 0
137 158 0
140 162 0
147 169 0
154 174 0
146 167 0
144 165 0
138 159 0
138 159 0
145 167 0
144 166 0
141 161 0
146 165 0
141 162 0
153 174 0
149 169 0
145 167 0
147 167 0
136 158 0
146 167 0
147 167 0
141 161 0
148 170 0
139 160 0
142 164 0
137 159 0
147 167 0
145 167 0
150 170 0
147 168 0
149 171 0
154 177 0
138 157 0
140 162 0
143 162 0
139 160 0
143 163 0
147 168 0
146 167 0
146 166 0
148 169 0
140 160 0
143 163 0
144 164 0
149 170 0
148 167 0
143 164 0
142 164 0
155 175 0
140 161 0
145 166 0
141 162 0
147 169 0
141 161 0
140 160 0
142 161 0
144 162 0
136 157 0
146 167 0
148 170 0
138 157 0
147 167 0
150 170 0
146 166 0
133 152 0
147 166 0
151 171 0
152 172 0
143 162 0
146 164 0
147 167 0
150 170 0
147 167 0
146 165 0
145 165 0
150 171 0
144 164 0
139 159 0
148 170 0
154 175 0
143 161 0
147 166 0
152 172 0
149 169 0
149 170 0
152 170 0
148 166 0
143 163 0
149 169 0
148 167 0
147 164 0
154 173 0
152 171 0
150 169 0
148 167 0
151 170 0
147 165 0
141 160 0
153 173 0
148 168 0
145 165 0
152 172 0
141 161 0
150 170 0
148 166 0
149 166 0
153 171 0
143 161 0
148 164 0
145 161 0
147 165 0
144 162 0
150 167 0
148 164 0
150 168 0
142 161 0
148 167 0
152 169 0
147 164 0
147 164 0
148 166 0
140 156 0
145 163 0
143 159 0
149 166 0
137 154 0
148 165 0
146 165 0
147 165 0
156 172 0
145 162 0
151 168 0
148 164 0
153 170 0
149 166 0
151 167 0
148 164 0
150 164 0
149 164 0
146 163 0
143 157 0
141 155 0
147 161 0
142 157 0
150 165 0
157 173 0
148 164 0
153 167 0
159 176 0
148 164 0
150 165 0
152 166 0
156 172 0
147 161 0
150 165 0
151 166 0
148 163 0
152 169 0
150 163 0
146 162 0
151 164 0
137 147 0
151 163 0
150 165 0
152 165 0
151 167 0
148 160 0
139 151 0
151 164 0
151 164 0
152 166 0
147 159 0
150 163 0
147 157 0
150 162 0
151 164 0
150 162 0
148 159 0
142 153 0
149 162 0
151 163 0
146 161 0
154 167 0
148 161 0
150 162 0
152 164 0
143 154 0
150 163 0
155 167 0
154 165 0
142 152 0
150 162 0
145 154 0
147 157 0
154 165 0
153 164 0
146 158 0
150 163 0
158 171 0
151 162 0
141 151 0
151 159 0
153 163 0
156 169 0
151 160 0
156 169 0
151 161 0
155 169 0
156 164 0
152 162 0
151 161 0
154 167 0
155 167 0
155 168 0
156 166 0
157 177 0
161 181 0
162 181 0
163 182 0
163 182 0
158 178 0
157 177 0
159 179 0
163 182 0
155 174 0
158 177 0
157 176 0
158 178 0
159 178 0
162 181 0
162 181 0
160 179 0
163 183 0
159 179 0
157 176 0
160 180 0
164 183 0
154 174 0
152 172 0
155 175 0
154 174 0
154 174 0
155 175 0
155 174 0
158 176 0
155 174 0
151 171 0
157 177 0
153 173 0
154 174 0
154 174 0
152 172 0
155 175 0
148 167 0
152 172 0
155 176 0
154 176 0
154 172 0
151 171 0
157 177 0
149 169 0
159 179 0
150 170 0
153 172 0
157 177 0
159 179 0
152 171 0
155 176 0
148 168 0
158 177 0
158 178 0
153 172 0
156 177 0
158 177 0
158 179 0
153 174 0
158 179 0
156 177 0
154 175 0
152 172 0
155 176 0
150 171 0
156 176 0
152 174 0
146 166 0
155 175 0
154 174 0
149 169 0
158 178 0
154 174 0
149 169 0
152 172 0
158 179 0
154 174 0
152 173 0
153 175 0
150 170 0
149 170 0
151 172 0
157 179 0
152 173 0
153 174 0
155 177 0
155 175 0
153 175 0
152 173 0
148 169 0
152 173 0
149 171 0
150 170 0
157 177 0
160 182 0
154 175 0
153 174 0
156 177 0
145 166 0
151 172 0
145 166 0
142 163 0
148 170 0
155 178 0
142 163 0
159 180 0
148 170 0
156 178 0
150 171 0
147 168 0
148 170 0
152 172 0
150 171 0
152 174 0
153 174 0
149 170 0
149 171 0
151 173 0
148 171 0
142 163 0
147 168 0
152 172 0
147 168 0
151 171 0
145 168 0
146 168 0
150 171 0
152 174 0
145 166 0
141 161 0
143 164 0
154 175 0
146 167 0
146 168 0
148 169 0
147 170 0
148 171 0
145 166 0
150 172 0
149 171 0
151 172 0
150 172 0
150 172 0
150 172 0
151 173 0
150 173 0
149 171 0
154 175 0
146 168 0
144 166 0
155 177 0
149 171 0
149 171 0
140 161 0
149 172 0
144 166 0
148 169 0
146 169 0
148 168 0
148 169 0
143 165 0
147 169 0
154 176 0
151 173 0
144 166 0
145 167 0
145 167 0
145 166 0
146 166 0
146 167 0
152 173 0
149 171 0
144 166 0
146 167 0
135 156 0
152 173 0
147 169 0
141 163 0
138 159 0
141 162 0
148 169 0
145 166 0
148 169 0
151 171 0
145 166 0
147 169 0
146 167 0
153 175 0
140 162 0
153 175 0
140 161 0
139 158 0
153 174 0
148 170 0
141 162 0
146 167 0
145 166 0
141 163 0
146 167 0
138 160 0
147 168 0
143 165 0
136 158 0
144 163 0
141 161 0
145 165 0
145 166 0
137 158 0
143 165 0
148 168 0
147 169 0
137 158 0
144 166 0
144 166 0
148 169 0
145 167 0
142 163 0
145 165 0
151 172 0
148 169 0
141 160 0
147 169 0
148 170 0
156 177 0
145 165 0
147 167 0
152 174 0
142 163 0
142 162 0
148 168 0
152 173 0
147 168 0
141 162 0
138 158 0
148 170 0
143 164 0
143 164 0
137 158 0
145 166 0
149 170 0
140 159 0
146 167 0
140 159 0
148 169 0
150 172 0
132 153 0
145 166 0
149 168 0
145 167 0
145 166 0
155 176 0
147 166 0
146 166 0
144 163 0
145 164 0
155 175 0
147 166 0
159 180 0
146 166 0
148 168 0
143 163 0
146 167 0
140 159 0
145 164 0
149 168 0
144 163 0
147 167 0
149 169 0
150 169 0
149 169 0
146 166 0
143 160 0
151 171 0
140 159 0
138 156 0
151 169 0
145 165 0
144 163 0
147 166 0
143 164 0
149 168 0
154 172 0
144 164 0
152 173 0
139 156 0
150 168 0
152 170 0
146 163 0
141 158 0
144 161 0
145 164 0
155 174 0
147 166 0
148 166 0
144 161 0
138 156 0
144 162 0
150 169 0
154 171 0
151 168 0
147 163 0
154 173 0
146 163 0
152 170 0
152 169 0
147 165 0
143 159 0
148 166 0
152 170 0
157 175 0
152 170 0
151 167 0
150 168 0
145 162 0
145 161 0
154 173 0
142 158 0
147 164 0
151 167 0
144 157 0
152 168 0
145 162 0
146 163 0
148 166 0
156 171 0
151 166 0
144 159 0
147 162 0
153 168 0
151 167 0
147 162 0
149 164 0
141 155 0
148 161 0
150 162 0
150 166 0
150 165 0
147 161 0
151 164 0
154 167 0
153 170 0
142 156 0
150 165 0
145 158 0
149 163 0
149 165 0
145 158 0
148 163 0
145 158 0
154 169 0
144 155 0
148 161 0
150 164 0
152 164 0
147 159 0
149 162 0
146 160 0
153 166 0
146 158 0
145 159 0
155 169 0
145 156 0
144 156 0
152 163 0
151 162 0
155 166 0
153 168 0
157 171 0
155 167 0
149 159 0
150 161 0
151 162 0
153 167 0
151 162 0
152 164 0
152 163 0
157 166 0
149 162 0
153 164 0
151 161 0
160 173 0
149 159 0
147 157 0
151 163 0
151 164 0
147 155 0
160 173 0
152 163 0
156 167 0
153 163 0
153 165 0
151 159 0
153 165 0
151 162 0
160 175 0
149 159 0
155 166 0
149 162 0
157 176 0
162 181 0
163 183 0
157 177 0
159 178 0
154 174 0
164 183 0
161 181 0
152 171 0
154 173 0
162 181 0
157 176 0
162 182 0
155 174 0
159 179 0
154 173 0
163 182 0
160 180 0
149 168 0
157 176 0
159 178 0
157 177 0
157 176 0
151 171 0
157 175 0
157 177 0
152 171 0
157 178 0
159 178 0
157 176 0
154 173 0
154 173 0
159 179 0
162 183 0
160 180 0
154 174 0
152 172 0
153 174 0
152 172 0
154 175 0
158 178 0
155 175 0
158 178 0
154 174 0
148 169 0
160 180 0
147 167 0
157 177 0
158 178 0
152 172 0
146 166 0
153 173 0
150 171 0
152 172 0
151 172 0
147 167 0
155 176 0
157 177 0
151 171 0
157 178 0
151 172 0
152 172 0
149 170 0
151 172 0
148 170 0
158 179 0
151 172 0
151 171 0
153 176 0
151 170 0
153 173 0
144 164 0
150 171 0
152 173 0
150 172 0
155 176 0
150 171 0
153 175 0
154 175 0
146 166 0
159 180 0
150 171 0
153 173 0
152 173 0
149 170 0
153 173 0
153 174 0
150 171 0
153 173 0
147 168 0
145 166 0
147 168 0
150 170 0
148 169 0
157 179 0
148 168 0
153 175 0
146 167 0
149 169 0
149 170 0
159 181 0
152 172 0
154 176 0
149 170 0
150 172 0
147 169 0
150 172 0
148 170 0
153 174 0
151 172 0
151 173 0
155 178 0
151 172 0
151 173 0
160 181 0
152 173 0
150 172 0
152 174 0
150 172 0
151 173 0
147 166 0
151 172 0
147 168 0
154 175 0
148 170 0
158 179 0
149 170 0
155 177 0
147 169 0
149 170 0
153 175 0
145 167 0
156 179 0
143 163 0
150 172 0
147 167 0
144 165 0
153 175 0
145 167 0
149 171 0
153 174 0
144 166 0
150 171 0
140 162 0
146 168 0
153 174 0
146 168 0
148 169 0
149 170 0
148 170 0
147 168 0
149 171 0
147 169 0
148 170 0
154 175 0
142 164 0
153 174 0
147 169 0
144 166 0
148 169 0
150 172 0
156 178 0
149 171 0
148 170 0
141 163 0
148 169 0
147 169 0
150 171 0
146 168 0
149 171 0
151 172 0
150 171 0
144 166 0
146 168 0
149 170 0
150 172 0
144 164 0
138 158 0
148 169 0
138 158 0
140 162 0
154 175 0
150 172 0
146 166 0
149 171 0
142 162 0
144 166 0
141 162 0
151 172 0
152 173 0
149 169 0
145 165 0
145 166 0
148 169 0
140 161 0
151 173 0
148 169 0
149 171 0
144 166 0
148 168 0
147 169 0
142 163 0
146 166 0
141 162 0
143 165 0
147 168 0
145 165 0
144 165 0
153 174 0
141 162 0
140 161 0
139 160 0
143 164 0
147 168 0
140 160 0
146 166 0
142 163 0
145 165 0
140 161 0
144 165 0
145 166 0
142 163 0
150 171 0
147 167 0
145 166 0
141 161 0
143 164 0
151 172 0
151 172 0
143 164 0
151 173 0
144 164 0
150 172 0
145 165 0
143 163 0
142 160 0
138 160 0
150 170 0
145 163 0
143 163 0
145 165 0
146 168 0
140 160 0
149 169 0
144 164 0
142 161 0
144 165 0
142 162 0
142 159 0
149 170 0
153 171 0
142 162 0
146 168 0
146 167 0
150 169 0
146 167 0
148 168 0
149 168 0
147 166 0
149 169 0
154 174 0
150 170 0
150 171 0
148 169 0
151 171 0
147 166 0
144 166 0
152 173 0
146 163 0
159 178 0
139 157 0
149 169 0
143 161 0
147 165 0
151 171 0
149 169 0
134 154 0
149 170 0
141 160 0
158 177 0
148 167 0
155 174 0
147 167 0
143 162 0
145 164 0
150 169 0
148 167 0
151 169 0
152 170 0
147 166 0
140 159 0
148 167 0
145 164 0
156 175 0
153 173 0
150 169 0
149 166 0
151 169 0
149 167 0
146 164 0
151 170 0
146 162 0
148 166 0
156 175 0
152 170 0
146 162 0
146 165 0
150 169 0
153 172 0
153 172 0
155 172 0
152 168 0
143 160 0
151 169 0
152 169 0
148 164 0
149 165 0
151 167 0
151 168 0
138 152 0
143 160 0
144 161 0
154 171 0
149 167 0
149 165 0
153 171 0
148 164 0
154 172 0
150 168 0
150 164 0
148 165 0
154 167 0
146 160 0
151 167 0
148 164 0
152 168 0
144 159 0
151 165 0
154 171 0
152 166 0
151 163 0
155 171 0
150 165 0
149 162 0
149 163 0
155 172 0
151 165 0
151 165 0
152 166 0
155 171 0
155 171 0
149 164 0
149 163 0
146 158 0
153 166 0
147 161 0
149 163 0
146 159 0
150 167 0
151 161 0
154 169 0
147 160 0
151 162 0
148 159 0
149 160 0
152 165 0
148 160 0
156 170 0
152 164 0
154 167 0
152 163 0
152 163 0
152 167 0
150 161 0
151 164 0
152 165 0
145 157 0
154 168 0
156 167 0
153 162 0
150 163 0
151 162 0
157 170 0
151 162 0
157 171 0
150 161 0
156 167 0
145 156 0
156 169 0
156 168 0
158 170 0
156 171 0
152 163 0
150 161 0
149 159 0
150 157 0
156 170 0
146 157 0
150 162 0
153 165 0
160 179 0
163 182 0
164 185 0
155 174 0
158 178 0
160 179 0
157 176 0
163 182 0
158 177 0
159 179 0
158 178 0
155 174 0
156 174 0
161 181 0
156 176 0
160 179 0
164 184 0
157 177 0
158 179 0
159 179 0
158 177 0
156 175 0
164 184 0
159 180 0
154 172 0
156 175 0
155 175 0
160 181 0
149 169 0
155 175 0
156 176 0
156 175 0
156 176 0
153 172 0
158 178 0
152 172 0
157 177 0
161 182 0
154 175 0
161 181 0
160 180 0
160 181 0
154 172 0
157 177 0
151 171 0
159 179 0
158 179 0
157 177 0
157 177 0
152 171 0
157 177 0
159 179 0
151 172 0
154 175 0
151 170 0
150 170 0
157 178 0
155 176 0
151 172 0
156 176 0
153 174 0
156 177 0
156 177 0
148 169 0
153 174 0
156 177 0
159 179 0
154 174 0
159 180 0
156 176 0
158 179 0
157 178 0
156 176 0
151 172 0
154 175 0
146 167 0
150 172 0
154 175 0
146 167 0
151 171 0
152 173 0
149 170 0
151 172 0
156 178 0
146 167 0
154 174 0
150 170 0
152 172 0
149 170 0
150 173 0
146 167 0
159 179 0
154 175 0
152 173 0
152 172 0
150 172 0
153 174 0
152 173 0
148 169 0
147 168 0
156 177 0
149 170 0
149 170 0
142 163 0
151 172 0
150 172 0
146 167 0
155 177 0
150 171 0
143 164 0
155 177 0
154 178 0
149 170 0
151 173 0
153 175 0
151 173 0
159 181 0
149 170 0
155 176 0
146 167 0
154 176 0
152 174 0
153 174 0
144 166 0
152 174 0
142 164 0
156 177 0
149 170 0
148 171 0
149 171 0
150 172 0
154 177 0
145 166 0
148 169 0
147 170 0
150 172 0
155 176 0
147 168 0
151 173 0
149 170 0
150 171 0
153 174 0
151 172 0
143 164 0
150 171 0
148 169 0
155 177 0
148 170 0
145 166 0
151 173 0
147 170 0
150 172 0
145 167 0
145 167 0
140 162 0
154 176 0
148 170 0
141 161 0
152 174 0
153 175 0
148 169 0
145 166 0
150 172 0
146 168 0
156 179 0
138 160 0
148 170 0
146 167 0
143 164 0
157 178 0
145 166 0
151 173 0
142 163 0
143 165 0
147 169 0
146 167 0
147 169 0
151 173 0
150 173 0
142 164 0
150 172 0
145 167 0
153 174 0
147 170 0
138 159 0
149 169 0
148 167 0
141 163 0
154 176 0
154 176 0
138 159 0
139 161 0
150 172 0
143 166 0
150 171 0
149 169 0
142 162 0
153 175 0
143 164 0
152 173 0
150 171 0
135 155 0
152 174 0
145 165 0
132 153 0
157 180 0
144 166 0
149 169 0
147 167 0
150 170 0
142 163 0
143 164 0
150 171 0
139 161 0
152 173 0
150 171 0
147 169 0
144 166 0
147 169 0
149 169 0
146 168 0
142 162 0
151 171 0
143 163 0
143 163 0
148 169 0
150 171 0
139 159 0
141 160 0
141 161 0
143 165 0
147 168 0
147 167 0
145 165 0
157 178 0
148 170 0
155 177 0
145 165 0
152 174 0
147 167 0
149 168 0
150 171 0
147 169 0
154 175 0
144 163 0
155 176 0
151 171 0
136 155 0
142 162 0
145 164 0
155 176 0
149 168 0
145 164 0
149 169 0
152 173 0
136 155 0
141 163 0
143 163 0
139 157 0
139 157 0
143 161 0
147 168 0
152 172 0
150 171 0
145 164 0
148 169 0
146 167 0
146 165 0
156 177 0
144 161 0
142 164 0
151 170 0
151 170 0
142 161 0
148 165 0
158 178 0
144 163 0
144 163 0
147 165 0
141 160 0
141 159 0
140 158 0
153 172 0
151 168 0
150 169 0
149 166 0
146 164 0
139 157 0
149 167 0
151 167 0
145 163 0
153 172 0
150 168 0
147 165 0
153 170 0
150 168 0
150 167 0
160 179 0
150 168 0
145 164 0
147 167 0
157 176 0
151 167 0
153 173 0
149 168 0
147 165 0
148 164 0
157 176 0
151 170 0
151 169 0
145 164 0
151 170 0
148 166 0
156 173 0
151 170 0
144 161 0
140 155 0
152 169 0
149 164 0
153 169 0
150 168 0
141 158 0
155 174 0
147 165 0
145 162 0
150 164 0
151 169 0
155 171 0
150 165 0
151 167 0
152 166 0
146 160 0
151 168 0
152 169 0
150 167 0
145 159 0
147 164 0
147 163 0
146 161 0
147 162 0
152 168 0
159 175 0
150 164 0
153 167 0
140 154 0
152 167 0
153 166 0
148 161 0
144 159 0
147 162 0
155 169 0
159 175 0
152 166 0
153 168 0
146 158 0
153 168 0
154 171 0
154 169 0
147 159 0
151 167 0
152 166 0
149 162 0
148 159 0
153 168 0
152 167 0
152 164 0
149 162 0
151 165 0
151 165 0
146 157 0
154 169 0
149 157 0
151 165 0
148 159 0
152 164 0
152 167 0
151 162 0
154 168 0
147 158 0
150 162 0
160 170 0
151 163 0
156 171 0
154 165 0
153 166 0
158 170 0
151 165 0
154 166 0
156 169 0
156 169 0
152 167 0
147 157 0
156 169 0
155 168 0
147 156 0
149 156 0
156 169 0
153 164 0
147 160 0
152 165 0
162 182 0
162 181 0
160 180 0
158 179 0
159 179 0
161 181 0
157 177 0
155 174 0
158 177 0
158 178 0
160 179 0
160 182 0
163 184 0
155 176 0
158 179 0
155 175 0
156 176 0
153 173 0
155 174 0
156 176 0
159 179 0
158 178 0
155 175 0
157 178 0
153 173 0
164 184 0
153 172 0
155 175 0
161 181 0
158 178 0
156 176 0
156 177 0
154 174 0
155 175 0
157 177 0
153 173 0
161 182 0
161 180 0
159 180 0
154 174 0
151 171 0
151 171 0
154 174 0
162 183 0
151 171 0
157 177 0
153 173 0
155 175 0
156 176 0
153 174 0
157 176 0
157 178 0
156 177 0
151 170 0
154 175 0
155 175 0
151 171 0
157 178 0
142 161 0
152 172 0
150 170 0
159 180 0
155 175 0
152 174 0
149 170 0
153 173 0
150 170 0
156 176 0
151 171 0
153 175 0
158 179 0
154 174 0
151 171 0
153 174 0
155 177 0
150 169 0
157 178 0
153 175 0
154 176 0
151 171 0
141 162 0
149 169 0
150 169 0
149 169 0
155 177 0
147 168 0
158 179 0
153 175 0
146 167 0
154 176 0
155 176 0
158 180 0
159 181 0
155 177 0
147 168 0
150 171 0
153 175 0
152 173 0
155 177 0
156 178 0
156 178 0
150 171 0
156 178 0
153 175 0
149 171 0
154 175 0
150 172 0
157 178 0
151 172 0
149 171 0
147 168 0
149 171 0
151 174 0
150 171 0
154 175 0
144 166 0
150 171 0
152 174 0
153 175 0
149 172 0
151 173 0
149 170 0
154 176 0
154 176 0
149 170 0
153 175 0
151 172 0
147 168 0
152 173 0
160 182 0
155 177 0
151 171 0
146 167 0
158 181 0
152 174 0
154 175 0
146 168 0
153 174 0
151 172 0
149 171 0
153 175 0
152 175 0
150 172 0
152 172 0
149 170 0
155 176 0
155 178 0
147 168 0
152 174 0
138 158 0
151 173 0
148 171 0
151 172 0
152 173 0
150 173 0
154 176 0
147 169 0
151 172 0
156 178 0
152 174 0
148 170 0
150 171 0
150 172 0
145 166 0
149 171 0
151 173 0
149 170 0
146 167 0
156 178 0
154 176 0
146 169 0
149 170 0
147 169 0
152 174 0
142 163 0
145 167 0
138 160 0
144 166 0
152 173 0
147 170 0
147 168 0
140 162 0
142 163 0
150 171 0
137 158 0
146 167 0
144 166 0
149 172 0
146 168 0
144 167 0
149 172 0
148 170 0
150 172 0
149 172 0
142 163 0
153 175 0
144 167 0
149 171 0
147 167 0
148 169 0
145 166 0
142 164 0
146 167 0
149 169 0
143 165 0
149 171 0
152 173 0
145 164 0
146 169 0
145 166 0
150 171 0
140 161 0
150 172 0
139 161 0
152 174 0
146 167 0
141 160 0
146 167 0
151 172 0
146 168 0
141 162 0
153 173 0
148 169 0
150 170 0
146 168 0
141 160 0
145 167 0
152 173 0
147 168 0
152 172 0
141 160 0
155 177 0
151 170 0
145 166 0
147 166 0
148 170 0
142 163 0
151 172 0
150 171 0
149 169 0
152 171 0
145 167 0
144 166 0
151 171 0
146 168 0
149 170 0
146 167 0
149 169 0
151 171 0
154 175 0
147 167 0
146 166 0
144 164 0
141 161 0
152 174 0
150 171 0
143 162 0
148 169 0
149 168 0
147 166 0
143 163 0
148 167 0
140 160 0
141 161 0
155 175 0
156 176 0
156 178 0
153 172 0
144 164 0
152 169 0
147 168 0
151 171 0
154 173 0
155 175 0
145 165 0
148 167 0
153 172 0
147 165 0
154 174 0
150 168 0
155 176 0
154 174 0
139 157 0
150 171 0
153 171 0
156 174 0
147 166 0
150 168 0
143 162 0
143 161 0
149 166 0
145 163 0
154 173 0
146 165 0
148 168 0
150 170 0
144 161 0
150 168 0
143 162 0
151 169 0
152 171 0
148 167 0
151 169 0
144 160 0
152 169 0
152 171 0
154 172 0
154 174 0
146 165 0
153 169 0
156 174 0
147 162 0
145 163 0
150 168 0
158 179 0
153 171 0
149 164 0
152 170 0
157 176 0
150 168 0
148 165 0
149 164 0
152 170 0
147 164 0
146 162 0
155 173 0
148 166 0
149 166 0
155 170 0
152 168 0
141 154 0
160 175 0
146 163 0
150 164 0
149 165 0
150 166 0
151 167 0
152 169 0
154 171 0
153 168 0
151 164 0
152 167 0
159 175 0
147 162 0
146 161 0
156 171 0
149 165 0
137 151 0
156 172 0
158 173 0
148 162 0
155 171 0
150 166 0
151 165 0
153 168 0
151 165 0
145 160 0
154 169 0
152 165 0
146 160 0
148 161 0
149 161 0
145 159 0
142 153 0
147 160 0
155 169 0
149 162 0
148 163 0
154 165 0
149 162 0
153 164 0
150 161 0
149 162 0
152 167 0
152 164 0
150 160 0
160 175 0
156 168 0
149 162 0
153 165 0
147 159 0
152 165 0
151 165 0
158 169 0
148 157 0
153 166 0
152 165 0
149 160 0
152 162 0
160 172 0
156 170 0
149 161 0
153 167 0
149 160 0
153 165 0
156 169 0
162 174 0
155 168 0
153 165 0
150 161 0
159 177 0
164 184 0
155 175 0
154 174 0
153 173 0
157 177 0
160 180 0
156 176 0
153 173 0
156 175 0
156 175 0
157 176 0
162 182 0
158 177 0
164 185 0
158 177 0
159 180 0
154 174 0
162 182 0
159 179 0
157 176 0
158 178 0
163 184 0
163 183 0
156 176 0
155 175 0
157 177 0
162 182 0
157 177 0
158 178 0
155 175 0
157 176 0
157 178 0
159 179 0
155 176 0
157 177 0
157 177 0
153 174 0
156 176 0
157 178 0
150 168 0
152 172 0
159 180 0
149 169 0
155 176 0
156 177 0
155 174 0
159 180 0
156 177 0
161 182 0
159 180 0
152 172 0
151 171 0
155 174 0
157 178 0
156 178 0
154 176 0
152 174 0
156 177 0
155 177 0
157 178 0
161 181 0
156 176 0
154 175 0
145 164 0
154 176 0
154 174 0
153 173 0
151 172 0
157 179 0
153 174 0
155 176 0
159 181 0
153 174 0
152 172 0
151 171 0
154 175 0
152 174 0
153 174 0
154 175 0
155 177 0
147 168 0
158 179 0
149 171 0
153 174 0
153 175 0
151 173 0
153 174 0
156 177 0
158 179 0
155 177 0
154 175 0
150 172 0
156 176 0
157 179 0
150 171 0
152 173 0
148 170 0
151 173 0
150 172 0
160 181 0
148 169 0
151 172 0
154 175 0
150 172 0
152 174 0
153 175 0
158 180 0
153 174 0
151 173 0
153 174 0
152 174 0
151 172 0
154 175 0
153 175 0
142 164 0
150 172 0
146 167 0
156 178 0
148 169 0
152 173 0
156 176 0
153 173 0
148 169 0
151 173 0
144 165 0
146 166 0
149 170 0
154 175 0
151 173 0
152 174 0
154 176 0
152 175 0
141 163 0
152 173 0
150 171 0
153 174 0
149 172 0
145 168 0
146 168 0
149 172 0
147 169 0
151 173 0
138 159 0
144 166 0
147 169 0
151 173 0
152 173 0
156 178 0
150 172 0
146 167 0
154 176 0
147 168 0
151 171 0
146 168 0
148 170 0
152 173 0
149 172 0
145 166 0
147 168 0
151 172 0
155 176 0
148 170 0
151 173 0
149 170 0
145 167 0
147 169 0
142 163 0
153 175 0
153 175 0
148 171 0
155 177 0
144 165 0
147 168 0
144 166 0
149 170 0
146 169 0
155 177 0
149 171 0
148 170 0
148 171 0
149 170 0
151 172 0
155 177 0
146 168 0
143 164 0
146 167 0
146 167 0
146 168 0
143 164 0
139 161 0
151 174 0
144 164 0
151 170 0
149 171 0
143 165 0
151 173 0
149 170 0
139 161 0
147 169 0
140 162 0
146 165 0
153 174 0
145 167 0
145 167 0
149 171 0
140 160 0
145 167 0
147 168 0
145 165 0
148 170 0
143 164 0
144 164 0
147 169 0
141 162 0
146 167 0
153 174 0
148 167 0
155 176 0
146 167 0
152 173 0
143 164 0
151 170 0
146 167 0
152 173 0
147 168 0
147 169 0
154 174 0
143 164 0
144 165 0
148 168 0
150 169 0
153 174 0
144 164 0
149 170 0
149 170 0
152 172 0
151 173 0
144 165 0
150 171 0
146 166 0
151 172 0
147 166 0
151 170 0
153 173 0
142 164 0
151 170 0
148 169 0
151 172 0
139 159 0
143 164 0
145 166 0
151 172 0
149 170 0
140 160 0
150 169 0
159 179 0
150 172 0
148 169 0
144 163 0
150 170 0
148 168 0
155 177 0
151 172 0
151 171 0
154 173 0
147 169 0
149 170 0
149 169 0
147 166 0
151 172 0
149 169 0
139 157 0
151 170 0
148 167 0
154 173 0
149 168 0
156 175 0
145 162 0
146 165 0
144 164 0
151 171 0
151 171 0
146 165 0
141 160 0
151 169 0
147 164 0
143 161 0
149 167 0
153 172 0
152 171 0
151 170 0
146 166 0
152 171 0
147 166 0
146 163 0
158 178 0
149 167 0
153 172 0
153 172 0
148 165 0
157 176 0
148 163 0
142 161 0
147 165 0
154 173 0
149 169 0
153 172 0
152 170 0
150 169 0
153 171 0
148 166 0
153 172 0
149 168 0
156 175 0
149 166 0
145 162 0
150 168 0
147 165 0
152 170 0
154 170 0
153 169 0
147 162 0
155 172 0
152 170 0
161 181 0
153 169 0
145 163 0
151 168 0
149 163 0
153 170 0
151 166 0
152 169 0
157 174 0
147 162 0
150 165 0
151 167 0
148 163 0
150 166 0
154 168 0
150 165 0
144 158 0
155 171 0
154 170 0
149 165 0
149 163 0
154 170 0
154 170 0
148 160 0
157 172 0
152 167 0
147 162 0
146 161 0
151 164 0
147 162 0
155 171 0
151 166 0
146 159 0
154 168 0
147 161 0
144 158 0
154 170 0
154 171 0
149 162 0
148 162 0
156 171 0
155 170 0
157 172 0
154 168 0
149 163 0
147 161 0
146 160 0
155 169 0
148 159 0
153 168 0
154 168 0
147 162 0
156 169 0
145 158 0
150 162 0
149 163 0
147 161 0
150 164 0
157 170 0
145 155 0
154 168 0
152 165 0
149 160 0
149 164 0
154 166 0
153 168 0
152 164 0
150 162 0
149 161 0
155 169 0
152 167 0
151 165 0
157 171 0
152 161 0
159 170 0
160 180 0
163 183 0
161 181 0
157 177 0
154 174 0
157 176 0
158 179 0
159 179 0
163 182 0
165 185 0
160 181 0
157 176 0
154 173 0
152 171 0
153 173 0
155 174 0
160 180 0
155 175 0
157 177 0
150 171 0
156 176 0
160 180 0
158 179 0
155 174 0
159 180 0
162 182 0
159 179 0
152 171 0
153 173 0
155 175 0
158 177 0
151 172 0
156 176 0
157 177 0
152 172 0
158 178 0
150 171 0
162 182 0
152 172 0
147 168 0
149 170 0
154 175 0
155 175 0
156 177 0
158 180 0
153 174 0
159 179 0
155 175 0
153 175 0
155 176 0
156 177 0
159 179 0
155 175 0
160 181 0
154 174 0
154 176 0
160 181 0
154 175 0
155 175 0
154 175 0
155 176 0
156 177 0
158 180 0
150 172 0
151 172 0
153 174 0
153 173 0
154 176 0
156 177 0
152 173 0
154 176 0
149 170 0
156 176 0
159 181 0
155 176 0
161 183 0
143 163 0
155 176 0
152 173 0
151 172 0
154 175 0
155 176 0
147 169 0
151 173 0
152 174 0
150 172 0
151 171 0
150 170 0
156 179 0
156 177 0
154 176 0
148 170 0
147 168 0
143 163 0
156 178 0
158 181 0
146 167 0
154 175 0
153 173 0
153 174 0
153 175 0
152 173 0
155 177 0
152 174 0
153 174 0
149 170 0
148 170 0
156 178 0
153 174 0
146 166 0
148 170 0
152 173 0
151 174 0
147 169 0
150 172 0
153 174 0
151 173 0
153 174 0
152 173 0
156 178 0
152 174 0
152 173 0
143 164 0
156 178 0
149 170 0
148 169 0
146 168 0
151 172 0
152 174 0
152 174 0
147 168 0
145 167 0
147 169 0
146 169 0
146 167 0
156 177 0
149 172 0
157 178 0
152 174 0
149 171 0
149 171 0
147 169 0
150 172 0
154 175 0
145 166 0
148 169 0
150 171 0
150 171 0
148 170 0
145 165 0
146 168 0
144 166 0
151 172 0
148 169 0
151 172 0
146 167 0
142 163 0
141 162 0
157 179 0
156 177 0
154 176 0
150 173 0
143 165 0
153 174 0
149 171 0
151 174 0
148 170 0
141 163 0
142 164 0
148 170 0
147 169 0
144 165 0
140 161 0
149 169 0
147 168 0
149 171 0
143 165 0
151 173 0
147 167 0
145 165 0
153 175 0
147 168 0
153 174 0
147 169 0
153 176 0
145 166 0
149 171 0
147 169 0
151 172 0
150 171 0
145 168 0
147 169 0
148 170 0
145 166 0
149 170 0
146 167 0
150 171 0
143 165 0
141 163 0
148 169 0
153 173 0
144 165 0
144 166 0
152 174 0
138 160 0
141 161 0
140 161 0
153 175 0
148 170 0
149 169 0
149 171 0
139 158 0
144 165 0
145 167 0
146 167 0
155 178 0
148 170 0
142 163 0
150 172 0
141 162 0
151 171 0
148 169 0
152 174 0
150 171 0
150 171 0
145 164 0
151 173 0
149 171 0
143 163 0
145 166 0
151 171 0
150 171 0
153 174 0
144 165 0
148 168 0
151 173 0
153 173 0
153 175 0
147 167 0
146 166 0
146 166 0
152 172 0
148 169 0
155 177 0
136 157 0
145 165 0
147 168 0
154 174 0
145 166 0
143 163 0
148 169 0
148 167 0
145 166 0
147 169 0
152 174 0
142 162 0
147 168 0
146 166 0
146 166 0
146 164 0
144 165 0
149 168 0
144 164 0
151 172 0
147 166 0
152 173 0
151 171 0
150 169 0
149 170 0
148 168 0
148 169 0
146 164 0
140 162 0
151 169 0
150 170 0
148 168 0
151 172 0
150 170 0
150 170 0
149 169 0
154 174 0
153 172 0
151 172 0
153 173 0
147 166 0
153 172 0
142 160 0
151 169 0
153 173 0
150 167 0
153 171 0
148 167 0
154 173 0
147 166 0
148 167 0
141 161 0
159 176 0
149 168 0
151 170 0
146 165 0
153 171 0
152 170 0
152 171 0
142 159 0
151 169 0
153 173 0
156 176 0
145 162 0
145 162 0
145 165 0
152 171 0
145 163 0
151 168 0
151 167 0
151 169 0
142 158 0
153 170 0
148 165 0
148 166 0
143 159 0
154 170 0
149 166 0
153 171 0
140 157 0
155 172 0
148 166 0
149 166 0
147 164 0
153 170 0
152 170 0
152 169 0
150 166 0
147 163 0
150 165 0
151 168 0
149 165 0
146 160 0
150 165 0
148 164 0
148 165 0
148 161 0
152 167 0
155 172 0
149 164 0
147 164 0
146 163 0
155 171 0
147 159 0
149 164 0
150 167 0
153 170 0
152 167 0
146 162 0
157 171 0
152 168 0
149 163 0
150 163 0
152 164 0
149 164 0
150 164 0
152 167 0
150 165 0
149 160 0
152 167 0
147 160 0
149 163 0
161 177 0
151 167 0
144 158 0
154 169 0
152 166 0
150 167 0
156 173 0
155 170 0
142 155 0
152 166 0
154 168 0
158 173 0
155 168 0
150 164 0
162 177 0
153 168 0
154 164 0
148 159 0
151 164 0
148 160 0
153 164 0
152 161 0
148 161 0
151 161 0
148 160 0
148 162 0
154 169 0
156 171 0
160 172 0
156 169 0
159 172 0
159 174 0
152 163 0
161 174 0
167 187 0
157 177 0
162 182 0
161 180 0
161 181 0
153 172 0
160 181 0
158 179 0
164 185 0
155 175 0
159 179 0
159 179 0
165 185 0
157 177 0
156 176 0
159 178 0
157 177 0
151 169 0
158 178 0
157 178 0
158 178 0
156 177 0
152 172 0
159 178 0
150 171 0
159 179 0
151 171 0
158 178 0
158 178 0
156 177 0
157 178 0
154 175 0
158 178 0
157 177 0
160 180 0
154 173 0
154 173 0
159 178 0
152 173 0
151 171 0
153 174 0
158 179 0
156 177 0
157 177 0
158 179 0
158 179 0
164 185 0
157 178 0
151 172 0
154 175 0
157 177 0
161 181 0
157 178 0
155 175 0
159 180 0
147 167 0
156 177 0
152 173 0
156 177 0
151 172 0
156 178 0
148 169 0
160 181 0
156 177 0
151 172 0
146 167 0
161 182 0
149 169 0
148 168 0
150 170 0
146 167 0
154 177 0
148 168 0
156 178 0
155 176 0
153 174 0
146 166 0
153 174 0
145 165 0
155 176 0
153 174 0
152 173 0
148 168 0
153 174 0
160 180 0
154 175 0
156 176 0
156 177 0
155 175 0
153 175 0
151 173 0
150 171 0
148 168 0
154 176 0
157 179 0
152 174 0
151 172 0
147 168 0
155 177 0
158 180 0
152 173 0
155 177 0
154 176 0
143 165 0
162 185 0
156 179 0
152 173 0
154 175 0
147 170 0
150 171 0
150 172 0
147 168 0
150 173 0
150 170 0
149 172 0
155 177 0
158 181 0
150 173 0
154 176 0
151 173 0
158 181 0
156 177 0
149 171 0
148 169 0
153 175 0
157 178 0
150 171 0
151 173 0
149 170 0
156 178 0
149 171 0
154 176 0
144 164 0
154 176 0
153 175 0
146 169 0
150 171 0
150 173 0
149 170 0
146 167 0
148 170 0
155 176 0
154 175 0
155 177 0
147 170 0
143 164 0
148 170 0
150 172 0
153 173 0
153 176 0
152 173 0
163 185 0
151 173 0
149 171 0
155 176 0
145 168 0
144 166 0
147 168 0
150 172 0
144 164 0
146 169 0
151 173 0
142 163 0
149 170 0
153 174 0
141 163 0
148 168 0
143 165 0
147 169 0
149 171 0
150 171 0
143 165 0
154 176 0
145 165 0
149 172 0
145 166 0
145 167 0
153 175 0
142 164 0
152 173 0
149 171 0
154 176 0
148 170 0
149 171 0
145 166 0
140 161 0
142 164 0
149 171 0
139 161 0
147 168 0
153 176 0
144 165 0
150 171 0
152 174 0
150 172 0
149 169 0
146 167 0
143 164 0
152 174 0
137 159 0
149 170 0
152 173 0
155 177 0
148 170 0
144 166 0
150 170 0
151 173 0
148 170 0
147 169 0
147 168 0
152 174 0
147 169 0
151 173 0
147 167 0
150 172 0
147 169 0
143 164 0
147 166 0
145 167 0
142 162 0
151 172 0
142 163 0
152 173 0
148 170 0
151 171 0
154 176 0
146 168 0
147 168 0
144 165 0
157 179 0
150 171 0
153 174 0
153 174 0
149 169 0
138 158 0
143 163 0
152 173 0
147 169 0
149 171 0
144 165 0
152 173 0
148 169 0
151 174 0
155 176 0
142 163 0
147 168 0
147 167 0
153 174 0
149 171 0
153 175 0
160 183 0
148 167 0
140 160 0
150 171 0
152 171 0
148 169 0
153 171 0
150 170 0
150 170 0
157 179 0
147 165 0
149 170 0
152 172 0
142 162 0
148 166 0
150 170 0
149 168 0
142 160 0
153 173 0
148 168 0
147 167 0
148 170 0
145 166 0
152 173 0
147 167 0
144 163 0
146 167 0
148 168 0
151 169 0
143 160 0
146 164 0
150 170 0
150 170 0
147 164 0
152 172 0
150 169 0
153 174 0
151 170 0
143 162 0
148 168 0
147 165 0
151 170 0
153 172 0
156 175 0
142 160 0
152 172 0
158 177 0
145 165 0
154 172 0
149 170 0
151 170 0
154 172 0
149 168 0
151 170 0
149 167 0
158 176 0
152 171 0
150 169 0
149 167 0
149 166 0
151 169 0
148 168 0
140 157 0
152 172 0
151 170 0
142 161 0
148 164 0
148 166 0
155 173 0
153 170 0
158 175 0
158 175 0
157 176 0
140 156 0
147 163 0
148 166 0
148 166 0
146 161 0
151 167 0
152 169 0
148 165 0
153 169 0
157 176 0
151 167 0
147 164 0
146 162 0
155 174 0
149 164 0
146 161 0
147 161 0
151 164 0
146 163 0
150 167 0
143 158 0
150 168 0
153 168 0
154 169 0
154 170 0
151 166 0
142 156 0
154 167 0
156 174 0
157 172 0
147 161 0
147 164 0
153 167 0
153 170 0
147 161 0
152 167 0
153 169 0
151 165 0
147 161 0
150 165 0
151 164 0
147 163 0
154 167 0
147 159 0
151 166 0
147 159 0
152 168 0
147 160 0
155 170 0
156 171 0
158 173 0
153 166 0
158 171 0
158 172 0
158 171 0
152 162 0
156 169 0
153 168 0
152 165 0
159 173 0
151 165 0
159 172 0
148 163 0
153 166 0
150 164 0
152 167 0
157 170 0
144 155 0
148 162 0
149 164 0
157 170 0
162 179 0
157 171 0
150 162 0
164 178 0
151 164 0
155 168 0
160 180 0
165 185 0
159 178 0
159 180 0
156 176 0
160 181 0
159 180 0
154 174 0
155 176 0
156 177 0
156 176 0
161 182 0
158 178 0
160 181 0
154 175 0
159 179 0
162 182 0
155 174 0
156 176 0
160 180 0
159 180 0
157 177 0
151 171 0
162 182 0
158 179 0
159 179 0
154 174 0
157 178 0
157 178 0
156 176 0
157 177 0
152 172 0
156 176 0
158 178 0
158 178 0
152 172 0
159 180 0
156 175 0
161 181 0
152 172 0
152 173 0
154 175 0
156 178 0
160 181 0
156 176 0
155 176 0
152 171 0
152 174 0
154 176 0
151 172 0
157 177 0
155 176 0
154 176 0
156 177 0
155 176 0
162 183 0
154 174 0
157 178 0
153 173 0
153 174 0
150 171 0
160 182 0
154 175 0
157 177 0
150 171 0
155 176 0
158 179 0
153 173 0
159 180 0
153 174 0
156 177 0
156 177 0
159 180 0
154 174 0
150 171 0
152 173 0
150 170 0
150 170 0
156 177 0
153 176 0
162 184 0
148 169 0
153 175 0
148 169 0
154 176 0
147 168 0
150 172 0
158 179 0
152 173 0
156 177 0
156 177 0
157 178 0
152 173 0
151 172 0
156 177 0
152 174 0
150 171 0
152 174 0
148 169 0
153 174 0
151 172 0
156 177 0
148 169 0
158 180 0
161 183 0
158 181 0
146 168 0
158 181 0
145 167 0
156 178 0
150 172 0
155 177 0
149 171 0
160 181 0
148 170 0
148 170 0
152 172 0
147 169 0
155 175 0
154 176 0
159 182 0
142 165 0
147 168 0
153 175 0
149 170 0
143 163 0
154 176 0
145 167 0
151 173 0
151 174 0
149 170 0
146 167 0
148 170 0
150 171 0
149 171 0
150 172 0
146 167 0
152 174 0
147 169 0
147 168 0
150 171 0
146 167 0
157 178 0
150 171 0
152 173 0
152 174 0
146 168 0
153 175 0
152 175 0
151 172 0
149 171 0
148 170 0
140 159 0
145 167 0
144 166 0
144 165 0
151 173 0
154 175 0
145 165 0
154 176 0
146 167 0
145 167 0
151 173 0
149 171 0
148 169 0
152 173 0
156 178 0
149 171 0
154 176 0
147 170 0
149 170 0
148 169 0
141 164 0
143 164 0
144 165 0
143 165 0
148 168 0
148 169 0
152 174 0
148 171 0
145 167 0
146 166 0
151 173 0
150 171 0
148 169 0
146 169 0
146 167 0
148 170 0
148 169 0
150 172 0
146 168 0
144 164 0
149 170 0
148 169 0
144 164 0
148 170 0
140 161 0
151 173 0
151 172 0
152 174 0
153 175 0
145 165 0
139 159 0
146 167 0
154 175 0
145 166 0
151 172 0
148 169 0
142 164 0
148 170 0
149 172 0
148 169 0
144 165 0
148 169 0
150 172 0
146 167 0
150 169 0
153 175 0
152 173 0
137 157 0
144 165 0
143 165 0
142 163 0
151 172 0
152 173 0
147 169 0
149 171 0
149 171 0
143 163 0
147 169 0
145 166 0
147 170 0
150 170 0
152 174 0
154 176 0
150 170 0
151 172 0
150 172 0
144 165 0
148 169 0
145 165 0
148 170 0
147 168 0
147 167 0
142 163 0
158 178 0
146 166 0
151 172 0
154 176 0
148 169 0
152 172 0
150 170 0
145 165 0
141 161 0
151 171 0
152 173 0
150 169 0
150 171 0
149 167 0
149 170 0
140 160 0
145 166 0
146 167 0
150 170 0
152 172 0
145 164 0
149 169 0
149 169 0
145 165 0
147 168 0
151 169 0
150 170 0
146 167 0
155 175 0
152 172 0
150 170 0
153 173 0
148 168 0
156 175 0
155 176 0
152 172 0
144 164 0
149 167 0
150 170 0
149 168 0
139 160 0
143 163 0
150 169 0
154 174 0
149 168 0
150 166 0
146 165 0
149 169 0
155 173 0
149 168 0
146 163 0
148 168 0
148 168 0
150 170 0
151 170 0
143 163 0
151 169 0
154 175 0
152 171 0
154 173 0
155 175 0
155 172 0
154 171 0
158 177 0
144 162 0
155 174 0
146 162 0
152 169 0
154 172 0
152 170 0
154 171 0
149 167 0
149 170 0
146 164 0
145 162 0
154 171 0
155 175 0
149 164 0
155 171 0
147 164 0
151 166 0
151 168 0
154 170 0
153 173 0
151 170 0
154 172 0
150 166 0
149 165 0
148 164 0
147 166 0
154 171 0
156 170 0
155 172 0
155 174 0
156 172 0
151 167 0
150 164 0
159 176 0
152 168 0
157 172 0
155 169 0
154 170 0
150 162 0
160 177 0
157 171 0
145 162 0
150 166 0
157 171 0
141 155 0
149 166 0
159 176 0
153 168 0
158 175 0
150 165 0
152 165 0
155 172 0
151 165 0
154 168 0
155 170 0
156 173 0
152 169 0
151 165 0
150 163 0
150 167 0
153 167 0
155 170 0
148 162 0
158 172 0
148 162 0
147 160 0
143 156 0
159 173 0
153 166 0
147 160 0
150 163 0
154 168 0
159 173 0
152 166 0
158 172 0
152 166 0
155 170 0
156 171 0
155 168 0
158 172 0
152 166 0
154 169 0
156 169 0
152 167 0
158 171 0
159 170 0
160 172 0
157 170 0
154 166 0
156 169 0
153 166 0
161 180 0
159 180 0
159 180 0
154 175 0
158 178 0
158 180 0
158 178 0
167 188 0
160 179 0
161 181 0
154 173 0
158 179 0
159 179 0
161 181 0
163 184 0
156 177 0
162 182 0
156 176 0
157 178 0
158 178 0
157 178 0
150 170 0
155 175 0
152 172 0
159 180 0
160 181 0
159 178 0
153 173 0
155 175 0
157 178 0
155 175 0
158 179 0
154 174 0
159 180 0
150 170 0
159 179 0
149 170 0
157 177 0
161 183 0
155 176 0
157 178 0
155 176 0
158 178 0
159 179 0
155 175 0
155 176 0
159 180 0
157 177 0
154 175 0
158 178 0
158 179 0
158 178 0
161 182 0
149 170 0
159 181 0
158 178 0
154 175 0
155 176 0
155 176 0
155 176 0
157 178 0
158 179 0
154 174 0
149 168 0
150 172 0
156 177 0
154 176 0
154 176 0
157 178 0
158 180 0
161 182 0
149 169 0
153 174 0
155 177 0
150 171 0
150 172 0
153 174 0
158 179 0
151 171 0
154 176 0
146 167 0
157 178 0
154 175 0
150 171 0
158 179 0
156 178 0
150 171 0
151 172 0
149 171 0
153 174 0
151 172 0
151 172 0
152 175 0
154 176 0
153 175 0
152 175 0
148 170 0
156 178 0
153 175 0
154 176 0
154 176 0
156 178 0
157 179 0
158 180 0
156 178 0
158 181 0
152 174 0
151 173 0
152 172 0
156 176 0
147 169 0
140 161 0
155 176 0
149 171 0
150 171 0
149 171 0
151 174 0
156 178 0
148 170 0
152 174 0
159 183 0
149 171 0
151 173 0
147 169 0
155 177 0
155 178 0
149 171 0
148 170 0
156 177 0
154 176 0
153 175 0
148 169 0
150 171 0
152 174 0
150 173 0
146 169 0
155 177 0
158 181 0
147 169 0
158 180 0
153 174 0
156 178 0
146 167 0
152 174 0
140 163 0
144 165 0
152 175 0
151 172 0
152 173 0
150 172 0
148 170 0
150 173 0
139 161 0
154 175 0
142 164 0
154 177 0
158 178 0
143 164 0
143 164 0
145 166 0
151 173 0
153 175 0
154 177 0
144 165 0
148 171 0
147 169 0
153 176 0
152 173 0
148 170 0
145 166 0
152 175 0
146 167 0
152 175 0
151 174 0
146 167 0
150 172 0
146 167 0
149 170 0
148 169 0
153 174 0
158 179 0
145 167 0
143 165 0
146 167 0
144 164 0
155 177 0
152 174 0
145 165 0
150 172 0
151 171 0
151 173 0
145 167 0
148 169 0
156 177 0
150 172 0
144 165 0
144 166 0
144 165 0
140 160 0
146 167 0
149 171 0
146 167 0
151 173 0
143 164 0
142 163 0
153 175 0
150 172 0
148 168 0
148 169 0
148 169 0
151 173 0
150 171 0
155 177 0
151 172 0
155 176 0
146 167 0
150 171 0
146 167 0
143 164 0
154 177 0
145 167 0
148 170 0
152 175 0
152 175 0
145 168 0
150 170 0
146 167 0
148 169 0
148 170 0
154 175 0
148 168 0
148 168 0
151 172 0
148 168 0
145 165 0
147 168 0
153 173 0
153 173 0
148 169 0
150 169 0
142 163 0
149 170 0
146 166 0
147 168 0
147 167 0
155 176 0
150 171 0
148 168 0
144 164 0
152 172 0
144 163 0
145 165 0
149 170 0
151 172 0
160 179 0
154 174 0
146 168 0
142 162 0
147 168 0
151 171 0
155 176 0
155 176 0
151 172 0
142 162 0
151 173 0
148 167 0
154 175 0
157 177 0
149 168 0
149 167 0
153 174 0
147 167 0
144 165 0
154 173 0
156 176 0
150 171 0
142 161 0
145 164 0
150 169 0
154 173 0
155 176 0
152 173 0
148 168 0
153 172 0
156 175 0
152 169 0
150 167 0
148 166 0
150 171 0
151 170 0
148 168 0
147 164 0
147 167 0
144 164 0
152 170 0
145 163 0
145 164 0
147 166 0
150 168 0
154 173 0
142 160 0
150 169 0
154 172 0
155 173 0
153 172 0
149 169 0
149 167 0
147 167 0
150 168 0
155 173 0
156 173 0
158 177 0
154 173 0
149 167 0
148 165 0
152 171 0
156 175 0
150 168 0
155 173 0
151 169 0
153 171 0
141 157 0
154 172 0
145 161 0
153 170 0
139 155 0
160 179 0
153 173 0
156 175 0
155 174 0
154 173 0
145 164 0
153 170 0
156 172 0
149 165 0
150 168 0
153 169 0
149 166 0
149 165 0
153 170 0
150 167 0
150 167 0
149 166 0
148 165 0
146 163 0
156 172 0
151 166 0
148 163 0
155 170 0
156 174 0
149 163 0
150 167 0
150 167 0
152 166 0
153 168 0
159 174 0
149 163 0
155 170 0
155 171 0
156 170 0
155 169 0
153 168 0
158 174 0
152 166 0
153 165 0
149 162 0
151 166 0
156 172 0
149 163 0
151 165 0
151 164 0
152 168 0
147 162 0
149 164 0
154 168 0
155 170 0
150 162 0
154 170 0
154 169 0
154 168 0
152 168 0
151 164 0
153 168 0
153 169 0
157 171 0
160 177 0
157 173 0
157 172 0
153 165 0
153 163 0
154 167 0
153 166 0
156 170 0
155 168 0
158 173 0
156 169 0
148 159 0
156 170 0
158 173 0
156 168 0
158 178 0
160 181 0
162 182 0
158 180 0
158 177 0
161 180 0
163 183 0
162 182 0
160 182 0
155 174 0
163 183 0
160 181 0
160 181 0
160 180 0
163 183 0
157 178 0
157 179 0
158 178 0
152 173 0
153 173 0
161 182 0
154 174 0
158 179 0
155 175 0
154 174 0
154 174 0
154 174 0
157 178 0
157 178 0
157 177 0
157 178 0
156 176 0
154 174 0
155 175 0
150 171 0
156 177 0
156 177 0
153 174 0
156 178 0
153 173 0
155 176 0
158 178 0
152 173 0
154 174 0
158 179 0
157 177 0
154 175 0
156 176 0
152 173 0
158 179 0
154 175 0
152 174 0
161 182 0
149 171 0
154 175 0
160 181 0
157 177 0
155 174 0
150 171 0
155 177 0
157 180 0
151 172 0
159 180 0
154 175 0
156 177 0
152 174 0
155 176 0
160 181 0
158 180 0
157 179 0
157 178 0
156 178 0
154 175 0
154 175 0
156 178 0
159 181 0
152 173 0
153 173 0
147 168 0
155 177 0
147 169 0
155 177 0
157 178 0
154 176 0
157 179 0
150 170 0
159 180 0
143 164 0
154 175 0
156 177 0
152 173 0
140 162 0
149 170 0
156 178 0
153 174 0
160 180 0
152 173 0
154 175 0
159 181 0
154 176 0
152 174 0
156 178 0
149 170 0
153 175 0
152 174 0
153 177 0
154 176 0
146 168 0
149 170 0
148 170 0
151 173 0
151 172 0
150 172 0
151 172 0
150 173 0
153 175 0
154 176 0
149 170 0
153 174 0
158 179 0
152 174 0
147 169 0
155 177 0
155 177 0
157 179 0
150 173 0
147 168 0
162 184 0
157 178 0
151 173 0
152 174 0
146 167 0
150 172 0
148 169 0
151 173 0
153 174 0
146 168 0
152 174 0
151 173 0
153 176 0
139 160 0
148 170 0
146 168 0
148 169 0
146 168 0
149 172 0
148 168 0
145 167 0
147 170 0
147 170 0
145 166 0
150 171 0
147 168 0
150 171 0
148 169 0
148 170 0
149 170 0
146 168 0
160 182 0
155 178 0
144 166 0
152 173 0
144 165 0
143 163 0
143 165 0
142 163 0
148 171 0
152 174 0
151 173 0
149 171 0
150 170 0
151 174 0
152 174 0
149 172 0
149 171 0
150 172 0
141 161 0
144 165 0
143 165 0
153 174 0
142 162 0
141 162 0
144 165 0
149 171 0
149 170 0
148 170 0
150 171 0
154 175 0
152 172 0
146 166 0
153 174 0
156 178 0
154 177 0
146 168 0
142 163 0
146 168 0
146 169 0
147 169 0
152 174 0
143 163 0
145 168 0
147 168 0
153 175 0
147 169 0
147 168 0
153 175 0
145 168 0
146 166 0
140 161 0
148 169 0
146 167 0
143 164 0
142 164 0
146 167 0
146 169 0
148 168 0
153 174 0
145 167 0
155 177 0
147 169 0
149 170 0
150 171 0
141 162 0
149 171 0
145 166 0
147 167 0
151 171 0
155 176 0
150 171 0
147 169 0
150 170 0
151 173 0
151 172 0
143 164 0
148 168 0
151 173 0
152 173 0
151 172 0
149 169 0
148 168 0
152 172 0
152 174 0
149 169 0
150 170 0
157 178 0
148 168 0
140 161 0
151 171 0
146 167 0
152 172 0
147 168 0
153 173 0
147 168 0
148 167 0
150 171 0
149 170 0
147 168 0
145 166 0
141 161 0
149 170 0
153 175 0
142 162 0
146 164 0
145 166 0
153 174 0
147 168 0
142 164 0
158 178 0
151 171 0
152 172 0
154 173 0
149 169 0
147 168 0
152 173 0
149 169 0
157 178 0
144 163 0
146 164 0
143 164 0
147 166 0
157 177 0
149 168 0
147 166 0
153 173 0
156 176 0
151 172 0
150 170 0
150 171 0
154 173 0
150 169 0
140 160 0
154 172 0
156 175 0
141 160 0
155 174 0
153 173 0
154 174 0
155 175 0
158 177 0
150 170 0
147 166 0
156 176 0
151 171 0
146 166 0
152 171 0
151 171 0
150 170 0
152 170 0
157 179 0
153 171 0
152 170 0
148 166 0
157 177 0
153 169 0
145 163 0
146 164 0
150 169 0
148 167 0
148 165 0
151 167 0
152 170 0
154 171 0
153 172 0
149 167 0
157 176 0
145 161 0
148 167 0
156 174 0
148 165 0
150 166 0
154 172 0
156 173 0
153 169 0
144 162 0
149 167 0
150 166 0
153 169 0
146 162 0
150 166 0
156 175 0
149 164 0
154 171 0
153 171 0
146 162 0
153 166 0
148 165 0
151 168 0
156 173 0
157 174 0
155 169 0
153 168 0
148 162 0
151 169 0
157 173 0
156 173 0
149 164 0
153 167 0
148 165 0
152 169 0
156 173 0
151 166 0
156 171 0
152 166 0
156 173 0
158 174 0
155 172 0
146 160 0
152 169 0
147 162 0
149 165 0
149 162 0
154 168 0
154 168 0
155 168 0
151 165 0
151 166 0
151 164 0
152 167 0
153 165 0
153 164 0
157 170 0
154 170 0
161 175 0
153 167 0
153 167 0
150 160 0
152 167 0
158 171 0
149 161 0
158 173 0
159 172 0
153 166 0
157 172 0
153 167 0
148 162 0
157 173 0
153 166 0
153 164 0
160 174 0
150 163 0
160 181 0
160 180 0
163 183 0
160 181 0
162 183 0
163 184 0
160 179 0
158 178 0
160 180 0
160 181 0
155 174 0
158 178 0
157 178 0
162 182 0
158 179 0
157 178 0
153 172 0
157 178 0
158 178 0
161 180 0
161 182 0
154 174 0
160 181 0
151 171 0
160 181 0
160 182 0
155 176 0
157 178 0
158 178 0
158 179 0
163 184 0
166 186 0
151 171 0
150 170 0
157 177 0
162 183 0
154 174 0
158 178 0
155 175 0
162 183 0
147 167 0
158 179 0
152 173 0
160 181 0
156 176 0
153 173 0
161 182 0
155 175 0
153 174 0
158 179 0
163 185 0
151 172 0
153 173 0
152 173 0
155 175 0
159 179 0
158 179 0
162 184 0
155 176 0
158 179 0
151 172 0
152 173 0
147 168 0
156 178 0
156 177 0
155 176 0
152 173 0
150 172 0
157 178 0
149 169 0
155 177 0
150 171 0
152 174 0
154 176 0
149 170 0
154 176 0
154 175 0
152 174 0
154 175 0
159 179 0
149 171 0
153 174 0
152 174 0
160 182 0
154 176 0
151 172 0
155 176 0
154 176 0
158 180 0
154 175 0
156 177 0
156 178 0
149 171 0
151 173 0
159 182 0
161 184 0
152 174 0
156 177 0
154 175 0
153 176 0
153 174 0
154 176 0
160 183 0
159 181 0
149 170 0
156 179 0
153 174 0
154 176 0
148 169 0
150 172 0
146 167 0
149 171 0
155 176 0
147 170 0
154 177 0
146 167 0
147 169 0
149 171 0
152 174 0
148 170 0
150 172 0
155 176 0
151 172 0
156 178 0
151 173 0
152 173 0
153 175 0
150 171 0
158 180 0
155 177 0
146 167 0
152 174 0
155 177 0
143 165 0
149 171 0
154 175 0
143 163 0
150 171 0
148 169 0
149 172 0
152 174 0
151 173 0
150 172 0
152 173 0
154 177 0
151 173 0
148 169 0
149 171 0
148 169 0
145 167 0
155 176 0
159 181 0
145 167 0
157 179 0
147 169 0
149 170 0
156 178 0
147 168 0
149 171 0
150 172 0
141 161 0
153 175 0
155 176 0
145 166 0
143 165 0
146 167 0
150 172 0
151 173 0
154 176 0
148 170 0
159 181 0
153 175 0
149 170 0
151 173 0
150 172 0
152 175 0
148 171 0
155 176 0
150 172 0
153 174 0
143 164 0
139 159 0
142 164 0
150 172 0
152 172 0
148 169 0
143 163 0
156 179 0
152 174 0
149 170 0
153 174 0
148 169 0
150 171 0
152 173 0
151 174 0
142 164 0
148 169 0
148 170 0
151 173 0
147 169 0
153 175 0
147 169 0
144 167 0
145 167 0
153 175 0
151 173 0
151 171 0
148 168 0
145 167 0
146 167 0
148 170 0
147 168 0
148 171 0
152 172 0
151 172 0
140 162 0
149 171 0
149 170 0
153 173 0
152 173 0
146 167 0
155 177 0
147 167 0
151 173 0
154 176 0
150 172 0
156 177 0
146 167 0
147 169 0
154 176 0
156 175 0
150 172 0
152 173 0
144 164 0
146 166 0
152 172 0
140 162 0
151 174 0
154 176 0
152 173 0
145 166 0
148 168 0
153 173 0
147 167 0
150 171 0
148 170 0
149 171 0
152 174 0
147 168 0
151 173 0
152 171 0
151 172 0
146 167 0
152 173 0
146 167 0
148 169 0
156 177 0
148 168 0
140 159 0
158 179 0
153 172 0
150 171 0
150 170 0
148 169 0
149 168 0
151 172 0
148 169 0
150 170 0
150 170 0
148 169 0
149 169 0
152 171 0
149 169 0
148 166 0
151 170 0
151 172 0
150 168 0
157 177 0
146 168 0
152 172 0
155 174 0
150 171 0
152 172 0
152 174 0
153 174 0
148 166 0
144 164 0
154 176 0
146 164 0
150 171 0
154 174 0
154 173 0
152 171 0
155 176 0
151 172 0
153 171 0
152 172 0
145 163 0
154 173 0
153 172 0
149 166 0
149 167 0
155 174 0
146 164 0
149 169 0
154 171 0
159 179 0
150 169 0
154 173 0
151 169 0
156 175 0
150 169 0
159 176 0
154 174 0
150 168 0
156 176 0
147 165 0
146 163 0
148 165 0
151 169 0
144 161 0
156 175 0
155 174 0
152 168 0
153 171 0
147 163 0
147 167 0
149 165 0
152 170 0
156 176 0
155 173 0
148 167 0
154 170 0
150 166 0
143 157 0
152 169 0
151 166 0
151 169 0
157 174 0
157 174 0
158 175 0
149 167 0
152 165 0
149 167 0
150 170 0
153 170 0
154 171 0
148 164 0
151 167 0
154 170 0
151 165 0
156 172 0
148 164 0
155 172 0
156 173 0
154 170 0
153 169 0
159 176 0
147 163 0
152 170 0
151 166 0
153 170 0
153 166 0
149 164 0
150 166 0
155 168 0
150 166 0
153 168 0
153 169 0
155 167 0
153 167 0
156 173 0
158 173 0
158 176 0
150 162 0
152 166 0
153 165 0
149 162 0
148 161 0
152 163 0
146 159 0
152 168 0
154 169 0
151 166 0
153 167 0
151 167 0
151 163 0
145 159 0
156 172 0
150 166 0
153 167 0
156 171 0
154 164 0
151 166 0
143 156 0
160 176 0
153 166 0
157 171 0
154 168 0
155 165 0
158 178 0
158 179 0
155 174 0
157 177 0
161 181 0
154 174 0
155 176 0
155 175 0
160 179 0
156 177 0
157 177 0
158 178 0
161 182 0
155 175 0
159 179 0
159 180 0
154 174 0
157 178 0
154 175 0
154 174 0
162 182 0
157 177 0
160 181 0
150 170 0
162 182 0
155 175 0
157 179 0
155 176 0
162 182 0
148 169 0
161 182 0
161 180 0
157 178 0
161 182 0
161 183 0
158 179 0
154 174 0
156 176 0
152 172 0
151 172 0
160 181 0
154 175 0
154 175 0
155 176 0
150 170 0
155 176 0
156 176 0
154 175 0
159 180 0
151 171 0
159 180 0
158 179 0
156 177 0
155 176 0
151 170 0
156 177 0
155 175 0
156 178 0
149 169 0
157 178 0
149 171 0
150 171 0
157 178 0
150 171 0
152 173 0
157 179 0
149 171 0
156 178 0
154 176 0
155 177 0
155 176 0
155 176 0
158 179 0
156 177 0
155 177 0
154 174 0
159 182 0
150 171 0
150 172 0
159 180 0
153 174 0
155 177 0
154 176 0
158 179 0
155 177 0
155 176 0
150 171 0
161 183 0
157 178 0
156 178 0
153 175 0
155 177 0
157 180 0
149 170 0
153 174 0
159 180 0
155 177 0
154 176 0
158 181 0
152 174 0
154 176 0
152 175 0
152 173 0
142 162 0
146 167 0
157 180 0
154 175 0
154 176 0
155 176 0
150 172 0
153 175 0
154 177 0
148 169 0
148 170 0
154 174 0
156 177 0
153 174 0
153 175 0
145 167 0
149 171 0
155 176 0
149 171 0
152 175 0
158 179 0
150 172 0
152 175 0
150 174 0
156 178 0
150 173 0
154 175 0
146 169 0
150 172 0
153 175 0
152 173 0
152 174 0
146 168 0
148 169 0
145 167 0
144 166 0
156 178 0
148 170 0
145 167 0
153 174 0
149 170 0
146 167 0
151 171 0
154 176 0
154 176 0
152 174 0
142 162 0
153 174 0
149 170 0
151 173 0
151 171 0
144 167 0
150 172 0
151 173 0
147 169 0
150 173 0
149 172 0
154 176 0
154 175 0
145 167 0
148 171 0
147 169 0
141 161 0
147 169 0
153 174 0
157 179 0
147 168 0
147 168 0
146 168 0
150 170 0
153 175 0
150 171 0
150 171 0
148 171 0
156 177 0
154 177 0
152 173 0
147 170 0
154 175 0
147 168 0
153 175 0
154 176 0
152 172 0
148 169 0
147 169 0
144 165 0
152 175 0
153 174 0
155 176 0
147 168 0
148 170 0
144 165 0
156 178 0
151 173 0
151 174 0
147 169 0
147 168 0
152 173 0
156 178 0
144 165 0
146 168 0
150 171 0
157 178 0
147 167 0
146 168 0
150 172 0
150 171 0
151 172 0
145 167 0
151 172 0
155 176 0
152 175 0
150 171 0
151 172 0
152 174 0
144 164 0
142 163 0
152 172 0
146 167 0
146 166 0
141 162 0
143 163 0
157 179 0
146 167 0
143 164 0
148 169 0
146 168 0
146 167 0
153 174 0
157 179 0
149 171 0
146 166 0
148 168 0
154 176 0
148 168 0
155 174 0
151 171 0
149 170 0
147 168 0
149 170 0
149 170 0
151 171 0
151 169 0
149 170 0
149 169 0
150 170 0
151 173 0
151 172 0
145 166 0
143 163 0
141 160 0
160 180 0
152 173 0
153 175 0
155 176 0
145 166 0
155 177 0
145 167 0
152 173 0
149 169 0
152 172 0
143 162 0
149 170 0
151 171 0
153 172 0
154 173 0
145 166 0
145 164 0
152 172 0
152 171 0
153 174 0
151 172 0
147 168 0
154 175 0
152 170 0
153 172 0
158 177 0
153 174 0
153 171 0
151 170 0
150 171 0
154 172 0
154 175 0
145 165 0
154 176 0
149 170 0
151 170 0
154 174 0
157 177 0
146 166 0
149 168 0
149 168 0
151 169 0
154 174 0
154 175 0
145 165 0
149 167 0
150 167 0
152 170 0
152 172 0
157 176 0
155 174 0
158 176 0
137 155 0
145 163 0
152 171 0
157 176 0
155 175 0
152 172 0
151 170 0
153 172 0
153 171 0
148 166 0
150 164 0
154 174 0
153 170 0
152 169 0
160 179 0
159 177 0
151 169 0
147 165 0
146 162 0
153 171 0
152 169 0
159 178 0
151 168 0
156 174 0
147 164 0
155 174 0
153 170 0
149 165 0
150 166 0
153 170 0
146 163 0
153 172 0
153 170 0
150 169 0
154 170 0
154 172 0
147 164 0
158 175 0
155 172 0
153 170 0
155 170 0
152 168 0
153 170 0
143 157 0
153 169 0
152 168 0
155 171 0
158 174 0
148 164 0
155 171 0
148 164 0
150 164 0
154 169 0
158 175 0
149 163 0
151 165 0
151 167 0
155 171 0
147 164 0
156 172 0
154 170 0
146 160 0
155 172 0
150 165 0
154 172 0
153 167 0
156 170 0
157 175 0
152 166 0
151 161 0
153 170 0
153 166 0
155 168 0
161 175 0
157 172 0
155 170 0
151 166 0
154 169 0
155 169 0
151 165 0
156 172 0
157 171 0
151 166 0
155 171 0
148 161 0
150 163 0
157 172 0
145 159 0
155 168 0
155 169 0
155 169 0
155 170 0
154 170 0
154 166 0
158 179 0
159 180 0
158 178 0
155 176 0
158 179 0
160 180 0
160 180 0
162 183 0
156 176 0
160 181 0
162 182 0
160 181 0
162 184 0
153 173 0
162 183 0
156 176 0
160 180 0
158 178 0
157 178 0
155 175 0
157 177 0
155 175 0
159 180 0
159 180 0
161 182 0
155 176 0
158 179 0
155 175 0
158 179 0
156 177 0
158 179 0
154 174 0
153 174 0
163 183 0
160 181 0
158 180 0
161 181 0
153 174 0
158 178 0
158 179 0
162 183 0
158 180 0
156 177 0
153 173 0
156 176 0
155 175 0
155 176 0
157 177 0
159 181 0
162 183 0
156 177 0
151 172 0
150 172 0
158 179 0
160 182 0
156 176 0
157 179 0
157 178 0
152 173 0
162 184 0
151 172 0
153 174 0
157 178 0
159 181 0
154 174 0
157 180 0
152 173 0
153 174 0
156 178 0
154 176 0
153 173 0
157 178 0
157 179 0
156 177 0
150 172 0
156 179 0
154 176 0
156 177 0
152 173 0
162 183 0
151 172 0
155 176 0
152 174 0
157 178 0
152 174 0
153 175 0
150 172 0
146 168 0
154 176 0
153 176 0
154 176 0
154 175 0
145 168 0
153 174 0
153 174 0
154 176 0
150 172 0
154 177 0
158 179 0
154 176 0
152 174 0
144 165 0
152 174 0
154 177 0
154 175 0
153 174 0
160 183 0
152 174 0
148 170 0
158 181 0
155 177 0
147 170 0
149 170 0
152 173 0
143 165 0
146 167 0
154 176 0
155 176 0
157 178 0
153 175 0
155 177 0
156 177 0
163 184 0
156 178 0
150 171 0
156 178 0
151 173 0
149 171 0
146 168 0
153 174 0
159 180 0
152 174 0
154 176 0
153 175 0
150 172 0
155 177 0
153 175 0
148 169 0
151 173 0
156 177 0
146 167 0
152 173 0
151 172 0
156 179 0
151 173 0
152 175 0
150 172 0
153 176 0
149 172 0
146 169 0
150 172 0
148 170 0
145 166 0
153 174 0
146 168 0
156 178 0
151 174 0
145 167 0
149 170 0
157 181 0
156 177 0
153 174 0
147 169 0
143 164 0
156 178 0
153 176 0
150 172 0
144 166 0
149 170 0
146 168 0
150 172 0
142 164 0
148 168 0
158 181 0
150 173 0
152 174 0
148 170 0
143 165 0
151 173 0
144 166 0
140 160 0
154 178 0
149 173 0
150 171 0
140 162 0
151 173 0
145 167 0
146 167 0
147 167 0
150 172 0
146 167 0
154 176 0
145 167 0
156 177 0
149 169 0
148 169 0
145 167 0
147 168 0
153 174 0
153 175 0
153 175 0
155 177 0
148 169 0
142 164 0
151 173 0
160 182 0
146 166 0
149 172 0
145 168 0
158 179 0
143 164 0
148 170 0
155 177 0
148 169 0
147 168 0
150 171 0
146 167 0
152 173 0
141 162 0
151 173 0
149 171 0
152 174 0
153 175 0
148 169 0
155 176 0
156 179 0
148 169 0
151 172 0
142 163 0
157 177 0
148 169 0
151 171 0
154 174 0
148 169 0
151 172 0
146 167 0
151 172 0
147 168 0
147 168 0
150 171 0
152 175 0
138 161 0
144 166 0
152 173 0
143 164 0
145 167 0
146 166 0
145 166 0
150 170 0
150 171 0
152 173 0
155 177 0
156 178 0
152 173 0
148 170 0
154 175 0
151 173 0
148 169 0
154 173 0
161 181 0
151 172 0
147 167 0
151 171 0
154 174 0
146 167 0
147 168 0
146 167 0
153 173 0
146 166 0
149 169 0
148 168 0
156 176 0
147 165 0
149 170 0
145 166 0
150 169 0
155 176 0
148 167 0
145 165 0
156 178 0
147 167 0
150 168 0
152 172 0
152 169 0
153 172 0
148 167 0
154 172 0
153 172 0
148 168 0
149 170 0
155 174 0
154 174 0
153 171 0
148 167 0
147 166 0
151 172 0
155 175 0
150 169 0
147 165 0
151 171 0
152 173 0
151 167 0
145 164 0
149 168 0
146 165 0
149 166 0
152 171 0
152 172 0
140 158 0
155 172 0
150 168 0
153 172 0
150 168 0
156 174 0
150 169 0
151 169 0
149 168 0
158 178 0
150 170 0
152 170 0
158 176 0
156 175 0
159 179 0
148 166 0
150 166 0
151 170 0
154 173 0
146 164 0
147 163 0
157 174 0
153 172 0
152 170 0
143 159 0
161 177 0
155 174 0
151 170 0
153 170 0
157 175 0
153 169 0
151 167 0
155 172 0
152 169 0
147 163 0
147 164 0
154 173 0
159 176 0
155 171 0
152 168 0
157 178 0
154 170 0
155 173 0
151 167 0
150 166 0
152 168 0
155 170 0
155 173 0
149 164 0
154 170 0
154 170 0
147 162 0
148 164 0
149 163 0
149 165 0
153 169 0
155 171 0
158 175 0
152 169 0
153 168 0
155 167 0
154 167 0
160 176 0
152 166 0
152 166 0
153 169 0
157 173 0
152 166 0
151 167 0
155 169 0
150 164 0
155 172 0
152 165 0
155 171 0
153 169 0
152 166 0
161 176 0
154 171 0
157 170 0
153 168 0
154 169 0
151 166 0
158 174 0
155 170 0
155 169 0
156 172 0
152 166 0
156 169 0
163 178 0
155 170 0
151 163 0
146 162 0
162 183 0
161 183 0
158 179 0
160 180 0
160 180 0
159 179 0
158 178 0
162 182 0
161 182 0
160 182 0
160 181 0
161 182 0
159 179 0
159 180 0
156 177 0
156 175 0
159 180 0
159 180 0
157 179 0
159 179 0
156 176 0
153 174 0
157 177 0
160 181 0
152 173 0
159 180 0
156 178 0
153 173 0
159 179 0
162 183 0
162 182 0
154 174 0
156 178 0
160 181 0
156 176 0
160 182 0
159 180 0
155 176 0
159 182 0
158 178 0
156 177 0
161 183 0
156 178 0
159 180 0
151 173 0
152 173 0
151 173 0
156 177 0
158 179 0
153 173 0
156 176 0
153 174 0
159 179 0
156 178 0
150 171 0
156 177 0
151 172 0
156 178 0
150 171 0
157 178 0
158 180 0
160 182 0
154 175 0
157 178 0
156 176 0
153 174 0
145 166 0
155 175 0
156 178 0
152 173 0
157 178 0
152 172 0
154 176 0
156 177 0
150 170 0
153 175 0
152 173 0
149 169 0
153 174 0
152 173 0
156 178 0
154 175 0
154 175 0
158 179 0
150 171 0
154 175 0
154 175 0
150 172 0
154 176 0
150 172 0
156 177 0
154 175 0
152 174 0
153 174 0
154 176 0
155 175 0
153 174 0
150 171 0
153 174 0
155 177 0
157 180 0
158 181 0
151 173 0
157 179 0
157 177 0
151 172 0
153 174 0
151 174 0
154 176 0
152 173 0
148 169 0
157 179 0
149 170 0
154 176 0
154 176 0
148 169 0
153 175 0
149 171 0
155 177 0
150 172 0
145 167 0
149 171 0
153 175 0
154 175 0
153 174 0
157 178 0
154 176 0
153 176 0
151 173 0
159 181 0
151 173 0
158 181 0
150 174 0
157 179 0
148 168 0
151 171 0
154 175 0
151 174 0
152 174 0
153 175 0
156 177 0
154 175 0
149 172 0
158 179 0
159 180 0
156 176 0
152 174 0
150 172 0
152 172 0
147 169 0
148 171 0
150 173 0
151 174 0
151 172 0
146 167 0
152 175 0
150 172 0
148 170 0
151 172 0
147 169 0
151 174 0
148 171 0
156 178 0
149 172 0
149 171 0
152 172 0
146 168 0
156 177 0
158 179 0
152 174 0
149 172 0
153 174 0
149 169 0
147 170 0
153 175 0
154 176 0
146 167 0
148 169 0
155 176 0
146 168 0
149 171 0
144 165 0
152 174 0
152 174 0
149 171 0
157 178 0
149 170 0
150 172 0
150 173 0
150 172 0
147 166 0
150 172 0
148 170 0
144 166 0
153 175 0
142 165 0
158 181 0
152 174 0
145 166 0
151 173 0
152 174 0
140 161 0
154 176 0
151 173 0
135 157 0
150 171 0
144 166 0
151 173 0
149 170 0
149 171 0
151 173 0
148 170 0
143 165 0
149 170 0
148 169 0
147 168 0
150 172 0
151 173 0
147 168 0
152 174 0
154 176 0
153 175 0
154 176 0
152 173 0
139 161 0
152 173 0
144 164 0
149 171 0
140 162 0
155 176 0
139 159 0
146 166 0
156 177 0
160 182 0
157 178 0
148 168 0
150 171 0
146 166 0
154 176 0
151 173 0
147 168 0
148 168 0
152 173 0
153 174 0
152 173 0
154 175 0
145 165 0
149 169 0
150 171 0
149 171 0
155 176 0
150 170 0
151 171 0
156 177 0
147 168 0
157 180 0
150 171 0
146 166 0
150 172 0
153 173 0
154 175 0
155 176 0
143 162 0
149 169 0
148 167 0
149 170 0
148 170 0
152 173 0
149 170 0
148 168 0
157 179 0
156 176 0
156 176 0
152 173 0
152 171 0
156 176 0
154 174 0
154 175 0
148 167 0
152 173 0
142 163 0
144 165 0
153 174 0
158 178 0
151 169 0
160 179 0
151 170 0
148 167 0
152 172 0
149 169 0
153 172 0
148 169 0
151 170 0
144 164 0
148 168 0
155 174 0
146 165 0
150 169 0
148 169 0
154 175 0
147 164 0
154 174 0
142 162 0
158 178 0
147 165 0
154 172 0
150 170 0
151 171 0
148 168 0
160 180 0
151 169 0
149 170 0
154 173 0
153 173 0
155 176 0
155 173 0
158 178 0
150 168 0
150 167 0
149 168 0
155 173 0
143 161 0
155 171 0
152 172 0
154 173 0
154 171 0
149 168 0
151 167 0
142 159 0
144 162 0
158 176 0
154 171 0
155 171 0
153 170 0
151 169 0
154 168 0
149 167 0
156 175 0
152 168 0
149 166 0
150 168 0
159 177 0
155 173 0
149 166 0
155 173 0
157 176 0
149 167 0
151 168 0
151 167 0
155 173 0
148 160 0
151 166 0
154 171 0
154 169 0
152 168 0
152 170 0
150 165 0
157 175 0
158 174 0
155 173 0
149 167 0
150 166 0
153 170 0
151 169 0
152 170 0
153 169 0
155 170 0
156 172 0
157 173 0
160 175 0
153 169 0
157 173 0
150 164 0
155 172 0
154 169 0
150 164 0
155 171 0
157 172 0
157 174 0
157 171 0
157 173 0
159 174 0
147 162 0
156 172 0
147 163 0
159 173 0
155 170 0
157 171 0
158 173 0
156 170 0
153 166 0
150 163 0
160 176 0
156 170 0
147 160 0
157 172 0
164 180 0
156 171 0
153 168 0
146 160 0
162 183 0
163 185 0
161 181 0
159 179 0
160 180 0
161 182 0
162 183 0
160 181 0
157 179 0
158 179 0
157 178 0
162 183 0
154 174 0
158 178 0
160 181 0
158 179 0
163 184 0
154 176 0
155 175 0
156 176 0
159 179 0
157 178 0
159 179 0
160 181 0
160 180 0
151 173 0
155 176 0
158 179 0
159 180 0
159 180 0
155 176 0
158 179 0
155 175 0
159 181 0
163 184 0
161 183 0
159 180 0
159 180 0
163 184 0
153 173 0
165 187 0
157 178 0
157 178 0
149 170 0
151 172 0
162 183 0
154 175 0
155 176 0
160 182 0
157 178 0
161 182 0
158 179 0
156 178 0
159 180 0
160 181 0
155 175 0
157 179 0
149 169 0
153 175 0
159 180 0
154 176 0
151 173 0
152 174 0
156 178 0
157 179 0
154 174 0
157 179 0
155 175 0
156 178 0
159 181 0
161 182 0
158 180 0
153 174 0
153 174 0
158 180 0
151 172 0
157 178 0
153 174 0
154 176 0
155 177 0
157 179 0
149 170 0
153 175 0
153 174 0
159 182 0
156 178 0
156 178 0
155 176 0
158 179 0
154 175 0
154 177 0
156 178 0
159 181 0
152 173 0
147 168 0
149 170 0
153 175 0
154 176 0
161 183 0
150 172 0
153 175 0
151 173 0
160 182 0
161 183 0
158 180 0
150 173 0
153 175 0
155 176 0
156 178 0
154 176 0
153 175 0
153 175 0
151 173 0
151 174 0
156 178 0
155 177 0
156 180 0
152 175 0
151 172 0
154 176 0
153 176 0
154 176 0
158 181 0
157 179 0
150 171 0
141 163 0
154 175 0
153 175 0
155 176 0
146 167 0
156 179 0
157 179 0
147 169 0
153 175 0
151 173 0
149 170 0
151 173 0
150 172 0
149 171 0
157 179 0
153 174 0
154 177 0
149 170 0
149 172 0
149 171 0
150 172 0
157 180 0
156 178 0
155 178 0
148 169 0
159 181 0
153 176 0
153 175 0
147 167 0
151 174 0
155 178 0
149 171 0
148 170 0
159 181 0
152 176 0
154 175 0
158 180 0
151 173 0
151 172 0
148 170 0
147 168 0
145 167 0
161 184 0
150 171 0
154 176 0
150 172 0
150 171 0
155 178 0
151 173 0
147 168 0
149 172 0
144 164 0
146 168 0
145 166 0
147 169 0
155 177 0
154 176 0
151 173 0
149 171 0
144 166 0
142 164 0
146 168 0
153 174 0
152 173 0
157 179 0
151 174 0
151 172 0
146 167 0
149 170 0
148 171 0
152 175 0
151 173 0
144 166 0
145 167 0
149 170 0
153 174 0
150 171 0
146 167 0
154 176 0
153 173 0
146 167 0
148 169 0
155 177 0
153 176 0
145 166 0
147 169 0
156 178 0
149 170 0
142 163 0
144 164 0
146 166 0
147 168 0
153 173 0
151 173 0
149 170 0
153 174 0
147 168 0
153 174 0
151 172 0
144 165 0
150 172 0
151 172 0
155 176 0
155 176 0
150 171 0
144 164 0
155 175 0
155 176 0
154 175 0
152 173 0
157 180 0
147 169 0
145 168 0
150 170 0
147 168 0
150 171 0
150 171 0
150 172 0
147 168 0
153 174 0
153 175 0
151 172 0
149 171 0
141 162 0
156 177 0
152 173 0
151 173 0
151 172 0
150 171 0
153 173 0
157 179 0
149 170 0
150 170 0
152 172 0
146 168 0
156 177 0
156 177 0
141 161 0
153 174 0
147 168 0
147 167 0
151 172 0
153 174 0
153 173 0
152 173 0
155 176 0
148 166 0
146 165 0
150 168 0
158 179 0
155 175 0
149 167 0
147 167 0
149 168 0
150 171 0
149 168 0
152 172 0
149 170 0
148 167 0
154 174 0
147 166 0
150 169 0
155 175 0
152 174 0
151 172 0
149 168 0
154 174 0
146 168 0
155 175 0
156 175 0
146 167 0
150 170 0
155 174 0
143 163 0
149 168 0
151 171 0
159 178 0
150 170 0
151 171 0
153 170 0
151 170 0
153 172 0
158 176 0
154 173 0
150 167 0
157 174 0
149 168 0
150 168 0
149 166 0
150 169 0
146 165 0
150 169 0
146 165 0
150 168 0
147 164 0
151 167 0
145 164 0
155 174 0
147 165 0
154 172 0
154 170 0
154 172 0
157 175 0
160 180 0
153 170 0
152 169 0
157 174 0
157 174 0
148 167 0
151 170 0
153 172 0
152 169 0
153 171 0
157 175 0
152 170 0
150 168 0
156 172 0
145 161 0
156 170 0
150 167 0
161 179 0
150 167 0
158 175 0
151 168 0
146 163 0
156 174 0
157 173 0
153 169 0
144 160 0
156 173 0
148 164 0
146 159 0
150 165 0
151 169 0
144 160 0
152 168 0
149 164 0
156 172 0
160 175 0
150 164 0
154 170 0
152 167 0
157 174 0
147 164 0
160 174 0
154 173 0
145 161 0
151 168 0
158 173 0
155 170 0
158 174 0
153 170 0
160 177 0
151 165 0
157 171 0
161 177 0
153 167 0
142 159 0
152 165 0
153 169 0
155 172 0
148 162 0
156 170 0
156 171 0
158 176 0
161 176 0
161 176 0
157 173 0
154 167 0
156 171 0
159 173 0
155 171 0
156 170 0
153 168 0
153 167 0
157 177 0
156 177 0
159 181 0
164 184 0
160 181 0
155 175 0
158 179 0
163 183 0
161 181 0
162 183 0
155 176 0
156 177 0
161 181 0
160 180 0
157 179 0
160 180 0
159 179 0
161 181 0
153 173 0
152 171 0
163 184 0
157 177 0
157 177 0
167 188 0
156 176 0
156 177 0
159 180 0
157 179 0
158 179 0
158 178 0
161 182 0
151 172 0
159 179 0
159 180 0
154 175 0
163 184 0
153 174 0
162 183 0
153 175 0
161 182 0
157 178 0
156 176 0
156 178 0
150 172 0
155 175 0
159 182 0
155 176 0
152 174 0
148 169 0
159 181 0
155 176 0
162 182 0
156 178 0
165 187 0
150 171 0
156 177 0
153 174 0
155 176 0
158 180 0
150 171 0
160 182 0
149 170 0
158 180 0
154 175 0
155 178 0
159 181 0
154 175 0
151 174 0
155 177 0
157 179 0
151 172 0
153 174 0
160 183 0
156 178 0
158 178 0
157 179 0
159 180 0
153 175 0
155 176 0
159 181 0
159 181 0
152 174 0
158 180 0
162 183 0
153 174 0
149 170 0
159 180 0
152 173 0
155 177 0
159 182 0
153 176 0
160 182 0
158 180 0
156 178 0
151 174 0
150 172 0
154 177 0
160 181 0
154 176 0
156 179 0
151 173 0
151 173 0
153 175 0
157 179 0
158 179 0
154 177 0
153 175 0
154 175 0
154 176 0
152 172 0
154 175 0
161 183 0
153 175 0
154 176 0
153 175 0
154 175 0
156 178 0
155 177 0
154 176 0
155 176 0
153 174 0
153 175 0
152 174 0
150 172 0
148 170 0
154 176 0
151 174 0
153 176 0
155 178 0
151 174 0
158 180 0
151 172 0
159 182 0
154 175 0
154 176 0
152 174 0
152 174 0
155 178 0
151 172 0
153 175 0
147 168 0
153 175 0
151 172 0
154 176 0
155 178 0
147 169 0
151 173 0
154 176 0
154 176 0
151 174 0
152 173 0
156 179 0
155 177 0
153 176 0
148 169 0
141 163 0
149 170 0
152 174 0
155 177 0
153 175 0
154 177 0
154 176 0
154 177 0
155 176 0
154 176 0
152 174 0
149 170 0
151 172 0
155 177 0
151 174 0
149 171 0
150 171 0
152 174 0
147 170 0
144 164 0
152 174 0
155 177 0
146 170 0
146 168 0
145 165 0
144 165 0
154 176 0
155 176 0
153 174 0
148 170 0
152 172 0
148 170 0
154 176 0
148 171 0
154 176 0
149 171 0
150 172 0
156 176 0
150 172 0
148 169 0
153 175 0
153 175 0
150 171 0
146 168 0
155 176 0
156 177 0
151 171 0
146 168 0
150 171 0
146 166 0
147 169 0
157 180 0
143 165 0
143 165 0
146 168 0
153 174 0
152 173 0
157 179 0
147 170 0
145 166 0
156 178 0
149 169 0
150 169 0
150 171 0
148 170 0
151 171 0
153 174 0
143 164 0
144 164 0
156 179 0
151 172 0
160 180 0
150 171 0
153 174 0
151 172 0
142 163 0
147 169 0
149 171 0
153 176 0
147 169 0
147 167 0
152 172 0
149 171 0
153 174 0
155 177 0
144 165 0
150 172 0
157 179 0
149 169 0
150 171 0
153 174 0
150 172 0
147 168 0
147 167 0
149 170 0
156 176 0
156 178 0
153 174 0
150 170 0
149 168 0
149 170 0
155 176 0
156 177 0
159 179 0
149 169 0
155 174 0
152 173 0
147 167 0
157 180 0
161 183 0
157 178 0
151 174 0
148 167 0
155 177 0
152 174 0
149 169 0
151 171 0
155 176 0
150 168 0
146 164 0
149 170 0
158 178 0
154 174 0
154 172 0
151 170 0
158 177 0
154 175 0
155 175 0
158 179 0
150 171 0
152 173 0
155 173 0
156 176 0
157 178 0
147 167 0
146 167 0
151 173 0
155 175 0
145 163 0
152 170 0
151 171 0
155 173 0
148 166 0
153 173 0
151 171 0
159 179 0
155 175 0
151 170 0
152 171 0
150 169 0
152 172 0
150 170 0
148 167 0
151 171 0
153 172 0
149 169 0
158 177 0
150 170 0
157 176 0
150 169 0
153 172 0
144 161 0
149 167 0
146 164 0
154 174 0
155 173 0
151 170 0
154 171 0
151 169 0
149 166 0
149 168 0
156 175 0
147 165 0
158 176 0
152 168 0
152 170 0
152 171 0
152 171 0
151 169 0
147 164 0
156 174 0
155 172 0
157 174 0
147 164 0
153 173 0
152 168 0
148 165 0
154 172 0
151 166 0
153 170 0
155 171 0
153 171 0
153 173 0
161 178 0
155 172 0
153 167 0
157 175 0
151 166 0
157 174 0
157 175 0
150 165 0
156 173 0
156 172 0
150 169 0
159 178 0
152 169 0
150 166 0
155 174 0
151 169 0
154 169 0
153 168 0
152 167 0
156 172 0
160 175 0
144 161 0
158 175 0
161 178 0
158 175 0
155 171 0
154 171 0
154 170 0
148 163 0
156 171 0
149 163 0
154 170 0
153 172 0
154 169 0
156 172 0
156 171 0
144 158 0
152 168 0
152 169 0
152 166 0
154 169 0
154 169 0
151 166 0
151 167 0
157 172 0
152 166 0
156 169 0
151 166 0
150 162 0
155 169 0
154 168 0
156 171 0
